!Name: p01074
!Source: guns2j-20090906
!
......................................................................................OO....................................
...................................................................O..............O.O..O....................................
.................................................................OOO............OOO.OO......................................
.........................................O......................O..............O............................................
.............................O...........OOO....................OO..........O..OOOO.OO......................................
...........................OOO..............O...............................OOO...O.OO......................................
...........O..............O................OO..................................O............................................
...........OOO............OO..................................................OO..........................OO................
..............O...........................................................................................O.................
.............OO.........................................................................................O.O.................
........................................................................................................OO..................
..............OO............................................................................................................
..............OO.................OO.........................................................................................
.................................OO.........................................................................................
............................................................................................................OO.O............
............................................................................................................O.OO............
.....................................................................................................OO.....................
.....................................................................................................OO.....................
..............................OO................................OO..........................................................
..............................O....................OO...........OO..........................................................
................................O...................O.......................................................................
...............................OO................OOO........................................................................
...........................OO....................O..................................OO...OO.................................
...........................O.........................................................O...O..................................
............................OOO.....................................OO............OOO.....OOO...............................
..............................O......................................O............O.........O...............................
.OO...............................................................OOO.......................O.O.............................
..O...............................................................O..........................OO.............................
..O.O.......................................................................................................................
...OO.......................................................................................................................
.............................O..............................................................................................
...........................OOO..............................................................................................
..........................O........................................................................................OO.......
..........................OO.......................................................................................O........
....OO...........................................................................................................O.O........
...O.O...........................................................................................................OO.OO......
...O................................................................................................................O.O.....
OO.O................................................................................................................O.O.....
OO.O.O.OO..................OO................................................................OO....................OO.OO....
....OO.OO..................O.O................................................................O.............................
.............................O................................................................O.O..................OO.OO....
....OO.OO....................OO................................................................OO..................OO.O.O.OO
.....O.O................................................................................................................O.OO
.....O.O................................................................................................................O...
......OO.OO...........................................................................................................O.O...
........O.O...........................................................................................................OO....
........O.......................................................................................OO..........................
.......OO........................................................................................O..........................
..............................................................................................OOO...........................
..............................................................................................O.............................
.......................................................................................................................OO...
.......................................................................................................................O.O..
.............................OO..........................O...............................................................O..
.............................O.O.......................OOO...............................................................OO.
...............................O.........O............O......................................O..............................
...............................OOO.....OOO............OO.....................................OOO............................
..................................O...O.........................................................O...........................
.................................OO...OO..................................O....................OO...........................
........................................................................OOO................OO...............................
................................................O..O...................O...................O................................
...............................................O...OO.....OO...........OO....................O..............................
...............................................O...O......OO................................OO..............................
.....................OO........................O...O........................................................................
.....................OO.........................O..O........................................................................
..................................................O.........................................................................
............OO.O............................................................................................................
............O.OO............................................................................................................
.........................................................................................OO.................................
.........................................................................................OO.................OO..............
............................................................................................................OO..............
..................OO........................................................................................................
.................O.O.........................................................................................OO.............
.................O...........................................................................................O..............
................OO..........................OO..................................................OO............OOO...........
............................................O....................................................O..............O...........
......................................OO.O...OOO..............................................OOO...........................
......................................OO.OOOO..O..........OO..................................O.............................
............................................O..............O................................................................
......................................OO.OOO............OOO..........................O......................................
....................................O..O.O..............O.............................O.....................................
....................................OO..............................................OOO.....................................
