!Name: p01064
!Source: guns2j-20090906
!
...............................OO.O................OO......OO....................OO.O................OO......OO....................OO.O.......O...................
..OO...........................O.OO................O..O....OO....................O.OO................O..O....OO....................O.OO.......OOO.................
...O............................................OO.O.OO...........................................OO.O.OO........................................O..............O.
...O.O.........................................O.O.O.............................................O.O.O..........................................OO............OOO.
....OO..OO.....................................O...O.OO..........................................O...O.OO....................................................O....
........OO...................................OOO..O..OO........................................OOO..O..OO..........................................OO........OO...
............................................O.....OO..........................................O.....OO......................................O.O...................
...............................OO...........OO...................................OO...........OO..............................................O...................
...............................OO................................................OO.........................................................................OO....
..........................................................................................................................................O...OO............OO....
..........................................................................................................................................O.O.OO..................
.............................................................................................................................................O....................
..OO....................................................OO................................................OO................................OO....................
.O.O................OO..................................OO...........OO...................................OO...........OO....................O....................
.O..................O.O..............................................O.................................................O...................O......................
OO....................O...............................................OOO...............................................OOO................OO.....................
................OO....OO................................................O.................................................O....................OO.................
................O..O............................................................................................................................O.................
..................OO................................OO................................................OO.....................................OOO..................
.........OO.........................................O.................................................O......................................O....................
.........OO....................OO....................OOO.........................OO....................OOO........................................................
................................O......................O..........................O......................O........................................................
.............................OOO...............................................OOO................................................................................
OO...........................O.................................................O..................................................................................
.O...............................................................................................................................................................O
O..............................................................................................................................................................O.O
OO..............................................................................................................................................................OO
..................................................................................O.................................................O.............................
................................................................................OOO...............................................OOO.............................
........................................................O......................O..........................O......................O................................
........................................................OOO....................OO.........................OOO....................OO....................OO.........
....................O......................................O.................................................O.........................................OO.........
..................OOO.....................................OO................................................OO................................OO..................
.................O............................................................................................................................O..O................
.................OO....................O.................................................O................................................OO....OO................
.....................OO................OOO...............................................OOO...............................................O....................OO
......................O...................O.................................................O..............................................O.O..................O.
....................O....................OO...........OO...................................OO...........OO..................................OO................O.O.
....................OO................................OO................................................OO....................................................OO..
.......................OO.........................................................................................................................................
....OO.................OO.........................................................................................................................................
....OO.........................................................................OO................................................OO...............................
..................................................................OO...........OO...................................OO...........OO...............................
............................................................OO.....O..........................................OO.....O............................................
...OO....................................................OO..O..OOO........................................OO..O..OOO...................................OO........
....O....................................................OO.O...O..........................................OO.O...O.....................................OO..OO....
.OOO............OO..........................................O.O.O.............................................O.O.O.........................................O.O...
.O..............O........................................OO.O.OO...........................................OO.O.OO............................................O...
.................OOO.......OO.O....................OO....O..O................OO.O....................OO....O..O................OO.O...........................OO..
...................O.......O.OO....................OO......OO................O.OO....................OO......OO................O.OO...............................
