!Name: p01049
!Source: guns2j-20090906
!
.................................OO...................................................................................................
.................................O..O.O...............................................................................................
...................................OO.OOO.............................................................................................
.........................................O............................................................................................
...................................OO.OOOO..O.........................................................................................
...................................OO.O...OOO.........................................................................................
.........................................O............................................................................................
.............OO..........................OO.................................O.........O...............O...............................
..............O.............................................................OOO.....OOO.............OOO...........O...................
..............O.O...............................................OO.............O...O...............O..............OOO.................
...............OO...............................................O.............OO...OO..............OO................O..............O.
.................................................................O..................................................OO............OOO.
................................................................OO...............................................................O....
.......................................................................................................................OO........OO...
................................................................................................................O.O...................
.........O.OO.....................................................................................................O...................
.........OO.O...................................................................................................................OO....
..............................................................................................................O...OO............OO....
..................OO.........................................OO...............................................O.O.OO..................
..................OO.........................................OO..................................................O....................
..............................OO...OO...........................................................................OO....................
...............................O...O........................................................OO...................O....................
............................OOO.....OOO............OO...................O......OO...........O.O...............OOO.....................
............................O.........O............O..................OOO......OO.............O...............O.......................
..........................O.O.......................OOO..............O........................OO...................OO.................
..........................OO..........................O..............OO.............................................O.................
.................................................................................................................OOO..................
.................................................................................................................O....................
....OO...............................................................................................................................O
.....O.............................................................................................................................O.O
.....O.O............................................................................................................................OO
...OO.OO..............................................................................................................................
..O.O.................................................................................................................................
..O.O.................................................................................................................................
.OO.OO....................OO..........................................................................................................
..........................O...........................................................................................................
.OO.OO..................O.O.............................................................O.............................................
..O.OO..................OO..............................................................OOO................................OO.........
O..........................................................................................O......................OO.......OO.........
OO........................................................................................OO.......................O..................
...................................................................................................................O.O................
........................OO....................................................................................OO....OO................
........................O.O..............................OO....................................................O....................OO
..........................O...............................O......OO............................................O.O..................O.
..........................OOO.............................O.O....OO.............................................OO................O.O.
.............................O.......................OO....OO.....................................................................OO..
............................OO.......................O.O..............................................................................
...................................................O.O.OOO............................................................................
...............................................OO..OO.....O...........................................................................
...............................................OO........OO...........................................................................
.....................................................................OO...............................................................
..................OO.................................................OO...............................................................
..................OO..................................................................................................................
.........OO.................................................................................................................OO........
..........O......................................................................OO.........................................OO..OO....
.......OOO...................................................................O...OO.............................................O.O...
.......O....................................................................O.O..........................OO.......................O...
...............OO..........................................................O.O.....................OO.....O.......................OO..
...............O...................OO......................................O.......................O.O.OOO............................
................O.................O.O.....................................OO................OO.......O.O..............................
...............OO.................O.........................................................OO.......OO...............................
.................................OO...................................................................................................
.........................................OO...........................................................................................
..........................................O...........................................................................................
.......................................OOO............................................................................................
.......................................O.......OO.....................................................................................
...............................................OO.....................................................................................
....................................................OO................................................................................
...................................................O.O................................................................................
...................................................O..................................................................................
..................................................OO..................................................................................
...............................................................O.O....................................................................
..............................................................O.OO....................................................................
..............................................................O.......................................................................
.............................................................OO.......................................................................
