!Name: p01014
!Cp1014 based on Karel Suhajda's p507.   Scot Ellison - May 14, 2003
!Source: guns2j-20090906
!
.......................................................................................................................OO...............
....................................................................................................................OO..O...............
....................................................................OO............................................OOO.OO......O.........
..........................................O.........................O............................................O..........OOO.........
..............................O...........OOO.....................O.O...............O.............................OOO.OO...O............
............................OOO..............O....................OO................OOO.............................O.OO...OO...........
............O..............O................OO.........................................O................................................
............OOO............OO.........................................................OO................................................
...............O........................................................................................................................
..............OO........................................................................................................................
................................................................................................................................OO......
................................................................................................................................O.......
...............OO.............................................................................................................O.O.......
...............OO.................OO..........................................................................................OO........
..................................OO....................................................................................................
...............................OO................................OO.....................................................................
...............................O....................OO...........OO.....................................................................
.................................O...................O..................................................................................
................................OO................OOO..........................................................................OO.......
............................OO....................O............................................................................OO.......
............................O...........................................................................................................
.............................OOO.....................................OO.................................................................
...............................O......................................O..............................OO.................................
...................................................................OOO.........................OO.....O.................................
...................................................................O...........................O.O.OOO..................................
........................................................................................OO.......O.O....................................
............OO..........................................................................OO.......OO.....................................
...........O.O...........................................................................................O.OO...........................
.....O..O..O.............................................................................................OO.O...........................
.....OOOOOOO..................................................................................................................OO........
..................................................................................................................OO.........O..O..OO...
.....OOOOO........................................................................................................OO.........O.O....O...
OO..O....O....................................................................................................................O.....O.OO
O..O..O..........................................................................................................................OO.O.O.
.O.O.OO..........................................................................................................................O..O..O
OO.O.....O....................................................................................................................O....O..OO
...O....O.O.........OO........................................................................................................OOOOO.....
...OO..O..O.........OO..................................................................................................................
........OO..................................................................................................................OOOOOOO.....
...........................O.OO.............................................................................................O..O..O.....
...........................OO.O...........................................................................................O.O...........
.....................................OO.......OO..........................................................................OO............
....................................O.O.......OO........................................................................................
..................................OOO.O.O...........................O...................................................................
.................................O.....OO.........................OOO...................................................................
.................................OO..............................O......................................O...............................
.................................................................OO.....................................OOO.............................
...........................................................................................................O............................
.......OO............................................................................O....................OO............................
.......OO..........................................................................OOO................OO................................
...........................................................O..O...................O...................O.................................
..........................................................O...OO.....OO...........OO....................O...............................
..........................................................O...O......OO................................OO...............................
..........................................................O...O.........................................................................
...........................................................O..O.........................................................................
.............................................................O..........................................................................
....................................................................................................OO..................................
........OO..........................................................................................OO.................OO...............
.......O.O.............................................................................................................OO...............
.......O................................................................................................................................
......OO................................................................................................................................
........................................................................................................................OO..............
........................................................................................................................O...............
................................................OO.........................................................OO............OOO............
................................................O...........................................................O..............O............
...........OO...OO.O.............................OOO................OO...................................OOO............................
............O...OO.OOO.............................O...............O.O...................................O..............................
.........OOO..........O............................................O....................................................................
.........O......OO.OOO............................................OO............................O.......................................
...............O..OO.............................................................................O......................................
...............OO..............................................................................OOO......................................
