!Name: p01182
!C p1182 gun based on David Bell's doubling of a blinker-keeper
!C p1110+24N, N=3:  Dave Greene, 2 December 2005
!Source: guns2j-20090906
!
..........................O............OO...............O...............................................
..........................OOO.........O..O..............OOO..........OO.................................
.............................O........O.O.O................O........O..O................................
............................OO.......OO.O.O...............OO........O.O.O...............................
.......................................O.O.OO......................OO.O.O...............................
...............................O..OO..OO.O..O................O.....O...O.OO.............................
..............................O.O.......O.O.O.OO...........OO.O.O...OO.O..O.............................
..........................OO..OO.....OO.O.OOO..O........OO.........O..O.O.O.OO..........................
..........................OO..........O..O...OO.........O.......O..OO.O.O.O..O..........................
......................................O.OOOOO............OO.........O......OO...........................
.......................................O....O..............OO..O....O.OOOOO.............................
........................................OOOO................OOO......O....O.............................
..........................................O...........................OOOO..............................
............................................O...........................O...............................
.......OO..................................OO.............................O.............................
.......O.O...............................................................OO.............................
.........O..............................................................................................
.....OOOO.OO..OO........................................................................................
.....O..O.O.O..O........................................................................................
...OO..O....OO..........................................................................................
..O..OO..OO.O...........................................................................................
.O.OO..OO.O.O...........................................................................................
.O...O.....O............................................................................................
..OOO.O.OOO.................................................O...........................................
....O.O.O.........................OO......................OOO...........................................
...................................O.....................O..............................................
.....OOO...........................O.O...................OO.............................................
....................................OO..................................................................
..................................................................OO....................................
......O......................O....................................OO....................................
.....O.O....................O.O.........................................................................
......OO....................O.O.........................................................................
..OO......................OOO.OO........................................................................
.O.O.....................O..............................................................................
.O.....OO.................OOO.OO........................................................................
OO.....OO...................O.OO........................................................................
...........................................................................OO...........................
...........................................................................OO...........................
...............................................................................................OO.....OO
...............................................................................................OO.....O.
...........................OO.......................................................................O.O.
...........................OO.......................................................................OO..
............................................O...........................OO.O....................OO......
............................................O...........................OO.OOO..................O.O.....
............................................O.................................O..................O......
........................................................................OO.OOO..........................
.........................................................................O.O............................
.........................................................................O.O............................
....................................OO....................................O.............................
....................................OO.........................................................OOOOO....
.............................................................................................OOO.O.OOO..
.............................................OO.............................................O....O....O.
..............................................O............................................O.OO.O..OO.O.
...........................................OOO.............................................O.O...OO..O..
...........................................O..............................................OO.O..O..OO...
........................................................................................O..O.O....O.....
........................................................................................OO..OO.OOOO.....
..............................................................................................O.........
..............................................................................................O.O.......
...............................................................................................OO.......
...............................OO........................OO.............................................
...............................O.........................O..............................................
.................................O.........................O............................................
................................OOOO......................OOOO..........................................
...............................O....O....................O....O.........................................
...............................OOOOO.O...................OOOOO.O........................................
.............................OO...O..O.................OO......O........................................
............................O..OOO.O.OO.........OO....O..O.O.O.OO.........OO............................
............................OO.O.O.O........OO..OO....OO.O.O.O..O.....OO..OO............................
...............................O..O.OO..OO.O.O...........O..O.OO.....O.O................................
...............................OO.O.O.......O............OO.O...O.....O.................................
.................................O.O.OO....................O.O.OO.......................................
.................................O.O.O........OO...........O.O.O........OO..............................
..................................O..O........O.............O..O........O.................O.............
...................................OO..........OOO...........OO..........OOO...............O............
.................................................O.........................O.............OOO............
