!Name: p01128
!Source: guns2j-20090906
!
.......................O.......OO.................................................
.......................OOO....O..O...........OO...............O...O...O...........
................OO........O......O..........O..O............OOO..O.O..OOO.........
.................O.......OO...O............O.OO.O..........O.....O.O.....O........
.................O.O..........O...O.....O...O.O.O.........O.OOOOO.O.OOOOO.O.......
..................OO.........O..........O...O.O.OO........O.....O...O...O.O.......
............................O..O.O.....O......O............O.OO.O.O.O.OO.O........
.......OO...................O..O.O.......O..OOO.............OOO..OO.....O.........
......O..O..................O.O..O.O.....O.....OO.................................
.....O.O..O......................O..O....O.OO.O..O.............O.OOOO.............
.....O.O...O......................OO....OO.O...OO.............OOOO....OO..........
....OO.O.OOOOOO...................OO...OO...OOO...............O.O....O............
.......O..O.O...........................OO....O...................................
.......OOO.O..O...........OO...........OO..OO.O.OO.............................O..
.....OO...O.O.O..........OO.O..............OO.O.O............................OOO..
....O..O.OO.O.............O..O.............O..O.O...........................O.....
.....OO...O.OO.............OO...............O..O............................OO....
.......OO....O...............................OO...................................
.......O.O...O...........................................OO.......................
....OO.O.....OO..........................................OO.......................
.....O.O.OO.....................................................................OO
.....O.O..O................OO......OO...........................................O.
......O..O.................O.......OO..OO.....................................O.O.
.......OO............OO.....OOO........OO................................OO...OO..
.....................OO.......O............................OO...........O..O......
..........................................................O.O...........OOO.......
..........................................................O..............O........
.................OO.......O..............................OO.......................
...OO............OO.....OOO.....................................................OO
..O..O.................O................................................O.......OO
.O.O..O................OO.............................................OO..........
.O.O...O..............................................................OOO.........
OO.O.OOOOOO.......................................................................
...O..O.O........OOO..............................................................
...OOO.O..O.....O....O.OO.O..............OO..............O.O......................
.OO...O.O.O.....O...O.O...O.............O..O.............OO.......................
O..O.OO.O.......O....O....O............O.OO.O.............O.........O.OO....O.....
.OO...O.OO.......OO.....OO..........O...O.O.O.......................O....OOOO.....
...OO....O.........O...O............O...O.O.OO......................OO.OOO........
...O.O...O.........O...O...........O......O........................OO.O...........
OO.O.....OO.........OOO..............O..OOO.......................O.OO.OOO...OO...
.O.O.OO..............................O.....OO....................O..O.O.O..O.O.O..
.O.O..O..............................O.OO.O..O...O..............O.....O...O.....O.
..O..O..............................OO.O...OO...O.O.............O.OOOOO.O.OOOOO.O.
...OO..............................OO...OOO.....OO...............O.....O.O.....O..
....................................OO....O.......................OOO..O.O..OOO...
..............OO...................OO..OO.O.OO..OO..................O...O...O.....
.............O.O.......................OO.O.O...O.................................
.............O.......OO................O..O.O....O................................
............OO........O.................O..O....OO................................
...................OOO.....OO............OO.............O.........................
...................O.......OO......................OOO.OO..OO.....................
...................................................OOOO....OO.......O.............
.......................................................OO............O............
...................................................................OOO............
