!Name: p01184
!C p1184 gun based on doubled p544+8N Herschel factory --
!C p1088+16N gun, N=6:  Dave Greene, 1 November 2005
!C
!C
!Source: guns2j-20090906
!
......................O.........................................................................
........................OOO.....................................................................
........................OOO.....................................................................
........................OOO..........O..........................................................
...........................OOO.....OOO.............................OO...........................
...........................OOO....O................................OO...........................
...........................OOO....OO............................................................
................................O...............................................................
...............................O.O..............................................................
................................OO..OO..........................................................
....................................OO..........................................................
..................................................................................OO............
................O.................................................................OO............
................OOO.............................................................................
...................O............................................................................
..................OO............................................................................
.................................O..............................................................
...............................O..O.............................................................
....................O..........O..O.............................................................
...................O.O..........O...............................................................
...................O.O..........................................................................
..............OO....O...........................................................................
O............O.O...............OO.............OO..............OO................................
...O.........O.................O.O........OO..OO...............O................................
..O.O.......OO...................O.......O.O................OOO.................................
.O...O...........................OO.......O.................O...................................
..O...O...............................O.........................................................
...O...O.............................O.O....OO..................................................
....O...O...........................O...O...O......................................OO.....OO....
.....O.O...........................O...O.....OOO...................................OO.....O.....
......O...........................O...O........O........................................O.O.....
..........O...........OO.........O...O..................................................OO......
.........O.O..........OO..........O.O...............................................OO..........
..........OO.......................O....................................OO..........O.O.........
......OO................................................................OO...........O..........
.....O.O.................................................................................O......
.....O.....OO...........................................................................OOO.....
....OO.....OO..........................................................................OOO.O....
........................................................................................O...O...
.........................................................................................O...O..
.............................................................OO...........................O.OOO.
..................................OO..........................O...................OO.......OOO..
..................................O...........................O.O.................O.........O...
................................O.O..............O.............OO...............O.O............O
................................OO.........................................O....OO..............
...............................................OOO.O......................O.O...................
.....................................O........O.OO........................O.O...................
.....................................OOO......OO.O............OOO..........O....................
........................................O...O.OOO............OOO................................
.......................................OO.......................................................
..............................................O.................................................
..........................................O.................................OO..................
.........................................O.O................................O...................
.....................................OO..OO..................................OOO................
.....................................OO........................................O................
..............OO...............OO...............................................................
.............O.O...............OO...............................................................
.............O..................................................................................
............OO................................O.................................................
...............................................O................................................
.............................................OOO................................................
...................O............................................................................
...................OOO..........................................................................
......................O.........................................................................
.....................OO........................OO...............................................
...............................................OO..OO...........................................
...................................................O.O..........................................
....................................................O..OO.......................................
.................................................OO..O...O......................................
..........................................OO......O..O....O.....................................
...............OO.........................O....OOO.....O.O.O....................................
................O.......................O.O....O........O.O.O...................................
................O.O.....................OO...............O....O.................................
.................OO...........OO..........................O...O.................................
..............................OO................................................................
...........................................................OO...................................
...........................................O....................................................
............................................O...................................................
..........................................OOO...................................................
