!Name: p01152
!C p1152 gun based on doubled p544+8N Herschel factory --
!C p1088+16N gun, N=4:  Dave Greene, 1 November 2005
!C
!Source: guns2j-20090906
!
......................O.......................................................................
........................OOO...................................................................
........................OOO...................................................................
........................OOO..........O........................................................
...........................OOO.....OOO........................................................
...........................OOO....O...........................................................
...........................OOO....OO.............................OO...........................
.................................................................OO...........................
................................O.............................................................
...............................O.O............................................................
................................OO..OO........................................................
....................................OO........................................................
................O.............................................................................
................OOO.............................................................OO............
...................O............................................................OO............
..................OO..........................................................................
.................................O............................................................
...............................O..O...........................................................
....................O..........O..O...........................................................
...................O.O..........O.............................................................
...................O.O........................................................................
..............OO....O.........................................................................
O............O.O...............OO.............OO..............................................
...O.........O.................O.O........OO..OO..............................................
..O.O.......OO...................O.......O.O................OO................................
.O...O...........................OO.......O..................O................................
..O...O...............................O...................OOO.................................
...O...O.............................O.O....OO............O...................................
....O...O...........................O...O...O.................................................
.....O.O...........................O...O.....OOO..............................................
......O...........................O...O........O.................................OO.....OO....
..........O...........OO.........O...O...........................................OO.....O.....
.........O.O..........OO..........O.O.................................................O.O.....
..........OO.......................O..................................................OO......
......OO..........................................................................OO..........
.....O.O..............................................................OO..........O.O.........
.....O.....OO.........................................................OO...........O..........
....OO.....OO..........................................................................O......
......................................................................................OOO.....
.....................................................................................OOO.O....
......................................................................................O...O...
..................................OO...................................................O...O..
..................................O........................OO...........................O.OOO.
................................O.O..............O..........O...................OO.......OOO..
................................OO..........................O.O.................O.........O...
...............................................OOO.O.........OO...............O.O............O
.....................................O........O.OO.......................O....OO..............
.....................................OOO......OO.O......................O.O...................
........................................O...O.OOO.......................O.O...................
.......................................OO...................OOO..........O....................
..............................................O............OOO................................
..........................................O...................................................
.........................................O.O..................................................
.....................................OO..OO...............................OO..................
.....................................OO...................................O...................
...........................................................................OOO................
..............OO...............OO............................................O................
.............O.O...............OO.............................................................
.............O................................................................................
............OO................................O...............................................
...............................................O..............................................
.............................................OOO..............................................
...................O..........................................................................
...................OOO........................................................................
......................O.......................................................................
.....................OO........................OO.............................................
...............................................OO..OO.........................................
...................................................O.O........................................
....................................................O..OO.....................................
.................................................OO..O...O....................................
..........................................OO......O..O....O...................................
...............OO.........................O....OOO.....O.O.O..................................
................O.......................O.O....O........O.O.O.................................
................O.O.....................OO...............O....O...............................
.................OO...........OO..........................O...O...............................
..............................OO..............................................................
...........................................................OO.................................
...........................................O..................................................
............................................O.................................................
..........................................OOO.................................................
