!Name: p01290
!Source: guns2j-20090906
!
.................OO....................................................................
................O...O..................................................................
...............O.....O.................................................................
...............O...O.OO..OO............................................................
...............O.....O...OO............................................................
................O...O..................................................................
....OOO..........OO....................................................................
...O...O...............................................................................
..O.....O..............................................................................
..OO...OO..............................................................................
.............................................OO........................................
..................OO...........................O.......................................
.....O............OO..............OO............O......................................
...OO.O...........................OO....O.......O........OO...OO.......................
......O.........OOOO...........OO.....OO........O........OO...OO.......................
..O...O....OO..O...O...OO.....OOO.....O..OO....O.......................................
..O..O.....OO..OO......OO......OO......OOOOO.OO........................................
.OOOOO............................OO....O..............................................
.OOOOO............................OO...................................................
OO...OO................................................................................
.OOOOO..........................................O......................................
..OOO.....O.O.........OO.........................O.....................................
...O.......OO.........O.O......................OOO.....................................
...........O..........O........................................O.......................
..............................................................OOO......................
.............................................................OOOOO.....................
............................................................OO...OO....................
.............................................................OOOOO.....................
..................O.....................................O....O...O.....................
...................OO........OOO......................O.O.....O.O......................
.............O....OO.........O.........................OO......O.......................
...OO........OOO..............O........................................................
...OO...........O.................................................................O....
...............OO............................................O...................O.O...
...........................................................OO.OO................O...O..
................................................................................O...O..
..................O......O.O.........OO...................O.....O...............O...O..
................OO.OO.....OO.........O.O........................................O...O..
..........................O..........O..............O.....OO.O.OO...............O...O..
...............O.....O..............................OOO.........................O...O..
.......................................................O.........................O.O...
...............OO.O.OO................................OO..........................O....
.......................................................OOO.............................
........................................................O.O............................
.....................OO................................O...O...........................
....................O.O................................OOOOO...OO......................
.....................O................................OO...OO..O.......................
....................OO.................................OOOOO....OOO....................
....................OOO.................................OOO.......O...................O
.....................OO..................................O.............OO...........O.O
...................O...................................................O..O..........OO
....................................................OO.....................O...........
....................................................O.O....................O...........
....................................................O......................O...........
....................O.......................OO..OO..............OO.....O..O............
...................OOO...................O...O..OO.............O.O.....OO..............
..................OOOOO..................OOOO..................O..................OO...
.................OO...OO......................................OO..............OO.O.....
..................OOOOO..................OO...................................OO..O..O.
..................O...O..................OO........................................O.O.
...................O.O................................OOO...........................O..
....................O................................O...O.............................
...................................................................................OO..
....................................................O.....O........................OO..
....................OO..............................OO...OO............................
....................OO........................OO.......................................
.............................................O...O.....................................
..................................OO........O.....O....O...............................
..................................OO........O...O.OO..O.O..............................
............................................O.....O...O.O..............................
.............................................O...O.....O...............................
..............................................OO.......................................
