!Name: p01221
!Cp1221 based on Karel Suhajda's p407.   Scot Ellison - May 14, 2003
!Source: guns2j-20090906
!
.................................................................................................................................OO...............
..............................................................................................................................OO..O...............
............................................................................................................................OOO.OO......O.........
...........................................................................................................................O..........OOO.........
............................................................................................................................OOO.OO...O............
..............................................................................................................................O.OO...OO...........
..................................................................................................OO......................................OO......
...................................................................................................O......................................O.......
......................................................................................O...........O.....................................O.O.......
..........................................O...........................................OOO.........OO....................................OO........
..............................O...........OOO............................................O........................................................
............................OOO..............O............O.................OO..........OO........................................................
............O..............O................OO............OOO.......OO.......O....................................................................
............OOO............OO................................O......O........O.O..................................................................
...............O............................................OO....O.O.........OO..................................................................
..............OO..................................................OO.................................OO...........................................
.....................................................................................................OO...........................................
...............OO.................................................................................................................................
...............OO.................OO.....................................................................................................OO.......
..................................OO.....................................................................................................OO.......
...............................................................................................................OO.................................
............................................................................................OO..................O.................................
............................................................................................O................OOO..................................
...............................OO............................................................OOO.............O....................................
...............................O...............................................................O..................................................
.................................O.................................................................................O.OO...........................
................................OO.................................................................................OO.O...........................
............................OO..........................................................................................................OO........
............................O.........................OO....................................................................OO.........O..O..OO...
.............................OOO.......................O....................................................................OO.........O.O....O...
...............................O....................OOO...O.OO..........................................................................O.....O.OO
....................................................O..OOOO.OO.............................................................................OO.O.O.
.......................................................O...................................................................................O..O..O
........................................................OOO.OO..OO......................................................................O....O..OO
............OO............................................O.O....O......OO..............................................................OOOOO.....
...........O.O...............................................OOOO.......O.........................................................................
.....O..O..O...................................................O.........OOO..........................................................OOOOOOO.....
.....OOOOOOO.....................................................O.........O..........................................................O..O..O.....
................................................................OO..................................................................O.O...........
.....OOOOO..........................................................................................................................OO............
OO..O....O........................................................................................................................................
O..O..O.................................OO........................................................................................................
.O.O.OO........................OO.......O.........................................................................................................
OO.O.....O.....................O..........O.......................................................................................................
...O....O.O.........OO......OO.O.........OOOO.....................................................................OO..............................
...OO..O..O.........OO.......O.O.O......O....O.O...................................................................O..............................
........OO...................O..OO......OO..OO.OOO.................................................................O.O............................
...........................O.O....................O...........................O.....................................OO............................
...........................OO...............OO.OOOO..O......................OOO...................................................................
............................................OO.O...OOO.....................O......................................................................
..................................................O........................OO.....................................................................
..................................................OO..............................................................................................
.........................................................................................................OO.......................................
.........................................................................................................O......OO................................
..........................................................................................................O......O................................
...................................................................................OO....................OO......O.O..............................
.......OO..........................................................................OO.............................OO..............................
.......OO.........................................................................................................................................
...............................................................................................................................OO.................
.......................................................................O.......................................................O.O................
.....................................................................OO.O.............................OO.........................O................
...................................................................OO.O..O............................OO.........................OO...............
..............................................................OOO..OO....O........................................................................
..............................................................O..OO......O........................................................................
..............................................................O......O..O.........................................................................
...............................................................OO...........................................................OO....................
........OO............................OO.........................OO.........................................................O.....................
.......O.O...........................O.O....OO...............................................................OO..............OOO..................
.......O.............................O......O.........................OO......................................O................O..................
......OO............................OO.......OOO............OO........OO...................................OOO......O.............................
...............................................O............O.....OO.......................................O.......O.O............................
.............................................................OOO.O.O................................................O.............................
...............................................................O.O.......OO.......................................................................
................................................................OO.......OO.......................................................................
...........OO...OO.O..............................................................................................................................
............O...OO.OOO............................................................................................................................
.........OOO..........O...........................................................................................................................
.........O......OO.OOO.................................................................................O..........................................
...............O..OO....................................................................................O.........................................
...............OO.....................................................................................OOO.........................................
