!Name: p01288
!Source: guns2j-20090906
!
.O..O.................................................................
....O.......OOO.......................................................
O.........O....O...........OO.........................................
OO........O.....O..........OO.........................................
......O........O......................................................
...OO........OO.......................................................
...OO........OO.......................................................
......O........O......................................................
OO........O.....O.................................OO..................
O.........O....O......................OO....O..O..O...................
....O.......OOO........................O..OOOOOO....O.................
.O..O..................................O.O......OOOO.O................
......................................OO.O.O.OO....O.O................
.......................................O....O.O.OO...O.O..O...........
........O...OO.........................O.OO........OOO.OOOO...........
OO....OO.O.OOO...........O.O..........OO..O.O.OOOO....O...............
OO....O....OOO............OO............O.O.OO....OOO.O.OO.O..........
......O...O...............O.............O..O...OOO..O...O.OO..........
.......OOO.............................OO...OOO..O..................OO
..............................................O.......O.............O.
.......OOO............................................O...........O.O.
......O...O.......................................................OO..
OO....O....OOO..........................................OO............
OO....OO.O.OOO..........................................OO............
........O...OO...........OO.O.........................................
.........................OO.OOO.......................................
...............................O.....O................................
.........................OO.OOO.......OO.....OO.......................
..........................O.O........OO......OO.......................
..........................O..OO.......................................
.........................OO...O..............................OO.......
..............................O.O............................O.O......
...............................OO..............................O......
...............................................................OO.....
.............................................O........................
..................................OO.........O........................
..................................OO.........O.....O..................
...................................................O..................
...................................................O..................
...............................................OOO....................
..................................OO..................................
...................................O..................................
................................OOO.....OO............................
................................O......O.O............................
.....................OO..................O...........................O
.......................O...........................................O.O
........OO..........OO..O...........................................OO
........OO...........O..O.................O.....................OO....
......................O.O................O..O...................OOO...
......................OO................OOOOO..........OO.OO..O..O.O..
.......................................OO.OOO..........OO.OO..OO..OO..
......................OO................O.OO..................OO......
......................O.O................OO...........................
........OO...........O..O.............................................
........OO..........OO..O................OO...........................
.......................O................O.OO..........................
.....................OO................OO.OOO..........OO.............
........................................OOOOO..........OO.............
.........................................O..O.........................
..........................................O...........................
