!Name: p01326
!C p01326 - Scot Ellison - April 2003
!Source: guns2j-20090906
!
........................................................................O...OO................................................
..............................................................O........O.O.O.OOO..............................................
..............................................................OOO.......OO.O....O.............................................
.................................................................O........O.O.O.O.............................................
................................................................OO........O.O....OO...........................................
.........................................................................OO....OO..O..........................................
...................................................................O....O..O.O..O.OO..........................................
..................................................................O.O..OOO...O..O.............................................
..............................................................OO..OO....O..O.O.OO.............................................
..............................................................OO.........OO.O.O...............................................
..........................................................................O.O.O...............................................
..........................................................................O..O................................................
...........................................................................OO.................................................
....................................................................................O..................OO.....................
..................................................................................OOO..................O......................
.................................................................................O.......................O....................
.................................................................................OO.......O.............OOOO..................
..................................................................OO......................OOO..........O....O.................
...................................................................O.........................O........O.OOOOO.................
..................................O......OO........................O.O......................OO........O.O.O..OO...............
..................................OOO....O..O.O.....................OO..........O....................OO..O.OO..O..............
.....................................O.....OO.OOO.......................OO.....O.O.............O....O...OO..O.OO..............
....................................OO...........O.....................O..O....O.O............O.O...OO.O.O..O.................
...........................................OO.OOO.......................OO......O....OO...OO..OO....O....O.OO.................
...........................................OO.O.....................OO...............O.O..OO.........OO.O.O...................
...................................................................O.O.................O..............O.O.O...................
...................................................................O...................OO.............O..O....................
................................OO...OO...........................OO...................................OO.....................
................................OO...OO.......................................................................................
............................O.................................................................................................
...........................O.O.........O.....................................OO.....OOO.......................................
............................O.........OO.O...................................OO.....O.........................................
.....................................OO..............................................O........................................
....................................OO........................................................................................
.....................................OO.......................................................................................
.....................................OO.......................................................................................
........................................OO....................................................................................
......................................O.OOO...................................................................................
........................................O..O........................................................................OO.....OO.
........................................OOO.OO......................................................................OO.....O..
........................................O.....O..................OO......................................................O.O..
.........................................OO.OO....................O......................................................OO...
..................................................................O.O................................................OO.......
...................................................................OO................................................O.O......
................................................O.....................................................................O.......
...............................................O.O.......OO...................................................................
...............................................O.O.......OO...................................................................
...................................OO...........O...........................................................................O.
.......OO...........................O......................................................................................O.O
.......O.O.......................OOO................................................................................OOOOO..OO.
.........O.......................O..............................................................OO................OOO.O.OOO...
.....OOOO.OO..OO...............................................................................O..O..............O....O....OO.
.....O..O.O.O..O..............................................................................O.O.O..............O.OO..O.OO..O
...OO....OO.OO................................................................................O.O.OO.........OO...O..OO...O.OO
..O..OOOO.O.O...............................................................................OO.O....O....OO..OO....OO..O..O.O.
.O.OO..O.OO.O.......................................................OO...............OO.....O..O.O.OO...O.O..........O....O.O.
.O....O....O.....................OO.......OO........................OO...............O.O.OO.O..OO...O....O...........OOOO.OO..
..OOO...OOO.......................O........O...........................................O.O..OO.O..OO.....................O....
....O.O.O.......................O.......OOO.........O.O................................O..OO..O.O.O........OO..........O.O....
.....OOO......................OOOO......O......O.....OO..............................O.O....OOOOO.O........O...........OO.....
.............................O....O..........OOO.....O...............................OO.....O....O..........OOO...............
.............................OOOOO.O........O................................................OOOO.............O...............
...........................OO......O........OO.................................................O.....OO.......................
......O...................O..O.O.O.OO............................................................O...O........................
.....O.O..................OO.O.O.O..O.....O......................................O..............OO.....O......................
......OO.....................O..O.OO.....O.O...................................OOO......O.............OOOO....................
..OO.........................OO.O...O.....OO..OO..............................O.........OOO..........O....O...................
.O.O...........................O.O.OO.........OO..............................OO...........O........O.OOOOO...................
.O.....OO......................O.O.O......................................................OO........O......OO.................
OO.....OO.......................O..O...............................................................OO.O.O.O..O................
.................................OO..........................................................O.....O..O.O.O.OO................
............................................................................................O.O.....OO.O..O...................
........................................................................................OO..OO.....O...O.OO...................
........................................................................................OO.........OO.O.O.....................
....................................................................................................O.O.O.....................
....................................................................................................O..O......................
.....................................................................................................OO.......................
..........................................................OO..................................................................
..........................................................OO..................................................................
..............................................OO..............................................................................
..............................................O.O.............................................................................
................................................O.............................................................................
............................................OOOO.OO...........................................................................
............................................O....O.O..........................................................................
..........................................OO..O..O.O..........................................................................
.........................................O..OO...O.OO.........................................................................
........................................O.OO..O.OO.O..O.......................................................................
........................................O....O....O..OO..................OO...................................................
.........................................OOO.O.OOO.......................OO...................................................
...........................................OOOOO..............................................................................
......OO.....OO...............................................................................................................
.......O.....OO...............................................................................................................
.......O.O....................................................................................................................
........OO...................................O.................................................OO.....OO......................
............OO..............................O.O................................................OO.....O.......................
...........O.O..............................OO......................................................O.O.......................
............O...................................OO..................................................OO........................
................................................O.O.............................................OO............................
...........................................OO.....O.............................................O.O...........................
...........................................OO.....OO.............................................O............................
..........OOOOO...............................................................................................................
........OOO.O.OOO........................OO...................................................................................
...OO..O....O....O........................O..........................OO.......................................................
...O..O.OO.O..OO.O......................O............................O.........................OO.OO..........................
.....OO.O...OO..O.....................OOOO.............................O.....................OOO.O.OOO.......................O
......O.O..O..OO.....................O....O...........................OOOO..................O....O....O..OO................O.O
......O.O....O......................O.OO.OO..........................O....O.................O.OO..OO.O.O..O.................OO
.......OO.OOOO......................O..O...OO........................OOOOO.O.................O..OO...O.OO.....................
.........O..............OO.........OO.O..OO..O.....................OO...O..O..................OO..OO.O.O......................
.........O.O............OO..OO...O....O.O.O.OO....................O..OOO.O.OO.........OO........O....O.O......................
..........OO................O.O..O.OO..O..O.......................OO.O.O.O........OO..OO........OOOO.OO.......................
.............................O...O...O.O.OO..........................O..O.OO..OO.O.O................O.........................
...................................OO.O.O............................OO.O.O.......O...............O.O.........................
..........................OO........O.O.O..............................O.O.OO.....................OO..........................
...........................O........O..O...............................O.O.O........OO........................................
........................OOO..........OO.................................O..O........O.........................................
........................O................................................OO..........OOO......................................
.......................................................................................O......................................
