!Name: p01300
!C Added two of Dieter Leithner's p5 pulse dividers to an existing gun
!C Scot Ellison   December 2002
!Source: guns2j-20090906
!
.......................................O.O..................................................................................
.......................................O..O.................................................................................
..............................O...........OO................................................................................
..............................O.........O...OO....OO........................................................................
...................................OO.....OO......OO........................................................................
..................................O....O..O.................................................................................
.......................................O.O...................OO............................................OO...............
.............................................................OO............................................OO...............
...........................OO...OO..........................................................................................
.............................OOO...........................OO...................OO......OO...................OO.............
....................O.......O...O.......O.......................................OO......OO..................................
...............O....OOOO.....O.O.....OOOO....O..............................................................................
...............O.....OOOO.....O.....OOOO.....O..............................................................................
..........OO.........O..O...........O..O.........OO.........................................................................
..........OO.........OOOO...........OOOO.........OO.......OO...OO........................................OO...OO............
....................OOOO.............OOOO..................OOOOO..........................................OOOOO.............
....................O...................O..................OO.OO..........................................OO.OO.............
...........................................................OO.OO..........................................OO.OO.............
............................................................OOO............................................OOO..............
............................................OO.........................OO........................OO.........................
.............................................O.........................OO........................OO.........................
.............................OOO.............O.O........O........................................................O..........
..............................................OO........O.O......................O......O......................O.O..........
.........................OO.......OO.....................O.O....................OO......OO....................O.O...........
.........................OO.......OO.....................O..O......OOO....OOO..OOO......OOO..OOO....OOO......O..O.......OO..
.............................OOO.........................O.O....................OO......OO....................O.O...........
.............................OOO........................O.O......................O......O......................O.O..........
............................OOOOO.......................O........................................................O..........
...........................OO...OO..........OO.........................OO........................OO...................O.....
...........................OO...OO..........O..........................OO........................OO....................O....
..........................................O.O...............OOO............................................OOO.........O....
..........................................OO...............OO.OO..........................................OO.OO.............
...............OO..........................................OO.OO.............OO...........................OO.OO.............
...............OO..............................OO......O...OOOOO............O.............................OOOOO......OO...OO
.............................OOO..............O.O....OOO..OO...OO..........O.....O.......................OO...OO........O...
..............................O.....................O......................O.....OOO.................................O.....O
..............................O.....................OO......................OO...O........OO..........................OO.OO.
..............................O...........................................................O............................O.O..
..............................O.................OO.............................OO..........OOO..........................O...
.............................OOO.......................................OO......O..O..........O...............OO.........O...
...............OO.....................................................O.O......O..O.........................................
...............OO......................O......OO...............OO.....O..........OO....OO...................................
.......................................O.....O..O..............O.....OO................OO...................................
......................................O.O.....OOO...............OOO........................................OO...............
...........................OO...OO................................O........................................OO..........OO...
...........................OO...OO.....O.O.............................................................................OO...
............................OOOOO.......OO...........................................OO.....................................
.............................OOO.......O.............................................O.O....................................
.............................OOO........O....................O.........................O....................................
.........................OO.......OO.........OO............O.O.........................OO...................................
.........................OO.......OO.........O..............OO..............................................................
..............................................OOO.........................O.................................................
.............................OOO................O.........................O.O........................OO.....................
..........................................................................OO..........................O..OO.................
...............................................................OOO....................................O.O..O................
.................................................................O...................................OO.O.O.O.OO............
................................................................O.....................................O.....OO.O............
....................O...................O...........................................................O...OOO.................
....................OOOO.............OOOO...........................OO.............................O.OOO.O.OOOO.............
..........OO.........OOOO...........OOOO.........OO.................OO.............................O...........O............
..........OO.........O..O...........O..O.........OO.................................................OOO.....OOO.............
...............O.....OOOO.....O.....OOOO.....O........................................................O.....O...............
...............O....OOOO.....O.O.....OOOO....O.........................................................OOOOO...........OO...
....................O.......O...O.......O..............................................................................O....
.............................OOO.....................................................................................O.O....
...........................OO...OO...................................................................................OO.....
...........................................................................................................OO...............
...........................................................................................................OO...............
................................................................................................OO..........................
................................................................................................OO..........................
...................................OO.......................................................................................
....................................O...........................................................................OO..........
....................................O.O.........................................................................O.O.........
..............................OO.....OO..........O................................................................O.........
...OO.........................OO.................O.O..............................................................OO........
...OO..........OO................................OO......O..................................................................
...............OO........................................OOO................................................................
...................................OO.......OOO......OO.....O...............................................................
...................................OO......O..O......O.....OO...............................................................
...........................................O.OO....O.O...................................................OO.................
...O..........................O.............O......OO....................................................O..................
.OO.OO........................OOO......................................................................O.O..................
.................................O.....................................................................OO...................
O.....O.........................OO..............O...........................................................................
...............................................OO......................................OO...................................
OO.O.OO.....................................O.O........................................OO...................................
............OO...OO........................OO.OO...........OO...OO..........................................................
............................................O....................................................OO.........................
.............O...O..........................................O...O................................OO.........................
..............OOO............................................OOO...........................................................O
..............OOO........OO........................OO........OOO.........................................................O.O
.........................OO........................OO.......................................................OO............OO
...........O..................O................O..................O.............................O...........O.O.............
..........O.O.................O................O.................O.O..........................O...O...........O.............
.........O...OO........O...........OO.OO.OO...........O........OO...O.........................................OO............
.........O...OO........O..OO.......OO....OO.......OO..O........OO...O........................O.....O........................
.........O...OO........O...........OO.OO.OO...........O........OO...O......................OOO.OOO.OOO......................
..........O.O.................O................O.................O.O........OO............O...OO.OO...O.....................
...........O..................O................O..................O.........O.O...........O.OOO.O.OOOO......................
.........................OO........................OO.........................O............O................................
..............OOO........OO........................OO........OOO..............OO.............O.O.O.OO.O.....................
..............OOO............................................OOO............................OO.OOO.O.OO.....................
.............O...O..........................................O...O............................O.O..O.........................
.............................................................................................O..OO..........................
............OO...OO........................................OO...OO..........................OO..............................
..................................OO......OO................................................................................
..................................OO......OO................................................................................
...............OO............................................OO.............................................................
...............OO............................................OO.............................................................
