!Name: p01419
!Source: guns2j-20090906
!
.............................................................................................................................................................................O.....................................OO.OO...................................
.............................................................................................................................................................................OOO...................................OO.OO...................................
................................................................................................................................................................................O..........................................................................
...............................................................................................................................................................................OO........OO........................OOOOO...................................
.........................................................................................................................................................................................O........................O....O...................................
.......................................................................................................................................................................................O.O.......................O..O......................................
.......................................................................................................................................................................................OO........................O.OO...........................O..........
.........................................................................................................................................................................OO...........................O.....O.OO.O.....O..........OO..........OOO..........
.........................................................................................................................................................................OO.........................OOO.....OO.O.O....O.O.........OO.........O.............
...................................................................................................................................................................................................O...........O.OO..O..O....................OO........OO..
...................................................................................................................................................................................................OO..........O......OO...............................O...
.............................................................................................................................................................................................................OOO.....................................O.O...
.........................................................................................................................................................................OO.................................O........................................OO....
.........................................................................................................................................................................OO.................................OO.............................................
.........................................................................................................................................................................................................................................................OO
..........................................................................................................................................................................................................................................................O
.....................................................................................................................................................................................................................................................OO.O..
.....................................................................................................................................................................................................................................................OO.OO.
.................................................................................................................................................................................................OO........................................................
.................................................................................................................................................................................................OO..................................................OO.OO.
.......................................................................................................................................................................OO.............................................OO..............................O.O..
........................................................................................................................................................................O.............................................OO..............................O.O..
........................................................................................................................................................................O.O............................................................................O...
.........................................................................................................................................................................OO................................................................................
.........................................................................................................................................................................................................................OO................................
..........................................................................................................................................................................................................................O................................
.........................................................................................................................................................................................................................O.................................
.........................................................................................................................................................................................................................OO................................
..............................................................................................................................................................................................................................OO...........................
.........................................................................................................................................................................................O.OO................................O.O...........................
.........................................................................................................................................................................................OO.O................................O.............................
............................................................................................................................................................................................................................OO.............................
.........................................................................................................................................................................O.OO..............................................................................
.........................................................................................................................................................................OO.O..............................................................................
..................................................................................................................................................................................OO.......................................................................
..................................................................................................................................................................................OO.......................................................................
......................................................................................................................................................................................................................................OO...................
......................................................................................................................................................................................................................................OO...................
.............................................................................................................................................................................................................................................O.OO..........
...................................................................................................................................................OO........................................................................................OO.O..........
...................................................................................................................................................OO......................................................................................................
............................................................................................................................................................................................OO.............................................................
............................................................................................................................................................................................O..............................OO..............................
.....................................................................................................................................................OO...................................O.O...............................O..............................
.....................................................................................................................................................OO...................................OO................................O.O............................
..................................................................................................................................................................OO.........................................................OO............................
..................................................................................................................................................................O........................................................................................
................................................................................................................................................................O.O........................................................................................
.................................................................................................................O..............................................OO.........................................................................OO..............
...............................................................................................................OOO..................................................OO..OO.................................................................O.O.............
..............................................................................................................O.....................................................OO...O...................................................................O.............
..............................................................................................................OO.........................................................O.O.................................................................OO............
...............................................O..........................................................................................................................OO...............................................................................
...............................................OOO.....................................O...................................................................................................................................................................
..................................................O......................O.............OOO.................................................................................................................................................................
.................................................OO....................OOO................O................................................................................................................................................................
......................................................................O..................OO................................................................................................................................................................
.............................OO.......................................OO...............................................................................OO..................................................................................................
......................OO.....OO.........................................................................................OO.............................OO...............................................................................OO.................
......................OO................................................................................................OO..............................................................................................................O..................
.........................................................................................................................................................................................................................................OOO...............
...........................................................................................................................................................................................................................OOO.............O...............
........................OO.................OO.......................................................................................O.........................................................................OO..........O..O.............................
........................OO.................O.......................................................................................O.O.........................................................................O..........OOO..............................
..................OO.....................O.O....................................OO..................................................OO.....................................OO...............OO.................O.O........OO...............................
..................OO.....................OO.....................................OO.........................................OO..............................................OO...............O.O.................OO..........OOO............................
.......................................................................................................OO...................O.................................................................O.............................OOO............................
.......................................................................................................O.O.................O..................................................................OO.............................O.............................
.........................................................................................................O.................OO.............................................................................................................O................
.............................................................................................OO..........OO...................................................OO........................................................................OOO................
.............................................................................................O................................................................OO.....................OO................................OO..............O...................
.................................................OO................................OO.........OOO....................................................................................O................................OO...............OO..................
.................................................OO...........OO....................O...........O..................................................................................O.O...........................OO.....O..................................
..............................................................O....................O...............................................................................................OO...........................O.O........................................
...............................................................OOO.................OO...........................................................................................................................O..........................................
.................................................................O...........................................................................................................................................OO.O..........................................
.............................................................................................................................................................................................................OO.O.O.OO..................OO.................
.............................................OO..................................................................................................................................................................OO.OO..................O.O................
...............OO............................O............................................................................................................................................................................................O................
................O.............................OOO................................................................................................................................................................OO.OO....................OO...............
................O.O.............................O.................................................................................................................................................................O.O......................................
.................OO...............................................................................................................................................................................................O.O......................................
...................................................................................................................................................................................................................OO.OO...................................
...................................................................................................................................................O.................................................................O.O...................................
...................................................................................................................................................OOO...................................OO..........................O.....................................
......................................................................................................................................................O..................................OO.........................OO.....................................
.....................................................................................................................................................OO....................................................................................................
...............................................................................................................OO..........................................................................................................................................
...............................................................................................................OO...................................................................OO.....................................................................
....................................................................................................................................................................................OO.....................................................................
........................................................................................................................................................................................OO.................................................................
........................................................................................................................................................................................OO.................................................................
..................OO...............OO......................................................................................................................................................................................................................
..................OO...............O.O......................................................................................................OO.............................................................................................................
.....................................O......................................................................................................OO....................................OO.......................................................................
.....................................OO............................................................................................................................OO.............OO.......................................................................
...................................................................................................................................................................O.O.....................................................................................
.....................................................................................................................................................................O.....................................................................................
.........................................................................................................................................................OO..........OO....................................................................................
.........................................................................................................................................................O.................................................................................................
...............................................................................................................................................OO.........OOO..............................................................................................
............................................................................................................................................O...O...........O.....................................................................OO.......................
............................................................................................................................................OOOO.........................................................................OO.......OO.......................
.......OO.................................................................................................................................................................................................................O................................
........O.....................................................................................................................................OOOO...........OO...............O.........O.................................O.O..............................
........O.O..................................................................................................................................O...O............O...............OOO.....OOO............................OO....OO..............................
.........OO..................................................................................................................................OO...............O.O................O...O.............OO.................O....................OO.............O
..................OO...........................................................................................................................................OO...............OO...OO.............O.................O.O..................O............O.O
..................OO...............................................................................................................................................................................O...................OO................O.O.............OO
...................................................................................................................................................................................................OO....................................OO................
...........................................................................O...............................................................................................................................................................................
.........................................................................OOO...................OO..........................................................................................................................................................
.................................................O......................O..............O.......OO..........................................................................................................................................................
..................................OO.............OOO....................OO.............OOO.................................................................................................................................................................
..................................O.................O.....................................O...........................................................OO...................................................................................................
...O...............................O...............OO....................................OO...........................................................OO..............................................OO...................................................
...OOO............................OO...........................................................................................OO.....................................................................OO...................................................
......O..........................................................................OO...........................................O.O..........................................................................................................................
.....OO...................O.......................................................O...........................................O............................................................................................................................
.........................O.O......................................................O.O........................................OO..........OO................................................................................................................
.........................O.O.......................................................OO.....................................................O........................................................................................OO......................
..........................O...OOO......................................................................................................OOO.........OO..............................................................................OO..OO..................
.............................OO..O.......OO............................................................................................O...........O...................OO..............................................................O.O.................
............................OO...........OO.........................................................................................................O.................O.O...........OO......O...................OO.......................O.................
.............................OOO..O...................................................................................OO...........................OO.................O.............OO......OOO..................O.......................OO................
..OO........................OO..O.O...................................................................................O.O............................................OO........................O..............OOO..........................................
.O.O....................................................................................................................O.....................................................................OO..............O............................................
.O......................................................................................................................OO.................................................................................................................................
OO.........................................................................................................................................................................................................................................................
......................................OO................................OO.................................................................................................................................................................................
......................................O....................OO...........OO.................................................................................................................................................................................
.......OO...OO........OO...............O....................O..............................................................................................................................................................................................
.......OO...OO.........O..............OO.................OOO...................................OO..........................................................................................................................................................
....................OOO..................................O.....................................OO..OO......................................................................................................................................................
....................O..............................................................................O.O.....................................................................................................................................................
............................................................................OO.......................O..........OO.........................................................................................................................................
.............................................................................O.......................OO.........O..........................................................................................................................................
..........................................................................OOO....................................OOO.......................................................................................................................................
..........................................................................O........................................O.......................................................................................................................................
