!Name: p01672
!Source: guns2j-20090906
!
..................................................................................OO....OO....OO.........................
.................................................................................O..O.O....O.O..O........................
.................................................................................OOO..........OOO........................
....................................................................................OO......OO...........................
...........................OO......OO..............................................O..OOOOOO..O..........................
...........................OO......OO..............................................OO........OO..........................
.........................................................................................O...............................
........................................................................................O.O..............................
.......................................................................................O...O.............................
...........OO......................................OO....................................O...............................
..........O.O......................................O.O....................OO.............................................
..........O.O.OO................................OO.O.O.....................O.............................................
...........O.O.O................................O.O.O......................O.O.........OO.OO.............................
.............O......O.........OOOO.........O......O.........................OO........O.....O.......OOOO.................
...........O..O....OOO.......OOOOOO.......OOO....O..O..................................O...O.......OO...O................
..............O..OO.O.O.....OOOOOOOO.....O.O.OO..O..............O......OO...............OOO.......O.....O................
..........O...O....O.OOO...OO......OO...OOO.O....O...O..........OOO....OO.........................O..O.O.................
..........O...O..O..O.O.....OOOOOOOO.....O.O..O..O...O.............O............O...................O....................
..............O...OOOO.......OOOOOO.......OOOO...O................OO............O.O.............O........................
...........O..O.....O.........OOOO.........O.....O..O.............................O.............O........................
.............O....................................O...................OO......O.....................O....................
...........O.O.O................................O.O.O...................O....O..O.................O..O.O.................
..........O.O.OO................................OO.O.O................OO....OO..O.......OOO.......O.....O................
..........O.O......................................O.O...........O...........OOO.......O...O.......OO...O................
...........OO.........................O............OO...........O.............O.......O.....O.......OOOO.................
.....................................O.O........................OOO....................OO.OO.............................
...................................OO...O................................................................................
..................................OOOO..O................................................................................
.........................OO.......O..OOOO................................................O...............................
..........................O.........OOOO...............................................O...O.............................
.......................OOO.......O......................................................O.O..............................
.......................O.........O..OO......OO...........................OO..............O...............................
..................................OOO.......O.O...........................O..............................................
............................OO................O.................OOO....OOO...............................................
............................OO................OO......O...........O....O.................................................
.....................................................O...........O.................OO........OO..........................
.....................................................OOO...........................O..OOOOOO..O..........................
....................................................................................OO......OO...........................
..............................OO.................................................OOO..........OOO........................
.............................O.O.................................................O..O.O....O.O..O........................
.............................O....................................................OO....OO....OO.........................
............................OO..........O................................................................................
......................................O.O................................................................................
.......................................OO................................................................................
.........OO....OO....OO..............................OOO.................................................................
........O..O.O....O.O..O...................O...........O.................................................................
........OOO..........OOO..................O...........O..................................................................
...........OO......OO.....................OOO............................................................................
..........O..OOOOOO..O...............O...................................................................................
..........OO........OO...............O...................................................................................
.................................O...O...................................................................................
...............................OOO.......................................................................................
...........OO.................O..........................................................................................
...........OOOO...............OO.........................................................................................
..........O...O..........................................................................................................
.............OO..........O................OOO............................................................................
.......................OO.OO................O............................................................................
......................OOOOO................O.............................................................................
...............OO.....OO.OO..OO........................OO.........................................OO..........OO.........
........................O....OOO.......................O.O.......................................O..O..OOOO..O..O........
................................O......................O.........................................OOO..OOOOOO..OOO........
OO.............................O....................................................................OOOOOOOOOO...........
OO............OOO..............O...................................................................O..........O..........
..............OOO.............O..O.................................................................OO........OO..........
...............................O.O.......................................................................................
..............O.O..............OOO.......O...............................................................................
..............O.O....................OO..OOO....OO....OO.................................................................
.....................................O......O.O....O.O..O................................................................
..............OOO...............OO....OOOOOO..........OOO.................................................O..............
OO............OOO...............OO......O...OO......OO....................................................O..............
OO.........................................O..OOOOOO..O..................................................................
...........................OO..............OO........OO...................................OO.............................
...........................O.O.............................................................O.............................
...............OO............O.............................................................O.O...........................
.............................OO.....................OO......................................OO...........................
..................................................OOOO...................................................O.............OO
.............OO...................................O...O.........................O......OO..............OO.OO...........OO
..........O...O...................................OO............................OOO...O..O.............OO.OO.............
...........OOOO....................................................................O.....O...............................
...........OO..................................................OO.................OO..O..................................
................................................OO.............O......................O..O...............................
.............................................................O.O..........................O..............................
..........OO........OO.......................................OO.......................OO...............OO.OO.............
..........O..OOOOOO..O............OO...................................................................OO.OO...........OO
...........OO......OO.............OO............OOO...............OO......O..............O...............O.............OO
........OOO..........OOO........................OOO...............OO....OOO............OO.O....OOO.......................
........O..O.O....O.O..O...............................................O................OO...............................
.........OO....OO....OO.........................O.O....................OO......................O.O.......................
................................................O.O..............OOO..........................O..........................
.................................................................O.O.........O................OO.........................
................................................OOO.............O..O.......OO...................O.........O..............
..................................OO............OOO..............O..........OO................OO..........O..............
..................................OO.............................O.......................OO..............................
..................................................................O.......................O..............................
..........................................................O....OOO.....................OOO...............................
................................................OO......OO.OO..OO......................O.................................
........................................................OOOOO......................................OO........OO..........
.........................................................OO.OO.....................................O..........O..........
..................................................OO.......O........................................OOOOOOOOOO...........
..................................................O...O..........................................OOO..OOOOOO..OOO........
..................................................OOOO..........OO...............................O..O..OOOO..O..O........
....................................................OO..........O.................................OO..........OO.........
.................................................................OOO.....................................................
...................................................................O.....................................................
...........................................OO........OO...................OO.............................................
...........................................O..OOOOOO..O...............OO....OOOO.........................................
............................................OO......OO................OO..OO.OOO.........................................
.........................................OOO..........OOO.................O.............O................................
.........................................O..O.O....O.O..O................................O...............................
..........................................OO....OO....OO...............................OOO...............................
