!Name: p01602
!Source: guns2j-20090906
!
...................O.......O.OO.........................................................................................................................................................................................................................
.................OOO.......OO.O.........................................................................................................................................................................................................................
.O..............O.......................................................................................................................................................................................................................................
.OOO............OO...............................................................................................................................................................................O......................................................
....O....................................................O.....................................................................................................................................OOO......................................................
...OO..................................................OOO.............O...............O.........O.....................................................OO..............O......................O..........................O..............................
......................................................O................OOO.............OOO.....OOO............................OO........................O..............OOO....................OO.........................OOO............................
......................................................OO..................O...............O...O.............OO.................O.............OO......OOO..................O.................................................O.......................OO..
....OO...................................................................OO..............OO...OO.............O.................O.O...........OO......O...................OO................................................OO.......................O...
....OO.................OO...................................................................................O...................OO................................................................................................................O.O...
.......................OO...................................................................................OO..........................................................................................O.....................................OO..OO....
........................................................................................................................................................................................................OOO...................................OO........
...........................................................................................................................................................................................................O............................................
..........................................................................................................................................................................................................OO...........OO...............................
.......................................................................................................................................................................................................................OO...............................
...............................................................OO..............................................................................................OO.......................................................................................
....................OO.........................................OO..............................................OO..............................................OO.......................................................................................
....................O...................OO.....................................................................OO.......................................................................................................................................
......................O................O.O..............................................................................................................................................................................................................
.....................OO................O................................................................................................................................................................................................................
.................OO...................OO..........OO....................................................................................................................................................................................................
.................O.................................O....................................................................................................................................................................................................
..................OOO...........................OOO.........OO..............................................................................................OO................................OO....................................................OO..
....................O...........................O...........O...................OO..........................................................................O....................OO...........OO..................................OO................O.O.
.............................................................O.................O.O...........OO......O...................OO..............OO...OO.............O....................O..............................................O.O..................O.
............................................................OO.................O.............OO......OOO..................O...............O...O.............OO.................OOO...............................................O....................OO
..............................................................................OO........................O..............OOO.............OOO.....OOO.............................O................................................OO....OO................
.......................................................................................................OO..............O...............O.........O..................................................................................O..O................
..................................................................................................................................................................................................OO................................OO..................
...................................................................................................................................................................................................O.........................................OO.........
................................................................................................................................................................................................OOO....................OO....................OO.........
OO..............................................................................................................................................................................................O......................O................................
O.......................................................................................................................................................................................................................OOO.............................
.O........................................................................................................................................................................................................................O...........................OO
OO...........................O........................................................................................................................................................................................................................O.
.............................OOO.......................................................................................................................................................................................................................O
................................O......................O..............................................................................................................................................................................................OO
.........OO....................OO....................OOO................................................................................................................................................................................................
.........OO.........................................O...................................................................................................................................................................................................
..................OO................................OO..................................................................................................................................................................................................
................O..O..................................................................................O.........O...............O..............OO.......................................................................................................
................OO....OO................................................O.............................OOO.....OOO.............OOO..............O........................OO..............................................................................
OO....................O...............................................OOO.................OO.............O...O...............O..................OOO......OO.............O.................OO............................................................
.O..................O.O..............................................O....................O.............OO...OO..............OO...................O......OO...........O.O.................O.............................................................
.O.O................OO..................................OO...........OO....................O..........................................................................OO...................O...........O...........................O....................
..OO....................................................OO................................OO..............................................................................................OO.........OOO...........................OOO..................
....................................................................................................................................................................................................O.................................O.................
....................................................................................................................................................................................................OO..........OO...................OO.................
................................................................................................................................................................................................................O................OO.....................
..............................................................................................................................................................................................................O.O................O......................
.......................................................................................................................................OO.....................................................................OO...................O....................
.......................................................................................OO..............................................OO..............................................OO.........................................OO....................
.......................................................................................OO..............................................................................................OO..OOO..........................................................
...............................OO..........................................................................................................................................................O....O.......................................................
...............................OO...........OO.............................................................................................................................................O............................................................
............................................O...............................................................................................................................................O...O.......................................................
........OO...................................OOO..............................................................................................................................................O.........................................................
....OO..OO.....................................O..........................................................................................OO...................................................................................OO.......................
...O.O................................................................................................................OO...................O...................................................................................OO.................OO....
...O.......................OO................................................OO...................O......OO...........O.O.................O.............OO...OO..............OO...................................................................OO....
..OO.......................O.................................................O..................OOO......OO.............O.................OO.............O...O...............O..................OO......................................................
............................OOO.........................OO....................OOO..............O........................OO............................OOO.....OOO.............OOO................O......................................................
..............................O..........................O......................O..............OO.....................................................O.........O...............O.............OOO..................................................OO...
......................................................OOO.....................................................................................................................................O....................................................O....
......................................................O...............................................................................................................................................................................OO............OOO.
.......................................................................................................................................................................................................................O...............O..............O.
........................................................................................................................................................................................................................O...........OOO.................
......................................................................................................................................................................................................................OOO...........O...................
