!Name: p01725
!Source: guns2j-20090906
!
..............................................O...............................................O...............................................................................
.............................................OOOO............................................O.O......O.......................................................................
............................................OO.O.O..........................................O...OO...O.O......................................................................
...........................................OOO.O..O..OO..........................OO.........O...OO...O.O......................................................................
............................................OO.O.O...OO..........................OO.........O...OO....O.......................................................................
.............................................OOOO............................................O.O..............................................................................
.................................O............O...............................................O...............................................................................
................................OOO................................................................OO.O.OO....................................................................
...............................OOOOO...............................................................O.....O....................................................................
..............................O.O.O.O...............................................................O...O.....................................................................
..............................OO...OO................................................................OOO......................................................................
................................................O...............................OO............................................................................................
.................................................O...O............................O...........................................................................................
.................................O......OO..OO........O............OO..........OO..O..........OO..............................................................................
................................O.O.....OO..O.....OO..O............OO...........O..O..........OO..............................................................................
................................O.O.........O.O.....OO...........................O.O..........................................................................................
...........................O.O...O...........OO...OOO............................OO.........................OO................................................................
..........................O..O...OO........................................................................OOO................................................................
.........................OO......OO..........OO...OOO............................OO.....................O.OO.........OO.......................................................
.................OO....OO...O...O..O........O.O.....OO...........................O.O....................O..O....O.....O.......................................................
.................OO......OO......OO.........O.....OO..O............OO...........O..O....................O.OO.....O............................................................
..........................O..O..............OO........O............OO..........OO..O.......................OOO...O...O........................................................
...........................O.O...................O...O............................O.........................OO.....O..........................................................
................................................O...............................OO............................................................................................
................................................................................................................................OO............................................
................................................................................................................................OO............................................
..................................................................................................................................OO..........................................
..............................................................................................................................OO...OO.........................................
...............................................................................................................................OOOOO..........................................
...............................................................................................................................OO.OO..........................................
...............................................................................................................................OO.OO..........................................
................................................................................................................................OOO...........................................
....................................................................................................................................................O.O.......................
........................................................................................................OO...OO....................................O..O....O..................
...........................................................................................O...OO......OOO...OOO..............O...................OO.....OO...................
...................................................................................OO....OO.O.OOO....OOO.......OOO...........O.O..........O.....OO...O........OO..............
...................................................................................OO....O....OOO....OOO.......OOO...........OO.O........O.O......OO..........OO..............
.........................................................................................O...O.......OOO.......OOO...........OO.OO......O...O......O..O.......................
..........................................................................................OOO..........OOO...OOO.............OO.O........OOO........O.O.......................
........................................................................................................OO...OO..............O.O.......OO...OO................................
..................................................................O.......................OOO.................................O...............................................
..................................................................O......................O...O................................................................................
.............................OO...................................O................OO....O....OOO.............OO.......OO.....................................................
............................OOOO.......OO..........................................OO....OO.O.OOO.............OO..............................................................
...........................O.O.O......O..OO...........OO......OOO...OOO....................O...OO............................................................O...O............
...........................OO.OOO....OOOOOO...........OO.........................................................................................OO.........O.....O.........OO
..............................OO.O.....OOOO.......................O..............................................................................OO.........O...............OO
..............................OO.O................................O................................................OO...OO..................................OO...O............
..................................................................O.................................................OOOOO.........OO..........................OOO.............
..............................OO.O..................................................................................OO.OO.......O...O.........................................
..............................OO.O.....OOOO...............................................................OO........OO.OO......O.....O........................OOO.............
...........................OO.OOO....OOOOOO.......................................................O.......O..O.......OOO......O..O...O......................OO...O............
...........................O.O.O......O..OO......................................................O...OO.......O......................O......................O...............OO
............................OOOO.......OO........................................................O.....O......O.............O...O...O.......................O.....O.........OO
.............................OO...................................................................OOOOO.......O............O.OO...OO.........................O...O............
..........................................................................................................O..O.............O..................................................
..........................................................................................................OO..............OO..................................................
................................................................................................................................................................OO............
................................................................................................................................................................OO............
......................................................................OO......................................................................................................
.....................................................................O.O......................................................................................................
.....................................................................O........................................................................................................
....................................................................OO........................................................................................................
.........................................................................................................................................................OOO...OOO............
.........................................................................................................................................................O..O.O..O............
........................................................................................................................................................O...O.O...O...........
........................................................................................................................................................OOOO...OOOO...........
.........................................................................................................................................................O.......O............
..............................................................................................O...............................................................................
..............................................................................................OOO.............................................................................
.................................................................................................O............................................................................
................................................................................................OO.......................................................OO.....OO............
.....................OO..................................................................................................................................OO.....OO............
.......................O......................................................................................................................................................
........OO..........OO..O.....................................................................................................................................................
........OO...........O..O..........................................................................O..........................................................................
......................O.O.........................................................................OOO.........................................................................
......................OO..........................................................................OOO.........................................................................
......................OO........................................................................OO...OO.......................................................................
......................O.O.......................................................................OO...OO.......................................................................
........OO...........O..O..........OO.........................................................................................................................................
........OO..........OO..O..........OO..................................OOO...O................................................................................................
.......................O........................................OO...OOOOO..O.O............OO......O..........................................................................
.....................OO.........................................OO..OO...OO...O............OO.....O.O.........................................................................
............................................O........................OO...O..O......................OO........................................................................
...........................................O.O........................O...OOO.......................OO..O.O...................................................................
...........................................O.O.....................................................OOO..O...O.................................................................
............................................O.........................O...OOO......................OOO......O.................................................................
.....................................................................OO...O..O..................OO..O...O....O....OO..........................................................
................................................................OO..OO...OO...O...................OO........O.....OO..........................................................
................................................................OO...OOOOO..O.O.........................O...O.................................................................
.......................................................................OOO...O..........................O.O...................................................................
...OO.........................................................................................................................................................................
...OO.........................................................................................................................................................................
...O..........................................................................................................................................................................
..OOO.........................................................................................................................................................................
.O...O........................................................................................................................................................................
...O..........................................................................................................................................................................
O.....O.......................................................................................................................................................................
O.....O.......................................................................................................................................................................
.O...O........................................................................................................................................................................
..OOO.........................................................................................................................................................................
.........OO..............O.......OO......................................................OO...................................................................................
.......O..O.............OO......O..O............OO..............OO......................O.O...................................................................................
......O.......OO.......O........O..OO...........OO...............OO....................OOO....OO..............................................................................
......O......O..O.......OO.O....O..O.........................OOOOO....................OOO....O..OOOO..........................................................................
......O.......OO.........OOO......O..........................OOOO......................OOO....OO.OOO..........................................................................
.......O..O.............................................................................O.O...................................................................................
.........OO..............OOO......O..........................OOOO........................OO...................................................................................
..............O.......O.OO.O....O..O.........................OOOOO............................................................................................................
.............OOO.....O..........O..OO...........OO...............OO........OO.................................................................................................
............O...O....O...O......O..O............OO..............OO.........OO.................................................................................................
..............O.......OOOO.......OO...........................................................................................................................................
...........O.....O............................................................................................................................................................
...........O.....O............................................................................................................................................................
............O...O..................................................................O..........................................................................................
.............OOO..................................................................OOO.........................................................................................
.................................................................................OOOOO........................................................................................
..........................O..............................................O......OO...OO.......................................................................................
..........................O.O............................................O.O.....OOOOO........................................................................................
...........................O.O....OO..........................OO............OO...O...O........................................................................................
...........................O..O...OO..........................OO............OO....O.O.........................................................................................
...........................O.O..............................................OO.....O...................................................................................O......
..........................O.O............................................O.O............................................................................................O.....
..........................O..............................................O............................................................................................OOO.....
