!Name: p02008
!C p02008 found using Karel Suhajda's Hersrch program
!C Scot Ellison - May 2003
!Source: guns2j-20090906
!
....................................................................................O....................O....................................
...................................................................................O.O.......O...........OOO..................................
....................................................................................O......OOO..............O.................................
.........................................................................O................O................OO.................................
.........................................................................OOO..............OO..................................................
............................................................................O......................................................O..........
...........................................................................OO....................................................OOO..........
................................................................................................................................O.............
................................................................................................................................OO.......OO...
.........................................................................................................................................O....
......................................................................OO.........................OO....................................O.O....
.......................................................................O.........................OO....................................OO.....
.......................................................................O.O....................................................................
........................................................................OO....................................................................
.....................................................................................OO.......................................................
................................................OO...................................O.O......OO..............................................
.................................................O.....................................O......O....................OO.......................O.
...............................................O..........OO...........................OO......O....................O......................O.O
.............................................OOOO.........O...................................OO.................OOO........OO..............O.
..........................................O.O....O......O.O......................................................O...........O................
........................................OOO.OO..OO......OO................................................................OOO.................
.......................................O..................................................................................O...................
....................................O..OOOO.OO................................................................................................
....................................OOO...O.OO.....................................OO....................................................OO...
.......................................O...........................................O.O...................................................O.O..
......................................OO.............................................O.....................................................O..
.....................................................................................OO....................................................OO.
.........................................................................................................................O.OO.................
.........................................................................................................................OO.O.................
..................................................................................................................................OO..........
..................................................................................................................................OO..........
............................................................................................................................................OO
............................................................................................................................................O.
..........O..................................................................................................................................O
.........O.O......OOO.......................................................................................................................OO
.........O.O......O..O........................................................................................................................
.......OOO.OO...O....O..OO....................................................................................................................
......O.........OOOO.O..OO........................................................OO..........................................................
.......OOO.OO....OOOO.............................................................OO..........................................................
.........O.OO.....................................OO......OO................OO................................................................
............................................OO....O.O......O................OO................................................................
.............................................O......O...OOO...................................................................................
..........................................OOO.......OO..O...................................O.................................................
................O.........................O..OOO..............................OO..........OOO...........................O.....................
................OO.........................O....O...........O..........OO.....OO.........O..............................OOO...................
.......O.O.....O..O......OO.............OOO....OO.........OOO..........OO................OO................................O..................
......O..O....OO.OO......OO.............O................O................................................................OO..................
......O...O...O..OO......................................OO..........OOOO.............................................OO......................
OO.....O.OO....OOO...................................................O..O.............................................O.......................
OO.......OO........................................................O.O..................................................O.....................
........OOO........................................................OO..................................................OO.....................
.............OO.............................OO................................................................................................
.............OO.............................OO................................................................................................
.................OO...........................................................................................................................
.................OO...........................................................................................................................
.............OO.....................................................................................................OO........................
..............O.....................................................................................................OO.................OO.....
...........OOO.........................................................................................................................OO.....
...........O..................................................................................................................................
.....................................................OO.......................................................................................
......................................................O.................................................................................OO....
...................................................OOO..................................................................................O.....
...................................................O.......................................................................OO............OOO..
..............................OO............................................................................................O..............O..
..........................OO....OOOO......................................OO.............................................OOO..................
..........................OO..OO.OOO......................................O.....OO..........................OO...........O....................
..............................O.............O..............................OOO.O.O..........................O.................................
.............................................O...............................O.O.......OO....................OOO..............................
...........................................OOO................................OO.......OO......................O..............................
