!Name: p02070
!Source: guns2j-20090906
!
.............................O..................................
...........................O.O..................................
...................O.....OO.....................................
..................O.O....OO............OO.......................
.................O...O...OO............OO.......................
.................OOOOO.....O.O..................................
................OO...OO......O..................................
.................OOOOO..........................................
..................OOO...........................................
...................O............................................
........O.......................................................
......O.O.......................................................
....OO..........................................................
....OO..........................................................
....OO..........................................................
......O.O.......................................................
........O.......................................................
...............................................OO..........OO...
...............................................OO..........OO...
..OOO........OO.................................................
.............OO.................................................
..O.O..............OOO..........................................
.OOOOO............O...O.....................................O...
OO...OO...........OO.OO...................................OO.OO.
OO...OO.........................................................
..................OO.OO........................OOO.......O.....O
....................O.........................O...O.............
...O.........................................O.....O.....OO.O.OO
.OO..........................................OO.O.OO............
O............O.......O..........................................
............O..O...O..O.........................O...............
.O..O...........O.O............................O.O..............
...OO...........O.O............................O.O..............
................O.O.............................O...O...........
............O..O...O..O............................O.O..........
.............OOO...OOO...........................OO...O.........
.................................................OO...O.........
.................................................OO...O.........
.............................O.O..O.O..............O.O..........
.........................OO.O..O..O..O.OO...........O...........
.............................O.O..O.O...........................
................................................O...............
.............OO.....OO...........................O..............
.............OO.....OO.........................OOO..............
