!Name: p02040
!Source: guns2j-20090906
!
..................OO.......................................................
..................OO................................O......................
.................................................OOOO......................
....OO..........................................OOOO.......................
....OO...................................OO.....O..O.......................
.........................................OO.....OOOO.....O.................
..................................OOO............OOOO....O.................
....OOO...........OOO............O...O..............O......................
....OOO..........OO.OO...........O...O.....................................
.................OO.OO............OOO......................................
.................OOOOO.....................................................
................OO...OO.....................................OOOOO..........
..OO...OO..................................................O.OOO.O.........
...OOOOO....................................................O...O..........
....OOO............OO.............OOO........................OOO...........
.....O...........OOOOO...........O...O........................O............
.....................O...........O...O.....................................
.................OOO..............OOO......................................
.................O.........................................................
..................OO............................................O..........
..................OO............................................O..........
.........................................................O.....O.O.........
......O..................................................O.O..OO.OO........
.......OO.........OO...OO................................OO..O.....O.......
......OO..........O.O.O.O.......................................O..........
...........O.O.....OOOOO.....................................OO...OO.......
...........OO.......OOO....................................................
............O........O.....................................................
.................................................................O.........
OO...OO..........................................................O.........
..OOO........O.O..................................................O........
.O...O........OO...........................................................
..O.O.........O............................................................
...O...................OO....................OO................OO..........
.......................O.....................O.O...............OO..........
........................OOO..................O.............................
..........................O................................................
...OO......................................................................
...OO....O..OO.............................................................
........O...OO..OO.........................................................
........O.......OO.........................................................
.........OOOO.......................................OOO.........OO.........
....................................................O.........O..O.......O.
...................OO..........................O.....O.......O.......OO...O
...................OO........................OOOO............O......O.....O
.......................................OO...O.O.OO...........O.......OOOOO.
.......................................OO..O..O.OOO...........O..O.........
............................................O.O.OO..............OO.........
............................O.....O.OO.......OOOO..........................
...............OO.O..........O....OO.O.........O...........................
...............O.OO........OOO.............................................
