!Name: p02244
!Cp02244    Scot Ellison - March 2003
!Source: guns2j-20090906
!
..........OO.......OO....................................................................................................................
..........O..OO.OO..O....................................................................................O...............................
...........OO.O.O.OO....................................................................................O.O................OO............
............O.....O............................OO..............O.......................................O...................O.............
............O.OOO.O...OO........................O..............OOO......................................O..O.............O.O.............
.............O...O.....O.............OO......OOO..................O........................................OO.....OOO....OO..............
.......................O.O...........OO......O...................OO......................................O........O..O...................
.............O...O......OO...............................................................................O..O........O...................
.............O...O.......................................................................O..........OO....OOO.....OO.....................
.......................................................................................OOO.........O.O.............O..O...............OO.
..............OOO.....................................................................O............O...................O..............O..
......................................................................................OO.......OO.OO................O.O.............O.O..
...OO..........................................................................................O.....................O..............OO...
....O..................................................OO....................................O.O..........................OO.............
....O.O................................................OO....................................OO...........................OO.............
.....OO..................................................................................................................................
...............................................................................................................OO........................
...............................................................................................................OO........................
....................................................OO...................................................................................
.........................OO.........................O....................OO.......................O............................OO........
.........................OO......OO...OO.............O....................O......................O.O...........................O.O.......
..................................O..O..............OO.................OOO........OO..............O..............................O.......
...............................OOO......O..............................O...........O.............................................OO......
...............................O......OO........................................OOO......................................................
................................................................................O........................................................
...............................................................................................OO........................................
...............................................................................................O.O.......................................
.................................................................................................O.......................................
.................................................................................................OO......................................
...............................................................................O.OO......................................................
...............................................................................OO.O......................................................
..OO....................................................................................OO...............................................
.O.O....................................................................................OO........................OO..........OO.........
.O...............................................................................................................O..O..OOOO..O..O.......O
OO...............................................................................................................OOO..OOOOOO..OOO.....O.O
....................................................................................................................OOOOOOOOOO.........OO
...................................................................................................................O..........O..........
...................................................................................................................OO........OO..........
.......................................................................................................OO................................
..........OO..........................................................................................O.O................................
..........OO.........................................................................................OOO.................................
.....................................................................................................OO.OOO..............................
.................O.OO................................................................................OOOO....O..........OOO..............
.................OO.O...............................................................................OO...................................
.OO................................................................................................O...................O...O.............
..O....................................................................................................O..O............O...O.............
..O.O...................................................................................................O...OO.......O.......O...........
...OO............................................................................................O...O...O.........OO....O....OO.......OO
................................................................................................O.OO..O..O.........O....O.O....O.......OO
...................O............................................................................O.....O............O...O...O...O.........
.................OOO........................................OO......O..........................OO......OOO..........OO.O...O.OO..........
................O...........O..............................O......OOO.................................................O.....O............
.O..............OO........OOO.................OO..............O..O....................................................O.....O............
O.O......................O....................O.............OO...OO......OO....................OO......OOO..........OO.O...O.OO..........
.O.......................OO....................O.........................OO.....................O.....O............O...O...O...O.........
..............................................OO................................................O.OO..O..O.........O....O.O....O.......OO
.................................................................................................O...O...O.........OO....O....OO.......OO
........................................................................................................O...OO.......O.......O...........
......................OOO..............................................................................O..O............O...O.............
.....................O....O........................................................................O...................O...O.............
.....................OO.O....................................................................OO.....OO...................................
.....OO..................OOO...............OO................................................O.O.....OOOO....O..........OOO..............
....O.O.....................O..............OO..................................................O.....OO.OOO..............................
....O..........................................................................................OO....OOO.................................
...OO.......OO........................................................................................O.O................................
.............O.........................................................................................OO................................
..........OOO......................................................................OOO...................................................
..........O.........................................................................O....................................................
..........................................................................OO........................................OO........OO.........
.................................OO...................O......OO...........O.O......OOO..............................O..........O.........
.................................O..................OOO......OO.............O.....O...O..............................OOOOOOOOOO..........
..................................OOO..............O........................O.OO.O.....O.OO.......................OOO..OOOOOO..OOO.......
....................................O..............OO....................OO.O..O.O.O.O.O.O........................O..O..OOOO..O..O.......
.........................................................................OO.O..O.O.O.O.O..O........................OO..........OO........
.............................................................................OO...OO.OO..OO..............................................
