!Name: p02340
!Source: guns2j-20090906
!
.....................OO......................................................................
.....................O..O....................................................................
.......O.O...............O...................................................................
.....O...O..OOO..........O......OO...........................................................
.....O...................O......OO...........................................................
....O....O.......OO..O..O....................................................................
.....O.......O.O..O..OO......................OO..............................................
.....O...O.....OOO..........................O................................................
.......O.O.................................O............OO...................................
.................................OO........O.......O....OO...................................
.................................OO........O........OO.....OO................................
........................O...................O....OO..O.....OOO.....OO........................
...O.....................O...................OO.OOOOO......OO......OO........................
..OOO..................OOO.........................O....OO...................................
..OOO...................................................OO...................................
OO...OO......................................................................................
OO...OO......................................................................................
................................................OOO..........................................
................................O.................O..........................................
...O..........................O.O................O...........................................
..O.O..........................OO............................................................
.OO..........................................................................................
.OO.................................O........................................................
.OOO................................O..OO...............OO...................................
..O.O.............................OOO.O.................O.O..................................
...OO...................................O..........OO......O...........O.O...................
...............................................OO.O..O..O..O..........O..O....O..............
.....................................OO........OO..OO......O.........OO.....OO...............
.....................................OOOO...............O.O........OO...O........OO..........
......................................OOO...............OO...........OO..........OO..........
............................O.........................................O..O...................
...........................O...........................................O.O...................
...........................OOO...............................................................
....................OO.......................................................................
....................OO....O..................................................................
.........OO......OO......OOOOO.OO...................O.O....OO................................
.........OO.....OOO.....O..OO....O..................OO......OO..............OO..........OO...
.................OO.....OO........O........OO........O.....O................O.O.........OO...
....................OO....O.......O........OO................................OOO.............
....................OO............O...........................................OO.............
.................................O............................................OO.............
...............................OO...........................................O.O..............
..............................................O.....O........................O...............
............................................OO......OO.......................................
.............................................OO....O.O.......................................
..........................................................................OO...OO............
..........................................................................OO...OO............
............................................................................OOO........OOOOO.
............................................................................OOO.......O.OOO.O
.............................................................................O.........O...O.
................................O.O......................OO.............................OOO..
................................O..O.....................O...............................O...
.......................OO..........OO...........OO.....O.O...................................
.......................OO........O...OO........O.O.....OO............................O.......
............................OO.....OO.........O.....................................OO.......
...........................O....O..O..........O..O.................................OO....OO..
................................O.O...........O...................................OOO....OO..
...............................................O.O.........OOOOOO..................OO....OO..
................................................OO........O......O..................OO.......
.........................................................O........O..................O.......
..........................................................O......O...........................
...........................................................OOOOOO.........O..................
...........................................................................O.................
.........................................................................OOO.................
