!Name: p02304
!Source: guns2j-20090906
!
.....................OO.........................................................................................
.....................O.O............................................................................OO..........
......................OOO...........................................................................O...........
.......................OO.........................................................................O.O...........
....................OO............................................................................OO............
....................OOO.........................................................................................
..........O..........OO.........................................................................................
.........O.OO........OO.........................................................................................
........O..O....................................................................................................
.........O..O.O.................................................................................................
............O.................OO........................OO......................................................
...........OOO................OO........................OO......................................................
......................................OO...................................................OO...................
.....................................O..O..................................................OO...................
......................................OO...O........................................OO..........................
..........................................OOOO.....................................O.O..........................
.........................................O.............................O...........O............................
........................................O.O............................O..........OO............................
.....................OO...................OOOOO....................O.OO.O.......................................
...............OO...O.O..........................................OO.OO..........................................
...............OO..OOO...................OOOOO...................OO.O.O.O.......................................
OO.................OO........................O.O...............O.O.O...O........................................
OO....................OO......................O................OO......O...............OO.......................
.....................OOO..................OOOO..........................................O.......................
............................................O...OO...................................OOO........................
.....O.O.......................................O..O.......OO......OO.OO..............O..........................
......O..............OO.........................OO........OO.........OO........................................O
.....................OO.......OO....................................O........................................O.O
...............O..............OO..............................................................................OO
..............O.O.......................................................O.O.....................................
..............O.O......................................OO..................O....................................
...............O...................................OO.O..O.OO..........O....O..OO................OO.............
...................................................O....O..OO..........OO.O..O.OO.......OO.......OO.............
.........OO.O..........................................O...................OO............O......................
......O.O...O..................OO...................O.O..................................O.O....................
......O...O.O..................OO...................................................OO....OO....................
......O.OO........................................................OO.................O....................OO....
...................................................................O.................O.O..................O.....
...O..............................................................O...................OO................O.O.....
..O.O.............................................................OO....................................OO......
..O.O....................................................OO.....................................................
...O...........................O.........................O.O....................................................
................................O.........................O................................O....................
............O.................OOO.........................................................OO....................
...........O.O...........................................................................O....O.................
.....................................................................OO...................O....O................
......................................OO.............................OO.......................O.................
OO...............OO...................OO.....................................................O..................
OO...............OO.............................................................................................
..................................................................................O.............................
.............................................O.......OO..........................O..................OO..........
...........................................OO......OO..O.........................OOO................O...........
...................................................O..OOO............................................OOO........
......................................................O................................................O........
.........................OO...........................O.......................OO................................
.........................OO.........................O..........................O................................
.............................OO.............................................OOO.................................
............................O.O.............................................O...................................
............................O.........................................................OO........................
...........................OO..........................................................O........................
........................................OO.............................................O.O......................
........................................OO..............................................OO......................
..........................................OO....................................................................
..........................................OO....................................................................
