!Name: p02392
!Source: guns2j-20090906
!
...........................OO.....OO..............................................
.......................OO..OO.....OO..OO..........................................
.......................OO.............OO........OO.....OO.........................
................................................OO.....OO.........................
.............................................................................O.O..
.................................................................OO.........O.....
................................................................O..O...OO..O....O.
...............................................................O.O.O...OO.O..O.OO.
...............................................................O..O........OO.....
..............................................................O...................
...............................................................O.O................
...........................OO.....OO..............................................
...........................O.OO.OO.O.............O.....O..........................
............................O.O.O.O.............OOO...OOO..................OO.....
............................O.O.O.O............OO..O.O..OO.................OO.....
...........................O.......O..........O.OOOO.OOOO.O.....................OO
...OO...........................................OOO...OOO............OOO........O.
..OOO..........OO.......................OO.....OOO.....OOO...........O..O.....O.O.
.O.O..O..OO...O..O......................OO..........................O.........OO..
.OO..OO..OO...O.O............OO.OO..................................OO...O........
.....OO........O.OO........O..O.O..O.................................O...OO.......
................OOO........OOO...OOO..........................O........O.O........
.................OO.........O.....O..........................O.O.............O....
............................................O.................O........O..O...O...
....................OO....................OOO....OO.................O..........O..
....................OO......O.....O.......OO....OOOOO...............O.OO...O.OO...
.....OO.......O............OOO...OOO.....O.......OOO.O..............O...O.........
.....OO......O.O..........OO..O.O..OO.....OO.O.....O.O............................
OO...........O.O..........OO.OO.OO.OO.....OOOO....................................
.O............O..............OO.OO..........O.....................................
.O.O.......................O.O...O.O......................................OO......
..OO.........O............O..O...O..O.....................O.O.....................
...........OOOO..............O...O........................OO....OO........OO......
...........OO..O..........O.O.....O.O......................O....OO.......O........
..........O....O...O.......O.......O..............................................
.........OO.O.OO..O.O.............................................................
...O....OOOO.......O..............................................................
..O.O...OOOO...............................................................O.O....
...O....OOOOO................................OO...................O.O.........O...
.........O..OO...............................OO..................O........O..O....
..........OOO...............................................OO..O....O...O.O.O....
...........O................................................OO.O..O.OO...O..O.....
................................................................OO........OO......
................OO...........OO.OO................................................
................OO............O.O.................................................
..............................O.O.................................................
...............................O..................................................
....OO............................................................................
....OOO.......OO..................................................................
....OO.O.....OOO..................................................................
......O.O...O.O..O..OO............................................................
.....O..O...OO..OO..OO............................................................
......OO........OO................O...............................................
...................................O..............................................
.................................OOO..............................................
