!Name: p02456
!C p02456 found using Karel Suhajda's Hersrch program
!C Scot Ellison - May 2003
!Source: guns2j-20090906
!
.....................................................................................................................................O.OO.....................................
.....................................................................................................................................OO.O.....................................
..............................O......................OO.......OO..............................................................................................................
..............................OOO....................OO.......O.O...............O.........O...................................................................................
.................................O..........................O.O.OOO.............OOO.....OOO.............................O..........................................O..........
....................O...........OO..........................OO.....O...............O...O.............OO.................OOO......................................OOO..........
..................OOO.............................................OO..............OO...OO.............O....................O....................................O.............
..O..............O...................................................................................O....................OO...........OO.......................OO.......OO...
..OOO............OO..................................................................................OO................................OO................................O....
.....O.................................................................................................................................................................O.O....
....OO.................................................................................................................................................................OO.....
.....OO.......................................................................................................................................................................
.....OO.................OO..............................................................................OO....................................................................
........................OO..............................................................................OO....................................................................
...................................................................................................................................................OO.......................O.
.............................................................................................................................................OO.....O......................O.O
..........................................................................................................................................OO..O..OOO........OO..............O.
..........................................................................................................................................OO.O...O...........O................
.....................OO..................................................OO..................................................................O.O.O........OOO.................
.....................O..................................................O.O...........OO......O...........................................OO.O.OO.........O...................
......................OOO...............................................O.............OO......OOO...................................OO....O..O................................
........................O..............................................OO........................O..................................OO......OO...........................OO...
..................OO............................................................................OO.......................................................................O.O..
..................O................................OO......................................................................................................................O..
...................OOO..............................O......................................................................................................................OO.
.....................O...........................OOO.....................................................................................................O.OO.................
.................................................O.......................................................................................................OO.O.................
..................................................................................................................................................................OO..........
..OO..............................................................................................................................................................OO..........
.O.O..................................................................................................OO......................................................................
.O...................................................................................................O.O......................................................................
OO...................................................................................................O........................................................................
....................................................................................................OO........................................................................
........................................................................OO....................................................................................................
........................................................................O...................................................................................................OO
......................................................................O.O...................................................................................................O.
......................................................................OO..................................................................................................O.O.
..........OO..............................................................................................................................................................OO..
..........OO..................................................................................................................................................................
.................O.OO.......................................................................................................O.................................................
.................OO.O.....................................................................................................OOO...........................O.....................
.OO......................................................................................................................O..............................OOO...................
..O......................................................................................................................OO................................O..................
..O.O.......................................................................OO............................................................................OO..................
...OO...........................OO......OO..................................O........................OO..............................................O........................
................................O..O....OO...................................OOO......OO.............O...............................................OOO......................
...................O.........OO.O.OO...........................................O......OO...........O.O..................................................O.....................
.................OOO........O.O.O..................................................................OO..................................................OO.....................
................O...........O...O.OO..........................................................................................................................................
.O..............OO........OOO..O..OO..........................................................................................................................................
O.O.......O..............O.....OO.............................................................................................................................................
.O.......O...............OO...................................................................................................................................................
........OO....................................................................................................................................................................
..........O.........................................................OO..............................................................................OO........................
..........O...O.....................................................OO..............................................................................OO.................OO.....
............OO.........................................................................................................................................................OO.....
........O.....................................................................................................................................................................
.....OO.................................................................................................................................................................OO....
....O.O.................................................................................................................................................................O.....
....O................................OO................................OO..................................................................................OO............OOO..
...OO.......OO.......................OO...........OO....................O...................................................................................O..............O..
.............O....................................O....................O.............OO...OO..............OO.............................................OOO..................
..........OOO......................................OOO.................OO.............O...O...............O.....OO..........................OO...........O....................
..........O..........................................O.............................OOO.....OOO.............OOO.O.O..........................O.................................
...................................................................................O.........O...............O.O.......OO....................OOO..............................
.........................O....................................................................................OO.......OO......................O..............................
....................OOO.OO..OO................................................................................................................................................
....................OOOO....OO.......O........................................................................................................................................
........................OO............O.......................................................................................................................................
....................................OOO.......................................................................................................................................
