!Name: p02680
!C Added two of Dieter Leithner's p5 pulse dividers to an existing gun
!C Scot Ellison   December 2002
!Source: guns2j-20090906
!
........................................OO.....................................................................
...........................O............OO.....................................................................
...........................OOO.................................................................................
..............................O.......OOOO.....................................................................
.............................OO......O....O.O..................................................................
.....................................OO..OO.OOO................................................................
...............................................O.........OO....................................................
.........................................OO.OOOO..O.......O..OO................................................
.........................................OO.O...OOO.......O.O..O...............................................
...............................................O.........OO.O.O.O.OO...........................................
...............................................OO.........O.O.O.OO.O...........................................
.....OO.................................................O...OOO................................................
......O................................................O.OOO.O.OOOO...........OO...............................
......O.O..............................................O...........O..........OO...............................
.......OO..OO...........................................OOO.O.O.OOO............................................
...........OO.............................................OO.O.OO..............................................
.........................O.....................................................................................
.........................OO....................................................................................
........................O.O....................................................................................
...................................................................................OO..........................
..............OOO..................................................................OO..........................
.............O.O.O.O...........................................................................................
.............O...O.OO..........................................................................................
.............OO..O.O...........................................................................................
...............O.....O.....................................................................OO..................
...............O..O.OO......................................................................O..OO..............
.....OO.........O.OO...............OO.......................................................O.O..O.............
....O.O................OO.........O.O....OO................................................OO.O.O.O.OO.........
....O..................O.O........O......O..................................................O.O.O.OO.O.........
...OO....................O.......OO.......OOO.............................................O...OOO..............
...................OO....OO.................O............................................O.OOO.O.OOOO..........
...................O..O..................................................................O...........O.........
.....................OO...................................................................OOO.O.O.OOO..........
............OO..............................................................................OO.O.OO............
............OO...............................................................................................OO
........................................................OO...................................................O.
.........................................................O.................................................O.O.
......................................................OOO..................................................OO..
...O..................................................O..........................................OO............
..O.O............................................................................................OO............
..O.O..........................................................................................................
.OO.OO.........................................................................................................
.OO.OO................................................................................OO.......................
..O.OO................................................................................OO.......................
O..............................................................................................................
OO....................................................................................................OO.......
......................................................................................................O.O......
.......................O................................................................................O......
.....................OOO................................................................................OO.....
....................O..........................................................................................
....................OO.........................................................................................
................................................................OO.............................................
................................................................OO.............................................
.......................................................OO......................................OO..............
.......................................................O..O....................................O...............
.................................O.................OO....OO..................................O.O...............
.................................OOO.......OO.......O....................OO..................OO................
....................................O......O........O.O..................O.....................................
...................................OO....O.O.........OO................O.O...OO................................
.........................................OO............................OO....OO................................
..............................................................................................................O
............................................................................................................O.O
.............................................................................................................OO
...OO...................................................................................OO.....................
..O.O...................................................................................OO.....................
..O...............................................................................................OO...........
.OO...............................................................................................O.O..........
....................................................................................................O..........
....................................................................................OOOOO...........OO.........
...................................................................................O.....O.....................
.............OO.O.OO.............................................OO..............OOO.....OOO...................
...........OOO.O.O.OOO...........................................OO..OO.........O...........O..................
..........O...........O..............................................O.O........O.OOO.O.OOOO...................
...........OOOO.O.OOO.O................................................O.........O...OOO.......................
...............OOO...O.................................................OO..........O.....OO.O..................
..........O.OO.O.O.O.........OO...................................................OO.O.O.O.OO..................
..........OO.O.O.O.OO.........O....................................................O.O..O......................
..............O..O.O.......OOO...O.OO..............................................O..OO.......................
...............OO..O.......O..OOOO.OO.............................................OO...........................
...................OO.........O................................................................................
...............................OOO.OO..OO......................................................................
.................................O.O....O......OO..............................................................
....................................OOOO.......O...............................................................
................................................OOO............................................................
....................................OO............O............................................................
....................................OO.........................................................................
