!Name: p02720
!C Added two of Dieter Leithner's p5 pulse dividers to an existing gun
!C Scot Ellison   December 2002
!Source: guns2j-20090906
!
...............................OO.......OO........................................................................................
..............................O.O.......OO........................................................................................
............................OOO.O.O...........................O...................................................................
..OO.......................O.....OO.........................OOO...........O.......................................................
...O.......................OO..............................O..............OOO.....................................................
...O.O.....................................................OO................O..............O.....................................
....OO..OO..................................................................OO............OOO.....................................
........OO...............................................................................O........................................
.........................................................................................OO.......................................
....................OOO...........................................................................................................
......................O.................................................................OO........................................
..............OOOO...O...............................................OO.................OO....................OO..................
.............OO......................................................OO........................................O..OO..............
............OO.O..O............................................................................................O.O..O.............
.............O.O.OO...........................................................................................OO.O.O.O.OO.........
..............OO.O..........................O..................................................................O.O.O.OO.O.........
...............OO..........................O.OO..............................................................O...OOO..............
..OO......................................O......O..........................................................O.OOO.O.OOOO..........
.O.O................OO.....................O............................OO..................................O...........O.........
.O..................O.O..................................................O...................................OOO.O.O.OOO..........
OO....................O......................O....O...................OOO......................................OO.O.OO............
................OO....OO......................O.......................O.........................................................OO
................O.O............................O...........................OO...................................................O.
..................O.......................OO................................O.................................................O.O.
.........OO.......OO......................O..............................OOO..................................................OO..
.........OO................................OOO...........................O..........................................OO............
.............................................O......................................................................OO............
OO................................................................................................................................
.O................................................................................................................................
O........................................................................................................OO.......................
OO.......................................................................................................OO.......................
.........................................................................................................................OO.......
.........................................................................................................................O.O......
...........................................................................................................................O......
...........................................................................................................................OO.....
................................................O.................................................................................
....................O...........................OOO................................OO.............................................
..................OOO..............................O......................OO.......OO.............................................
.................O................................OO.......................O......................................OO..............
.................OO........................................................O.O....................................O...............
.......................O..............................................OO....OO..................................O.O...............
.....................OOO...............................................O....................OO..................OO................
....................O..................................................O.O..................O.....................................
....................OO..................................................OO................O.O...OO................................
..........................................................................................OO....OO................................
.................................................................................................................................O
...............................................................................................................................O.O
................................................................................................................................OO
...........................................................................................................OO.....................
.......................OO..................................................................................OO.....................
....OO.................OO............................................................................................OO...........
....OO...............................................................................................................O.O..........
.......................................................................................................................O..........
.......................................................................................................OOOOO...........OO.........
...OO.................................................................................................O.....O.....................
....O...............................................................................OO..............OOO.....OOO...................
.OOO............OO..................................................................OO..OO.........O...........O..................
.O..............O................OO.....................................................O.O........O.OOO.O.OOOO...................
.................OOO..............O..............................OO.......................O.........O...OOO.......................
...................O...........OOO.........................OO.....O.......................OO..........O.....OO.O..................
...............................O...........................O.O.OOO...................................OO.O.O.O.OO..................
....................................................OO.......O.O......................................O.O..O......................
....................................................OO.......OO.......................................O..OO.......................
.....................................................................................................OO...........................
