!Name: p02860
!Cp02860    Scot Ellison - March 2003
!Source: guns2j-20090906
!
...............................................................................................................................OO......OO...............................................................
................OO..........OO.................................................................................................OO......OO...............................................................
...............O..O........O..O.........................................................................................................................................................................
...............OOO..........OOO.......................................................OO..........OO....................................................................................................
..................OOOOOOOOOO.........................................................O..O..OOOO..O..O...................................................................................................
.................O..OOOOOO..O........................................................OOO..OOOOOO..OOO...................................................................................................
.................OO..OOOO..OO...........................................................OOOOOOOOOO......................................................................................................
.......................................................................................O..........O............OO......................................OO...............................................
.......................................................................................OO........OO...........O.O......................................O.O..............................................
..............................................................................................................O.O.OO................................OO.O.O..............................................
...............................................................................................................O.O.O................................O.O.O...............................................
.............................................................................................O...................O....................................O.................................................
.....................OOO.....................................................................O..................O..O................................O..O.........................OO..........OO.........
......................O.....................................................................O.O.................O................O....O................O........................O..O........O..O........
....................OO.OO...........OO.......................................................O..................O...O...........OO....OO...........O...O........................OOO..........OOO........
....................OO.OO...........O........................................................O..................O...O...O......O........O......O...O...O...........................OOOOOOOOOO...........
..............O..O...O.O...O..O..OO.O.........................................OO................................O........O......OO....OO......O........O..........................O..OOOOOO..O..........
............O.....O..O.O..O........O...........................................O................................O..O....O........O....O........O....O..O..........................OO..OOOO..OO..........
.......OO..O.....O...OOO...O...................................................O.O...............................O....................................O.................................................
.......OO..O..........................OO.......O................................OO.............................O.O.O...O........................O...O.O.O...............................................
...........OO.OO.............OO.OO....OO.....OOO......................................................O.O..OO.O.O.OO...O........................O...OO.O.O..............................................
.............OO...............OO............O.......................O......OO...............OOO.......O.O..OO.O.O......................................O.O.................................O............
..............O...............O.............OO......................OOO....OO...............OOO........OO......OO......................................OO.................................O.OO..........
..............O...............O...........OOO..........................O.....................O............................................OO.............................................OO.O...........
.............OO...............OO.........O.O..........................OO.................................................................OOO.............................................O.O............
...........OO.OO.............OO.OO......OO.O..............................................................................................OO.OOO.........................OO............OOO..............
.......OO..O.....................O........O.....................................O..O.........O...............................................OO...........................O............OOO..............
.......OO..O.....O...OOO...O.....O.......OO.OO.................................O...O........OOO........OO....................OO..........................O................O.O...........................
............O.....O..O.O..O.....O........OOOOOO................................O....O.......OOO.......O.O..OO.................O........................OOO..O..............OO...........................
..............O..O...O.O...O..O..........O...O.................................OO...O.................O.O..OO..............OOO........O...............O...OOO.........................O...O...........OO
....................OO.OO.................O..........................O...........O..O......................................O........O...OO........O..O..OO.....O.......OO.............O...O...........OO
....................OO.OO..........................................OO............OOO................................................O.....O.......OO.O....O....OOO.....OO...............................
......................O.............................................OO..........................................................OOOO.....OO.......O..O..OOO.......O....................OOO..............
.....................OOO........................................................................................................OOO.OOO.O.............O....OO....OO.....................................
.............................................................................................O......................................OO.................OOO..O...........................................
.....................................OO......................................................O...........................................................OO............OO..............OOO..............
.....................................O......................................................O.O.......................................................................OO.O.O.OO.........................
......................................OOO....................................................O....................................OO...................................O.O.O..........O...O...........OO
........................................O...............O....................O...............O...................................O.O...................................OO.....O.......O...O...........OO
.................OO..OOOO..OO.............................O.................OOO..................................................O......................................O..OO...........................
.................O..OOOOOO..O............................O.O................OOO.................................................OO.......................................OO....O........................
..................OOOOOOOOOO.............................O.O................O.O........OO........OO............................................................................OO......OOO..............
...............OOO..........OOO...........................O.................OOO........O..........O...........................................O.............O.O..............O..O......OOO..............
...............O..O........O..O............................................OOOOO........OOOOOOOOOO.............................................O............OO................OO.........O.O............
................OO..........OO............................................O.....O....OOO..OOOOOO..OOO........................................OOO.............O................O..........OO.O...........
............................................................O.............O.....O....O..O..OOOO..O..O.....................................................................................O.OO..........
...........................................................OO............OO.O.O.OO....OO..........OO....................................................................OO.................O............
.......................................................OOO.O.............O..OO.O.........................................................................................O..............................
.......................................................OOO.................O...O......................................................................................OOO...............................
.......................................................O..O...............OO...OO.....................................................................................O.................................
............................OO...OO......................OO........................................................................................OO.............................OO..OOOO..OO..........
.............................O...O.................................................................................................................OO.............................O..OOOOOO..O..........
.............................O.OO..O...............................................................................................................................................OOOOOOOOOO...........
.........OO..........OO....OO.O.O.OO............................................................................................................................................OOO..........OOO........
........O..O........O..O....O.O.O.O.............................................................................................................................................O..O........O..O........
........OOO..........OOO....O.OOO.O..............................................................................................................................................OO..........OO.........
...........OOOOOOOOOO........OOOOO......................................................................................................................................................................
..........O..OOOOOO..O.......................................................................................................................................................OO.........................
..........OO..OOOO..OO.......................................................................................................................................................O..........................
....................................................................................................................................................................OOO....O.O..........................
..............................OOO....................................................................................................................................O.....OO...........................
...............................O.............O.....................................................................................................................O....OO..............................
...............................O.............OO.....................................................................................................OO..............OO...O..............................
............................................O.O...................................................................................................O..OOO............OO.OOO..............................
..........................O.......................................................................................................................OO....O.OO.................OO.........................
.........................O.O........................................................................................................................OO.O.....O...............OO.........................
.......................O...O...OOO..................................................................................................................O..O.....O..........................................
.......................O.OO...O...O..................................................................................................................O.O.....O.....................O....................
..............OOO.....OO..O..O.....O..............................................................................................................OOO...O.OO.....................OOO....................
.............O...O....OO......O...O...............................................................................................................O..OOO........................O.......................
OO..........O.....O....O.O.....OOO...................................................................................................................O..........................OO......................
OO..........O.....O.....O..............................................................................................................................................O......OOO.......................
............OOO.OOO...................................................................................................................................................OOO....OOO........................
.....................................................................................................................................................................OO..O..O..OO.......................
......................................................................................................................................................OO.............OO..O..O..OO.............OO........
.....................................OO..............................................................................................................O.O.............O...O..O...O.............O.O.......
.....................................O...............................................................................................................O.O.OO.........OO.O......O.OO.........OO.O.O.......
............OOO.OOO.............OO....OOO.............................................................................................................O.O.O.........OOO........OOO.........O.O.O........
OO..........O.....O.............OO......O...............................................................................................................O....................................O..........
OO..........O.....O...................................................................................................................................O..O..................................O..O........
.............O...O.........OO............................................................................................................................O.........O..............O.........O...........
..............OOO..........O.O.......................................................................................................................O...O.......O.OOO..........OOO.O.......O...O.......
.............................O.......................................................................................................................O...O.....OO.....OO......OO.....OO.....O...O.......
.............................OO..........................................................................................................................O.......O.OOO..........OOO.O.......O...........
......................................................................................................................................................O..O.........O..............O.........O..O........
........................................................................................................................................................O....................................O..........
......................................................................................................................................................O.O.O................................O.O.O........
.....................................................................................................................................................O.O.OO.........OOO........OOO.........OO.O.O.......
.....................................................................................................................................................O.O............OO.O......O.OO............O.O.......
......................................................................................................................................................OO.............O...O..O...O.............OO........
.....................................................................................................................................................................OO..O..O..OO.......................
..........OO..OOOO..OO...............................................................................OO..............................................................OO..O..O..OO.......................
..........O..OOOOOO..O...............................................................................OO...............................................................OOO....OOO........................
...........OOOOOOOOOO..................................................................................................................................................O......O.........................
........OOO..........OOO................................................................................................................................................................................
........O..O........O..O................................................................................................................................................................................
.........OO..........OO.......................................................................................O.....O.OO..............................................OO......OO........................
.................................................................................................OO.O..........O....OO.O..............................................OO......OO........................
.................................................................................................O.OO........OOO........................................................................................
