!Name: p03000
!Source: guns2j-20090906
!
..............OO..............................................................
.....O........OO..............................................................
....O.....O......OO....................................................OO.....
....O.OO...O.....OOO.....OO............................................OO.....
.....OOOOOO......OO......OO...................................................
......OOOO....OO..............................................................
..............OO..............................................................
..OO.O.OO.....................................................................
..O.....O.....................................................................
..........................O.O.................................................
...OO.OO................O...O........................................OO.O.OO..
.....O..................O...................O.................................
.................OO....O....O..............OOOO......................O.....O..
.................OO.....O............O....OO.O.O..............................
........................O...O...O.OO.....OOO.O..O..OO.................OO.OO...
..........................O.O..O.OOOO.....OO.O.O...OO...................O.....
...............................OO..OO......OOOO.................OO............
.........OO.................................O...................O.............
..OOO..................................................OO.....O.O.............
.O...O...............................................O..O.....OO..............
........................................O.O.........O.........................
O.....O.................................O...O.......O..............OO.........
OO...OO.................O.O.................O.......O....................OOO..
........................OO....OO........O....O.......O..O...............O...O.
.........................O....OO............O..........OO.....................
...O....................................O...O..........................O.....O
..O.O...................................O.O........O.O.................OO...OO
..O.O...............................................OO........................
..O...........OOO.........O.........................O.........................
..O...........O..O.......O....OO..........................................O...
..O..O.........O........OO....OO.........................................O.O..
...OO....................................................................O.O..
..........OO.O..O..................................O.........OOO...........O..
..........O.....O......O..O...OOO.............OO....O.......O..O...........O..
...........O...O........O......OO.............OO....OO........O.........O..O..
............OOO.............OO...........................................OO...
..................OOO.......OOO..........O...................O..O.OO..........
.............................O.O.......OOO...OOO...O..O......O.....O..........
..............................OO......O......OO......O........O...O...........
......................................OO........OO.............OOO............
...............................................OOO.......OOO..................
..............................................O.O.............................
..............................................OO..............................
....OO........................................................................
.....O........................................................................
..OOO.........................................................................
..O...........................................................................
...........................OO...........................................OO....
..........................O.O...........................................O.....
..........................O..............................................OOO..
.........................OO................................................O..
....................................OO........................................
...................................O.O........O...............................
...................................O...........O..............................
..................................OO.........OOO..............................
