!Name: p03128
!Source: guns2j-20090906
!
...............................................................OO.....OO............OO.....OO...............................................................
...............................................................OO.....OO............OO.....OO...............................................................
.........................................OOO.........................................O.....O................OO..............................................
................................OO.....O....O...........OO..........................OOO...OOO.....OO......OO.OO.............................................
.......................................O.....O..........OO.........................OO.OO.OO.OO....OO......O..O..............................................
........................OO..................O.................OOO.....OOO.........OOO.......OOO...........O..O.........................OO...................
.........OO...........OO..O...............OO..................OOO.....OOO..................................OO..........................O.O.......OO.........
.........OO...........OOOOOO...................................OO.....OO............O.......O..........................................O.OO......OO.........
......................OOOO................OO.....................O...O.....................................OO...........................OO..................
...................................O........O..................O..O.O..O..................................O..O..........................O...................
....................................O..O.....O..........OO....O...O.O...O.........................OO......O..O..............................................
..................................OOO..O....O...........OO.....O..O.O..O..........................OO......OO.OO.........................O...................
......................OOOO...............OOO...................OOO...OOO....................................OO.......O..................OO..................
.........OO...........OOOOOO.........................................................................................O.O...............O.OO......OO.........
.........OO...........OO..O..........................................................................................OO................O.O.......OO.........
........................OO.........................................O.....O...............O.............................................OO...................
..................................................................OOO...OOO...............O.................................................................
.................................................................OO..O.O..OO............OOO.................................................................
.................................................................OO.OO.OO.OO................................................................................
.............OO.....OO..............................................OO.OO.............................................................OO.....OO.............
.............OO.....OO............................................O.O...O.O...........................................................OO.....OO.............
...............................................O.................O..O...O..O................................................................................
.............................................O.O....................O...O........O.......O..................................................................
..............................................OO.................O.O.....O.O...O.OO.....OO.O..............O.................................................
.........................................................O........O.......O....O...OO.OO...O.............O..................................................
........................................................O.......................O...O.O...O..............OOO................................................
........................................................OOO......................OOO...OOO..................................................................
...................................................................O.................................O......................................................
..................................................................O.O..............................O.O......................................................
....................................................................................................OO......................................................
................................................................O.....O.....................................................................................
...................................................................O........................................................................................
...............O...O............................................OO...OO.....................................................................................
...............O...O..................................................................................................................OO.....OO.............
.....................................................................................................................................O..O...O..O............
......................................................................................................................................O..O.O..O.............
............OO.O...O.OO......................O..................OO...OO..................................................................O.O................
.............OOO...OOO.......................O.O...................O.....OO......OO....................................................OOO.OOO..............
..............O.....O........................OO.................O.....O..OO......OO.............................O....................OOO.....OOO............
.................................................................................................................O...................OO.......OO............
..................................................................O.O..........................................OOO...................OO.......OO............
...................................................................O..................................................................O.OO.OO.O.............
......................................................................................................................................OOO...OOO.............
.......................................................................................................................................O.....O..............
.............OO..............................................................................................................................OO.............
.............OO...................O..........................................................................................................OO.............
.................................O..........................................................................................................................
.................................OOO........................................................................................................................
............................................................................................................................O...............................
.....................................................................................OO.OO.O..............................O.O...............................
....................................................................................O.O.O.OO...............................OO...............................
.....................................................................................O......................................................................
...............O.............................................................................OO..................................O...O......................
..............OO........OO...................................................................O.O................................O.O.O.O........OOOO.........
OO...........OOO.O.....O..O...................................................................OOO.............................OO..O.O..OO......O..OO......OO
OO..........OO........OO.OOO...................................................................OO.............................OO.......OO.......O..OO.....OO
.............OO........OO.O.................................................................OO................................OO..O.O..OO.......O..O........
..............O..........O..................................................................OOO.................................O.O.O.O..........OO.........
.................................................................................................................................O...O......................
..............O..................................................................................................................................OO.........
.............OO...........................................................O..................OO.................................................O..O........
OO..........OO.............OO.............................................OO.................OO................................OO...............O..OO.....OO
OO...........OOO.O.........OO............................................O.O...................................................OO..............O..OO......OO
..............OO...............................................................................................................................OOOO.........
...............O............................................................................................................................................
.........................................OO..............OO.................................................................................................
.........................................OO...............OO................................................................................................
......................................................OOOOO.................................................................................................
......................................................OOOO.............OOO..............OO..................................................................
.......................................................................O...O............OO..................................................................
......................................................OOOO.............O....O...............................................................................
......................................................OOOOO.............O...O...............................................................................
.........................................OO...............OO................................................................................................
.........................................OO..............OO.............O...O...............................................................................
.......................................................................O....O...............................................................................
.......................................................................O...O............OO..................................................................
.......................................................................OOO..............OO..............O...................................................
.........................................................................................................O..................................................
.......................................................................................................OOO..................................................
