!Name: p03210
!Cp03210 - Four queen bee thinners added to the p642.
!CScot Ellison   March 2003
!Source: guns2j-20090906
!
..............OO..............................................................................................................................................................
..............O..O.O.......................................OO.................................................................................................................
.........O......OO.OOO....................................O.O.................................................................................................................
.........OOO..........O...................................O...................................................................................................................
............O...OO.OOO..................................OO.OOOO...............................................................................................................
...........OO...OO.O................................OO.O.O.O..O...............................................................................................................
....................................................OO.O.OO....OO.............................................................................................................
.......................................................O.O.OOOO..O............................................................................................................
.......................................................O.OO.O..OO.O...........................................................................................................
........................................................O....O....O...........................................................................................................
......OO......................................OO.........OOO...OOO............................O...............................................................................
.......O......................................O............O.O.O............................OOO...............................................................................
.......O.O.....................................O............OOO............................O..................................................................................
........OO....................................OO...........................................OO...............................................O.................................
..........................................................................................................................................OOO.................................
.........................................................................................................................OO..............O.........OO...OO....................
.........................................................................................................................O...............OO........OO...OO....................
..........................................................................................................................O...................................................
.........................................................................................................................OO...................................................
...........................................OO..................................................................................................................OO.............
...........................................OO..................................................................................................................O..............
.............................................................................................................................................................O.O..............
.............................................................................................................................................................OO...............
.......OO........................................................................................................O.O..O.O.....................................................
.......OO...............................................................................................OO...O.....O..O.O.....................................................
.......................................................................................................O.OO.O..........O......................................................
......................................................................................................OO....O.O...............................................................
.................................OO....................................................................OO..OOO.......OO..O.......................................OO...........
.................................O.........................................................................OO...O.........O......................................OO...........
..................................OOO............................................................................O.......O................................OO..................
....................................O..............................................................................O..O...................................O...................
.....................................................O.......................................................................OO............................OOO................
...........................OO.O.....................OOO................O....................................OO...............O...............................O................
...........................O.OO....................O.O.O..............OOO...................................O.................O...............................................
........OO.......................................OOO...OOO...........O.O.O........OO.........................OOO.............OO...............................................
OO.OO..O..O.........OO..........................O...O.O...O........OOO...OOO.....O.O...........................O.........................................................OO...
OO.O....O.O.........OO..........................O.OO....OO.O.OO...O...O.O...O....O.......OO.......................................................................O......OO...
...O.....O.......................................O..OOO....O.O.O.O.OO....OO.O...OO.......OO......................................................................OOO..........
OO.O.OO...........................................OO.....O.O..OO.O....OOO..O....................................................................................OOOOO.........
OO.O..O.............................................O..O...O.....O.O.....OO..................................................................OO................OO...OO........
....O....O..........................................OOOO.OO......O...O..O....................................................................OO...........................O...
.....OOOOO..............................................O.........OO.OOOO................................................................................................O.O..
......................................................O.O...........O...................................................................................................O...O.
.......O..............................................OO............O.O..........................................................................................OOO.....OOO..
......O.O............................................................OO..........................................................................................OOO...OO...OO
.......O......................................................................................................................................................................
..................................................................................................................................................................OO..........
..................................................................................................................................................................OO..........
.......OO.................................................................................................................................................OO..................
........O.................................................................................................................................................OO..................
........O.O...................................................................................................................................................................
.........OO...............................................................................................................................................................OO..
..................OO......................................................................................................................................................OO..
..................OO..........................................................................................................................................................
...........................................................................................................................................OO.....................OO..........
.................................................O.........................................................................................OO.....................OO..........
..................................OO.............OOO..........................................................................................................................
..................................O.................O.............................................................................OO.O..................OO...OO..............O
...O...............................O...............OO.................................O...........................................O.OO.....................................O.O
...OOO............................OO..................................................OOO..........................O................................OO...O...O..............OO
......O.........OO.........................................................O.............O.......................OOO................................O.....OOO.................
.....OO............O.....................................................OOO............OO......................O.................................O.O.....OOO.................
..................O........O............................................O.......................................OO................................OO..........................
.........................OO.O...........................................OO....................................................................................................
.........................OO........................................................................................................O...............................O..........
.........................O..O............OO........................................................................................OOO............................OOO.........
.....................O....OOO............OO...............................................................................O...........O....................OO....OOOOO........
....................O.O...O.O.............................................................................................OOO........OO..............O.....OO...OO...OO.......
..OO...............OO......O.................................................................................................O......................O.O..........OOOOO........
.O.O................O..O....................................................................................................OO.......................O...........O...O........
.O...................O.O..........................................................................................................................................O.O.........
OO...................O.O.........................................................OO................................................................................O..........
......................................OO.........................................OO...........................................................................................
......................................O...................OO..................................................................................................................
.......OO...OO........OO...............O.................O.O.......................................................................................................OO.........
.......OO...OO.........O..............OO.................O.........................................................................................................OO.........
....................OOO.................................OO..........OO..........................................................................OO............................
....................O................................................O..........................................................................O.O...........................
..................................................................OOO.........OO................................OO................................O...........................
..................................................................O...........O....................OO...........OO.......................OO.......OO..........................
...............................................................................O....................O....................................O....................................
..............................................................................OO.................OOO......................................OOO.................................
.................................................................................................O..........................................O.................................
..............................................................................................................OO.O............................................................
..............................................................................................................O.OO............................................................
