!Name: p03344
!Source: guns2j-20090906
!
.........................................OO......OO.......................................................................................
.........................................OO......OO.......................................................................................
.........................OO......................................OO.......................................................................
........................O.O......................................O.O......................................................................
........................O.O.OO...OO......................OO...OO.O.O......................................................................
.........................O.O.O...OO......OOO....OOO......OO...O.O.O.......................................................................
...........................O............O..O....O..O............O.........................................................................
..........................O..O..........OO..O..O..OO..........O..O.....................OO......OO.........................................
..........................O...........OO...OO..OO...OO...........O.....................OO......OO.........................................
..........................O...O......O..O..........O..O......O...O........................................................................
..........................O...O......O..O..........O..O......O...O........................................................................
........OO....OO....OO....O..........O..O..........O..O..........O........................................................................
.......O..O.O....O.O..O...O..O........OO...OO..OO...OO........O..O........................................................................
.......OOO..........OOO....O............OO..O..O..OO............O.........................................................................
..........OO......OO.....O.O.O..........O..O....O..O..........O.O.O....OO......................................OO.........................
.........O..OOOOOO..O...O.O.OO...........OOO....OOO...........OO.O.O..O.O......................................O.O........................
.........OO........OO...O.O......................................O.O..O.O.OO...OO......................OO...OO.O.O........................
.........................OO......................................OO....O.O.O...OO......................OO...O.O.O.........................
.........................................................................O....................................O...........................
...............O........................................................O..O................................O..O..........................
.........OO....O........................................................O...............OO....OO...............O..........................
.........OO...O.O........OO.............................................O...O..........O.O....O.O..........O...O..........................
...............O.........OO........OOO.OO..........OO.OOO...............O...O.........OO........OO.........O...O..........................
...............O........................O..........O....................O..............O.O....O.O..............O....OO....OO....OO........
.....................................O................O.................O..O............OO....OO............O..O...O..O.O....O.O..O.......
....................................OO....O......O....OO.................O....................................O....OOO..........OOO.......
.........................OOO.......O...O...O....O...O...O..............O.O.O................................O.O.O.....OO......OO..........
........................O..O.......O..O.O..O....O..O.O..O...OO........O.O.OO................................OO.O.O...O..OOOOOO..O.........
OO..O.O.................O...OO.....O...O...O....O...O......O..O.......O.O......................................O.O...OO........OO.........
OO..O.O.......OOO.......O....O......O.....O......O.....O....O.O........OO......................................OO.........................
....OO........OOO........O...O.......O...O........O...O...OO.O........................O..........O........................................
...............O.........O..O.........OOO..........OOO....OOO....................OO.OOO..........OOO.OO...................................
.............................................OO...........OO........................O.O..........O.O...........................OO.........
.............................................O.O.................................OOO................OOO........OO..............OO.........
...............O...............................O...............................................................OO........OOO..............
....OO........OOO..............................OO.........................................................................................
OO..O.O.......OOO........................................................................................................O.O..............
OO..O.O............................O..................................................O..........O.......................O.O..............
............................OO...O.O.................................................O.O........O.O..................O...OOO...O..........
............................O.O...OO................................................OO.O........O.OO...............OO.O.......O.OO........
..............................O......................................................OO..........OO.............OOO......O.O......OOO...OO
..............................OO...............................................OO...............................O..OO.....O.....OO..O...OO
...............O..............................................................O.O...............................O.OO.O.........O.OO.O.....
...............O..............................................................O..................................OO...............OO......
.........OO...O.O............................................................OO...........................................................
.........OO....O...............................................................................OO.........................................
...............O................................................................................O................OO...............OO......
....................................................................................OO.......OOO........O.......O.OO.O.........O.OO.O.....
..............................................O.....................................OO.......O..........O.O.....O..OO.....O.....OO..O...OO
.........OO........OO.......................O.O.........................................................OO......OOO......O.O......OOO...OO
.........O..OOOOOO..O........................OO.............................................................OO.....OO.O.......O.OO........
..........OO......OO.......................................................................................O.O.......O...OOO...O..........
.......OOO..........OOO....................................................................................O.............O.O..............
.......O..O.O....O.O..O...................................................................................OO.............O.O..............
........OO....OO....OO....................................................................................................................
.........................................................................................................................OOO..............
...............................................................................................................................OO.........
...............................................................................................................................OO.........
.............................................................................................O............................................
.........................................................O....OOO............................O.O..........................................
.......................................................O.O....O..............................OO...........................................
........................................................OO.....O.....................................................OO........OO.........
.....................................................................................................................O..OOOOOO..O.........
......................................................................................................................OO......OO..........
...................................................................................................................OOO..........OOO.......
...................................................................................................................O..O.O....O.O..O.......
....................................................................................................................OO....OO....OO........
..................................................................................O.......................................................
....................................................................O.............O.O.....................................................
..................................................................O.O.............OO....................OO..........OO....................
...................................................................OO..................................O..O........O..O...................
.......................................................................................................OOO..OOOOOO..OOO...................
.............................................................................OO...........................OO......OO......................
.............................................................................OO..........................O..........O.....................
.............................................................OO..........................................OO.O....O.OO.....................
.............................................................OO...............................................OO..........................
............................................................OO.O...................................................OO.....................
.............................................................O.O...............O...................................OO.....................
..............................................................O..............O.O..........................................................
.............................................................OO...............OO..........................................................
.............................................................OO...............................OO..........................................
.............................................................OO........................O.......O..........................................
........................................................................................O......O.O...........OOO..........................
......................................................................................O..O......OO..........O...O.........................
......................................................................................O..O.................O.....O..........OO............
.......................................................................................OO..................O.....O..........OO............
.............................................................................OO.......OOO..................OOO.OOO........................
..............................................................................O......OOO..................................................
..............................................................................O.O....OO........OOO........................................
............................O..................................................OO..............O..........................................
..........................OOO.....................................OOO...........................O.........................................
.........................O......................................O.OOO......................................OOO.OOO........................
.........................OO....................................O.O.O.......................................O.....O..........OO............
...............................................................O..O........................................O.....O..........OO............
................................................................OO..........................................O...O.........................
............................................................................O......O.........................OOO..........................
......................O...................................................OO.OO..OO.OO....................................................
......................OO.O.O...............................................O.OO..OO.O.....................................................
....................O..OO.OO............................................O..OO......OO..O..................................................
...................O..OO...O.........OO.................................OO..O......O..OO...........OO.....................................
...................O.................OO................................O...OO......OO...O..........OO..............OO.....................
....................O..OO...............................................OO...O....O...OO...........................OO.....................
.....................OO..OO.............................................OOO..........OOO..................................................
.......................OO..O..............................................................................................................
............................O..............................OO......................................OO.........OO..........................
....................O...OO..O.............................O.O......................................O.O...OO.O....O.OO.....................
....................OO.OO..O..............................O.O.OO................................OO.O.O...O..........O.....................
....................O.O.OO.................................O.O.O................................O.O.O.....OO......OO......................
.........................O...................................O....................................O....OOO..OOOOOO..OOO...................
...........................................................O..O....OOO.......OOOOOO.......OOO....O..O..O..O........O..O...................
................................OO............................O.......O.....O......O.....O.......O......OO..........OO....................
................................OO........................O...O..O....O....O........O....O....O..O...O....................................
.....................OO...................................O...O..O....O.....O......O.....O....O..O...O....................................
......................O.......................................O....OOO.......OOOOOO.......OOO....O........................................
...................OOO.....................................O..O..................................O..O.....................................
...................O....................OO...................O....................................O.......................................
........................................O..................O.O.O...OO......................OO...O.O.O.....................................
.........................................OOO..............O.O.OO...OO......................OO...OO.O.O....................................
...........................................O..............O.O......................................O.O....................................
...........................................................OO......................................OO.....................................
..............................OO..........................................................................................................
...............................O.............................................O....O.......................................................
............................OOO..............................................O....O.......................................................
............................O.............................................................................................................
...........................................................O..............................................................................
............................................................O..............OO......OO.....................................................
..........................................................OOO..............OO......OO.....................................................
