!Name: p03312
!Source: guns2j-20090906
!
.....................................................................O..................................
........................................................O...OO..........................................
......................................................OO.O.OOO..........................................
......................................................O....OOO......................O...................
...................................................O..O...O.........................O..OO...............
.................................................OOO...OOO.........................O.....O.....OO.......
................................................O...................................O.O..OO....OO.......
........................................O........OOO...OOO..........................O...OO..............
...................................O...O...........O..O...O...........................OOO...............
..................................O.......O...........O....OOO..........................................
..................................O..OO.....O.........OO.O.OOO........................OOO...............
.......OOO...O.....................OO.....OO.O..........O...OO......................O...OO..............
OO...OOOOO..O.O.....................OOO...OO.OOO..................O.................O.O..OO....OO.......
OO..OO...OO...O.................................O.................O.O..............O.....O.....OO.......
.....OO...O..O......................OOO...OO.OOO..................OO................O..OO...............
......O...OOO......................OO.....OO.O......................................O...................
..................................O..OO.....O...........................................................
......O...OOO.....................O.......O.............................................................
.....OO...O..O.....................O...O................................................................
OO..OO...OO...O.........................O...............................................................
OO...OOOOO..O.O.........................................................................................
.......OOO...O....................................................O.....................................
.................................................................O.O....................................
....................................................................O...................................
.................................................................O.OO...................................
.......OO.....OO.................................................O.O....................................
......O.O.....O.O.................................................O.....................................
.....OOO.......OOO......................................................................................
.....OO.OOO.OOO.OO............OO........................................................................
......OOOOO.OOOOO.............OO........................................................................
........O.....O.........................................................................................
.........OO.OO.........................................................................OO...............
......................................................................................O..OO...........OO
.....................................................................................OOOOOO...........OO
.....................................................................OOO...............OOOO.............
........O.....O.....................................................O....O..OOO.........................
.......OO.....OO...................................................O.....O..O...........................
......O.OO...OO.O.........................................O.........O........O..........................
......O.OO...OO.O.......................................OOO..........OO................OOOO.............
.......OOO...OOO.......................................O.............................OOOOOO...........OO
.......OOO...OOO........................................OOO..........OO...............O..OO...........OO
...................OOO....................................O.........O..................OO...............
.....................O.............................................O.....O..............................
....................O...............................................O....O.....OO.......................
.....................................................................OOO................................
.......................................................................OO........................OO.....
.......................................................................OO........................OO.....
...............................................................................OO.............OO........
..............................................................................O..O............OO........
...............................................................................OO.............OO........
..............................................................................................OO........
.........................................................................................OOO.O..O.......
........................................................O...............................OO.....O........
...................................................OOO.OO..OO...................OO...........OO.........
...................................................OOOO....OO................OOOO........OOOO...........
...........O.....O.....................................OO..................OO...........OO..............
..........OOO...OOO.......................................................O.....OO......................
.........O...O.O...O.....................................................O..O.OOO.......................
.........O.........O...........................OO.........................OO............................
..........OOO...OOO............................OO.........................OO.............OO.............
.......................................................OO.............OO..OO............O..O............
......................................................O..O............OO..OO.............OO.............
.......................................................OO.............OO.........................OO.....
......................................................................OO.........................OO.....
............OO.OO................................................OOO.O..O...............................
.............O.O................................................OO.....O................................
.........OO.OO.OO.OO....................................OO...........OO.................................
.........O..O...O..O.................................OOOO........OOOO...................................
.........O.........O...............................OO...........OO......................................
.........O..O...O..O..............................O.....OO..............................................
..........OO.....OO..............................O..O.OOO...............................................
..................................................OO....................................................
..................................................OO.............OO.....................................
..................................................OO............O..O....................................
..................................................OO.............OO.....................O...............
...............................................OO........................OO..............O..............
...............................................OO........................OO............OOO..............
