!Name: p03900
!Cp03900 - Two queen bee thinners added to the p1300.
!CScot Ellison   March 2003
!Source: guns2j-20090906
!
......................................O.....................................................................................
.....................................O.O....................................................................................
.............................OOO....O.OO....................................................................................
.............................OOO...OO.OO..........OO........................................................................
....................................O.OO..........OO........................................................................
.....................................O.O....................................................................................
......................................O......................OO............................................OO...............
...........................OO...OO...........................OO............................................OO...............
............................OOOOO...........................................................................................
.............................OOO............................................................................................
..............................O.............................................................................................
............................................................OOO.................OO......OO.................OOO..............
..................O.......................O.................OOO.................OO......OO.................OOO..............
.................O.O.....................O.O...............O...O..........................................O...O.............
...............OO...O...................O...OO............O.....O........................................O.....O............
..........OO...OO...O...................O...OO...OO........O...O..........................................O...O.............
..........OO...OO...O...................O...OO...OO.........OOO............................................OOO..............
.................O.O.....................O.O................................................................................
..................O.......................O.................................................................................
.............................OOO............................................................................................
............................O...O...........OO.........................OO........................OO.........................
.............................O.O.............O.........................OO........................OO.........................
..............................O..............O.O.....O..............................................................O.......
..............................................OO.....OO............O.............O......O.............O............OO.......
.........................OO.......OO..................OO.........O..O...........OO......OO...........O..O.........OO....OO..
.........................OO.......OO..................OOO........O...O....OOO..OOO......OOO..OOO....O...O........OOO....OO..
.............................OOO.................OO...OO.........O..O...........OO......OO...........O..O.........OO....OO..
.............................OOO.....................OO............O.............O......O.............O............OO.......
............................OOOOO....................O..............................................................O.......
...........................OO...OO..........OO.........................OO........................OO.........................
...........................OO...OO..........O..........................OO........................OO.....................O...
..........................................O.O..........................................................................OOO..
..........................................OO..........................................................................O...O.
...............OO............................................................OO......................................O.OOO.O
...............OO..............................OO......O....................O.........................................OOOOO.
.............................OOO..............O.O....OOO....OOO............O.....O.........................OOO..............
..............................O.....................O......O...O...........O.....OOO......................O...O.............
..............................O.....................OO....O.....O...........OO...O........OO.............O.....O............
..............................O............................O...O..........................O...............O...O.............
..............................O.................OO..........OOO................OO..........OOO.............OOO..............
.............................OOO............................OOO........OO......O..O..........O.............OOO..............
...............OO.....................................................O.O......O..O.........................................
...............OO......................O......OO...............OO.....O..........OO....OO...................................
.......................................O.....O..O..............O.....OO................OO...................................
......................................O.O.....OOO...............OOO........................................OO...............
...........................OO...OO................................O........................................OO..........OO...
...........................OO...OO.....O.O.............................................................................OO...
............................OOOOO.......OO...........................................OO.....................................
.............................OOO.......O.............................................O.O........OO..........................
.............................OOO........O....................O.........................O.........O..OO......................
.........................OO.......OO.........OO............O.O.........................OO........O.O..O.....................
.........................OO.......OO.........O..............OO..................................OO.O.O.O.OO.................
..............................................OOO.........................O......................O.....OO.O.................
..............................O.................O.........................O.O..................O...OOO......................
.............................O.O..........................................OO..................O.OOO.O.OOOO..................
............................O...O..............................OOO............................O...........O.................
.................................................................O.............................OOO.....OOO..................
.............................OOO................................O................................O.....O....................
..................O.......................O.......................................................OOOOO...........OO........
.................O.O.....................O.O........................OO............................................O.........
..........OO...OO...O...................O...OO...OO.................OO..........................................O.O.........
..........OO...OO...O...................O...OO...OO.............................................................OO..........
...............OO...O...................O...OO........................................................OO....................
.................O.O.....................O.O..........................................................OO....................
..................O.......................O.................................................................................
.......................................................................................................................OO...
..............................O........................................................................................OO...
.............................OOO...........................................................OO...............................
............................OOOOO..........................................................OO...............................
...........................OO...OO..........................................................................................
...........................................................................................................OO...............
...........................................................................................................O.O..............
.............................................................................................................O..............
.............................OOO.............................................................................OO.............
.............................OOO...OO.......................................................................................
....................................O.......................................................................................
....................................O.O..............................................................................OO...OO
..............................OO.....OO..........O..........................................................................
...OO.........................OO.................O.O................................................OO................O...O.
...OO..........OO................................OO......O..........................................O..................OOO..
...............OO........................................OOO......................................O.O..................OOO..
...................................OO.......OOO......OO.....O.....................................OO........................
...................................OO......O..O......O.....O................................................................
...............O...........................O.OO....O.O.....O..O...................OO........................................
..............OOO.............O.............O......OO..........O..................OO........................................
.............O...O............OOO...........................O...O.......................................................OO..
...............O.................O............................O.............................OO..........................OO..
............O.....O.............OO..............O..........O.....O..........................OO..............................
...O........O.....O............................OO..........O.....O..........................................................
..OOO........O...O..........................O.O.............O...O...........................................................
.OOOOO........OOO..........................OO.OO.............OOO.......................................OO...................
OO...OO.....................................O..............................................O...........O.O.......OO.........
.OOOOO...................................................................................O...O...........O.......OO.........
.O...O...................................................................................................OO................O
..O.O....................OO........................OO...................................O.....O...................O......O.O
...O.....................OO........................OO.................................OOO.OOO.OOO................O.O......OO
.......OO.....................O................O.....................OO..............O...OO.OO...O...............O.O........
.......O.O....................O................O....................O.O..............O.OOO.O.OOOO.................O.........
..OO....OOO.........O.OO...........OO.OO.OO...........OO.O.........OOO................O.....................................
.O..O....OOO........O.OO..OO.......OO....OO.......OO..OO.O........OOO...................O.O.O.OO.O..........................
..OO....OOO.........O.OO...........OO.OO.OO...........OO.O.........OOO.................OO.OOO.O.OO.............OO.O.OO......
.......O.O....................O................O....................O.O.....OO..........O.O..O.................O.....O......
.......OO.....................O................O.....................OO.....O.O.........O..OO...................O...O.......
.........................OO........................OO.........................O........OO........................OOO........
.........................OO........................OO.........................OO............................................
..............OOO............................................OOO............................................................
.............O...O..........................................O...O...........................................................
............O.....O........................................O.....O..........................................................
............O.....O........................................O.....O................................................OO........
...............O..............................................O...................................................OO........
.............O...O................OO......OO................O...O...........................................................
..............OOO.................OO......OO.................OOO............................................................
...............O..............................................O.............................................................
...............OO............................................OO.............................................................
...............OO............................................OO.............................................................
