!Name: p04230
!Source: guns2j-20090906
!
................................................O...O...O...........................
..............................................OOO..O.O..OOO.........................
.............................................O.....O.O.....O........................
............................................O.OOOOO.O.OOOOO.O.......................
............................................O.O...O...O.....O.......................
.............................................O.OO.O.O.O.OO.O........................
..............................................O.....OO..OOO.........................
..................................................OOOO.O............................
...............................................OO....OOOO...........................
.................................................O....O.O...........................
.................................................................O..................
...............................................................OOO..................
..............................................................O.....................
..................................OO...............OO.........OO....................
..................................OO..............O.O...............................
...........................................OO.....O.O...............................
...........................................OO.....OO................................
................................O.................................OO................
.................................O.....................OO.........O.................
.................................O...................OO..O......O.O.................
.....................................................O.OOO......OO..................
.............................................OO........OO...........................
...............................OO...OO......O.O.....................................
..................................O.........O.......O...............................
...............................O.....O.....OO.....OO................................
................................OO.OO..............OO.............OO................
......................OO.........O.O..............................OO................
......................O.O.........O.................................................
.................OO....OOO........O.................................................
.............OOOO..O....OOO.........................................................
.............OOO.OO....OOO..........................................................
......................O.O...........................................................
......................OO............................................................
......................................................O....OO.O.....................
......................................................OOOO....O.....................
.........................................................OOO.OO.....................
.................OO.......O.................................O.OO....................
...OO............OO.....OOO.........................OO...OOO.OO.O...................
..O..O.................O...........................O.O.O..O.O.O..O.......O.....OO...
.O.O..O................OO.........................O.....O...O.....O....OOO.....OO...
.O.O.OO..............OOO..........................O.OOOOO.O.OOOOO.O...O.............
OO.O.OO..OO.........OOO............................O.....O.O.....O....OO............
...O....OO.........OOOOO............................OOO..O.O..OOO...................
...OOO...OO.......OO...OO................OO...........O...O...O.....................
.OO...O.OO.......OOO...OOO..............O..O........................................
O..O.OO.O.........OO...OO..............O..O.O.......................................
.OO.....O..........OOOOO..............O...O.O.......................................
...OOO..O...........OOO............OOOOOO.O.OO...................OO...OO............
...O......O..........O...............O.O..O......................OO...OO............
OO.O.O...O.........................O..O.OOO.........................................
.O.O.O...O.........................O.O.O...OO......................OOO........OOOOO.
.O.OO.O..............................O.OO.O..O.....................OOO.......O.OOO.O
..O..O..............................OO.O...OO.......................O.........O...O.
...OO...............................O....OO....................................OOO..
....................................O...O.O.....................................O...
..............OO...................OO.....O.OO......................................
.............O.O.......................OO.O.O...............................O.......
.............O.......OO................O..O.O..............................OO.......
............OO........O.................O..O..............................OO....OO..
...................OOO.....OO............OO..............................OOO....OO..
...................O.......OO.....................OOOOOO..................OO....OO..
.................................................O......O..................OO.......
................................................O........O..................O.......
.................................................O......O...........................
..................................................OOOOOO.........O..................
..................................................................O.................
................................................................OOO.................
