!Name: p04590
!Source: guns2j-20090906
!
........................OO..................................................
.......................O...O.................O..............................
.......OO.............O.....O...............OOOO............................
.......OO.............O...O.OO..OO.........OO.OOOO.....OO...................
..OO......OO..........O.....O...OO........OOO.OO...O...O..O.................
.O..O.....OOO..........O...O...............OO.OO...O.......O................
..OO......OO............OO..................OOOOO...O......O......OO........
.......OO.........O.O........................O...OOO.......O......OO........
.......OO..........OO..................................O..O.................
..OOO..............O...................................OO...................
..OOO.......................................................................
...........................................O................................
.........................................OO.................................
..........................................OO................................
OO...OO...................O.................................................
.OOOOO.....................OO...............................................
..OOO.....................OO................................................
...O........................................................................
..................................O.O........OO.............................
..............................OO.OOO.........OO.............................
............................OO..OO.O........................................
............................OO.OO...........................................
..............................OO............................................
...............................OO...........................................
...OO..........................OOO..........................................
...OO........................OO.O...........................................
.............................OOO............................................
..............................O.............................................
.......O.O..O.O............................OO...OO..........................
...OO.O..O..O..O..OOO........................OOO............................
.......O.O..O.O...OOO.......................O...O...........................
...................O.O.......................O.O............................
..............................................O...............OO............
..............................................................O.............
....................................................O.O.....O.O.............
...................................................O..O.....OO.........OO...
..................................................OO...................OO...
................................................OO...O......................
..........................OO......OO..............OO........................
........................O....O..O....O.............O..O.....................
........................O....O..O....O..............O.O.....................
........................O....O..O....O......................................
..........................OO......OO........................................
.........................................................OO...OO............
.........................................................OO...OO............
...........................................................OOO........OOOOO.
...........................................................OOO.......O.OOO.O
............................................................O.........O...O.
.......................................................................OOO..
........................................................................O...
....................................................................O.......
...................................................................OO.......
..................................................................OO....OO..
.................................................................OOO....OO..
..........................................OOOOOO..................OO....OO..
.........................................O......O..................OO.......
........................................O........O..................O.......
.........................................O......O...........................
..........................................OOOOOO.........O..................
..........................................................O.................
........................................................OOO.................
