!Name: p04680
!C p4680 gun, p104 -> lcm(30) -> p30 tripler, DE 2/23/03
!Source: guns2j-20090906
!
.............................OO........OO..............................
.....................O.......O.........O..O............................
.......O............O.O....O.O.........................................
.....OO.O............O.....OO..........O..O............................
....O..........................OO.....O..O.............................
...O.O..O......................OO.....O.O..............................
...O..O................................O...............................
....OO.................................................................
.......................................OO..............................
........................OO.............OO..............................
........................OOO............................................
....OO.................O..O............................................
....O..O................OO....OO.......................................
.............................O..O......OO..............................
....O..O......................OO......O..O.............................
...O..O.....OO......................O..O.O.............................
...O.O......OO..........................O..............................
....O..................O............O.OO...............................
......................O.O............O.................................
....OO.................O...............................................
....OO....OO...........................................................
..........O............................................................
.......OO.O............................................................
O......OO.O.O..........................................................
OOO........OO..........................................................
...O...................................................................
..OO........................O..........................................
...........OO..............O.O.........................................
...........OO..............OO.O.....O..................................
...........................OO.OO...O.O.................................
...........................OO.O....O.O.................................
....................O......O.O......O..................................
..................O.O.......O..........................................
............O......OO..................................................
..OO...OO...OO.........................................................
...........O.O...................OO...OO...............................
...O...O..........................OOOOO................................
....OOO...........................OO.OO...............OO..........OO...
....OOO.........OO.........O......OO.OO...............O.O.........OO...
..............OO..OO........O......OOO.................OOO.............
..............O....O......OOO...........................OO.............
.......O.......O..O.....................................OO.............
......OOO....O.O..O.O.................................O.O..............
.....O...O...OO....OO..................................O...............
.......O...............................................................
....O.....O............................................................
....O.....O.........................................OO...OO............
.....O...O........................O.................OO...OO............
......OOO........................OOO...................................
................................OOOOO.................OOO........OOOOO.
...............................O.O.O.O................OOO.......O.OOO.O
...............................OO...OO.................O.........O...O.
..................................................................OOO..
.......................O.O.........................................O...
......................O..O.............................................
.....................OO........................................O.......
.............OO....OO...O...O...OO............................OO.......
......OO.....OO......OO......O...............................OO....OO..
......OO..............O..O...O..O...........................OOO....OO..
.......................O.O.....O.....OOOOOO..................OO....OO..
....................................O......O..................OO.......
...................................O........O..................O.......
....................................O......O...........................
.....................................OOOOOO.........O..................
.....................................................O.................
..................................O................OOO.................
