!Name: p05760
!Source: guns2j-20090906
!
......................OO...........................................................
........................O..........................................................
...........OO............O.........................................................
...........OO....O.......O........OO...............................................
........OO.....OO........O........OO...............................................
OO.....OOO.....O..OO....O..........................................................
OO......OO......OOOOO.OO...........................................................
...........OO....O.....................O...........................................
...........OO.........................O.O..........................................
.....................................O...O.........................................
.....OO.................OO...........O...O.........................................
.....OO.................OO...........O...O.........................................
.....................................O...O.........................................
.....................................O...O....OO...................................
........O..........OOO...............O...O....O.O..................................
.......O.............O................O.O......OOO.........OO.........OO...........
.......O............O..................O........OO.........OO.........OO...........
.............................................OO....................................
.................................O...........OOO...................................
...OO...OO.....................O.O........................OOO......................
......O.........................OO........................OOO...........OO.........
...O.....O..OO................................OO...................................
....OO.OO..O.O................................OO..............................OO...
.....O.O.....O................................................................OO...
......O.................OO..............................OO...OO....................
......O..........OOO....OO...............................OOOOO......OO...OO........
................OOOOO......OO.............................OOO........OOOOO.........
...............O.O...O.....OOO.............................O.........OO.OO.........
...............OO...O......OO........................................OO.OO.........
........O...............OO............................................OOO..........
.......OOO..............OO.........................................................
......O...O........................................................................
.....O.OOO.O........................O..............................................
......OOOOO........................OOO..............................O.........OOO..
..................................OOOOO....OO......................O.O.......O...O.
.................................OO...OO...OO......................OO.O.....O.....O
...................................................................OO.OO.....O...O.
...................................................................OO.O.......OOO..
...................................................................O.O........OOO..
...................................OOO..............................O..............
...................................OOO....................................OO.......
.........................................................................O.O.......
...............................................................OO.......O......OO..
...................................OO..........................OO.......O..O..O..O.
........OO.........................OO...................................O......OO..
........OO...............................OO...OO.........................O.O.......
..........................................................................OO.......
..........................................O...O....................................
...........................................OOO.....................................
...........................................OOO.....................................
.........................................OO........................................
..........................................O........................................
.......................................OOO.........................................
.......................................O..............O............................
.................................................O....OOOO.........................
.................................................O.....OOOO........................
............................................OO.........O..O........................
............................................OO.........OOOO........................
......................................................OOOO.........................
......................................................O............................
................................................................OOO...............O
...............................................................O...O............O.O
.................................................................................OO
..............................................................O.....O..............
..............................................................OO...OO..............
........................................................OO.........................
.......................................................O...O.......................
............................................OO........O.....O....O.................
............................................OO........O...O.OO..O.O................
......................................................O.....O...O.O................
.......................................................O...O.....O.................
........................................................OO.........................
