!Name: p06072
!Source: guns2j-20090906
!
.......OO.....OO....................OO....OO....OO........................OO.....OO.......
...OO.O.O.....O.O.OO...............O..O.O....O.O..O...................OO..OO.....OO..OO...
...O...............O...............OOO..........OOO...................OO.............OO...
....OO....O.O....OO...................OO......OO..........................................
.......O..O.O..O.....................O..OOOOOO..O.........................................
.....................................OO........OO.........................................
.......O.......O..............................O.............OO............OO.....OO.......
........O.O.O.O......................OO........OO...........OO............................
........O.O.O.O......................OO.......OOO........................O.........O......
.......O.OO.OO.O...........................OOOOO....O.O..................O...O.O...O......
.......OO.....OO...................................O..O..................O...O.O...O......
...........................................OOO.....O..O...................O.O...O.O.......
...........................................OO.....O..O...O.................O.....O........
...........................................OO......O.O..O.OO..............................
............................................................O.............................
............................OO..............................O.....OO......................
............................OO.............O..............O.......O.O.....................
..........................................OOO..........O..O..O......O.....................
...........................................................OOO......OO....................
..........................................OOO...............O.............................
..........................................OOO...............O.............................
...........................................................OOO......OO....................
..........................................OOO..........O..O..O......O.....................
............................OO.............O..............O.......O.O.....................
............................OO..............................O.....OO......................
............................................................O.............................
.................O.........................OO......O.O..O.OO..............................
...............O.O.........................OO.....O..O...O.............O..................
................OO.........................OOO.....O..O................O.O....O.....O.....
...................................................O..O................OO....OOO...OOO....
....OOO...OOO..............................OOOOO....O.O.....................OO.OO.OO.OO...
....O..O.O..O........................OO.......OOO..........................OOO.......OOO..
....OO.O.O.OO........................OO........OO...........OO............................
....OO.....OO.................................O.............OO...............O.......O....
.....................................OO........OO.........................................
............................O........O..OOOOOO..O.........................................
.......OO....................O........OO......OO............O...........OO................
...............OO..........OOO.....OOO..........OOO........O...........OO.................
........OO......OO.................O..O.O....O.O..O........OOO...........O................
..OO...........O.....OO.............OO....OO....OO.................OO.................OO..
...O.........O.......O..............................................O.................O...
OOO..........O........OOO........................................OOO...................OOO
O.......................O........................................O.......................O
........OOO...OOO.........................................................................
.......O.........O.......................................................O.......O........
.......O...O.O...O.....................................................O.OO.....OO.O......
........OOO...OOO......................................................O...OO.OO...O......
.........O.....O........................................................O...O.O...O.......
.........................................................................OOO...OOO........
.......................................O..................................................
..................................OOO.OO..OO..............................................
....OO.............OO.............OOOO....OO.......O.................OO.............OO....
....OO..OO.....OO..OO.................OO............O................OO..OO.....OO..OO....
........OO.....OO.................................OOO....................OO.....OO........
