!Name: p06204
!Source: guns2j-20090906
!
............O...O...O................................................................O...O...O............
..........OOO..O.O..OOO............................................................OOO..O.O..OOO..........
.........O.....O.O.....O..........................................................O.....O.O.....O.........
........O.OOOOO.O.OOOOO.O........................................................O.OOOOO.O.OOOOO.O........
........O.....O...O.....O........................................................O.....O...O...O.O........
.........O..O.O.O..O.O.O....................OO..........OO........................O.OO.O.O.O.OO.O.........
..........O.OO.OOO...OO....................O..O........O..O........................OOO..OO.....O..........
...........OO.O............................OOO..........OOO...............................................
............OO.OOO............................OOOOOOOOOO..............................O.OOOO..............
............O....OOOO........................O..OOOOOO..O............................OOOO....OO...........
............O.OO....O........................OO..OOOO..OO............................O.O....O.............
...O..................................................................................................O...
...OOO..............................................................OO..............................OOO...
......O......................................OO.....................OO.............................O......
.....OO......................................OO....O...............................................OO.....
...............O...................................O......................................................
...............OO.......OO........................O.O...........................OO........................
............O...OO......OO......................................................OO........................
.OO.........O.O.OOO..............................OO.OO.................................................OO.
..O.........OOOOO.O..........................OO...O.O...OO................................O............O..
..O.O..........OO..O......................OOOOO...O.O...OOOOO...........................OO.OO........O.O..
...OO............OO.................OO...OOO..O....O....O..OOO............OO............OO.OO........OO...
......................OO............OO..OO...O.....O.....O...OO...........O.O.....OO...OO..OO....O........
......................O.O................O...................O..............O....O.O....O.O.....O.........
........................O.................OOO.............OOO...............OO...O.......O.....OOO........
........................OO......................................................OO..............OO.OO.....
.OO..............................................................................................OO....OO.
.OO.......................................OOO.............OOO...............OO................OO.OO....OO.
..........O..............................O...................O..............O....................O........
.........O.OO.......................OO..OO...O.....O.....O...OO...........O.O................O..O.........
O.......OO.OO.......................OO...OOO..O....O....O..OOO............OO.................O.O.........O
OOO.....O..O.O............................OOOOO...O.O...OOOOO..........................................OOO
...O.......O.................................OO...O.O...OO............................................O...
..OO......O..OOO.........OO......................OO.OO.........................OO.....................OO..
..........O..............OO....................................................OO.............O...........
........O..OO.O...................................O.O.........................................O...........
........OOOOOOO....................................O.........................................O.O..........
........O.....O..............................OO....O..........................................O...........
...........O.................................OO.....................OO........................O...........
..OO.......O........................................................OO................................OO..
..OO.......O..........................................................................................OO..
.........................OO....................................................OO.........................
.........................O...................OO..OOOO..OO.......................O.........................
.......................O.O...................O..OOOOOO..O.......................O.O.......................
..................OO...OO.....................OOOOOOOOOO.........................OO....O.O................
....OO...........O..O......................OOO..........OOO............................O.O..........OO....
...O.O...........OOO.......................O..O........O..O............................O............O.O...
...O..............O.........................OO..........OO.............................OO...O.........O...
..OO...................................................................................OO.OO..........OO..
.........................OO....................................................OO........OO...............
.................O.......OO....................................................OO.........................
...............OO.........................................................................................
......OO.......OOO................................................................................OO......
.......O..........................................................................................O.......
....OOO............................................................................................OOO....
....O................................................................................................O....
.............O....OO.O...............................................................O....O.O.............
.............OOOO....O.............................................................OO....OOOO.............
................OOO.OO................................................................OOOO.O..............
...................O.OO...................................................................................
...........OO...OOO.OO.O..........................................................O.....OO..OOO...........
..........O.O.O..O.O.O..O........................................................O.OO.O.O.O.OO.O..........
.........O.....O...O.....O......................................................O.O...O...O.....O.........
.........O.OOOOO.O.OOOOO.O......................................................O.OOOOO.O.OOOOO.O.........
..........O.....O.O.....O.................................O......................O.....O.O.....O..........
...........OOO..O.O..OOO...................................O......................OOO..O.O..OOO...........
.............O...O...O...................................OOO........................O...O...O.............
