!Name: p06768
!Source: guns2j-20090906
!
...........O...O...O............................................................................
.........OOO..O.O..OOO..........................................................................
........O.....O.O.....O.........................................................................
.......O.OOOOO.O.OOOOO.O........................................................................
.......O.O...O...O.....O........................................................................
........O.OO.O.O.O.OO.O.........................................................................
.........O.....OO..OOO..........................................................................
.............OOOO.O.............................................................................
..........OO....OOOO...............................................OO.......O...................
............O....O.O.................................OO............OO.....OOO...................
...................................OO...............O..O.................O........OO............
..O................................OO..............O.O..O................OO.......O.............
..OOO..........................................OO..O.O.OO..............OOO......O.O.............
.....O........OO...............................O..OO.O.OO..OO.........OOO.......OO..............
....OO........OO.OO..........................O.O.....O....OO.........OOOOO......................
.............O...OO..........................OO......OOO...OO.......OO...OO................OO...
..............OO...O...OO.OO.......................OO...O.OO.......OOO...OOO..............O..O..
............OO.O.OO....OO.OO......................O..O.OO.O.........OO...OO..............O..O.O.
OO..........O....OO................................OO.....O..........OOOOO...............OO.O.O.
.O........O..........................................OOO..O...........OOO............OO.....O.OO
.O.O.....OO..........................................O......O..........O..............O...O.O...
..OO..............................................OO.O.O...O..........................O....OO...
.........OOO.........OO..............OO............O.O.O...O..........................OO.O...OO.
.....................O.O.............OO............O.OO.O..............................O.OO.O..O
.......................O............................O..O.............................O.O.O...OO.
................O......OO............................OO..............................O..O.OOO...
OO...............OO....................................................................O.O..O...
OO..............OO...................................................................OOOOOO.O.OO
.............................OO.........................................................O...O.O.
..............................O........................................OO................O..O.O.
...........................OOO..........................................O.................O..O..
...........................O.........................................OOO.....OO............OO...
...........................................................O.........O.......OO.................
...........................................................O.O..................................
.....O....OO.O.............................................OO...................................
.....OOOO....O..................................................................................
........OOO.OO..................................................................................
...........O.OO.................................................................................
...OO...OOO.OO.O..............................................OO................................
..O.O.O..O.O.O..O.............................................OO................................
.O.....O...O.....O............................................OO..........................OO....
.O.OOOOO.O.OOOOO.O.............................................O..........OO.............O..O...
..O.....O.O.....O.............................................O.O.........OO..........O...O.O...
...OOO..O.O..OOO........................O......OO............OO.O....................OOO...O....
.....O...O...O.....................O...O...O...OO...................................OOOOO.......
..................................O.O......O....................................................
.................................O...O......O.................OO................................
..................................O.O.........................OO................................
...................................O.........................................O..................
............................................................................O.O.................
............................................................................O.O.................
.............................................................................O..................
...................................................................................O............
.........................................O.......................................O..O...........
.........................................OO......................................OO.O...........
.......................OO.......O.......O.O.......................................O.OO..........
.........OO............OO.....OOO.................................................O..O..........
........O..O.................O.................OO..................................O............
.......O.OO.O................OO................O.........................................O......
.......O.O.O...O................................OOO.....................................O.O.....
......OO.O.O...O..................................O.....................................O.O.....
.........O......O........................................................................O......
.........OOO..O................................OO...............................................
.......OO.....O...............................O..O........................O.....................
......O..O.OO.O..............................O..O.O.....................OO.OO...................
.......OO...O.OO.............................OO.O.O..........OO.........OO..O...................
.........OOO...OO........................OO.....O.OO.........OO.........OO......................
.........O....OO..........................O...O.O...............................OO.........OO...
......OO.O.OO..OO............OOO..........O....OO............................O..OO.........OO...
.......O.O.OO...............O...O.........OO.O...OO..........................OO.OO..............
.......O.O..O..............O.....O.........O.OO.O..O...........................O................
........O..O...............O.....O.......O.O.O...OO.............................................
.........OO................O.....O.......O..O.OOO...............O...............................
............................O...O..........O.O..O..............O.O..............................
....................OO.......OOO.........OOOOOO.O.OO...........O.O..............................
...................O.O......................O...O.O.............O...............................
...................O.......OO................O..O.O...................O.........................
..................OO........O.................O..O..................O..O........................
.........................OOO.....OO............OO...................OO.O........................
.........................O.......OO..................................O.OO.......................
.....................................................................O..O.......................
......................................................................O.........................
............................................................................O...................
...........................................................................O.O..................
...........................................................................O.O.................O
............................................................................O................O.O
..............................................................................................OO
.................................................................OOOOO..........................
..............................................................O...OOO...........................
.............................................................O.O...O..........OO................
.............................................................O..O.............OO................
..............................................................OO................................
