!Name: p06870
!Cp06870 - Four queen bee thinners added to the p1374.
!CScot Ellison   March 2003
!Source: guns2j-20090906
!
.................................................................................................................O....................O...................................
.......................................................................O............OO......OO.................OOO...........O.......O.O..................................
.....................................................................OOO............O..O....OO................O..............OOO......O...................................
....................................................................O............OO.O.OO......................OO................O................O........................
........................................O...........................OO..........O.O.O..........................................OO..............OOO........................
........................................O.......................................O...O.OO......................................................O...........................
........................................O.......OO.............................OO..O..OO...............................OO.....................OO..........................
................................................O..................................OO................................OO..O................................................
..............................................O.O...................................................................O.....O...............................................
..............................................OO....................................................................O..OO..O..............................................
....................................................................................................................OOO.OO.OO......................OO.....................
.........................................................................................................................O..O......................O......OO..............
.........................................................................................................................OO.O....................O.O......OO..............
..........................................................................................................................OO.....................OO.......................
....................................................................................................................................OO....................................
.........................................................................................OO................................OO......O.O....................................
.........................................................................................OO...........OO....................O......O......................................
......................................................................................................O....................O......OO.............................OO.......
.......................................................................................................OOO.................OO....................................OO.......
.........................................................................................................O................................................O...............
.........................................................................................................................................................OOO..............
........................................................................................................................................................OOOOO.............
.....................................................OO................................................................................................OO...OO............
.....................................................O.....OO.........................................................................OO................OOOOO.............
......................................................OOO.O.O........................................................................O.O................O...O.............
........................................................O.O.......OO.................................................................O...................O.O......O.......
..........O..............................................OO.......OO................................................................OO....................O......OOO......
..........OOO...................................................................................................................................................OOOOO.....
.............O.................................................................................................................................................O.O.O.O....
...OO.......OO.......................OO...................................................................................................................OO...OO...OO....
....O................................OO...OO..............................................................................................................OO..............
....O.O...................................OO..............................................................................................................................
.....OO...........................................................................................................................................................O.......
.................................................................................................................................................................O.O......
...........................................OO....................................................................................................................O.O......
.....................................OO....O......................................................................................................................O.......
.....................................OO.....OOO...................................................................................................................OO......
..............................................O...................................................................................................................OO......
..................................................................................................................................................................OO......
.O.......................OO...............................................................................................................................................
O.O......................O................................................................................................................................................
.O..............OO........OOO.................................................................................................................OO..........................
................O...........O.................................................................................................................OO..........................
.................OOO.................................................................................................................OO....................OO.............
...................O.................................................................................................................O..O..................OO.............
.................................................................................................................................OO....OO.................................
...OO.............................................................................................................................O....................OO...O.............
..O.O..................................................................................................OO.........................O.O..................O...O.O............
..O....................................................................................................OO..........................OO................O.O...O.O............
.OO..................................................................................................................................................OO.....O............O
.................OO.O.............................................................................OO..............................................................OO...O.O
.................O.OO.............................................................................OO..............................................................OO....OO
.........................................................................................................................................................OO.O.OO..........
..........OO.............................................................................................................................................O.....O..........
..........OO..............................................................................................................................................O...O...........
...........................................................................................................................................................OOO....OOO.....
..................................................................................................................................................................OOO.....
........................................................................................................................OO.......................................O...O....
........................................................................................................................OO......................................O.....O...
...........................................................................................OO....................................................................O...O....
..........................................................................................O.O..................................................OO.................OOO.....
OO........................................................................................O....................................................OO..OO.....................
.O.......................................................................................OO.........................O..............................O.O...OO...............
.O.O...............................................................................................................O.O...............................O....O...............
..OO...............................................................................................................OO......OO....OO..................O.OOO................
...........................................................OO...............................................................O....O.................O.O.O..................
...........................................................OO............O...............................................OOO......OOO..............OO.....................
.......................................................................OOO....................................OO.........O..........O.....................................
...........................................................OOOO.......O.......................................O...........................................................
....................OO..................................O.O....O......OO.......................................OOO........................................................
....................O.................................OOO.OO..OO.................................................O................................................OO......
..................O.O................................O............................................................................................................OO......
..................OO..............................O..OOOO.OO..............................................................................................................
..................................................OOO...O.OO..............................................................................................................
.....................................................O........................................OO..........................................................................
....................................................OO.......................................O.O..........................................................................
...................................................................................O.........O............................................................................
.............................OO....................................................OOO.....OOO............................................................................
......................OO......O.......................................................O...O...............................................................................
......................O......O.......................................................OO...OO..............................................................................
....................O.O......OO...........................................................................................................................................
....................OO....................................................................................................................................................
.......OO.............................................................................................OO..................................................................
......O.O.............................................................................................OO..................................................................
......O.........................OO........................................................................................................................................
.....OO.........................OO...........................................................................O.OO.........................................................
.............................................................................................................OO.O.........................................................
..........OO....................................................OO........................................................................................................
...........O..............................................OO....O.O.......................................................................................................
........OOO..............OO................................O......O......................................OO...............................................................
........O................O................OO............OOO.......OO.....................................O.O..............................................................
...................O......OOO..............O............O..................................................O..............................................................
..................O.O.......O...........OOO....................................OO..........................OO.............................................................
...................O....................O.......................................O.........................................................................................
.............................................................................OOO...O.OO...................................................................................
.............................................................................O..OOOO.OO...................................................................................
................................................................................O.........................................................................................
.................................................................................OOO.OO...................................................................................
...................................................................................O.O..O.................................................................................
.......................................................................................OO.................................................................................
