!Name: p06840
!Source: guns2j-20090906
!
...............O........................................................................................................
.............O.O........................................................................................................
.....O.....OO...........................................................................................................
....O.O....OO............OO.............................................................................................
...O...O...OO............OO.............................................................................................
...OOOOO.....O.O........................................................................................................
..OO...OO......O..............................................................OO........................................
...OOOOO......................................................................OO........................................
....OOO.................................................................................................................
.....O..................................................................................................................
....O...................................................................................................................
......OO................................................................................................................
.....OOO................................................................................................................
.....OO.................................................................................................................
......O................................................OO...............................................................
.....O.O...............................................OO...................OO...OO.....................................
......OO......................................................................OOO.......................................
.............................................................................O...O......................................
..............................................................................O.O.......................................
OO.O.OO................................................OOO.....................O........................................
.......................................................OOO..............................................................
O.....O......O........................................O...O.............................................................
..............OO.....................................O.....O............................................................
.OO.OO.......OO.......................................O...O.............................................................
...O...................................................OOO......................OOO.....................................
..........................................................................O.O...........................................
..........................................................................OO....O.O.....................................
...........................................................................O...OOOOO....................................
..............................................................................OO...OO...................................
...OO.................................................O.O.....................OO...OO...................................
...OO.................................................O..O..............................................................
........................................................OO.O............................................................
.................................................................................O......................................
.................................O......................O..................OO.....OO....................................
................................OO......................O.OO...............OO...........................................
................................O.O......................O..........................O...................................
............................O...........................................................................................
.............................OO.................................................O..O....................................
............................OO.....................OO...OO......................OO......................................
....................................................OOOOO...............................................................
....................................................OO.OO...............................................................
....................................................OO.OO...............OO..............................................
.....................................................OOO................O..........OO...................................
.........................................................................OOO.......O....................................
...........................................................................O........O...................................
...................................................................................OO...................................
.............................................................................OO.........................................
.............................................................................OO....OO...................................
................................................O.....OO..........................O.O...................................
...............................................OO.....OO...........................O....................................
...............................................O.O......................................................OO.........OO...
...........................................O............................................................OO.........OO...
............................................OO..........................................................................
...........................................OO...........................................................................
................................................................................OO......................................
..............................................................................O...O.....................................
...............................................................................O...................................OOO..
...................................................................................O....................................
..................................................................................OO...............................O.O..
........................................................................................................O.........OOOOO.
..................................................................................OO...................OOO.......OO...OO
...................................................................................O..................OOOOO......OO...OO
...............................................................O..................O..................OO...OO............
..............................................................OO............O.....OO..................OOOOO.............
..............................................................O.O...........OOO.......................O...O.........O...
...............................................................................O.......................O.O........OO....
..........................................................OO..................OO........................O...............
.........................................................OOO..................................................O..O......
.............................................................OO.........................OO..................O.O..O......
............................................................OOO..................O......OO................OO.........O..
.............................................................O........OO.......OO.OO......................OO......O.....
.....................................................................OO...................................OO........OO..
.......................................................................O......O.....O.......................O.O.........
..............................................................................................................O.........
..............................................................................OO.O.OO...................................
.....................................................OO.................................OOO.............................
.........................................OO.........O.O................................OO.OO............................
.........................................OOO..........O......................OO........OO.OO............................
................................OO.........OO.O...........O..................O.O.......OOOOO............................
................................O.....O....O..O..........OO...................O.......OO...OO...........................
.....................................O.....OO.O.........OO....OO..............OO........................................
.................................O...O...OOO...........OOO....OO..OO.........OOO........................................
...................................O.....OO.............OO....OO..OO.........OO.........................................
.........................................................OO.....................O.......................................
..........................................................O............................OO...............................
...............................................................................O........................................
..............................................................................OOO........OO.............................
.............................................................................OOOOO.......OO.............................
.....................................................................O......OO...OO.....................................
.....................................................................O.O.....OOOOO......................................
..........................................................OO............OO...O...O......................................
..........................................................OO............OO....O.O.......................................
........................................................................OO.....O......................................O.
.....................................................................O.O...............................................O
.....................................................................O...............................................OOO
