!Name: p07170
!Cp07170 - Four queen bee thinners added to the p1434.
!CScot Ellison   March 2003
!Source: guns2j-20090906
!
..................O...................................................................................................................OO.OO........................................................
.................O.O..................................................................................................................OO.OO........................................................
.................O.O...............................................................................................................................................................................
.........O......OO.OOO................................................................................................................OOOOO........................................................
.........OOO..........O..............................................................................................................O....O........................................................
............O...OO.OOO..............................................................................................................O..O...........................................................
...........OO...OO.O................................................................................................................O.OO...........................O...............................
...............................................................................................................................O.OO.O.....O..........OO..........OOO...............................
...............................................................................................................................OO.O.O....O.O.........OO.........O..................................
..................................................................................................OO..............................O.OO..O..O....................OO........OO.......................
..........................................................................................OO......O...............................O......OO...............................O........................
......OO......................................OO..........................................OO....O.O.............................OOO.....................................O.O........................
.......O......................................O.................................................OO....OO.......................O........................................OO.........................
.......O.O.....................................O.....................................................O.O.......................OO.................OO...............................................
........OO....................................OO...................................................OOO.O.O........................................O.O...........OO..........OO.....................
..................................................................................................O.....OO..OO....................................O.OO..........OO...........O.....................
..................................................................................................OO........OO.................................OOOOOO...................OO.O.......................
..............................................................................................................................................O....O....................OO.OO......................
..............................................................................................................................................O..O.................................................
.......................................................................OO.............OO.......................................................OO.......................OO.OO......................
...........................................OO..........................OO.............OO.................................................OO..............................O.O.......................
...........................................OO............................................................................................OO..............................O.O.......................
..........................................................................................................................................................................O........................
.......OO......................................................................................................................................................OO..................................
.......OO......................................................................................................................................................OO..................................
............................................................................................................................................OO.....................................................
.................................OO......................................OO.............................................OO...................O.....................................................
.................................O.......................................O..............................................O.O.................O......................................................
..................................OOO...........OO........................OOO.............................................O.................OO.....................................................
....................................O...........OO..........................O.............................................OO.......................................................................
...........................OO.O...................................................................................OO.............................OO................................................
...........................O.OO...............................OO..................................................O.............................O.O................................................
........OO....................................................O....................................................OOO..........................O..................................................
OO.OO..O..O.........OO.........................................OOO..........................................OO.......O.........................OO..................................................
OO.O....O.O.........OO...........................................O..........................................OO.....................................................................................
...O.....O..........................................OO.............................................................................................................................................
OO.O.OO..............................................O.............................................................................................................................................
OO.O..O...........................................OOO..................................................OO..........................................................................................
....O....O........................................O....................................................O.O............................................................OO...........................
.....OOOOO...............................................................................................O............................................................OO...........................
.........................................................................................................OO..............................................OO........................................
.......OOOOO...............................................................................O.O...........................................................OO.......OO...............................
.......O...O...............................................................................OO.O...................................................................O................................
........O..O.O................................................................................O......OO.........................................................O.O...OOO..........................
.......OO...OO................................................................................OO.....O.O........................................................OO....OOO..........................
.......................................................................................................O.............................................................O...O.........................
...................................................................................................OOOO.OO..........................................................O.....O...OO...................
...................................................................................................O..O.O.O.OO..................................O.OO.................O...O....OO...................
.................................................................................................OO....OO.O.OO..................................OO.O..................OOO..........................
..............................OO................................................................O..OOOO.O.O........................................................................................
..............................O................................................................O.OO..O.OO.O........................................................................................
............................O.O................................................................O....O....O.........................................................................................
............................OO.....................................O............................OOO...OOO.........OO...............................................................................
...................................................................OOO............................O.O.O............O...........................................................O...................
......................................................................O............................OOO............O...........................................................OOO.....OO...........
.....................................................................OO...........................................OO..........................................................OOO.....OO...........
.......................................OO...................................................................................................................................OO...OO................
................................OO......O..............................................................................................................................OO...OO...OO................
................................O......O...............................................................................................................................OO..........................
..............................O.O......OO..........................................................................................................................................................
..............................OO.....................................................................................OO........................................................O...................
.....................................................................................................................OO.......................................................O.O..............OO..
..........................................................................................................................................OO.................................OO...............O..O.
.................OO.......................................................................................................................OO.................................OO...............O....
................O.O..........................................................................................................................................................OOO..............O....
................O.........................OO..................................................................................................................................O.O....OOOOO....O.O..
...............OO.........................OO...................................................................................................................................OO...O.OOO.O...O.O..
.....................................................................................................................................................................................O...O.....O...
..................................................................................................................................................................OO..................OOO..........
..................................................................................................................................................................OO...................O...........
....................OO......................................................................................................................................................................OO...OO
.....................O..................................................................................................................OO..................................................O.....O
..................OOO..............OO.......................................................................O............................O.........................................................
..................O................O................OO....................................O................OOO........................OOO.........................OO...................OO....O...O.
.............................O......OOO..............O...................................OOO..............O.O.O.......................O...........................OO...................OO.....OOO..
............................O.O.......O...........OOO.........................OO........O.O.O...........OOO...OOO...................................OO.............................................
.............................O....................O...........................O.O.....OOO...OOO........O...O.O...O.................................O.O.............................................
.......................................................................OO.......O....O...O.O...O...OO.O.OO....OO.O.................................O...............................................
.......................................................................OO.......OO...O.OO....OO.O.O.O.O....OOO..O.................................OO........OO.....................................
......................................................................................O..OOO....O.OO..O.O.....OO............................................O......................................
.......................................................................................OO.....O.O.....O...O..O...............................................OOO...................................
.........................................................................................O..O...O......OO.OOOO.................................................O...............................OO..
.........................................................................................OOOO.OO.........O.....................................................................................OO..
.............................................................................................O...........O.O................................................................................O......
...........................................................................................O.O............OO.................................................................................O.....
...........................................................................................OO..............................................................................................OOO.....
