!Name: p07260
!Cp07260 - Four queen bee thinners and a p6 reflector added to the p1452.
!CScot Ellison   March 2003
!Source: guns2j-20090906
!
.....................................................................................................O............OO.....................
.....................................................................................................OOO.........O..O....................
........................................................................................................O........O.O.O...................
.......................................................................................................OO.......OO.O.O...................
..............................................................................................................O...O.O.OO.................
..........................................................................................................O...O.OO..O..O.................
.................OO......OO..............................................................................O.O..O....O.O.O.OO..............
.................OO......OO..........................................................................OO..OO.....OO.O..OO..O..............
.....................................................................................................OO..........O..O...OO.......OO......
.................................................................................................................O.OO.OO.........OO......
..................................................................................................................O....O.................
......................................................................................OO...........................OOOO..................
.....................................................................................O.O.............................O...................
....................................................................................O......OO..OO......................O..........O......
.OO......................................OO................................OO.......O..O..O..O.OO.....................OO.........O.O.....
O.O......................................O.O...............................OO.......O......OO...................................O...O....
O.O.OO................................OO.O.O.........................................O.O.................OO......................OOO.....
.O.O.O...OO......................OO...O.O.O...........................................OO...............O..O....................OO...OO...
...O......OO....................OO......O................................................................................................
..OO..O...O......OO......OO......O...O..OO..................................O.........................O..................................
.OOO..O......O..O..O....O..O..O......O..OOO.................................OO...........................................................
.OOO.........O..O..O....O..O..O.........OOO............................OO....OO........OO..............OO................................
.OOO.........O..O..O....O..O..O.........OOO........................OO..OO....OOO.......OO................O...............................
.OOO.............OO......OO.............OOO........................OO..OO....OO..........................................................
..OO....................................OO..................................OO...........................................................
...O....................................O...................................O.........................OO...OO............................
.O.O.O................................O.O.O...........................................................OO...OO......OO....................
O.O.OO................................OO.O.O...........................OO..............................OOOOO.......OO....................
O.O......................................O.O..........................O...O.............................O.O.......................OO.....
.OO..........................O...........OO..........................O.....O...OO.................................................OO.....
.............................OO............................OO........O...O.OO..OO.......................OOO..............................
.........................O....OO...........................OO........O.....O.............................................................
.........................OO....O......................................O...O.........................................O....................
...............OO........O....O........................................OO.........................................OO.OO...OO.............
................O.........O...............................................................................................OO.............
.............OOO..........OO...............................O...............................................OO....O.....O.................
.............O...........O.OO.....OO.....................OOOO............................OO..........OO....O.............................
.......................OO.O.......O.O..............OO...O.O.OO.........OO...............O..O........O..O....OOO..OO.O.OO.................
..................OO....OO..........O..............OO..O..O.OOO........OO...............OOO..OOOOOO..OOO......O..........................
..................OO................OO..................O.O.OO.............................OO......OO...................................O
.........................................................OOOO.............................O..........O.....................O.....OO...O.O
..................................O........................O..............................OO.O....O.OO....................OOO....OO....OO
.................................OO............................................................OO.........................OOO............
....................OO...........O.O.....................................................................................................
...................O.O.......................................................OO.........................................OO...OO..........
...................O.........................................................OO..................................OO.....OO...OO..........
..................OO..............................................................................................O......................
...............................................................................................................OOO.......................
...............................................................................................................O.........................
...........................................................................................................................OO.....O......
.................................................................................................................................OOO.....
................................................................................................................................OOOOO....
.............................................O................................................OOO.......................OO.....OO...OO...
............................................OO.........................OO.....................OOO............OO..........O...............
............................................O.O.......................O.O....................O...O...........OO.......OOO................
......................................................................O......................OO.OO....................O..................
.....................................................................OO..........................................................OOO.....
.............OO..........OO......................................................................................................OOO.....
............O..O..OOOO..O..O.............................................................................................................
............OOO..OOOOOO..OOO.........................................OO..................................................................
...............OOOOOOOOOO.............................................O......................OO.OO................................OO.....
..............O..........O............................................O.O....................O...O...........OO...................OO.....
..............OO........OO.............................................OO.....................OOO............OO..........................
.....................................O..................O.....................................OOO........................................
...................................OOO.................OO................................................................................
..................................O....................O.O...............................................................................
..................................OO.....................................................................................................
..................O..........OO..........................................................................................................
..................O.........O............................................................................................................
.............................OO..........................................................................................................
..............................O........................................OO....OO..........................................................
...........................O.O.........................................O.....OO..........................................................
...................................OO...............O................O.O.................................................................
...........................OOO....O.OO..............O................OO........................OO........................................
....OO.............O...............O................O.....................................OO.O....O.OO...................................
....OO...........OO.OO.......................................OOO..........................O..........O...................................
.................OO.OO...............OO.....................O...O..........................OO......OO....................................
..................................O..................OO....O.....O.....OO...............OOO..OOOOOO..OOO.................................
...................................O..O...............O....O.....O.....OO...............O..O........O..O.................................
......................................O..OO...........O.O..O.....O.......................OO..........OO..................................
...................................O.....O.............OO...O...O............O...........................................................
.................OO.OO.............O..O...OOO................OOO...........OOO...........................................................
....OO...........OO.OO..............OO......O...............OO............O..............................................................
....OO.............O.......................................OOOO...........OO.............................................................
...............................OO........................................................................................................
...............................O.O..........................O.O..........................................................................
.................................O..........................O.O..........................................................................
.................................OO.............OO..............OO......................OO...............................................
...............................................O.O......................................O.O..............................................
..................O............................O.O.OO................................OO.O.O..............................................
..................O.............................O.O.O................................O.O.O...............................................
..................................................O.............OOO....OOO.............O.................................................
.................................................OO............O...O..O...O............OO................................................
................................................OOO...........O...OO..OO...O...........OOO...............................................
................................................OOO..........O..............O..........OOO...............................................
..............OO........OO......................OOO..........O..O........O..O..........OOO...............................................
..............O..........O......................OOO..........O..............O..........OOO...............................................
...............OOOOOOOOOO........................OO...........O...OO..OO...O...........OO................................................
............OOO..OOOOOO..OOO......................O............O...O..O...O............O.................................................
............O..O..OOOO..O..O....................O.O.O...........OOO....OOO...........O.O.O...............................................
.............OO..........OO....................O.O.OO................................OO.O.O..............................................
...............................................O.O......................................O.O..............................................
................................................OO......................................OO...............................................
................................................................OO......OO...............................................................
................................................................OO......OO...............................................................
