!Name: p07832
!Source: guns2j-20090906
!
..................................................................................................................................OO....OO....OO.........
.................................................................................................................................O..O.O....O.O..O........
.................................................................................................................................OOO..........OOO........
....................................................................................................................................OO......OO...........
...................................................................................................................................O..OOOOOO..O..........
...................................................................................................................................OO........OO..........
..........................................................................................................................OO.............O...............
...........................................................................................................................O............OOO..............
...........................................................................................................................O.O.........OOOOO.............
............................................................................................................................OO........O.....O............
.....................................................................................................................................OO.....OO.........OO
................................................................................................................O......OO...........OO.......OO........OO
................................................................................................................OOO....OO............O.O...O.O...........
...................................................................................................................O..................OO...OO............
..................................................................................................................OO.....................................
......................................................................................................................................OO...OO............
........................................................................................................................O............O.O...O.O...........
.......................................................................................................................OOO..........OO.......OO........OO
......................................................................................................................OOOOO..........OO.....OO.........OO
.....................................................................................................................OO...OOO...O.....O.....O............
....................................................................................................................OOO...OO.OO........OOOOO.............
.....................................................................................................................OO...O.............OOO..............
......................................................................................................................OOOOO..............O...............
.......................................................................................................................OOO..OOO..........................
........................................................................................................................O................................
..........................................................................................................O..............................................
.........................................................................................................O...............................................
.........................................................................................................OOO............OOO..............................
.......................................................................................................................O...O.............................
.......................................................................................................................O...O.......OO........OO..........
...................................................................................................................................O..OOOOOO..O..........
..............................OO......OO...............................................................................O...O........OO......OO...........
..............................OO......OO..................................................................OO..........O.OOO.O....OOO..........OOO........
.........................................................................................................O.O..........O.....O....O..O.O....O.O..O........
...........................................................................................................O.........OO.O.O.OO....OO....OO....OO.........
...............................................................................................O....................O..OO.OO..O..........................
..............................................................................................O.....................OO.......OO..........................
..............................................................................................OOO........................................................
..............OO......................................OO.................................................................................................
.............O.O......................................O.O................................................................................................
.............O.O.OO................................OO.O.O................................................................................................
..............O.O.O....O......................O....O.O.O.................................................................................................
................O.....OO......................OO.....O...................................................................................................
...............O..O..O.O.......O......O.......O.O..O..O..................................................................................................
...............O...OOOO.......OO......OO.......OOOO...O..................................................................................................
...............O.....O...OOO.OOO......OOO.OOO...O.....O.............................O....................................................................
...............O.....O........OO......OO........O.....O............................O.....................................................................
...............O...............O......O...............O............................OOO...................................................................
...............O..O................................O..O..................................................................................................
................O....................................O...................................................................................................
..............O.O.O................................O.O.O.................................................................................................
.............O.O.OO................................OO.O.O................................................................................................
.............O.O......................................O.O................................................................................................
..............OO.........................OO...........OO............................OO...................................................................
...........................................O.......................................O.O...................................................................
......................................O.....O........................................O...................................................................
....................................OOO.....O............OO..............................................................................................
............................OO........O...OO............O.O..............................................................................................
.............................O........................OOO................................................................................................
..........................OOO..........OO............O...O...............................................................................................
..........................O..........O..O........O..O..OOO...............................................................................................
.....................................O..O........OO.O....................................................................................................
...............................OO....OO..........O..O..OOO...............................................................................................
...............................OO....................O...O...............................................................................................
......................................................OOO................OO..............................................................................
........................................................O.O.............O.O..............................................................................
.........................................................OO...............O..............................................................................
.................................OO......................................................................................................................
................................O.O......................................................................................................................
................................O........................................................................................................................
...............................OO..........O.............................................................................................................
............................................O............................................................................................................
..........................................OOO............................................................................................................
..............................................................OO.........................................................................................
.............................................................O.O.........................................................................................
...............................................................O.........................................................................................
..........................OO.......OO....................................................................................................................
..........................O..OO.OO..O....................................................................................................................
.........OO..........OO....OO.O.O.OO.....................................................................................................................
........O..O........O..O....O.O.O.O......................................................................................................................
........OOO..OOOOOO..OOO....O.....O................OO....................................................................................................
...........OO......OO........O...O................O.O....................................................................................................
..........O..........O........OOO...................O....................................................................................................
..........OO.O....O.OO...................................................................................................................................
...............OO..............O.........................................................................................................................
..............................OOO........................................................................................................................
...............O.........................................................................................................................................
..............OOO........................................................................................................................................
.............OO.OO......................................OO...............................................................................................
..............OOO...................................OO....OOOO...........................................................................................
...............O....................................OO..OO.OOO...........................................................................................
..........................O.............OO..............O................................................................................................
.........................O.O...........O.O...............................................................................................................
........................OO.OO............O...............................................................................................................
.O......................O..O.O...........................................................................................................................
O.........................O.OOO..........................................................................................................................
O....O........OOO.......O.O....O.........................................................................................................................
.O...O........O.O........O...OO..........................................................................................................................
....O.........OOO............O...........................................................................................................................
..............OOO........................................................................................................................................
..............OOO....................OO..................................................................................................................
....O.........OOO....................O...................................................................................................................
.O...O........O.O...............OO....OOO................................................................................................................
O....O........OOO...............OO......O................................................................................................................
O........................................................................................................................................................
.O.........................OO............................................................................................................................
...........................O.O...........................................................................................................................
.............................O...........................................................................................................................
.............................OO..........................................................................................................................
...............O.........................................................................................................................................
..............OOO........................................................................................................................................
.............OO.OO.......................................................................................................................................
..............OOO........................................................................................................................................
...............O.........................................................................................................................................
...............OO........................................................................................................................................
..........OO.O....O.OO...................................................................................................................................
..........O..........O...................................................................................................................................
...........OO......OO....................................................................................................................................
........OOO..OOOOOO..OOO..........................................................................O......................................................
........O..O........O..O...........................................................................O.....................................................
.........OO..........OO..........................................................................OOO.....................................................
