!Name: p08160
!Source: guns2j-20090906
!
........................O.....................O..................................
........................O.O..................OOOO................................
.......O.................O.O................OO.OOOO.....OO.......................
.......OO................O..O..............OOO.OO...O...O..O.....................
..OO....OO...............O.O................OO.OO...O.......O......OO............
..OO....OOO.............O.O...OO...OO........OOOOO...O......O......OO............
..OO....OO.......O.O....O.....O.O.O.O.........O...OOO.......O....................
.......OO.........OO............O.O.....................O..O.....................
.......O..........O.............O.O.....................OO.......................
.................................O...............................................
...O........................................O....................................
..OOO.....................................OO.....................................
.O...O.....................................OO....................................
O.OOO.O..................O.......................................................
.OOOOO..................O.O......................................................
.........................OO......................................................
...................................OO............................................
.................................O..O............................................
.................................OO..............................................
...OO...........................O................................................
...OO..........................O.O...........................OO..................
...............................OO............................O...................
....................................................O......O.O...................
....................................................O.O....OO....................
.........................................OO............OO........................
.....O..O.OO.O..O........................OO............OO.......OO..........OO...
.....OOOO.OO.OOOO......................................OO.......OO..........OO...
.....O..O.OO.O..O...................................O.O..........................
....................................................O............................
..................................................................OO.............
..............................................................OO...OO.......OOO..
...............................................................OOOOO.......O...O.
...............................O...............................OO.OO......O.....O
...............................OO..............................OO.OO......O.....O
......................OO..OO....OO..............................OOO..........O...
......................OO..OO....OOO........................................O...O.
..........................OO....OO..........................................OOO..
...............................OO............................................O...
...............................O........................................OO.......
.................................................OO...................O..O.......
.................................................OO..................O.......OO..
.....................................................................O......O..O.
.....................................................................O.......OO..
.........................................OOOOO........................O..O.......
................................O.......O.OOO.O.........................OO.......
................................OOOO.....O...O...................................
......................OO.........OOOO.....OOO....................................
......................OO.........O..O......O.....................................
...........................O.....OOOO............OOO.............................
...........................O....OOOO............O...O............................
................................O..............O.....O...........................
...............................................OO.O.OO...........................
..........................................O......................................
.........................................O.O.....................................
.............................OO.........O...OO....O..............................
.............................OO.........O...OO...O.O.............................
........................................O...OO...O.O..................O..........
.........................................O.O......O....................O.........
..........................................O..........................OOO.........
