!Name: p08100
!Source: guns2j-20090906
!
...................................O........................OO...................OO.....O........................
...................OO............O.O.........................O...................O....OOO........................
...................OO..........OO............................O.O......O.O......O.O...O...........................
.........................OO....OO.............................OO......O..O.....OO....OO..........................
.........................OO....OO........................................OO......................................
.................................O.O...................................O...OO....................................
...................................O.....................................OO......................................
......................................................................O..O........OOO............................
..............................................O.......................O.O........OO.OO...........................
.............................................OOO.................................OO.OO...........................
............................................OOOOO................................OOOOO...........................
...................O.......................OO...OO..............................OO...OO..........................
..................OOO...............OO......OOOOO................................................................
.................OOOOO.............O.O......O...O................................................................
................OO...OO..OO.......OOO....OO.OO.O.................................................................
.................OOOOO...OO......OOO....O..O..O...................................O..............................
.................O...O............OOO....OO.......................................O................OO............
..................O.O..............O.O...........................................O.................O.............
...................O................OO..................................................OO.......O.O.............
..................................................................................O.....O..O.....OO.........OO...
..................................................................................O.........O...............OO...
.................O..........................................................................O....................
...............OO.OO............................................O......O....................O....................
........................O.......O..............................OO......OO...............O..O.....................
...OO.........O.....O....O.....OOOO...........................OOO......OOO..............OO.......................
...OO..................OOO.........O...........................OO......OO....................................O...
..............OO.O.OO.........OO.O..O............O..............O......O...................................OO.OO.
..................................OO.............O...............................................................
................................................O.O.............................................OOO.......O.....O
.................................................O.............................................O...O.............
.................................................O............................................O.....O.....OO.O.OO
.....................................OOO.........O............................................OO.O.OO............
.................................................O...............................................................
..OOO...........................................O.O..............................................................
.O...O.........................OOO.........O.....O...............................................O...............
O.....O.........OO............O.O.OO.......O.....O..............................................O.O..............
OO.O.OO.........OO............O.O.OO.......O....................................................O.O..............
...............................O.O.O.............................................................O...O...........
.................................OOO................................................................O.O..........
...O.............................OOO..............................................................OO...O.........
..O.O.............................................................................................OO...O.........
..O.O.............OOO.............................................................................OO...O.........
...O...OO..........OO......................O..................................O.O..O.O..............O.O..........
.......OOO................................O.O.............................OO.O..O..O..O.OO...........O...........
..OO.....OO.O...........O..................OO.................................O.O..O.O...........................
.O..O....O..O..........OO........................................................................................
..OO.....OO.O.........OO....OO..OO.........OO....................................................................
.......OOO...........OOO....OO..OO..........O....................................................................
.......OO.............OO....OO.............O.....................................................O...............
.......................OO..................OO.....................................................O..............
........................O.......................................................................OOO..............
