!Name: p08700
!Source: guns2j-20090906
!
.............................................O...............................................
.............................................O.O.............................................
................................................OO......OO...................................
..................................OO............OO....O...O..................................
..................................OO............OO...O.....O.................................
.............................................O.O....OO.O...O........OO.......................
.............................................O.......O.....O........OO.......................
......................................................O...O..................................
........................................................OO.........................O.........
..................................................................................O.O........
.......................O.........................................OO..............O...OO......
....................OOOO....O....................................O.O.............O...OO...OO.
...........O.......OOOO.....O.....................................OOO............O...OO...OO.
..........O.O......O..O.........OO.................................OOO............O.O........
.........O...OO....OOOO.........OO................................OOO.......O......O.........
.........O...OO.....OOOO..................................OO.....O.O.........OO........O.....
.........O...OO........O.................................O.O.....OO.........OO.......OOO.....
..........O.O........................O.O.................O..........................O........
...........O.........................OO...........OO....OO..........................OO.......
....................O.O...............O............O.........................................
.....................OO...........................O..........................................
.....................O............................OO.........................................
.................................................................................OOO.........
...........................................................................O.....OOO.........
...........................................................................O.O..O...O........
OO.O.OO....................................................................OO................
...............................................................................OO...OO.......
O.....O......................................................................................
.OO.OO.......................................................................................
...O..............O.............................................OOOOO........................
...............OOOO............................................OOOOOO........................
.......OO.....OOOO.....OO.....................................O..............................
.......OO.....O..O....O..O....................................O.O............................
..............OOOO.............................................O.O...........................
...OO..........OOOO....OOOO.....................................O............................
...OO.............O......OOO...............................OOO...................OO..........
.................................................................................OO..........
..........................OO.................................................................
.............OO..............................................................................
............O.O..............................................................................
..OO.......O......OO....O....................................................................
..OO.......O..O..O..O..O.O...................................................................
...........O......OOO.O.OO..........OO................................OOO.........OO.........
............O.O......OO.OO..........OO................................O.........O..O.......O.
.............OO.......O.OO.......................................O.....O.......O.......OO...O
.......................O.O.....................................OOOO............O......O.....O
........................O................OO...................O.O.OO...........O.......OOOOO.
.........................................OO..............OO..O..O.OOO...........O..O.........
.........................................................OO...O.O.OO..............OO.........
...............................................................OOOO..........................
.................................................................O...........................
..................................................O..........................................
.....................................OO.O..........O.....O.OO................................
.....................................O.OO........OOO.....OO.O................................
