!Name: p09180
!Source: guns2j-20090906
!
.................................................O...........................................
.................................................O.O.........................................
..................................................O.O.......O................................
.....................................OO...........O..O......OO...............................
......................O.O............OO...........O.O..OO....OO..............................
.....................O..O....O...................O.O...OO....OOO.......OO....................
...........O........OO.....OO....................O.....OO....OO........OO....................
..........O.O.....OO...O........OO..........................OO...............................
..........OO.O......OO..........OO..........................O................................
..........OO.OO......O..O.......................O............................................
..........OO.O........O.O......................O....................O........................
..........O.O..................................OOO..................O.O......................
...........O.........O...................................OO............OO......OO............
......................O..................................OO............OO....O...O...........
....OO..............OOO................................................OO...O.....O..........
....................................................OOO.............O.O....OO.O...O........OO
....................................................OOO.............O.......O.....O........OO
........................................O............O.......................O...O...........
........................................O.O..........O.........................OO............
OO...OO.................................OO...........O.......................................
.OOOOO..............................................O.O............OO.................OO.....
.OO.OO.....................OO......................................OO.................OO.....
.OO.OO.....................OO................................................................
..OOO......................OO.......................O.O...............................O......
...........................OO..O.....................O...............................O.O.....
...........................OO.O.O....................O...................OO..........O.O.....
............................O..O.....................O..................OO............O......
.............................OO.....................OOO.....O.O...........O..................
.................................O..................OOO.....OO...............................
...OO............................O...........................O.....................OO.O.OO...
...OO............................O.................................................O.....O...
....................................................................................O...O....
......................................................OOO........................O...OOO.....
................................................................................OO...........
......OO......OO....OO..............................................OO..........O.O..........
.....O..O....O..O..O.O.............................................O...O.....................
.....O..O....O..O....O............................................O.....O....................
.....O..O....O..O.................................................O...O.OO..OO...............
......OO......OO..................................................O.....O...OO...............
...................................................................O...O.....................
....................................................................OO..............O........
....................................................................................O........
...................................................................................O.O.......
.................................OO...............................................OO.OO......
.................................OO..............................................O.....O.....
.....................................................OO...OO........O...............O........
.......................................................OOO........OOO............OO...OO.....
......................................................O...O......O...........................
................................................O.OO...O.O.......OO..........................
.............................OO.O...............OO.O....O............................O.......
.............................O.OO....................................................O.......
......................................................................................O......
.......................................................OO....................................
.......................................................OO...OO...OO................OO........
............................................................OO...OO................OO........
..............................................................OOO............................
..............................................................OOO............................
...............................................................O.............................
.......................................................................O.....................
......................................................................OO.....................
.....................................................................OO....OO..OO............
....................................................................OOO....OO..OO............
.............................................OOOOOO..................OO....OO................
............................................O......O..................OO.....................
...........................................O........O..................O.....................
............................................O......O.........................................
.............................................OOOOOO.........O................................
.............................................................O...............................
...........................................................OOO...............................
