!Name: p09200
!Source: guns2j-20090906
!
.........................................................................................OO......OO.........................................................................................
........................................................................................O..O....O..O........................................................................................
.........................................................................................OO......OO.........................................................................................
.....................................................................................O................O.....................................................................................
....................................................................................O.O..............O.O....................................................................................
....................................................................................O.O..............O.O....................................................................................
.....................................................................................O................O.....................................................................................
.........................................................................................OO......OO.........................................................................................
........................................................................................O..O....O..O........................................................................................
.........................................................................................OO......OO.........................................................................................
.....OO.....OO................................................................................................................................................................OO.....OO.....
.....OO.....OO..............................................................O..................................O..............................................................OO.....OO.....
...........................................................................O.O................................O.O...........................................................................
...........................................................................O.O................................O.O...........................................................................
............................................................................O..................................O............................................................................
................................................................................OO........................OO................................................................................
...............................................................................O..O......................O..O...............................................................................
................................................................................OO........................OO................................................................................
..................................................................O......................................................O..................................................................
.................................................................O.O....................................................O.O.................................................................
.................................................................O.O....................................................O.O.................................................................
.......OO.OO......................................................O......................................................O......................................................OO.OO.......
......O.....O..................................................................................................................................................................O.....O......
......................................................................OO............................................OO......................................................................
.....O.......O.......................................................O..O..........................................O..O.......................................................O.......O.....
.....O..O.O..O..................O...OOO...............................OO............................................OO...............................OOO...O..................O..O.O..O.....
.....OOO...OOO.................O.O..OOOOO...OO................................................................................................OO...OOOOO..O.O.................OOO...OOO.....
...............................O...OO...OO..OO...........OO......................................................................OO...........OO..OO...OO...O...............................
....................O...........O..O...OO................OO......................................................................OO................OO...O..O...........O....................
..................OOO............OOO...O............................................................................................................O...OOO............OOO..................
.................O........................................................................................................................................................O.................
..................OOO............OOO...O..................OO....................................................................OO..................O...OOO............OOO..................
....................O...........O..O...OO................O..O..................................................................O..O................OO...O..O...........O....................
...............................O...OO...OO...............O..O..................................................................O..O...............OO...OO...O...............................
...............................O.O..OOOOO.................OO....................................................................OO.................OOOOO..O.O...............................
................................O...OOO..............................................................................................................OOO...O................................
...O.....O........................................................................................................................................................................O.....O...
..OOO...OOO......................................................................................................................................................................OOO...OOO..
.OO.O...O.OO....................................................................................................................................................................OO.O...O.OO.
.................O........................................................................................................................................................O.................
..................O......................................................................................................................................................O..................
....O...O.......OOO............................................................................................................OO........................................OOO.......O...O....
....O...O.....................................................................................................................O.O..................................................O...O....
O.............................................................................................................................O............................................................O
.............................................................................................................................OO.............................................................
...............................................OO..........................................................................................OO...............................................
...............................................OO..........................................................................................OO...............................................
...............................................OO..........................................................................................OO...............................................
.............................O.......OO........O............................................................................................O........OO.......O.............................
....OO.OO..................O.O......O.O.......O.O..........................................................................................O.O.......O.O......O.O..................OO.OO....
.....O.O....................OO........O.......O.OO........................................................................................OO.O.......O........OO....................O.O.....
.....O.O............................................................................................................................................................................O.O.....
......O..............................................................................................................................................................................O......
...............................................OO..........................................................................................OO...............................................
.....................O.........................OO..........................................................................................OO.........................O.....................
................O...O..................................................................................................................................................O...O................
...............O........OO........................................................................................................................................OO........O...............
...............O..OO....................................................................................................................................................OO..O...............
....O...........OO........O......................................................................................................................................O........OO...........O....
..OOO............OOO...O..O....O..OO............OO........................................................................................OO............OO..O....O..O...OOO............OOO..
.O.......................OO.....OO.O............OO........................................................................................OO............O.OO.....OO.......................O.
..OOO............OOO...O...O......O......................................................................................................................O......O...O...OOO............OOO..
....O...........OO.........O....OOO......................................................................................................................OOO....O.........OO...........O....
...............O..OO....................................................................................................................................................OO..O...............
...............O...........O....OOO......................................................................................................................OOO....O...........O...............
................O...O......O......O......................................................................................................................O......O......O...O................
.....................O..OO......OO.O............OO........................................................................................OO............O.OO......OO..O.....................
.........................OO....O..OO............OO.......................................O................................................OO............OO..O....OO.........................
..........................................................................................O.................................................................................................
........................................................................................OOO.................................................................................................
