!Name: p09870
!Cp09870 - Four queen bee thinners added to the p1974.
!CScot Ellison   March 2003
!Source: guns2j-20090906
!
........................O.......OO...............................................................................
........................OOO.....OO............OO.................................................................
.................OO........O.................O..O...............................OO.......O.......................
..................O.......OO................O..O.O................OO............OO.....OOO.......................
..................O.O......................O...O.O...............O..O.................O........OO................
...................OO...................OOOOOO.O.OO.............O.O..O................OO.......O.................
............................OO............O.O..O................O.O...O......................O.O.................
........OO.................O............O..O.OOO...............OO.O.OOOOOO.........OOO.......OO..................
.......O..O................O.O...OO.....O.O.O...OO................O..O.O..........O...O..........................
......O.O..O................OO....O.......O.OO.O..O...............OOO.O..O.......O.....O................OO.......
......O.O.OO......................OO.....OO.O...OO..............OO...O.O.O.......O.....O...............O..O......
.....OO.O.OO..OO.........................O....OO...............O..O.OO.O.........O.....O..............O..O.O.....
........O....OO................O.O.......O...O.O................OO...O.OO.........O...O...............OO.O.O.....
........OOO...OO........................OO.....O.OO...............OO....O..........OOO............OO..OO.O.OO....
......OO...O.OO.............................OO.O.O................O.O...O..........................OO....O.......
.....O..O.OO.O..............................O..O.O.............OO.O.....OO........................OO...OOO.......
......OO.....O...............................O..O...............O.O.OO.............................OO.O...OO.....
........OOO..O................................OO................O.O..O..............................O.OO.O..O....
........O......O.................................................O..O...............................O.....OO.....
.....OO.O.O...O...................................................OO................................O..OOO.......
......O.O.O...O...................................................................................O......O.......
......O.OO.O................OO.....................................................................O...O.O.OO....
.......O..O.................O........O.O...........................................................O...O.O.O.....
........OO............OO.....OOO......OO............................................OO................O.OO.O.....
......................OO........O.....O..............................................O.................O..O......
...............................OO............O.............................OOO....OOO.....OO............OO.......
.............................................O....................................O.......OO.....................
.............................................O...................................................................
.........................................OOO...OOO....................................O.......OO.................
...............................OO.....................................................OOO.....OO............OO...
...............................OO............O...........................................O.................O..O..
.............................................O..........................................OO................O..O.O.
.............................................O............................................................OO.O.O.
............................OO........................................................................OO..OO.O.OO
...........................O.O.........................................................................OO....O...
...........................O..........................................OO..............................OO...OOO...
..........................OO.......OO................................O..O................OOOOO.........OO.O...OO.
..........................O.......O.O...............................O.O..O..................OO..........O.OO.O..O
.................OO........O........O...............................O.O...O..............OO...O.........O.....OO.
...OO............OO.....OOO........................................OO.O.OOOOOO...............OO.........O..OOO...
..O..O.................O..............................................O..O.O.................O........O......O...
.O.O..O................OO.........................OO..................OOO.O..O..............O..........O...O.O.OO
.O.O.OO...........................................OO................OO...O.O.O...O.....................O...O.O.O.
OO.O.....OO........................................................O..O.OO.O...OO.OO......................O.OO.O.
...O.O...O........................................................O.OO...O.OO....O.........................O..O..
...OO....O...............................OO...OO................O..O..OO....O...............................OO...
.OO...O.OO..............................O..O...O................OO.O..O.O...O....................................
O..O.OO.O..............................O..O.O..O.O.................OO.O.....OO...................OO..............
.OO...O.O.O............................OO.O.O...OO.................O..O.OO.......................O.O.............
...OOO.O..O........................OO..OO.O.OO......................O.O..O................OO.......O.............
...O..O.O...............O...........OO....O..........................O..O.................O........OO............
OO.O.OOOOOO............OOO.........OO...OOO...........................OO............OO.....OOO...................
.O.O...O..............OOOOO.........OO.O...OO.......................................OO.......O...................
.O.O..O..............OO...OO.........O.OO.O..O...................................................................
..O..O..............OOO...OOO........O.....OO....................................................................
...OO................OO...OO.........O..OOO......................................................OO..............
......................OOOOO........O......O............O.........................................O...............
..............OO.......OOO..........O...O.O.OO.........O.O............................O........O.O...............
.............O.O......OOO...........O...O.O.O.............OO........................O.O........OO................
.............O.......OO................O.OO.O.............OO....OO...........OO....O.O...........................
............OO........O.................O..O..............OO....OO...........OO...O..O...........................
...................OOO.....OO............OO...OO.......O.O.........................O.O...........................
...................O.......OO................O.O.......O............................O.O..........................
.............................................O........................................O..........................
............................................OO...............O................................O.O................
...........................................................O.O...............................O..O....O...........
....................................................OO....O.O.......................OO......OO.....OO............
....................................................OO...O..O...........OO..........OO....OO...O........OO.......
..........................................................O.O...........OO..................OO..........OO.......
...........................................................O.O...............................O..O................
.............................................................O................................O.O................
....................................................................................O............................
.....................................................................................O...........................
...................................................................................OOO...........................
