!Name: quasarwick.rle
!http://conwaylife.com/wiki/Quasar
!http://conwaylife.com/patterns/quasarwick.rle
!
....O.......................................O.......O.......................................O....
..OOOOO...................................OOOOO...OOOOO...................................OOOOO..
.O.....O..OOO............................O.....O.O.....O............................OOO..O.....O.
O.O.O..O................................O.O.O..O.O..O.O.O................................O..O.O.O
O.O....O.O....O.........................O.O....O.O....O.O.........................O....O.O....O.O
.O..OO...O....O..........................O..OO.....OO..O..........................O....O...OO..O.
.........O....O...................................................................O....O.........
..........OOO.......................................................................OOO..........
............OOO...................................................................OOO............
..........O....O..OOO.......................................................OOO..O....O..........
..........O....O.................................................................O....O..........
..........O....O.O....O...................................................O....O.O....O..........
.................O....O...................................................O....O.................
............OOO..O....O...................................................O....O..OOO............
..................OOO.......................................................OOO..................
....................OOO...................................................OOO....................
..................O....O..OOO.......................................OOO..O....O..................
..................O....O.................................................O....O..................
..................O....O.O....O...................................O....O.O....O..................
.........................O....O...................................O....O.........................
....................OOO..O....O...................................O....O..OOO....................
..........................OOO.......................................OOO..........................
............................OOO...................................OOO............................
..........................O....O..OOO.......................OOO..O....O..........................
..........................O....O.................................O....O..........................
..........................O....O.O....O...................O....O.O....O..........................
.................................O....O...................O....O.................................
............................OOO..O....O...................O....O..OOO............................
..................................OOO.......................OOO..................................
....................................OOO...................OOO....................................
..................................O....O..OOO.......OOO..O....O..................................
..................................O....O.................O....O..................................
..................................O....O.O....O...O....O.O....O..................................
.........................................O....O...O....O.........................................
....................................OOO..O....O...O....O..OOO....................................
..........................................OOO.......OOO..........................................
............................................OOO...OOO............................................
..........................................O....O.O....O..........................................
..........................................O....O.O....O..........................................
..........................................O....O.O....O..........................................
............................................OOO...OOO............................................
