!Name: reflector-k6
!C A (2,1)c/6 glider reflector with a repeat time of 24 generations
!C By "cvojan", 10 May 2021
!C Based on a reaction by "AforAmpere", 9 May 2021
!Source: jslife-moving
!
............O.O...............................................................................................................................................................................................................................
.............OO...............................................................................................................................................................................................................................
.............O................................................................................................................................................................................................................................
......................O.O.....................................................................................................................................................................................................................
.......................OO.....................................................................................................................................................................................................................
.......................O......................................................................................................................................................................................................................
..........OOO.................................................................................................................................................................................................................................
.........O..OO...OOOOO........................................................................................................................................................................................................................
.........O....O.OOOO...O......................................................................................................................................................................................................................
............O...O.............................................................................................................................................................................................................................
.........O..........O...O.....................................................................................................................................................................................................................
.........OO.O..O..OO....O.....................................................................................................................................................................................................................
.........O....O..O............................................................................................................................................................................................................................
....O.OO..........O....O......................................................................................................................................................................................................................
...OO.....O...O.....O.........................................................................................................................................................................................................................
..O...O...OO..O...............................................................................................................................................................................................................................
.OOOO...O.....O...............................................................................................................................................................................................................................
O....OO..OOOO.................................................................................................................................................................................................................................
O..OOOOO......................................................................................................................................................................................................................................
O...OOO.OOOO.OO...............................................................................................................................................................................................................................
..O.......O.O.OO..............................................................................................................................................................................................................................
.......OO...OO................................................................................................................................................................................................................................
.......OO...O..OOO............................................................................................................................................................................................................................
......O......O.OOO............................................................................................................................................................................................................................
.......O.......OO.O...........................................................................................................................................................................................................................
...............O.O............................................................................................................................................................................................................................
..............O..OO...........................................................................................................................................................................................................................
.............O................................................................................................................................................................................................................................
............OOO...............................................................................................................................................................................................................................
...........O..O.O.............................................................................................................................................................................................................................
...........OOO..OO............................................................................................................................................................................................................................
.............O.....OO.........................................................................................................................................................................................................................
.................O.OO.........................................................................................................................................................................................................................
..................O..O........................................................................................................................................................................................................................
..................OOOO........................................................................................................................................................................................................................
..................OO..O.......................................................................................................................................................................................................................
...................O..O.......................................................................................................................................................................................................................
...............OO..O..........................................................................................................................................................................................................................
..............OO..O...O.OO....................................................................................................................................................................................................................
................O..OOO..OO....................................................................................................................................................................................................................
..............O..O.OO..OO.....................................................................................................................................................................................................................
..............O....O...OO.....................................................................................................................................................................................................................
.............O....O....OOO....................................................................................................................................................................................................................
..............O.OO.....OOO....................................................................................................................................................................................................................
................O....O........................................................................................................................................................................................................................
..............OOO....O........................................................................................................................................................................................................................
..............OO.OOO..........................................................................................................................................................................................................................
.................OO.OO........................................................................................................................................................................................................................
..................O.OO........................................................................................................................................................................................................................
.................OOO.O........................................................................................................................................................................................................................
.....................OO.......................................................................................................................................................................................................................
..................OOOO........................................................................................................................................................................................................................
..................OO.O........................................................................................................................................................................................................................
.................O...O........................................................................................................................................................................................................................
................OO....O.......................................................................................................................................................................................................................
................OOO...O.......................................................................................................................................................................................................................
...............O..O...........................................................................................................................................................................................................................
..............OOO...O.........................................................................................................................................................................................................................
.............O..OO..O.O.......................................................................................................................................................................................................................
................O.OOOO.O......................................................................................................................................................................................................................
.............O..OOO..O.O..................................................OOO.................................................................................................................................................................
..............O.O.....OOO..O..............................................O..O................................................................................................................................................................
................OOO...O...OO..............................................O.OO.OO.............................................................................................................................................................
................O...OOO..................................................OO.......OO..........................................................................................................................................................
.................O.........O............................................O.....O....O..........................................................................................................................................................
.......................O..O.O...........................................O.....O.OO...O........................................................................................................................................................
...................O.OOO..OO...........................................O.....O...O.O.O........................................................................................................................................................
....................O...OO.OO..........................................O....OO...O.O.O........................................................................................................................................................
...........................O..O.........................................O...O...O.............................................................................................................................................................
...........................O.OOO........................................O.O.O.O..O.O..........................................................................................................................................................
..........................OO..O................................................O.O.OO.........................................................................................................................................................
..........................OO..OO.O...........................................OO.....O..OO.....................................................................................................................................................
..........................OOOOO..O..................................................OOOOO.....................................................................................................................................................
..........................OOOOO..................................................O..O....O....................................................................................................................................................
.........................O.O...OOO...............................................O.O.OO.......................................................................................................................................................
........................OOO....O................................................OO.OO...OO....................................................................................................................................................
.......................OOO.....OOO.................................................O..OO......................................................................................................................................................
................................O..................................................OO.O.O.....................................................................................................................................................
......................O...OO.O.O....................................................O..OO.O...................................................................................................................................................
......................O......O.O.O...............................................OO.O.....O...................................................................................................................................................
...........................OO.O..OOO..............................................OOOO.OOO....................................................................................................................................................
.......................OO.OOO.O.O.....................................................O..O.O..................................................................................................................................................
........................O...O.O.O..O.....................................................O.O..................................................................................................................................................
...........................OO....O........................................................OO..................................................................................................................................................
.......................O..O....O.O................................................OOO.....O..O................................................................................................................................................
........................OOOOO.OO.O...........................................................O................................................................................................................................................
..........................OO....OO.....................................................OO....O................................................................................................................................................
...............................OO..O..............................................O....O...O..................................................................................................................................................
.............................OOOO...O.............................................OOO..O.O....................................................................................................................................................
............................OO.....O.................................................O..OOO...................................................................................................................................................
...............................O..................................................O..O..O..O..................................................................................................................................................
.................................OO..OO...................................................OO..O...............................................................................................................................................
................................OOO.OOO............................................OOO...O.OOO.O..............................................................................................................................................
.....................................O.OO..........................................OO......O.O.O..............................................................................................................................................
....................................O..O.O..............................................O.....................................................................................................................................................
....................................OO.O................................................O...O.................................................................................................................................................
........................................O.....................................................O.OO............................................................................................................................................
....................................O.O.OO.................................................OOOO...............................................................................................................................................
...................................O..O.OO................................................O...O...O...........................................................................................................................................
...................................O.......................................................OOO.OOOO...........................................................................................................................................
.........................................O...................................................O.OOOO...........................................................................................................................................
..................................OO.O.O.O...............................................OOOOO.OOOOO..........................................................................................................................................
....................................OO.OO................................................O..O.....O...........................................................................................................................................
.....................................OO..................................................O.OO.....OO..........................................................................................................................................
....................................O..O.................................................O...O....O.OO........................................................................................................................................
.....................................O.O.....................................................O...O............................................................................................................................................
....................................O..O..................................................OOO.................................................................................................................................................
...................................O....O.....................................................................................................................................................................................................
...................................O...OO..................................................OOO................................................................................................................................................
..................................O....O..................................................O...O...............................................................................................................................................
..................................OO...O...................................................O.OO...............................................................................................................................................
...................................O.O.O.OOO.................................................OOO..............................................................................................................................................
.....................................O.OOOO.O.O.........................................OOO....OO.............................................................................................................................................
.....................................OOO...OO.O.........................................OO..O.OO..............................................................................................................................................
............................................O.O...........................................OO...O..............................................................................................................................................
........................................O.O.................................................O.................................................................................................................................................
.....................................O.....OO............................................OOOOOOOO.............................................................................................................................................
.....................................OO..O..O...........................................O.....O..O............................................................................................................................................
....................................O..OO...O...............................................O..O.O............................................................................................................................................
......................................OOOOO.O............................................O.OO..OOO............................................................................................................................................
......................................OO..OOOO.................................................OOO............................................................................................................................................
........................................O....O.....................................................OO.........................................................................................................................................
........................................OO...................................................OO....O..........................................................................................................................................
........................................O..OO.................................................O..O.O..........................................................................................................................................
........................................O..OOOO............................................OO...OO.OO.........................................................................................................................................
.........................................OO.O.O.............................................OO...O.O..........................................................................................................................................
.....................................OO......O..............................................OOO..O.O..........................................................................................................................................
....................................OO.......OO..............................................O.OO..O..........................................................................................................................................
.....................................OO......................................................O.O.O............................................................................................................................................
......................................O..........................................................O...O........................................................................................................................................
......................................OOO.O...................................................OO...O..........................................................................................................................................
.........................................O.O..................................................OOOO............................................................................................................................................
.........................................O.......................................................OOO..........................................................................................................................................
.............................................OO..................................................OOO..........................................................................................................................................
........................................OO..OO.O..................................................OO..........................................................................................................................................
..............................................O................................................OOO............................................................................................................................................
................................................O..............................................O.....O........................................................................................................................................
................................................OOOOO...........................................OO..OOOO......................................................................................................................................
..................................................OO..O............................................O.OOO......................................................................................................................................
.................................................O..O..O............................................O.........................................................................................................................................
.................................................O..O...............................................OOO.......................................................................................................................................
...............................................OO........O............................................OO.O....................................................................................................................................
.................................................O.O..O.OOO...................................................................................................................................................................................
.....................................................OO.OO.O...........................................OO.OO..................................................................................................................................
.......................................................OOO.O...........................................OOO....................................................................................................................................
........................................................OOO..............................................O....................................................................................................................................
.........................................................O....................................................................................................................................................................................
...........................................................O.............................................OOOOOO...............................................................................................................................
...........................................................OO.............................................OOOOO...............................................................................................................................
..........................................................OO.O................................................................................................................................................................................
..............................................................O.........................................OO.....OO.............................................................................................................................
..........................................................O.O.O...O.....................................OOO.......OO..........................................................................................................................
...........................................................OO.O.O.OO.....................................O.....O..OO..........................................................................................................................
...........................................................OO.O.O.............................................................................................................................................................................
..............................................................OO...............................................OO.............................................................................................................................
..............................................................O.O............................................OO.OO............................................................................................................................
.............................................................OOO.............................................OO...............................................................................................................................
............................................................O................................................OO...............................................................................................................................
................................................................O............................................OOO..............................................................................................................................
............................................................OO.O.............................................OO...............................................................................................................................
............................................................OOOOO............................................OO.O.OO..........................................................................................................................
............................................................OO..................................................O.O.O.........................................................................................................................
................................................................................................................O...O.........................................................................................................................
.................................................................O.................................................OO.O.......................................................................................................................
................................................................O.OO...............................................O...O......................................................................................................................
...............................................................OO.O.OO......O......................................OO.OOOO....................................................................................................................
..................................................................O...O...OO.O................................................................................................................................................................
.................................................................O.OOOO..O...O....................................O......O....................................................................................................................
.....................................................................O..O...O......................................OO.O.O.....................................................................................................................
.....................................................................OOOO..........................................OO.........................................................................................................................
......................................................................OOO.OO.O....................................OO..........................................................................................................................
.........................................................................OOOOO...................................OOO.OO.......................................................................................................................
........................................................................O...O.O..........OOO....................OO....O.......................................................................................................................
.............................................................................O..........O..OO...OOOOO............OO..OOO......................................................................................................................
...........................................................................O..O.........O....O.OOOO...O...........O..OO.......................................................................................................................
..........................................................................O.OO.............O...O...............O..O..OO.......................................................................................................................
..........................................................................O.............O..........O...O............OOO.......................................................................................................................
...........................................................................O............OO.O..O..OO....O...........O..........................................................................................................................
.........................................................................OO.............O....O..O..................O...OO.....................................................................................................................
.........................................................................OOOOO.....O.OO..........O....O..........OO....OOO....................................................................................................................
..........................................................................OOOO....OO.....O...O.....O...................OOO....................................................................................................................
............................................................................O....O...O...OO..O.........................OOO....................................................................................................................
................................................................................OOOO...O.....O..........................O.....................................................................................................................
...............................................................................O....OO..OOOO...........................O......................................................................................................................
...............................................................................O..OOOOO.......................................................................................................................................................
...............................................................................O...OOO.OOOO.OO................................................................................................................................................
.................................................................................O.......O.O.OO...............................................................................................................................................
......................................................................................OO...OO.................................................................................................................................................
......................................................................................OO...O..OOO.............................................................................................................................................
.....................................................................................O......O.OOO.............................................................................................................................................
......................................................................................O.......OO.O............................................................................................................................................
..............................................................................................O.O.............................................................................................................................................
.............................................................................................O..OO............................................................................................................................................
............................................................................................O.................................................................................................................................................
...........................................................................................OOO................................................................................................................................................
..........................................................................................O..O.O..............................................................................................................................................
..........................................................................................OOO..OO.............................................................................................................................................
............................................................................................O.....OO..........................................................................................................................................
................................................................................................O.OO..........................................................................................................................................
.................................................................................................O..O.........................................................................................................................................
.................................................................................................OOOO.........................................................................................................................................
.................................................................................................OO..O........................................................................................................................................
..................................................................................................O..O........................................................................................................................................
..............................................................................................OO..O...........................................................................................................................................
.............................................................................................OO..O...O.OO.....................................................................................................................................
...............................................................................................O..OOO..OO.....................................................................................................................................
.............................................................................................O..O.OO..OO......................................................................................................................................
.............................................................................................O....O...OO......................................................................................................................................
............................................................................................O....O....OOO.....................................................................................................................................
.............................................................................................O.OO.....OOO.....................................................................................................................................
...............................................................................................O....O.........................................................................................................................................
.............................................................................................OOO....O.........................................................................................................................................
.............................................................................................OO.OOO...........................................................................................................................................
................................................................................................OO.OO.........................................................................................................................................
.................................................................................................O.OO.........................................................................................................................................
................................................................................................OOO.O.........................................................................................................................................
....................................................................................................OO........................................................................................................................................
.................................................................................................OOOO.........................................................................................................................................
.................................................................................................OO.O.........................................................................................................................................
................................................................................................O...O.........................................................................................................................................
...............................................................................................OO....O........................................................................................................................................
...............................................................................................OOO...O........................................................................................................................................
..............................................................................................O..O............................................................................................................................................
.............................................................................................OOO...O..........................................................................................................................................
............................................................................................O..OO..O.O........................................................................................................................................
...............................................................................................O.OOOO.O.......................................................................................................................................
............................................................................................O..OOO..O.O.......................................................................................................................................
.............................................................................................O.O.....OOO..O...................................................................................................................................
...............................................................................................OOO...O...OO...................................................................................................................................
...............................................................................................O...OOO........................................................................................................................................
................................................................................................O.........O...................................................................................................................................
......................................................................................................O..O.O..................................................................................................................................
..................................................................................................O.OOO..OO...................................................................................................................................
...................................................................................................O...OO.OO..................................................................................................................................
..........................................................................................................O..O................................................................................................................................
..........................................................................................................O.OOO...............................................................................................................................
.........................................................................................................OO..O................................................................................................................................
.........................................................................................................OO..OO.O.............................................................................................................................
.........................................................................................................OOOOO..O.............................................................................................................................
.........................................................................................................OOOOO................................................................................................................................
........................................................................................................O.O...OOO............................................OO...............................................................................
.......................................................................................................OOO....O..............................................O..O.............................................................................
......................................................................................................OOO.....OOO............................................O...O............................................................................
...............................................................................................................O...............................................OOO............................................................................
.....................................................................................................O...OO.O.O............................................OO......OOOO.......................................................................
.....................................................................................................O......O.O.O..........................................O.OO....OOOO.......................................................................
..........................................................................................................OO.O..OOO.......................................O....O......OOO.....................................................................
......................................................................................................OO.OOO.O.O...........................................OOOO....OO...O.....................................................................
.......................................................................................................O...O.O.O..O......................................O.........OO.........................................................................
..........................................................................................................OO....O.........................................O...O...............................................................................
......................................................................................................O..O....O.O..............................................OOO..OO..O.....................................................................
.......................................................................................................OOOOO.OO.O..........................................OO.......O....O....................................................................
.........................................................................................................OO....OO.....................................................O.OO....................................................................
..............................................................................................................OO..O................................................OO......O..................................................................
............................................................................................................OOOO...O................................................OO.OOO.O..................................................................
...........................................................................................................OO.....O................................................OO...O..O..................................................................
..............................................................................................................O....................................................O.O..OO....................................................................
................................................................................................................OO..OO.............................................O..O.O.O...................................................................
...............................................................................................................OOO.OOO.............................................OOO......O.................................................................
....................................................................................................................O.OO............................................O.O.O...O.................................................................
...................................................................................................................O..O.O..............................................OO.O.O.................................................................
...................................................................................................................OO.O.............................................O......OOO................................................................
.......................................................................................................................O......................................................................................................................
...................................................................................................................O.O.OO...........................................O.........O...............................................................
..................................................................................................................O..O.OO...........................................O...O......O..............................................................
..................................................................................................................O..................................................O.....OOOOO..............................................................
........................................................................................................................O............................................OOO......................................................................
.................................................................................................................OO.O.O.O................................................OO...................................................................
...................................................................................................................OO.OO..............................................OOO..O..................................................................
....................................................................................................................OO..............................................O.OOO.O...................................................................
...................................................................................................................O..O............................................O...O..O...................................................................
....................................................................................................................O.O.............................................O....OO.OOO...............................................................
...................................................................................................................O..O...............................................OOOO.O....OO............................................................
..................................................................................................................O....O..............................................O.OOOO....OO............................................................
..................................................................................................................O...OO....................................................O.................................................................
.................................................................................................................O....O......................................................O..OO............................................................
.................................................................................................................OO...O......................................................OO...............................................................
..................................................................................................................O.O.O.OOO...................................................OOOOO...........................................................
....................................................................................................................O.OOOO.O.O....................................................OO..........................................................
....................................................................................................................OOO...OO.O..............................................OOO......O........................................................
...........................................................................................................................O.O...............................................O.O...O.O........................................................
.......................................................................................................................O.O..................................................O...O...O.........................................................
....................................................................................................................O.....OO................................................O...OO............................................................
....................................................................................................................OO..O..O...............................................O......O.OOO.......................................................
...................................................................................................................O..OO...O................................................OO...O...OO.......................................................
.....................................................................................................................OOOOO.O.................................................OOOO..O..O.......................................................
.....................................................................................................................OO..OOOO..................................................OO...O.........................................................
.......................................................................................................................O....O.................................................O...............................................................
.......................................................................................................................OO.....................................................OO.O............................................................
.......................................................................................................................O..OO.................................................O................................................................
.......................................................................................................................O..OOOO..............................................OOOOO.............................................................
........................................................................................................................OO.O.O..............................................O....O............................................................
....................................................................................................................OO......O..............................................OOO.OOO............................................................
...................................................................................................................OO.......OO.............................................O.OOOOO............................................................
....................................................................................................................OO.....................................................O..................................................................
.....................................................................................................................O.......................................................O................................................................
.....................................................................................................................OOO.O...............................................O....OOOO............................................................
........................................................................................................................O.O..................................................OOOO.OO..........................................................
........................................................................................................................O.................................................OOO....O............................................................
............................................................................................................................OO...................................................O.O..........................................................
.......................................................................................................................OO..OO.O......................................................O........................................................
.............................................................................................................................O...................................................O..OO........................................................
...............................................................................................................................O..................................................OOO.........................................................
...............................................................................................................................OOOOO...........................................OO.............................................................
.................................................................................................................................OO..O........................................OOO.....O.......................................................
................................................................................................................................O..O..O..........................................OO..O.O......................................................
................................................................................................................................O..O..........................................O..OOO.O.O......................................................
..............................................................................................................................OO........O......................................OO.O..O........................................................
................................................................................................................................O.O..O.OOO.......................................O.O..OO......................................................
....................................................................................................................................OO.OO.O........................................OO.........................................................
......................................................................................................................................OOO.O....................................OOO....O.......................................................
.......................................................................................................................................OOO.....................................OOO....O.......................................................
........................................................................................................................................O.......................................OO...OOO......................................................
..........................................................................................................................................O......................................OO.OO........................................................
..........................................................................................................................................OO......................................OO..........................................................
.........................................................................................................................................OO.O.....................................O...........................................................
.............................................................................................................................................O................................................................................................
.........................................................................................................................................O.O.O...O...............................OO...OOO.....................................................
..........................................................................................................................................OO.O.O.OO................................O..OO.O....................................................
..........................................................................................................................................OO.O.O.....................................O...OO...................................................
.............................................................................................................................................OO.......................................O..OO...................................................
.............................................................................................................................................O.O..........................................O.O.................................................
............................................................................................................................................OOO........................................OO..OO.................................................
...........................................................................................................................................O..............................................OO..................................................
...............................................................................................................................................O..........................................O.O.................................................
...........................................................................................................................................OO.O.............................................OO................................................
...........................................................................................................................................OOOOO..........................................O.OO................................................
...........................................................................................................................................OO.............................................OOO...O.............................................
.........................................................................................................................................................................................OO....OO.............................................
................................................................................................................................................O........................................OOO..................................................
...............................................................................................................................................O.OO.......................................O.O.................................................
..............................................................................................................................................OO.O.OO......O...............................O.O...OOO..........................................
.................................................................................................................................................O...O...OO.O..............................O......O.OO........................................
................................................................................................................................................O.OOOO..O...O..................................O......O.......................................
....................................................................................................................................................O..O...O...................................O...OO.........................................
....................................................................................................................................................OOOO....................................OO................................................
.....................................................................................................................................................OOO.OO.O...................................OOO...........................................
........................................................................................................................................................OOOOO...................................OOO...........................................
.......................................................................................................................................................O...O.O..................................O.............................................
............................................................................................................................................................O............OOO..................................................................
..........................................................................................................................................................O..O..........O..OO...OOOOO...........OOO...........................................
.........................................................................................................................................................O.OO...........O....O.OOOO...O.........OOO...........................................
.........................................................................................................................................................O.................O...O................OOO...........................................
..........................................................................................................................................................O.............O..........O...O........OO............................................
........................................................................................................................................................OO..............OO.O..O..OO....O......................................................
........................................................................................................................................................OOOOO...........O....O..O.............................................................
.........................................................................................................................................................OOOO......O.OO..........O....O.......................................................
...........................................................................................................................................................O......OO.....O...O.....O..........................................................
.................................................................................................................................................................O...O...OO..O................................................................
................................................................................................................................................................OOOO...O.....O................................................................
...............................................................................................................................................................O....OO..OOOO..................................................................
...............................................................................................................................................................O..OOOOO.......................................................................
...............................................................................................................................................................O...OOO.OOOO.OO................................................................
.................................................................................................................................................................O.......O.O.OO...............................................................
......................................................................................................................................................................OO...OO.................................................................
......................................................................................................................................................................OO...O..OOO.............................................................
.....................................................................................................................................................................O......O.OOO.............................................................
......................................................................................................................................................................O.......OO.O............................................................
..............................................................................................................................................................................O.O.............................................................
.............................................................................................................................................................................O..OO............................................................
............................................................................................................................................................................O.................................................................
...........................................................................................................................................................................OOO................................................................
..........................................................................................................................................................................O..O.O..............................................................
..........................................................................................................................................................................OOO..OO.............................................................
............................................................................................................................................................................O.....OO..........................................................
................................................................................................................................................................................O.OO..........................................................
.................................................................................................................................................................................O..O.........................................................
.................................................................................................................................................................................OOOO.........................................................
.................................................................................................................................................................................OO..O........................................................
..................................................................................................................................................................................O..O........................................................
..............................................................................................................................................................................OO..O...........................................................
.............................................................................................................................................................................OO..O...O.OO.....................................................
...............................................................................................................................................................................O..OOO..OO.....................................................
.............................................................................................................................................................................O..O.OO..OO......................................................
.............................................................................................................................................................................O....O...OO......................................................
............................................................................................................................................................................O....O....OOO.....................................................
.............................................................................................................................................................................O.OO.....OOO.....................................................
...............................................................................................................................................................................O....O.........................................................
.............................................................................................................................................................................OOO....O.........................................................
.............................................................................................................................................................................OO.OOO...........................................................
................................................................................................................................................................................OO.OO.........................................................
.................................................................................................................................................................................O.OO.........................................................
................................................................................................................................................................................OOO.O.........................................................
....................................................................................................................................................................................OO........................................................
.................................................................................................................................................................................OOOO.........................................................
.................................................................................................................................................................................OO.O.........................................................
................................................................................................................................................................................O...O.........................................................
...............................................................................................................................................................................OO....O........................................................
...............................................................................................................................................................................OOO...O........................................................
..............................................................................................................................................................................O..O............................................................
.............................................................................................................................................................................OOO...O..........................................................
............................................................................................................................................................................O..OO..O.O........................................................
...............................................................................................................................................................................O.OOOO.O.......................................................
............................................................................................................................................................................O..OOO..O.O.......................................................
.............................................................................................................................................................................O.O.....OOO..O...................................................
...............................................................................................................................................................................OOO...O...OO...................................................
...............................................................................................................................................................................O...OOO........................................................
................................................................................................................................................................................O.........O...................................................
......................................................................................................................................................................................O..O.O..................................................
..................................................................................................................................................................................O.OOO..OO...................................................
...................................................................................................................................................................................O...OO.OO..................................................
..........................................................................................................................................................................................O..O................................................
..........................................................................................................................................................................................O.OOO...............................................
.........................................................................................................................................................................................OO..O................................................
.........................................................................................................................................................................................OO..OO.O.............................................
.........................................................................................................................................................................................OOOOO..O.............................................
.........................................................................................................................................................................................OOOOO................................................
........................................................................................................................................................................................O.O...OOO.............................................
.......................................................................................................................................................................................OOO....O...............................................
......................................................................................................................................................................................OOO.....OOO.............................................
...............................................................................................................................................................................................O..............................................
.....................................................................................................................................................................................O...OO.O.O...............................................
.....................................................................................................................................................................................O......O.O.O.............................................
..........................................................................................................................................................................................OO.O..OOO...........................................
......................................................................................................................................................................................OO.OOO.O.O..............................................
.......................................................................................................................................................................................O...O.O.O..O...........................................
..........................................................................................................................................................................................OO....O.............................................
......................................................................................................................................................................................O..O....O.O.............................................
.......................................................................................................................................................................................OOOOO.OO.O.............................................
.........................................................................................................................................................................................OO....OO.............................................
..............................................................................................................................................................................................OO..O...........................................
............................................................................................................................................................................................OOOO...O..........................................
...........................................................................................................................................................................................OO.....O...........................................
..............................................................................................................................................................................................O...............................................
................................................................................................................................................................................................OO..OO........................................
...............................................................................................................................................................................................OOO.OOO........................................
....................................................................................................................................................................................................O.OO......................................
...................................................................................................................................................................................................O..O.O.....................................
...................................................................................................................................................................................................OO.O.......................................
.......................................................................................................................................................................................................O......................................
...................................................................................................................................................................................................O.O.OO.....................................
..................................................................................................................................................................................................O..O.OO.....................................
..................................................................................................................................................................................................O...........................................
........................................................................................................................................................................................................O.....................................
.................................................................................................................................................................................................OO.O.O.O.....................................
...................................................................................................................................................................................................OO.OO......................................
....................................................................................................................................................................................................OO........................................
...................................................................................................................................................................................................O..O.......................................
....................................................................................................................................................................................................O.O.......................................
...................................................................................................................................................................................................O..O.......................................
..................................................................................................................................................................................................O....O......................................
..................................................................................................................................................................................................O...OO......................................
.................................................................................................................................................................................................O....O.......................................
.................................................................................................................................................................................................OO...O.......................................
..................................................................................................................................................................................................O.O.O.OOO...................................
....................................................................................................................................................................................................O.OOOO.O.O................................
....................................................................................................................................................................................................OOO...OO.O................................
...........................................................................................................................................................................................................O.O................................
.......................................................................................................................................................................................................O.O....................................
....................................................................................................................................................................................................O.....OO..................................
....................................................................................................................................................................................................OO..O..O..................................
...................................................................................................................................................................................................O..OO...O..................................
.....................................................................................................................................................................................................OOOOO.O..................................
.....................................................................................................................................................................................................OO..OOOO.................................
.......................................................................................................................................................................................................O....O.................................
.......................................................................................................................................................................................................OO.....................................
.......................................................................................................................................................................................................O..OO..................................
.......................................................................................................................................................................................................O..OOOO................................
........................................................................................................................................................................................................OO.O.O................................
....................................................................................................................................................................................................OO......O.................................
...................................................................................................................................................................................................OO.......OO................................
....................................................................................................................................................................................................OO........................................
.....................................................................................................................................................................................................O........................................
.....................................................................................................................................................................................................OOO.O....................................
........................................................................................................................................................................................................O.O...................................
........................................................................................................................................................................................................O.....................................
............................................................................................................................................................................................................OO................................
.......................................................................................................................................................................................................OO..OO.O...............................
.............................................................................................................................................................................................................O................................
...............................................................................................................................................................................................................O..............................
...............................................................................................................................................................................................................OOOOO..........................
.................................................................................................................................................................................................................OO..O........................
................................................................................................................................................................................................................O..O..O.......................
................................................................................................................................................................................................................O..O..........................
..............................................................................................................................................................................................................OO........O.....................
................................................................................................................................................................................................................O.O..O.OOO....................
....................................................................................................................................................................................................................OO.OO.O...................
......................................................................................................................................................................................................................OOO.O...................
.......................................................................................................................................................................................................................OOO....................
........................................................................................................................................................................................................................O.....................
..........................................................................................................................................................................................................................O...................
..........................................................................................................................................................................................................................OO..................
.........................................................................................................................................................................................................................OO.O.................
.............................................................................................................................................................................................................................O................
.........................................................................................................................................................................................................................O.O.O...O............
..........................................................................................................................................................................................................................OO.O.O.OO...........
..........................................................................................................................................................................................................................OO.O.O..............
.............................................................................................................................................................................................................................OO...............
.............................................................................................................................................................................................................................O.O..............
............................................................................................................................................................................................................................OOO...............
...........................................................................................................................................................................................................................O..................
...............................................................................................................................................................................................................................O..............
...........................................................................................................................................................................................................................OO.O...............
...........................................................................................................................................................................................................................OOOOO..............
...........................................................................................................................................................................................................................OO.................
................................................................................................................................................................................................................................O.............
...............................................................................................................................................................................................................................O.OO...........
..............................................................................................................................................................................................................................OO.O.OO......O..
.................................................................................................................................................................................................................................O...O...OO.O.
................................................................................................................................................................................................................................O.OOOO..O...O.
....................................................................................................................................................................................................................................O..O...O..
....................................................................................................................................................................................................................................OOOO......
.....................................................................................................................................................................................................................................OOO.OO.O.
........................................................................................................................................................................................................................................OOOOO.
.......................................................................................................................................................................................................................................O...O.O
............................................................................................................................................................................................................................................O.
..........................................................................................................................................................................................................................................O..O
.........................................................................................................................................................................................................................................O.OO.
.........................................................................................................................................................................................................................................O....
..........................................................................................................................................................................................................................................O...
........................................................................................................................................................................................................................................OO....
........................................................................................................................................................................................................................................OOOOO.
.........................................................................................................................................................................................................................................OOOO.
...........................................................................................................................................................................................................................................O..
