!Name: l156reactions.rle
!http://conwaylife.com/wiki/L156
!http://conwaylife.com/patterns/l156reactions.rle
!
....................................................................................................OO...............................
.....................................................................................................O...............................
........................................................................................O...........O................................
........................................................................................OOO.........OO...............................
...........................................................................................O.........................................
..............................................................................OO..........OO.......................................O.
...............................................................................O..................................................O.O
...............................................................................O.O................................................O.O
.................................................................OO.............OO.................................................O.
.................................................................OO....................................OO...............O............
.......................................................................................................OO...............O............
........................................................................................................................OOO..........
...........................................................OO.............................................................O..........
...........................................................OO........................................................................
...............................................................OO....................................................................
...............................................................OO...............O....................................................
................................................................................O....................................................
................................................................................OOO..................................................
..................................................................................O...........OO.....................................
..........................................................OO..................................O......................................
..........................................................OO...................................OOO...................................
.................................................................................................O...................................
..............................................................................O...OO.................................................
.............................................................................O.O...O.................................................
.............................................................................OO...O..................................................
.................................................................................O...................................................
.............................................................................OOOOO.O.................................................
........................................................................OO...O....O.O................................................
..............................................................O.........O......O..O.O................................................
...............................................................O......OOO.....OO...O.................................................
............................................................OOO......................................................................
............................................................O........................................................................
......................................................................OO.............................................................
......................................................................OO.............................................................
O....................................................................................................................................
.OO..........................................................OO.O....................................................................
OO...........................................................O.OO....................................................................
...............................................................O.....................................................................
..............................................................O.O....................................................................
..............................................................O.O....................................................................
............................................................OOO.OO....................O..............................................
...........................................................O........................OOO..............................................
.....................................................O......OOO.OO.................O.................................................
.....................................................OOO......O.OO....OO...........OO................................................
........................................................O.............OO.............................................................
.......................................OO..............OO............................................................................
.......................................OO.......................................OO...................................................
...............................................................................O..O..................................................
................................................................................OO...................................................
.................................OO..................................................................................................
.................................OO..................................................................................................
.....................................OO..............................................................................................
.....................................OO...............O..............................................................................
......................................................O..............................................................................
......................................................OOO............................................................................
........................................................O...........OO...............................................................
................................OO..................................O................................................................
................................OO...................................OOO.............................................................
.............................................................O...OO....O.............................................................
....................................................O...OO..O.O...O..................................................................
...................................................O.O...O..OO...O...................................................................
...................................................OO...O.......O....................................................................
.......................................................O....OOOOO.O..................................................................
...................................................OOOOO.O..O....O.O.................................................................
..............................................OO...O....O.O.O.OO.O.O.................................................................
..............................................O......O..O.O.OO.O.OO..................................................................
............................................OOO.....OO...O...........................................................................
............................................OO.......................................................................................
............................................OO.......................................................................................
...................................OO.O..............................................................................................
...................................O.OO..............................................................................................
....................O................................................................................................................
..................OOO................................................................................................................
.................O...................................................................................................................
.................OO..................................................................................................................
....................................O................................................................................................
....................................OOO..............................................................................................
...........................O...........O.............................................................................................
...........................OOO........OO..............O..............................................................................
..............................O......................O.O.............................................................................
.............................OO.......................O..............................................................................
...................................................OO................................................................................
...................................................O.O...............................................................................
.....................................................O...............................................................................
............................O........................OO..............................................................................
............................O.O..................OO..................................................................................
.................OO.........OOO..................O...................................................................................
.................OO...........O...........OO......OOO................................................................................
..........................................O.........O................................................................................
...........................................OOO.......................................................................................
.............................................O.......................................................................................
...........................................................................................OO........................................
...........................................................................................O.O.......................................
...........................................................................................O.........................................
