!Name: 204p47_synth.rle
!Author: Martin Grant, 7 October 2013
!Matthias Merzenich, 10 October 2013
!142-glider synthesis of extended version of pre-pulsar shuttle 47
!http://conwaylife.com/wiki/Pre-pulsar_shuttle_47
!http://conwaylife.com/forums/viewtopic.php?p=9330#p9330
!http://conwaylife.com/forums/viewtopic.php?p=9365#p9365
!
............................................................................................................................................................................O..................................................................................................................................................................................................................................................................................................................................................................................................................................................................................................................................................................................................................................................................................................................................................................................................................O...............................................................................O............................................................................................................................................................................................................................................................................................................................................................................................................................................................................................
..........................................................................................................................................................................O.O................................................................................................................................................................................................................................................................................................................................................................................................................................................................................................................................................................................................................................................................................................................................................................................................................O.O...............................................................................O.O..........................................................................................................................................................................................................................................................................................................................................................................................................................................................................................
...........................................................................................................................................................................OO.................................................................................................................................................................................................................................................................................................................................................................................................................................................................................................................................................................................................................................................................................................................................................................................................................OO...............................................................................OO...........................................................................................................................................................................................................................................................................................................................................................................................................................................................................................
..........................................................O.................................................................................................................................................................................................................................................................................................................................................................................................................................................................................................................................................................................................................................................................................................................................................................................................................................................................................................................................................................................................................................................................................................................................................................................................................................................................................................................................................................................................................................................................................................................
........................................................O.O.................................................................................................................................................................................................................................................................................................................................................................................................................................................................................................................................................................................................................................................................................................................................................................................................................................................................................................................................................................................................................................................................................................................................................................................................................................................................................................................................................................................................................................................................................................................
.........................................................OO.................................................................................................................................................................................................................................................................................................................................................................................................................................................................................................................................................................................................................................................................................................................................................................................................................................................................................................................................................................................................................................................................................................................................................................................................................................................................................................................................................................................................................................................................................................................
....................................................................................................O...........................................................................O..................................................................................................................................................................................................................................................................................................................................................................................................................................................................................................................................................................................................................................................................................................................................................................................................................O.......................................................................O................................................................................................................................................................................................................................................................................................................................................................................................................................................................................................
..................................................................................................OO.............................................................................OO.................................................................................................................................................................................................................................................................................................................................................................................................................................................................................................................................................................................................................................................................................................................................................................................................................OO...................................................................OO.................................................................................................................................................................................................................................................................................................................................................................................................................................................................................................
...............................................O.O.................................................OO...........................................................................OO.................................................................................................................................................................................................................................................................................................................................................................................................................................................................................................................................................................................................................................................................................................................................................................................................................OO.....................................................................OO.............................................................................................................................................................................................................................................O..................................................................................................................................................................................................................................................
................................................OO........................................................................................................................................................................................................................................................................................................................................................................................................................................................................................................................................................................................................................................................................................................................................................................................................................................................................................................................................................................................................................................................................................................................................................................................................................................................................O.................................................................................................................................................................................................................................................
................................................O.......................................................................................................................................................................................................................................................................................................................................................................................................................................................................................................................................................................................................................................................................................................................................................................................................................................................................................................................................................................................................................................................................................................................................................................................................................................................................OOO.................................................................................................................................................................................................................................................
..............................................................................................................................................................................................................O..................................................................................................................................................................................................................................................................................................................................................................................................................................................................................................................................................................................................................................................................................................................................................................................................................O...........O..............................................................................................................................................................................................................................................................................................................................................................................................................................................................................................................................
........................................................O....................................................................................................................................................O.................................................O................................................................................................................................................................................................................................................................................................................................................................................................................................................................................................................................................................................................................................................................................................................................................................O.............O.............................................................................................................................................................................................................................................................................................................................................................................................................................................................................................................................
.........................................................OO..................................................................................................................................................OOO.............................................OO.................................................................................................................................................................................................................................................................................................................................................................................................................................................................................................................................................................................................................................................................................................................................................................OOO.........OOO.............................................................................................................................................................................................................................................................................................................................................................................................................................................................................................................................
........................................................OO....................................................................................................................................................................................................OO............................................................................................................................................................................................................................................................................................................................................................................................................................................................................................................................................................................................................................................................................................................................................................................................................................................................................................................................................................................................................................................................................................................................................................................................................................................................................................................
...........................................................................................................................................................................................O.O................................................................................................................................................................................................................................................................................................................................................................................................................................................................................................................................................................................................................................................................................................................................................................................................................O.O.............................................O.O...........................................................................................................................................................................................................................................................................................................................................................................................................................................................................................................
............................................................................................................................................................................................OO.................................................................................................................................................................................................................................................................................................................................................................................................................................................................................................................................................................................................................................................................................................................................................................................................................OO.............................................OO...........................................................................................................................................................................................................................................................................O................................................................................................................................................................................................................................
............................................................................................................................................................................................O..................................................................................................................................................................................................................................................................................................................................................................................................................................................................................................................................................................................................................................................................................................................................................................................................................O...............................................O..........................................................................................................................................................................................................................................................................O.................................................................................................................................................................................................................................
.....................................................................O............................................................................................................................................................................................................................................................................................................................................................................................................................................................................................................................................................................................................................................................................................................................................................................................................................................................................................................................O...............................................................................................................................................................................................................................................................................................................................O.......OOO...............................................................................................................................................................................................................................
...................................................................O.O..................................................................................................................................................................................................................................................................................................................................................................................................................................................................................................................................................................................................................................................................................O..........................................................................................................................................................................................................................................O..............................................................................................................................................................................................................................................................................................................................O.O.......................................................................................................................................................................................................................................
....................................................................OO......................................................................................................................O.O...........................................O.O......................................................................................................................................................................................................................................................................................................................................................................................................................................................................................................O...O.............................................................................OO..........................................................................................................................................................OOO...........O.O...........................................O.O..................................................................................................................................................................................................................................................................OO........................................................................................................................................................................................................................................
.............................................................................................................................................................................................OO...........................................OO........................................................................................................................................................................................................................................................................................................................................................................................................................................................................................................OO.OOO....................................................................O.O...O..O........................................................................................................................................................................OO...........................................OO.............................................................................................................................................................................................................................................................................................................................................................................................................................................................................................................
.............................................................................................................................................................................................O.............................................O.......................................................................................................................................................................................................................................................................................................................................................................................................................................................................................................OO..........................................................................OO...O..O...........O............................................................................................................................................................O.............................................O..................................................................................................................................................................................................................................................................O..........................................................................................................................................................................................................................................
...............................................................................................................................................................................................................................................................................................................................................................................................................................................................................................................................................................................................................................................................................................................................................................................................................................O.....OO..........OO...............................................................................................................................................................................................................................................................................................................................................................................................................................................................................OO........................................................................................................................................................................................................................................
.......................................................................................................................................................................................................................................................................................................................O..........................................................................................................................................................................................................................................................................................................................................................................................................................................................................................................................OO.............................................................................................................................................................................................................................................................................................................................................................................................................................................................................OO.........................................................................................................................................................................................................................................
.....................................................................................................................................................................................................................................................................................................................O.O....................................................................................................................................................................................................................................................................................................................................................................................................................................................................................................................................................................................................................................................................................................................................................................................................................................................................................................................................................................................................................................................................................................................................................................................................................................................
......................................................................................................................................................................................O.......................................................O.O.....................................................................OO......................................................................................................................................................................................................................................................................................................................................................................................................................................................................................................................................................................................................................................................................................................O.................................................................................................................................................................................................................................................................................................................................................................................................O.O...O.O...................................................................................................................................
.......................................................................................................................................O.......O....................................O.O.........................O.......O.....................OO..........................................O.......O......................................................O.......O...................................................O.......O........................................................................O.......O..................................................................................O.......O........................................................................................O.......O.........................................................................O.......O.................................................................................O.......O.......................................O.......O............................................O.......O................................OO.....O.......O............................................................O.......O......................O................O.......O.......................................O.......O.......................................O.......O.......................................O.......O.......................................O.......O.......................................O.......O..............O.........O..............O.......O.......................................O.......O.......................................O.......O...........
......................................................................................................................................O.O.....O.O....................................OO........................O.O.....O.O.....................O.........................................O.O.....O.O....................O...............................O.O.....O.O.................................................O.O.....O.O......................................................................O.O.....O.O................................................................................O.O.....O.O......................................................................................O.O.....O.O.......................................................................O.O.....O.O...............................................................................O.O.....O.O.....................................O.O.....O.O..........................................O.O.....O.O................................OO...O.O.....O.O..........................................................O.O.....O.O....................O................O.O.....O.O.....................................O.O.....O.O.....................................O.O.....O.O.....................................O.O.....O.O.....................................O.O.....O.O.....................................O.O.....O.O.............O.........O.............O.O.....O.O.....................................O.O.....O.O.....................................O.O.....O.O..........
....................................................................O..................................................................O.......O................................................................O.......O......................................................OO.........O.......O.........OO..........O.O...................OO.........O.......O.........OO.............................OO.........O.......O.........OO..................................................OO.........O.......O.........OO............................................................OO.........O.......O.........OO..................................................................OO.........O.......O.........OO...................................................OO.........O.......O.........OO..........................................O.O..............OO.........O.......O.........OO............................O.......O.................................OO.........O.......O.........OO............................O.......O.................................................OO.........O.......O.........OO..........OOO....OO.........O.......O.........OO.................OO.........O.......O.........OO.................OO.........O.......O.........OO.................OO.........O.......O.........OO.................OO.........O.......O.........OO.................OO.........O.......O.........OO...O..O...O..O...OO.........O.......O.........OO.................OO.........O.......O.........OO.................OO.........O.......O.........OO
....................................................................OO.............................................................................................................O............................................................................................O...........................O...........OO.....................O...........................O...............................O...........................O....................................................O...........................O..............................................................O...........................O....................................................................O...........................O.....................................................O...........................O...........................................OO................O...........................O........................................................................O...........................O.........O..............................................................................O...........................O.........O.........O...........................O...................O...........................O...................O...........................O...................O...........................O...................O...........................O...................O...........................O....OOO.....OOO....O...........................O...................O...........................O...................O...........................O.
...................................................................O.O...........................................................................................................O.O............................................................................................O.O.......................O.O..................................O.O.......................O.O...............................O.O.......................O.O....................................................O.O.......................O.O.....................................O........................O.O.......................O.O....................................................................O.O.......................O.O.....................................................O.O.......................O.O............................................O................O.O.......................O.O........................................................................O.O.......................O.O..........O.............................................................................O.O.......................O.O.......O.O.........O.O.......................O.O...................O.O.......................O.O.........O.O.......O.O.......................O.O...................O.O.......................O.O...................O.O.......................O.O...................O.O.......................O.O...................O.O.......................O.O...................O.O.......................O.O...................O.O.......................O.O.
..................................................................................................................................................................................OO.............................................................................................OO.......................OO....................................OO.......................OO.................................OO.......................OO......................................................OO.......................OO.......................................O........................OO.......................OO......................................................................OO.......................OO.......................................................OO.......................OO..............................O.......O........................OO.......................OO..........................................................................OO.......................OO.........OOO..............................................................................OO.......................OO.........OO..........OO.......................OO.....................OO.......................OO...........OO........OO.......................OO.....................OO.......................OO.....................OO.......................OO.....................OO.......................OO.....................OO.......................OO.....................OO.......................OO.....................OO.......................OO..
...........................................O.O.......................................................................................O...........O............................................................O...........O..........................................................................................................................................................................................................................................O.......................................................................................OOO.....................................................................................................................................................................................................................................................................O.....O.......OO.......................................................................O...........O........................................................................................O...........O.......................................................................................................................................................................................O......................................................................................................................................................................................................................................................................................................................................
............................................OO.......................................................................................O.O.......O.O............................................................O.O.......O.O.........................................................OOO...............OOO..........................................OOO...............OOO........O..............................OOO...............OOO........O......................O.O..........................OOO...............OOO........O...................................O.........................OOO...............OOO........O...................................................................OOO...............OOO........O....................................................OOO...............OOO........O.......................OOO.....OOO.....O.O..................OOO...............OOO........O......................O.O.......O.O....................................OOO...............OOO........O......................O.O.......O.O....................................................OOO...............OOO........O..................OOO...............OOO...........................OOO...............OOO........O.......O..........OOO...............OOO...........................OOO...............OOO........O..................OOO...............OOO...........................OOO...............OOO........O.........O........OOO...............OOO...........................OOO...............OOO...........................OOO...............OOO.....
............................................O.....................................................O.O................................O...........O............................................................O...........O..............................................................................................OO....................................................O.O.........................................................O.O......................OO......................................................O.O..................................O.O...................................................O.O..............................................................................................O.O...............................................................................O.O......................................O................................................O.O.....................O...........O................................................................O.O.....................O...........O................................................................................O.O.............................................................................................O.O......O......................................................................................O.O.....OO......................................................................................O.O.......O.O.................................................................................................................................
..................................................................................................OO...................................O.O...O.O.............................................O.O................O.O...O.O................O.O...OO........................................O..O...O..O.....................O.O............................O..O...O..O............OO...................................O..O...O..O............OO........................................................O..O...O..O............OO...................................OO.............................O..O...O..O............OO........................................................................O..O...O..O............OO.........................................................O..O...O..O............OO.................................................................O..O...O..O............OO........................O.O...O.O...........................................O..O...O..O............OO........................O.O...O.O................O.O........................................O..O...O..O............OO.......................O..O...O..O.....................................O..O...O..O............OO.......O...............O..O...O..O.....................................O..O...O..O............OO......OO...............O..O...O..O.....................................O..O...O..O............OO.........OO............O..O...O..O.....................................O..O...O..O........O..OOO.O.....O.OOO..O........O..O...O..O..........
...................................................................................................O....................................O.....O...............................................OO.................O.....O.................OO....O.O.......................................O...O.O...O.....................O..............................O...O.O...O.................................................O...O.O...O......................................................................O...O.O...O................................................................................O...O.O...O......................................................................................O...O.O...O.......................................................................O...O.O...O...............................................................................O...O.O...O.......................................O.....O............................................O...O.O...O.......................................O.....O.................OO.........................................O...O.O...O.....................................O...O.O...O.....................................O...O.O...O.....................................O...O.O...O.....................................O...O.O...O.....................................O...O.O...O.....................................O...O.O...O.....................................O...O.O...O.....................................O...O.O...O......O..O.OO.O.O...O.O.OO.O..O......O...O.O...O..........
........................O................................................................................................O..............O.....O...............................................O..................O.....O..................O....O..........................................O.O...O.O......................................................O.O...O.O...................................................O.O...O.O.....................................OOO................................O.O...O.O.......................................O..........................................O.O...O.O.......................................O.......O......O.................................O.O...O.O.......................................O.......O.........................O.O...O.O.......................................O.......O.................................O.O...O.O........................................O.....O..............O..............................O.O...O.O........................................O.....O..................O..........................................O.O...O.O.......................................O.O...O.O.......................................O.O...O.O.......................................O.O...O.O.......................................O.O...O.O.......................................O.O...O.O.......................................O.O...O.O.......................................O.O...O.O.......................................O.O...O.O.......O.....OOO.O...O.OOO.....O.......O.O...O.O...........
........................O.O............................................................................................O.O.................................................................................................................................................................O.....O........................................................O.....O.....................................................O.....O........................................O.................................O.....O........................................O...........................................O.....O........................................O.......O......O.O................................O.....O........................................O.......O..........................O.....O........................................O.......O..................................O.....O..............................................................O.O.............................O.....O..............................................................................................................O.....O.........................................O.....O.........................................O.....O.........................................O.....O.........................................O.....O.........................................O.....O.........................................O.....O.........................................O.....O.........................................O.....O.........O...O...O.....O...O...O.........O.....O............
.....O..................OO......................OOO.....................................................................OO................................O.........................................................................................................................................................................................................................................................................................................O.................................................................................O......................................................................................O...O.......O......OO................................................................................O.......O.........................................................................O.......O.......................................................................................................OO....................................................................................................................................................................................................................................................................................................................................................................................................................................................................................................................................................................O...................O.............................
...O.O...............OO...........................O...............OO.............OO................O.......................OO......OO.............OO......O.O........................................OO.....OO.............OO.....OO..................................................OO.............OO..............................................OO.............OO...........................................OO.............OO................................................................OO.............OO..........................................................................OO.............OO.............................O.O...............OO...............................OO.............OO...............................OO.............OO.................OO.............OO...............................OO.............OO.........................OO.............OO...............................OO.............OO......OO............................OO.............OO...............................OO.............OO.....OO.............................................OO.............OO...............................OO.............OO...............................OO.............OO...............................OO.............OO...............................OO.............OO...............................OO.............OO...............................OO.............OO...............................OO.............OO...............................OO.............OO.......OO.............OO.......OO.............OO.......
....OO...............O.O.........................O................OO.............OO...............O.......................O.O......OO.............OO......OO.........................................OO.....OO.............OO.....OO..................................................OO.............OO..............................................OO.............OO...........................................OO.............OO................................................................OO.............OO..........................................................................OO.............OO..............................OO...............O.O..............................OO.............OO...............................OO.............OO.................OO.............OO...............................OO.............OO.........................OO.............OO...............................OO.............OO......O.O...........................OO.............OO...............................OO.............OO.....OO.............................................OO.............OO...............................OO.............OO...............................OO.............OO...............................OO.............OO...............................OO.............OO...............................OO.............OO...............................OO.............OO...............................OO.............OO...............................OO.............OO.......OO.............OO.......OO.............OO.......
.OO..................O............................................................................OOO.......................O................................OO...............................................................................................................................................................................................................................................................................................................O...............................................................................O..........................................................................OO......O.......O...O....................................................................................O.......O.........................................................................O.......O....................................................................................................O........................................................................................................................................................................................................................................................................................................................................................................................................................................................................................................................................................................O...................O.............................
O.O..........................................................................................................................................................O.O...........................................................................................................................O.....O........................................................O.....O.....................................................O.....O................................................O.........................O.....O................................................O...................................O.....O...............................O.O......O.......O.........................................O.....O........................................O.......O..........................O.....O........................................O.......O..................................O.....O..............................................................................................O.....O..............................................................................................................O.....O.........................................O.....O.........................................O.....O.........................................O.....O.........................................O.....O.........................................O.....O.........................................O.....O.........................................O.....O.........................................O.....O.........O...O...O.....O...O...O.........O.....O............
..O.....................................................................................................................................O.....O..............O...........................O....O..................O.....O..................O...............................................O.O...O.O......................................................O.O...O.O...................................................O.O...O.O...............................................OOO......................O.O...O.O...............................................O..................................O.O...O.O................................O......O.......O........................................O.O...O.O.......................................O.......O.........................O.O...O.O.......................................O.......O.................................O.O...O.O........................................O.....O.............................................O.O...O.O........................................O.....O..................O..........................................O.O...O.O.......................................O.O...O.O.......................................O.O...O.O.......................................O.O...O.O.......................................O.O...O.O.......................................O.O...O.O.......................................O.O...O.O.......................................O.O...O.O.......................................O.O...O.O.......O.....OOO.O...O.OOO.....O.......O.O...O.O...........
.................................................O......................................................................................O.....O........................................O.O....OO.................O.....O.................OO..............................................O...O.O...O....................................................O...O.O...O.....................O...........................O...O.O...O......................................................................O...O.O...O................................................................................O...O.O...O......................................................................................O...O.O...O.......................................................................O...O.O...O...............................................................................O...O.O...O.......................................O.....O............................................O...O.O...O.......................................O.....O.................OO.........................................O...O.O...O.....................................O...O.O...O.....................................O...O.O...O.....................................O...O.O...O.....................................O...O.O...O.....................................O...O.O...O.....................................O...O.O...O.....................................O...O.O...O.....................................O...O.O...O......O..O.OO.O.O...O.O.OO.O..O......O...O.O...O..........
.................................................OO....................................................................................O.O...O.O........................................OO...O.O................O.O...O.O................O.O.............................................O..O...O..O....................................................O..O...O..O.....................O.O.........................O..O...O..O............OO........................................................O..O...O..O............OO....................OO............................................O..O...O..O............OO........................................................................O..O...O..O............OO.........................................................O..O...O..O............OO.................................................................O..O...O..O............OO........................O.O...O.O...........................................O..O...O..O............OO........................O.O...O.O................O.O........................................O..O...O..O............OO.......................O..O...O..O.....................................O..O...O..O............OO.......O...............O..O...O..O.....................................O..O...O..O............OO......OO...............O..O...O..O.....................................O..O...O..O............OO.........OO............O..O...O..O.....................................O..O...O..O........O..OOO.O.....O.OOO..O........O..O...O..O..........
................................................O.O.....................................................O............................O...........O............................................................O...........O.............................................................................................................................................................OO.................................................O.O...............................OO.............................................O.O..................O.O...................................................................O.O..............................................................................................O.O...............................................................................O.O.......................................................................................O.O.....................O...........O................................................................O.O.....................O...........O................................................................................O.O.............................................................................................O.O......O......................................................................................O.O.....OO......................................................................................O.O.......O.O.................................................................................................................................
.......................................................................................................OO............................O.O.......O.O............................................................O.O.......O.O.........................................................OOO...............OOO..........................................OOO...............OOO.......................................OOO...............OOO........O................................O.O................OOO...............OOO........O.....................O.......................................OOO...............OOO........O...................................................................OOO...............OOO........O....................................................OOO...............OOO........O.......................OOO.....OOO..........................OOO...............OOO........O......................O.O.......O.O....................................OOO...............OOO........O......................O.O.......O.O....................................................OOO...............OOO........O..................OOO...............OOO...........................OOO...............OOO........O.......O..........OOO...............OOO...........................OOO...............OOO........O..................OOO...............OOO...........................OOO...............OOO........O.........O........OOO...............OOO...........................OOO...............OOO...........................OOO...............OOO.....
.......................................................................................................O.O...........................O...........O............................................................O...........O..................................................................................................................................................................................................................................................O.......................................................................OOO.............................................................................................................................................................................................................................................................................O.....O................................................................................O...........O........................................................................................O...........O.......................................................................................................................................................................................O......................................................................................................................................................................................................................................................................................................................................
.....................................................................................................................................................................................................................................................OO..........................OO.......................OO....................................OO.......................OO.................................OO.......................OO......................................................OO.......................OO.............................O..................................OO.......................OO......................................................................OO.......................OO.......................................................OO.......................OO..............................O.......O........................OO.......................OO..........................................................................OO.......................OO.........OOO..............................................................................OO.......................OO.........OO..........OO.......................OO.....................OO.......................OO...........OO........OO.......................OO.....................OO.......................OO.....................OO.......................OO.....................OO.......................OO.....................OO.......................OO.....................OO.......................OO.....................OO.......................OO..
...............................................................................O.O...................................................................................................................................................................O.O........................O.O.......................O.O..................................O.O.......................O.O...............................O.O.......................O.O....................................................O.O.......................O.O.............................O................................O.O.......................O.O....................................................................O.O.......................O.O.....................................................O.O.......................O.O.............................................................O.O.......................O.O........................................................................O.O.......................O.O..........O.............................................................................O.O.......................O.O.......O.O.........O.O.......................O.O...................O.O.......................O.O.........O.O.......O.O.......................O.O...................O.O.......................O.O...................O.O.......................O.O...................O.O.......................O.O...................O.O.......................O.O...................O.O.......................O.O...................O.O.......................O.O.
...............................................................................OO....................................................................................................................................................................O..........................O...........................O..................................O...........................O...........OO..................O...........................O....................................................O...........................O..............................................................O...........................O....................................................................O...........................O.....................................................O...........................O...........................................OO................O...........................O........................................................................O...........................O.........O..............................................................................O...........................O.........O.........O...........................O...................O...........................O...................O...........................O...................O...........................O...................O...........................O...................O...........................O....OOO.....OOO....O...........................O...................O...........................O...................O...........................O.
................................................................................O......................................................O.......O................................................................O.......O......................................................OO.........O.......O.........OO................................OO.........O.......O.........OO..........O.O................OO.........O.......O.........OO..................................................OO.........O.......O.........OO............................................................OO.........O.......O.........OO..................................................................OO.........O.......O.........OO...................................................OO.........O.......O.........OO.....................................OOO.OO................OO.........O.......O.........OO............................O.......O.................................OO.........O.......O.........OO............................O.......O.................................................OO.........O.......O.........OO..........OOO....OO.........O.......O.........OO.................OO.........O.......O.........OO.................OO.........O.......O.........OO.................OO.........O.......O.........OO.................OO.........O.......O.........OO.................OO.........O.......O.........OO...O..O...O..O...OO.........O.......O.........OO.................OO.........O.......O.........OO.................OO.........O.......O.........OO
......................................................................................................................................O.O.....O.O........................................O.....................O.O.....O.O........................OO.....................................O.O.....O.O....................................................O.O.....O.O....................O............................O.O.....O.O......................................................................O.O.....O.O................................................................................O.O.....O.O......................................................................................O.O.....O.O.......................................................................O.O.....O.O.................................................O...O.........................O.O.....O.O.....................................O.O.....O.O..........................................O.O.....O.O................................OO...O.O.....O.O..........................................................O.O.....O.O....................O................O.O.....O.O.....................................O.O.....O.O.....................................O.O.....O.O.....................................O.O.....O.O.....................................O.O.....O.O.....................................O.O.....O.O.............O.........O.............O.O.....O.O.....................................O.O.....O.O.....................................O.O.....O.O..........
.......................................................................................................................................O.......O.........................................OO.....................O.......O.........................O.O.....................................O.......O......................................................O.......O...................................................O.......O........................................................................O.......O..................................................................................O.......O........................................................................................O.......O.........................................................................O.......O.................................................O...............................O.......O.......................................O.......O............................................O.......O................................OO.....O.......O............................................................O.......O......................O................O.......O.......................................O.......O.......................................O.......O.......................................O.......O.......................................O.......O.......................................O.......O..............O.........O..............O.......O.......................................O.......O.......................................O.......O...........
........................................................................................................................................................................................O.O.......................................................O..................................................................................................................................OO.......................................................................................................................................................................................................................................................................................................................................................................................................................................................................................................................................................................................................................................O.................................................................................................................................................................................................................................................................................................................................................................................................O.O...O.O...................................................................................................................................
....................................................................................................................................................................................................................................................................................................................................................................................O.O.....................................................................................................................................................................................................................................................................................................................................................................................................................................................................................................................................................................................................................................................................................................................................................................................................................................................................................................................................................................................................................................................................................................................................................................................
......................................................................................................................................................................................................................................................................................................................................................................................O...........................................................................................................................................................................................................................................................................................................................................................................................................................................................OO.............................................................................................................................................................................................................................................................................................................................................................................................................................................................................OO.........................................................................................................................................................................................................................................
...............................................................................................................................................................................................................................................................................................................................................................................................................................................................................................................................................................................................................................................................................................................................................................................................................................O.................OO...............................................................................................................................................................................................................................................................................................................................................................................................................................................................................OO........................................................................................................................................................................................................................................
.............................................................................................................................................................................................O.............................................O...................................................................................................................................................................................................................................................................................................................................................................................................................................................................................................................................................................................OO....OO............O............................................................................................................................................................O.............................................O..................................................................................................................................................................................................................................................................O..........................................................................................................................................................................................................................................
.............................................................................................................................................................................................OO...........................................OO..................................................................................................................................................................................................................................................................................................................................................................................................................................................................................................................................................................................O.O.....OO.OOO....................................................................................................................................................................OO...........................................OO.............................................................................................................................................................................................................................................................................................................................................................................................................................................................................................................
...............................................................................OO...........................................................................................................O.O...........................................O.O........................................................................................................................................................................................................................................................................................................................................................................................................................................................................................................................................................................................O...O.....................................................................................................................................................................O.O...........................................O.O...........OOO....................................................................................................................................................................................................................................................OO........................................................................................................................................................................................................................................
...............................................................................O.O........................................................................................................................................................................................................................................................................................................................................................................................................................................................................................................................................................................................................................................................................................................................................................O................................................................................................................................................................................................................................O......................................................................................................................................................................................................................................................O.O.......................................................................................................................................................................................................................................
...............................................................................O............................................................................................................................................................................................................................................................................................................................................................................................................................................................................................................................................................................................................................................................................................................................................................................................................................................................................................................................................................................................O.....................................................................................................................................................................................................................................................O.......OOO...............................................................................................................................................................................................................................
............................................................................................................................................................................................................................................O..................................................................................................................................................................................................................................................................................................................................................................................................................................................................................................................................................................................................................................................................................................................................................................O...............................................O..........................................................................................................................................................................................................................................................................O.................................................................................................................................................................................................................................
...........................................................................................................................................................................................................................................OO..................................................................................................................................................................................................................................................................................................................................................................................................................................................................................................................................................................................................................................................................................................................................................................OO.............................................OO...........................................................................................................................................................................................................................................................................O................................................................................................................................................................................................................................
...........................................................................................................................................................................................................................................O.O................................................................................................................................................................................................................................................................................................................................................................................................................................................................................................................................................................................................................................................................................................................................................................O.O.............................................O.O...........................................................................................................................................................................................................................................................................................................................................................................................................................................................................................................
...........................................................................................OO............................................................................OO.................................................................................................................................................................................................................................................................................................................................................................................................................................................................................................................................................................................................................................................................................................................................................................................................................................................................................................................................................................................................................................................................................................................................................................................................................................................................................................................................................................................................
..........................................................................................OO..............................................................................OO.............................................OOO....................................................................................................................................................................................................................................................................................................................................................................................................................................................................................................................................................................................................................................................................................................................................................................................................OOO.........OOO.............................................................................................................................................................................................................................................................................................................................................................................................................................................................................................................................
............................................................................................O............................................................................O.................................................O....................................................................................................................................................................................................................................................................................................................................................................................................................................................................................................................................................................................................................................................................................................................................................................................................O.............O.............................................................................................................................................................................................................................................................................................................................................................................................................................................................................................................................
..........................................................................................................................................................................................................................O......................................................................................................................................................................................................................................................................................................................................................................................................................................................................................................................................................................................................................................................................................................................................................................................................O...........O..............................................................................................................................................................................................................................................................................................................................................................................................................................................................................................................................
....................................................................................................O...................................................................................................................................................................................................................................................................................................................................................................................................................................................................................................................................................................................................................................................................................................................................................................................................................................................................................................................................................................................................................................................................................................................................................................................................................OOO.................................................................................................................................................................................................................................................
...................................................................................................OO.....................................................................................................................................................................................................................................................................................................................................................................................................................................................................................................................................................................................................................................................................................................................................................................................................................................................................................................................................................................................................................................................................................................................................................................................................................O.................................................................................................................................................................................................................................................
................................................OO.................................................O.O.................................................................................................................................................OO..........................................................................................................................................................................................................................................................................................................................................................................................................................................................................................................................................................................................................................................................................................................................................OO.....................................................................OO.............................................................................................................................................................................................................................................O..................................................................................................................................................................................................................................................
.................................................OO...................................................................................................................................................................................................OO............................................................................................................................................................................................................................................................................................................................................................................................................................................................................................................................................................................................................................................................................................................................................OO...................................................................OO.................................................................................................................................................................................................................................................................................................................................................................................................................................................................................................
................................................O.......................................................................................................................................................................................................O..........................................................................................................................................................................................................................................................................................................................................................................................................................................................................................................................................................................................................................................................................................................................................O.......................................................................O................................................................................................................................................................................................................................................................................................................................................................................................................................................................................................
..........................................................................................OO................................................................................................................................................................................................................................................................................................................................................................................................................................................................................................................................................................................................................................................................................................................................................................................................................................................................................................................................................................................................................................................................................................................................................................................................................................................................................................................................................................................................................................................................................
..........................................................................................O.O...............................................................................................................................................................................................................................................................................................................................................................................................................................................................................................................................................................................................................................................................................................................................................................................................................................................................................................................................................................................................................................................................................................................................................................................................................................................................................................................................................................................................................................................................................
..........................................................................................O.................................................................................................................................................................................................................................................................................................................................................................................................................................................................................................................................................................................................................................................................................................................................................................................................................................................................................................................................................................................................................................................................................................................................................................................................................................................................................................................................................................................................................................................................................
............................................................................................................................................................................................................................................................OO................................................................................................................................................................................................................................................................................................................................................................................................................................................................................................................................................................................................................................................................................................................................OO...............................................................................OO...........................................................................................................................................................................................................................................................................................................................................................................................................................................................................................
............................................................................................................................................................................................................................................................O.O..............................................................................................................................................................................................................................................................................................................................................................................................................................................................................................................................................................................................................................................................................................................................O.O...............................................................................O.O..........................................................................................................................................................................................................................................................................................................................................................................................................................................................................................
............................................................................................................................................................................................................................................................O..................................................................................................................................................................................................................................................................................................................................................................................................................................................................................................................................................................................................................................................................................................................................O...............................................................................O............................................................................................................................................................................................................................................................................................................................................................................................................................................................................................
