!Name: 25p3h1v0.1_synth.rle
!Author: Martin Grant, Matthias Merzenich, Chris Cain
!Original synthesis method found January 6, 2015 by Martin Grant.
!48-glider synthesis by Matthias Merzenich, June 13, 2015.
!Reduced 47-glider synthesis by Chris Cain, June 14, 2015.
!http://conwaylife.com/forums/viewtopic.php?f=2&t=1557#p15747
!http://conwaylife.com/forums/viewtopic.php?f=2&t=1557&start=75#p20392
!http://conwaylife.com/wiki/25P3H1V0.1
!
.................................................................................................................................................................................................................................O....................................................................................................................................................
................................................................................................................................................................................................................................O.....................................................................................................................................................
................................................................................................................................................................................................................................OOO...................................................................................................................................................
.........................O.O..........................................................................................................................................................................................................................................................................................................................................................
..........................OO..........................................................................................................................................................................................................................................................................................................................................................
..........................O...........................................................................................................................................................................................................................................................................................................................................................
........O.............................................................................................................................................................................................................................................................................................................................................................................
.........O............................................................................................................................................................................................................................................................................................................................................................................
.......OOO................................................................................................................................................................................................................................O...........................................................................................................................................
..........................................................................................................................................................................................................................................O.O.........................................................................................................................................
..........................................................................................................................................................................................................................................OO..........................................................................................................................................
O....................................................................................................................................................................................................................................................O................................................................................................................................
.OO..O.O............O...............................................................................................................................................................................................................................O.................................................................................................................................
OO....OO.............OO.............................................................................................................................................................................................................................OOO...............................................................................................................................
......O.............OO.......................................................................................................................................................................................................................................O.O......................................................................................................................
.............................................................................................................................................................................................................................................................OO...O...................................................................................................................
..............................................................................................................................................................................................................................................................O...O.O.................................................................................................................
........................O.........................................................................................................................................................................................................................................OO..................................................................................................................
......................O.O.............................................................................................................................................................................................................................................................................................................................................................
.......................OO.............................................................................................................................................................................................................................................................................................................................................................
......................................................................................................................................................................................................................................................O...............................................................................................................................
.....O...............................................................................................................................................................................................................................................O................................................................................................................................
...O.O...............................................................................................................................................................................................................................................OOO..............................................................................................................................
....OO................................................................................................................................................................................................................................................................................................................................................................................
...............................................................................................................................................................................................................................................................O......................................................................................................................
.............................................................................................................................................................................................................................................................OO.......................................................................................................................
..............................................................................................................................................................................................................................................................OO......................................................................................................................
.................................................................................................................................................................................................................................................................O....................................................................................................................
................................................................................................................................................................................................................................................................O.....................................................................................................................
................................................................................................................................................................................................................................................................OOO...................................................................................................................
..............................................................................................................................................................................................................O.......................................................................................................................................................................
..............................................................................................................................................................................................................O.O.....................................................................................................................................................................
..............................................................................................................................................................................................................OO......................................................................................................................................................................
........................................................................................................................................................................................................................O.............................................................................................................................................................
........................................................................................................................................................................................................................O.O...........................................................................................................................................................
........................................................................................................................................................................................................................OO............................................................................................................................................................
........................................O.O...........................................................................................................................................................................................................................................................................................................................................
.........................................OO...........................................................................................................................................................................................................................................................................................................................................
.........................................O............................................................................................................................................................................................................................................................................................................................................
..................................................................................................................................................................................................................O...................................................................................................................................................................
..................................................................................................................................................................................................................O.O.................................................................................................................................................................
..................................................................................................................................................................................................................OO..................................................................................................................................................................
...........................................................................................................................................................................................................................O..........................................................................................................................................................
....................................................O.O..................................................................................................................................................................OO...........................................................................................................................................................
.....................................................OO...................................................................................................................................................................OO..........................................................................................................................................................
.............................................O.......O................................................................................................................................................................................................................................................................................................................................
..............................................O..................................................................................................................................................................................O....................................................................................................................................................
............................................OOO................................................................................................................................................................................OO.....................................................................................................................................................
................................................................................................................................................................................................................................OO....................................................................................................................................................
........................................................................................................................................................O.............................................................O...............................................................................................................................................................
......................................................................................................................................................OO..............................................................O.O.............................................................................................................................................................
.......................................................................................................................................................OO.............................................................OO..............................................................................................................................................................
....................................................................................................O.................................................................................................................................................................................................................................................................................
.....................................................................................................O................................................................................................................................................................................................................................................................................
...................................................................................................OOO................................................................................................................................................................................................................................................................................
.................................................................................O....................................................................................................................................................................................................................................................................................................
..................................................................................OO..................................................................................................................................................................................................................................................................................................
.................................................................................OO.............................................................................O.O...................................................................................................................................................................................................................
................................................................................................................................................................OO....................................................................................................................................................................................................................
.................................................................................................................................................................O....................................................................................................................................................................................................................
...........................................................................O....O...........................................................................................O.........................................................................................................................................................................................................
.........................................................................O.O.....O.............O..........................................................................OO..........................................................................................................................................................................................................
..........................................................................OO...OOO...........O.O...........................................................................OO.......O.................................................................................................................................................................................................
..............................................................................................OO...................................................................................O..................................................................................................................................................................................................
...................................................................................................................................................................................OOO..O.O...........................................................................................................................................................................................
........................................................................................................................................................................................OO............................................................................................................................................................................................
................................................................................................O.O......................................................................................O............................................................................................................................................................................................
.................................................................................................OO...................................................................................................................................................................................................................................................................................
.................................................................................................O....................................................................................................................................................................................................................................................................................
.............................................................................................................................................................................O........................................................................................................................................................................................................
.............................................................................O.O...........................................................................................OO.........................................................................................................................................................................................................
..............................................................................OO............................................................................................OO........................................................................................................................................................................................................
..............................................................................O.......................................................................................................................................................................................................................................................................................................
....................................................................................................................................................................................O.................................................................................................................................................................................................
....................................................................................................................................................................................O.O...............................................................................................................................................................................................
....................................................................................................................................................................................OO................................................................................................................................................................................................
........................................................................................................................................................................................O.............................................................................................................................................................................................
......................................................................................................................................................................................OO..............................................................................................................................................................................................
.......................................................................................................................................................................................OO.............................................................................................................................................................................................
....................................................................................................................................O.O...............................................................................................................................................................................................................................................
....................................................................................................................................OO................................................................................................................................................................................................................................................
.....................................................................................................................................O................................................................................................................................................................................................................................................
..............................................................................................................................................O.O.....................................................................................................................................................................................................................................
..............................................................................................................................................OO......................................................................................................................................................................................................................................
...................................................................................................................O...........................O......................................................................................................................................................................................................................................
....................................................................................................................O......................................OO.........................................................................................................................................................................................................................
..................................................................................................................OOO.....................................OO..........................................................................................................................................................................................................................
............................................................................................................................................................O.........................................................................................................................................................................................................................
........................................................................................................................................O.O...........................................................................................................................................................................................................................................
........................................................................................................................................OO............................................................................................................................................................................................................................................
.........................................................................................................................................O............................................................................................................................................................................................................................................
...............................................................................................................................O................O.....................................................................................................................................................................................................................................
................................................................................................................................O...............O.O...................................................................................................................................................................................................................................
..............................................................................................................................OOO...............OO....................................................................................................................................................................................................................................
......................................................................................................................O...............................................................................................................................................................................................................................................................
.......................................................................................................................OO.............................O...............................................................................................................................................................................................................................
......................................................................................................................OO..............................O.O.............................................................................................................................................................................................................................
......................................................................................................................................................OO.......................................................................OO.................................................................................................................................................O..O
..............................................................................................................................................................................................................................OOOO...............................................................................................................................................O....
.........................................................................................................OO..................................................................................................................OO.OO...............................................................................................................................................O...O
..........................................................................................................OO..................................................................................................................OO.................................................................................................................................................OOOO.
.........................................................................................................O............................................................................................................................................................................................................................................................................
.......................................................................................................................OO...................O.O.......................................................................................................................................................................................................................................
........................................................................................................................OO..................OO........................................................................................................................................................................................................................................
.......................................................................................................................O.....................O...OO...................................................................................................................................................................................................................................
...........................................................................................................OO....................................O.O..................................................................................................................................................................................................................................
............................................................................................................OO.....OO........OO.............O....O....................................................................................................................................................................................................................................
...........................................................................................................O......O.O.........OO............OO........................................................................................................................................................................................................................................
....................................................................................................................O........O.............O.O........................................................................................................................................................................................................................................
.....................................................................................................................................................................O................................................................................................................................................................................................................
....................................................................................................................................................................OO................................................................................................................................................................................................................
....................................................................................................................................................................O.O...............................................................................................................................................................................................................
....................................................................................................OO................................................................................................................................................................................................................................................................................
...................................................................................................O.O................................................................................................................................................................................................................................................................................
.....................................................................................................O................................................................................................................................................................................................................................................................................
......................................................................................................OO..............................................................................................................................................................................................................................................................................
.....................................................................................................O.O..............................................................................................................................................................................................................................................................................
.......................................................................................................O..............................................................................................................................................................................................................................................................................
...............................................................................................................................................................................OO.....................................................................................................................................................................................................
..............................................................................................................................................................................OO......................................................................................................................................................................................................
................................................................................................................................................................................O.....................................................................................................................................................................................................
...............................................................................................................................................................................................OO.....................................................................................................................................................................................
..............................................................................................................................................................................................OO......................................................................................................................................................................................
................................................................................................................................................................................................O.....................................................................................................................................................................................
.....................................................................................O................................................................................................................................................................................................................................................................................................
...............................................................................OO....OO...............................................................................................................................................................................................................................................................................................
................................................................................OO..O.O...............................................................................................................................................................................................................................................................................................
...............................................................................O.....................................................................................................OO...............................................................................................................................................................................................
................................................................................................................................................................................OO...O.O..............................................................................................................................................................................................
................................................................................................................................................................................O.O..O................................................................................................................................................................................................
................................................................................................................................................................................O.....................................................................................................................................................................................................
....................................................................................................................................................................................................................................OOO...............................................................................................................................................
....................................................................................................................................................................................................................................O.................................................................................................................................................
.....................................................................................................................................................................................................................................O................................................................................................................................................
...............................OOO....................................................................................................................................................................................................................................................................................................................................................
.................................O....................................................................................................................................................................................................................................................................................................................................................
................................O.....................................................................................................................................................................................................................................................................................................................................................
.............................................OOO......................................................................................................................................................................................................................................................................................................................................
...............................................O......................................................................................................................................................................................................................................................................................................................................
..............................................O............................................................................................................................................................................OO.........................................................................................................................................................
.................................OOO......................................................................................................................................................................................OO..........................................................................................................................................................
...................................O.....OO........OOO............OO........................................................................................................................................................O.........................................................................................................................................................
..................................O.......OO.........O...........O.O..................................................................................................................................................................................................................................................................................................................
.........................................O..........O..............O..................................................................................................................................................................................................................................................................................................................
..............................................................................................................................................................................................................................................OO......................................................................................................................................
...................................................................................................................................O..........................................................................................................O.O.....................................................................................................................................
..................................................................................................................................OOO.........................................................................................................O.......................................................................................................................................
.................................................................................................................................OO.O.................................................................................................................................................................................................................................................
.................................................................................................................................OOO..................................................................................................................................................................................................................................................
..................................................................................................................................OO..................................................................................................................................................................................................................................................
..........................OO..........................................................................................................................................................................................................................................................................................................................................................
...........................OO.........................................................................................................................................................................................................................................................................................................................................................
..........................O...........................................................................................................................................................................................................................................................................................................................................................
............................OO........................................................................................................................................................................................................................................................................................................................................................
.............................OO.......................................................................................................................................................................................................................................................................................................................................................
............................O.........................................................................................................................................................................................................................................................................................................................................................
........................................................................................................................................................................................................................................................OOO...........................................................................................................................
........................................................................................................................................................................................................................................................O.............................................................................................................................
.........................................................................................................................................................................................................................................................O............................................................................................................................
........................................................................................................................................................................................................................................................................OOO...........................................................................................................
........................................................................................................................................................................................................................................................................O.............................................................................................................
.........................................................................................................................................................................................................................................................................O............................................................................................................
...........OO.........................................................................................................................................................................................................................................................................................................................................................................
.....OOO..O.O.........................................................................................................................................................................................................................................................................................................................................................................
.......O....O.........................................................................................................................................................................................................................................................................................................................................................................
......O........................................................................................................................................................................................................................................................OO.....................................................................................................................
..........................................................................................................................................................................................................................................................OO..OO......................................................................................................................
.........................................................................................................................................................................................................................................................OO.....O.....................................................................................................................
...........................................................................................................................................................................................................................................................O..........................................................................................................................
..................................................................................................................................OOO.................................................................................................................................................................................................................................................
.................................................................................................................................O..O.................................................................................................................................................................................................................................................
....................................................................................................................................O.................................................................................................................................................................................................................................................
....................................................................................................................................O.................................................................................................................................................................................................................................................
.................................................................................................................................O.O..................................................................................................................................................................................................................................................
.........................................................................................................................................................................................................................................................................................................................O............................................................
.........................................................................................................................................................................................................................................................................................................................O.O..........................................................
.........................................................................................................................................................................................................................................................................................................................OO..OO.......................................................
.............................................................................................................................................................................................................................................................................................................................O.O......................................................
.......................................................................................................................................................................................................................................................................................................................O.....O........................................................
........................................................................................................................................................................................................................................................................................................................OO............................................................
.......................................................................................................................................................................................................................................................................................................................OO.............................................................
......................................................................................................................................................................................................................................................................................................O...............................................................................
....................................................................................................................................................................................................................................................................................................O.O............................O..................................................
.....................................................................................................................................................................................................................................................................................................OO...........................O...................................................
..................................................................................................................................................................................................................................................................................................................................OOO.................................................
.............................................................................................................................................................................................................................................................................................O.O...O.........................................O........................................
..............................................................................................................................................................................................................................................................................................OO....OO...........O.O.........................O.O......................................
..............................................................................................................................................................................................................................................................................................O....OO.............OO.........................OO........O..............................
..................................................................................................................................................................................................................................................................................................................O..................................OO....O..........................
......................................................................................................................................................................................................................................................................................................................................................OO..O...........................
.....................................................................................................................................................................................................................................................................................................................O....................................OOO.........................
......................................................................................................................................................................................................................................................................................................................O...............................................................
....................................................................................................................................................................................................................................................................................................................OOO...............................................................
..............................................................................................................O.O.....................................................................................................................................................................................................................................................................
..............................................................................................................OO......................................................................................................................................................................................................................................................................
...............................................................................................................O..................................................................................................................................................................................O...........................................O.......................................
...................................................................................................................................................................................................................................................................................................O..........................................O.O.....................................
.................................................................................................................................................................................................................................................................................................OOO..................................OOO.....OO......................................
......................................................................................................................................................................................................................................................................................................................................O...............................................
.....................................................................................................OO................................................................................................................................................................................................................................O..............O.O.............................
..............O................O......................................................................OO.......O...............................................................................................OO..................................................................................................OO.................................OO..............................
...............O...............O.O...................................................................O..........O..............................................................................................OO........O.O.......................................................................................OO..................................O..............................
.............OOO...............OO.............................................................................OOO........................................................................................................OO...........................................................................................................................................................
.....O.........................................................................................................................................................................................................OOOO.......O.......OO...............................................................................OOOO..................................O............................
......OO.............................O.........................................................................................................................................................................O..O...............OO...............................................................................O..O..................................O.O..........................
.....OO..............................O.O..........................................................................O.O...........................................................................................OO..................................................................................................OO...................................OO...........................
.....................................OO...........................................................................OO..................................................................................................................................................................................................................................................................
...................................................................................................................O...................................................................................................................................................................................................................................................OOOO...........
.......................................................................................................OO............................................................................................................................................................................................................OO................................................O...O..........
........................................................................................................OO...............OO..................................................................................................OO......................................................................................OO..........OO....................................O..............
.......................................................................................................O............O...O..O............................................................................................O...O..O............................................................................................O...O..O....................................O..O..........
...................................................................................................................O.O.O..O.O..........................................................................................O.O.O..O.O..........................................................................................O.O.O..O.O.................................................
..................................................................................................................O..O.O.OO.O.........................................................................................O..O.O.OO.O.........................................................................................O..O.O.OO.O............OO...................................
...................................................................................................................OO...O..O...........................................................................................OO...O..O...........................................................................................OO...O..O.............O.O..................................
......OO...................O.O...........................................................................................OO..................................................................................................OO..................................................................................................OO..............O....................................
.......OO..................OO.........................................................................................................................................................................................................................................................................................................................................................
......O.....................O...OO.....................................................................................................................................................................OO.............................................................................................................................................................................
................................O.O...................................................................................................................................................................O.O.............................................................................................................................................................................
..OO........OO.............O....O.......................................................................................................................................................................O.............................................................................................................................................................................
.O.O.........OO............OO.........................................................................................................................................................................................................................................................................................................................................................
...O........O.............O.O.........................................................................................................................................................................................................................................................................................................................................................
.........................................................................................................................................................................................................OO...........................................................................................................................................................................
........................................................................................................................................................................................................O.O...........................................................................................................................................................................
..........................................................................................................................................................................................................O...........................................................................................................................................................................
.................................................................................................................................................................................................................................................................................................................................................................OO...................
.................................................................................................................................................................................................................................................................................................................................................................O.O..................
.................................................................................................................................................................................................................................................................................................................................................................O....................
...................................................................................................................................................................................................................................................................................................OO...OOO...........................................................................
..................................................................................................................................................................................................................................................................................................O.O.....O...........................................................................
....................................................................................................................................................................................................................................................................................................O....O..............................................O.............................
...................................................................................................................................................................................................................................................................................................................................................O...OO.............................
..................................................................................................................................................................................................................................................................................................................................................OO...O.O............................
..................................................................................................................................................................................................................................................................................................................................................O.O.................................
.............................................................................................................................................................................................................................................................................................................................OOO......................................................
.............................................................................................................................................................................................................................................................................................................................O..O.....................................................
.............................................................................................................................................................................................................................................................................................................................O........................................................
.............................................................................................................................................................................................................................................................................................................................O........................................................
..............................................................................................................................................................................................................................................................................................................................O.O.....................................................
