!Name: 35P52_synth
!A 17-glider synthesis of 35P52
!http://www.conwaylife.com/wiki/index.php?title=35P52
!
..............................................................O...............................
.............................................................O................................
.............................................................OOO..............................
........................................................O.O...................................
........................................................OO....................................
...O.....................................................O....................................
.O.O..........................................................................................
..OO..........................................................................................
...............O..............................................................................
.............O.O..............................................................................
..............OO..............................................................................
..............................................O...............................................
............................................OO................................................
....................................O.O......OO...............................................
....................................OO........................................................
.....................................O........................................................
........................O.....................................................................
...............O......OO......................................................................
.............O.O.......OO..........O.O........................................................
..O...........OO...................OO.........................................................
O.O.................................O.........................................................
.OO...........................................................................................
...............................................................................O..............
...............................................................................OOO............
..................................................................................O.........OO
.................................................................................OO.........O.
..........................................................................................O.O.
.....................................................................................OO...OO..
....................O...............................................................O.........
....................O.O............................................................O..........
............O.......OO..............................................................O.O.......
.............OO.....................................................................O.........
............OO................................................................................
...............................................................................OO.............
..............................................................................O.O.............
..............................................................................O.........OO....
.............................................................................OO.........O.....
.........................................................................................OOO..
.............................O.............................................................O..
............................O.................................................................
............................OOO...............................................................
...................................OOO........................................................
...................................O..........................................................
....................................O.........................................................
........................OO....................................................................
.........................OO...................................................................
........................O.....................................................................
.......O......................................................................................
.......OO.....................................................................................
......O.O.....................................................................................
.........................................OO...................................................
.........................................O.O..................................................
.........................................O....................................................
