!Name: 3-engine Cordership eater
!Author: Jason Summers
!An eater for the 3-engine Cordership.
!www.conwaylife.com/wiki/index.php?title=3-engine_Cordership
!
............................O............................................................
...........................O.O...........................................................
...........................O.O..................OO.......................................
.........................OOO.OO.................OO.......................................
........................O................................................................
.........................OOO.OO..........................................................
...........................O.OO..........................................................
........................................................OO...............................
........................................................OO...............................
.....................O...................................................................
....................O.O..................................................................
....................O.O..................................................................
..................OOO.OO.................................................................
.................O.......................................................................
..................OOO.OO.................................................................
....................O.OO.................................................................
....O.........................................................OOO........................
...O.O.........................................................O.........................
...O.O.........................................................O..O......................
.OOO.OO........................................................O..O......................
O...............................................................O.O......................
.OOO.OO........................................................................OO........
...O.OO........................................................................OO........
...............................................................O.........................
..............................................................O.O........................
...............................................................O.........................
................................................................................O........
...............................................................................O.......OO
.............................................................OOOO......................OO
.............................................................OO...O..........O...........
..............................................................O....O.........O.O.........
................................................................O.OO..........O..........
.................................................................O.......................
.........................................................................O.O.OO..........
........................................................O................O.O.............
.......................................................OOO.................O..O..........
..OO......................................................................O...O..........
..OO...................................................OOO................OOOO..OO.......
........................................................OO.OO..............O.....OO......
..........................................................O.....................O........
................................OOO......................................................
.................................O.......................................................
..........OO.....................O..O....................................................
..........OO.....................O..O....................................................
..................................O.O....................................................
.................................................OO......................................
.................................................OO......................................
.......................................................O.................................
......................................................OOO................................
.................................O...................OO.OO...............................
................................O.O..................O.O.................................
.................................O...................O...................................
...............................OOOO......................................................
...............................OO...O.............O......................................
................................O....O...........O.O.....................................
..................................O.OO...........O.......................................
...................................O...............OO....................................
....................................................O....................................
.................................................OOO.....................................
..................................................OO.....................................
...............................................O.........................................
...............................................OO........................................
...............................................OO........................................
.....................................OO......OO..........................................
.....................................OO....OO............................................
...........................................OO.O..........................................
.............................................OO..........................................
.............................................OO..........................................
.............................................OO..........................................
