!Name: 40514m.rle
!Author: Emerson J. Perkins, 1 May 2011
!18-cell 40514-generation methuselah
!based on Richard Wobus' 15-cell 32829M
!http://conwaylife.com/wiki/40514M
!http://conwaylife.com/patterns/40514m.rle
!
.............................................................................O
.............................................................................O
.............................................................................O
OOO...........................................................................
...O..........................................................................
...O..........................................................................
...O..........................................................................
....................OOO.......................................................
.........OOO..........O.......................................................
......................O.......................................................
.....................O........................................................
