!Name: 6-engine Cordership v2
!A six-engine Cordership.
!www.conwaylife.com/wiki/index.php?title=6-engine_Cordership
!
..................O..........................................................
..................O..........................................................
..................O..........................................................
.....................................................OO......................
.....................................................OO......................
....OOO......................................................................
..........................O..................................................
..........................O.......OO............O............................
..........................O......OO.............O............................
.................................OOO...........O.............................
.........................................O......OO.O.........OO..............
...................................O.OO.O.O.....OO.OO........OO..............
............OOO....................O..O..O.......O.O.........................
...................................O.O.......................................
...OO........................................................................
...O.O.......................................................................
....OO.....OOO......................OO.......................................
.....O...OOOO..O.OO................OO........................................
....OOO...O...OO.O.O................O................................OO......
O...OO....OOOOO....O...............OO................................OO......
OO..........O.....OO.OO.............OO.......................................
.OO........O........OOO......................................................
..O.......OO........................O........................................
..........OO........................OOO......................................
.................OOO.............O.O.........................................
................................OO...O.......................................
.................................O......................OO.............O.....
.......................................................O..O..........OO.OOO..
...................................OOO..................OO.............OOO.OO
........................................................................O....
.........................................................................O...
.......................O.................................................O...
.......................O.................................................O...
......................O.........................................OO.......O.O.
.........OOO.OO........OO.O....................................O..O.......O..
..........OOOOO........OO.OO....................................OO...........
............O...........O.O..................................................
........................................................................O....
................................OO.....................................OO....
................................OO.....................................O.....
...............................O........................................O.O..
...............................OOO......................................O..O.
.............................OO...O......................................O.O.
.............................OO...O........................OOO...........O.O.
.............................OO...........................................O..
................OO.............OOO...................O.....O...O.............
................OO...................................O......OOOO.............
.........................................O.....................O.............
........................................O.O..................................
........................................O.O..................................
.........................................O...................................
........................OO...................................................
........................OO...................................................
.................................................O...........................
................................................O.O..........................
................................................O.O..........................
.................................................O...........................
................................OO...........................................
................................OO.............O.............................
..............................................OO.............................
..............................................O..............................
...............................................O.O...........................
...............................................O..O..........................
................................................O.O..........................
................................................O.O..........................
.................................................O...........................
