!Name: almostgun2.rle
!http://conwaylife.com/wiki/P30_gun
!http://www.conwaylife.com/patterns/almostgun2.rle
!
........O...............
......OOO...............
.....O..................
.....OO.................
OO...OO.................
OO...OO.................
.OOOOO..................
..O.O...................
......................OO
..OOO.................O.
...........O.O......O.O.
.........O...O......OO..
.........O..............
........O....O..........
.........O..............
.O.......O...O..........
.O.O.......O.O..........
O.O.....................
..O.....................
