!Name: Glider-producing switch engine_synth
!Author: Mark D. Niemiec, Luka Okanishi
!Glider synthesis for a glider-producing switch engine.
!http://conwaylife.com/wiki/Glider-producing_switch_engine
!http://www.conwaylife.com/patterns/gliderproducingswitchengine_synth.rle
!
.O......................................................................................................................................................................
..O.....................................................................................................................................................................
OOO.....................................................................................................................................................................
..........................................................O.............................................................................................................
........................................................OO..............................................................................................................
.........................................................OO.............................................................................................................
..................................O.....................................................................................................................................
................................O.O.....................................................................................................................................
.................................OO.....................................................................................................................................
.....................................................................................................................................................................O..
....................................................................................................................................................................O.O.
...................................................................................................................................................................O..O.
...................................................................................................................................................................OO...
...................................................................................................................................................................O....
....................................................................................................................................................OO..................
....................................................................................................................................................OO..................
.....................................................................................................................................................................OO.
....................................................................................................................................................................O...
.............................OOO....................................................................................................................................OO..
...............................O....................................................................................................................O...............OOO.
..............................O....................................................................................................................OO................OO.
...................................................................................................................................................OO..............O.OOO
....................................................................................................................................................O.O...........O...O.
....................................................................................................................................................OO...........O..O...
...................................................................................................................................................O..............OOO...
..................................................................................................................................................O..O............OO....
..................................................................................................................................................O.....................
...................................................................................................................................................OOO..................
.......................................................................................................................................................O................
.......................................................................................................................................................O.O..............
.......................................................................................................................................................O................
........................................................................................................................................................O.O.....OO......
..........................................................................................................................................................O.....OO......
........................................................................................................................................................O.O.............
........................................................................................................................................................OO..............
