!Name: Griddle and beehive_synth
!A 16-glider synthesis of griddle and beehive
!http://www.conwaylife.com/wiki/index.php?title=Griddle_and_beehive
!
.................................................................O.............................................................................................
................................................................O..............................................................................................
................................................................OOO............................................................................................
............O..................................................................................................................................................
..........O.O..................................................................................................................................................
...........OO..................................................................................................................................................
........................................................O......................................................................................................
......................................................OO.......................................................................................................
.......................................................OO......................................................................................................
..................................................................O.O..........................................................................................
..O...............................................................OO...........................................................................................
O.O................................................................O...........................................................................................
.OO............................................................................................................................................................
......O........................................................................................................................................................
....O.O........................................................................................................................................................
.....OO........................................................................................................................................................
...................................................O...........................................................................................................
...................................................O.O.........................................................................................................
...................................................OO..........................................................................................................
...........................................................................................O.O.................................................................
............................................................................................OO.................................................................
............................................................................................O..................................................................
...........................................................................OO..................OO..................O...................O...................O...
...........................................................................OO..................OO..................O.O.................O.O.................O.O.
.................................................................................................................O....O..............O....O..............O....O
.........................................................................OOOOOO..............OOOOOO..............OOOOOO..............OOOOOO..............OOOOOO
.........................................................................O....O..............O....O............................................................
...........................................................................OOO.................OOO..OOO............OO..................OO..................OO..
..........................................................................OO..............OO..OO....O..............OO..................OO.................O..O.
.........................................................................................O.O.........O.....................................................OO..
...........................................................................................O........................................O..........................
.....................................................................................................................................OO........................
....................................................................................................................................OO..OO.....................
.......................................................................................................................................O.O.....................
.................................O.O.....................................................................................................O.....................
.................................OO............................................................................................................................
..................................O............................................................................................................................
.................................OOO...........................................................................................................................
.................................O.............................................................................................................................
..................................O............................................................................................................................
.................................................................OO............................................................................................
..........................................................OOO...OO.............................................................................................
..........................................................O.......O............................................................................................
...........................................................O...................................................................................................
