!Name: 19-4199.rle
!Author: Mark D. Niemiec's life synthesis database, Thu Feb 19 02:01:30 2015
!
.....................................O.O......................
......................................OO......................
......................................O.......................
.....O...................................O....................
....O..................................O.O....................
.OO.OOO...............................O..O....................
O.O....................................OO.....................
..O...........................................................
...............................O.....................O........
.............................O.O.....................O.O......
..............................OO..........OO.........OO.......
.........................................OO...................
...........................................O..................
......................................OOO.....................
........................................O.....................
.......................................O......................
...............................OOO.................OOO........
.................................O.................O..........
................................O...................O.........
............O.................................................
............O.O...............................................
............OO..................................O.......O.....
.................................................O.....O......
...........O...................................OOO.....OOO....
.........O.O..................................................
..........OO..................................O...........O...
..........................................OO..OO.OO..OO.......
...........................................O.O..O...O..O.O....
................................................OOO...........
................................................OOO...........
................................................O...O.........
..............................................OO.OO...........
..........OO................................OO.............OO.
.........O.O...............................O.O.............O.O
...........O.................................O.............O..
............OO................................................
............O.O...............................................
............O.................................................
