!Name: long4snake synth.rle
!Author: Mark D. Niemiec
!Glider synthesis of long^4 snake
!http://conwaylife.com/wiki/Long%5E4_snake
!http://conwaylife.com/patterns/long4snake_synth.rle
!http://conwaylife.com/ref/mniemiec/10/10-12.rle
!
..................................O...................................
................................O.O...................................
.................................OO...OO..............................
.....................................O.O......................OO......
.......................................O.........O............O.O.....
.........................................OOO......O..............O....
.........................................O......OOO...............O...
..........................................O.........O..............O.O
....................................................O.O.............OO
....................................................OO...OO...........
.........................................................O.O..........
.........................................................O............
...................................................O..................
.........................................O........O...................
.........................................O.O......OOO.................
.........................................OO...................OO......
......O...O.O.................................................O.O.....
.......OO.OO...............O............O......O.................O....
......OO...O..............O.O............O....O.O.................O...
...........................O.O.........OOO.....O.O.................O.O
.........OO.................OO..................OO..................OO
........O.O...........................................................
..........O...........................................................
............................................OO........................
...........................................OO.........................
.............................................O........................
..O..............................................O....................
O.O............................................O.O....................
.OO.............................................OO....................
..O...................OO..................OO..................OO......
..OO.................O..O................O..O.........O.......O.O.....
.O.O.................O..O...OO.......OO..O..O...OO..OO...........O....
........O.O...........OO...O..O.......OO..OO...O..O..OO...........O...
........OO.................O..O......O.........O..O................O.O
.........O..................OO..................OO..................OO
.........OO...............................OO..........................
.........O.O..............................O.O.........................
.........O................................O...........................
