!Name: nw31transparentlanes.rle
!http://conwaylife.com/wiki/Transparent_lane
!http://www.conwaylife.com/patterns/nw31transparentlanes.rle
!
.................................................O
...............................................OO.
................................................OO
OO................................................
.O................................................
.O.O..............................................
..OO..............................................
.............................OO...................
.......................OO...OO....................
.......................OO.....O...................
..O...............................................
..O.O.............................................
..OOO.............................................
....O.............................................
.............OO...................................
.............OO...................................
