!Name: p4colourpreservingcenark.rle
!Author: Tanner Jacobi, 2017
!http://conwaylife.com/wiki/P4_CP_cenark
!http://www.conwaylife.com/patterns/p4colourpreservingcenark.rle
!
..........................................................................................................................O.
.........................................................................................................................O..
.........................................................................................................................OOO
...............................................................................................................O............
..............................................................................................................O.............
..............................................................................................................OOO...........
.OO.........................................................................................................................
OO.................................................................O........................................................
..O...............................................................O.........................................................
..................................................................OOO.......................................................
.....................................OO.....................................................................................
....................................O.O....OO...............................................................................
....................................O.O.OO..O...............................................................................
............OO.......................O.O.O.O................................................................................
...........OO..........................O.O.OO...........O...................................................................
.............O........................OO..O..O.........O....................................................................
.....................................O.O....O.O........OOO..................................................................
.....................................OO..OO.O..O............................................................................
.........................................OOO..OO............................................................................
...........................................O................................................................................
.................................OO.......OO................................................................................
................................O..O.....OO.................................................................................
................................OOO..OOOOOO.................................................................................
...................................OO.......................................................................................
..................................O.........................................................................................
..................................OO.O..O...................................................................................
................................................OO..........................................................................
.....................................O...........O..........................................................................
....................................O.O........O............................................................................
.....................................OO........OO...........................................................................
.................................................O..........................................................................
...............................................OO.O.........................................................................
..............................................O.O..O........................................................................
...............................................O..OO........................................................................
.............................OO.............................................................................................
.............................O..O...........................................................................................
..............................OOO.........OO................................................................................
...................................O......O.................................................................................
................................OOOO.......OOO..............................................................................
................................O............O..............................................................................
.................................O..........................................................................................
................................OO..........................................................................................
