!Name: p57gun.rle
!http://conwaylife.com/wiki/P57_Herschel_loop_1
!http://www.conwaylife.com/patterns/p57gun.rle
!
..............O.OO.........O...................................OO............O...................................OO............O...................................OO............O...................................OO............O...................................OO............O...................................OO............O...................................OO............O...................................OO............O...................................OO............O...................................OO............O......................................................
..............OO.O.........OOO.....OO...........................O............OOO.....OO...........................O............OOO.....OO...........................O............OOO.....OO...........................O............OOO.....OO...........................O............OOO.....OO...........................O............OOO.....OO...........................O............OOO.....OO...........................O............OOO.....OO...........................O............OOO.....OO...........................O............OOO.....OO.............................................
..............................O....O............................O.O.............O....O............................O.O.............O....O............................O.O.............O....O............................O.O.............O....O............................O.O.............O....O............................O.O.............O....O............................O.O.............O....O............................O.O.............O....O............................O.O.............O....O............................O.O.............O....O..............................................
............OOOOO............O...O.O.............................OO............O...O.O.............................OO............O...O.O.............................OO............O...O.O.............................OO............O...O.O.............................OO............O...O.O.............................OO............O...O.O.............................OO............O...O.O.............................OO............O...O.O.............................OO............O...O.O.............................OO............O...O.O..............................................
...........O....O...........O...O.O...........................................O...O.O.................................OOO.......O...O.O...........................................O...O.O...........................................O...O.O..................................O........O...O.O...........................................O...O.O...........................................O...O.O...........................................O...O.O...........................................O...O.O...........................................O...O.O...............................................
..........O..O..............OO...O............................................OO...O..................................OOO.......OO...O............................................OO.OO.............................................OO...O..................................O.........OO...O............................................OO...O............................................OO...O...................................O........OO...O...................................O........OO...O............................................OO...O................................................
.......O..O.OO...........................................O.................................................O.........O.......................................O.................................................O.................................................O..........OOO....................................O.................................................O.................................................O..........O.O....................................O..........O.O....................................O.................................................O................O.......
......O.O.O.....O......................................OOO...............................................OOO...............................................OOO...............................................OOO...............................................OOO..........OOO..................................OOO...............................................OOO...............................................OOO............O..................................OOO.............O.................................OOO...............................................OOO........OO.....O.O......
.......O..O....O.O..............OO........O...........O.................................................O............OO..OO..........O.O..................O.................................OO..............O.................................................O.............OO.........OO.......................O..............O................O...OO............O.................................................O..............O.......OO.OO......................O...........OO...O..............O.O...............O...........................OOO......OOO..........O..........O..O.....O.......
..........OO..O..O...............OO.....OO.OO.........OO..........................OO.......OO...........OO............OOOOOO.....O.O.........OO...........OO...............................O.O..............OO................................................OO......................OOOO.........OO...........OO............OOO.............OO.O.OOO............OO.........................OO.........O...........OO...................OO....O.........OO...........OO.........O...O.OO........OOO.......OO...........OO............................O.....OOOO..........OO..........O.O.............
...............OO...............O.......O..................................................OO........................O...O..O....O...........OO............................................O.........................................................................................OOO.O.........OO.........................O.OO............O....OOO......................................O.O........OO.......................................OO.......OO.....O.OO.OO...........O.....O........O..OO....O.O.............................O..........O.....OO..OO.................OOOO.O....OOOOO.....
.....................OOO................O...O....................................O.O.................OO..............O.O.........O.O...O.................................O.................OOO.......................................OOO...........O....O.............................OOO.O..................O..................OO............O...O.....................................O.....O.......O..O...............................O....O.OO.............O..O.OO..............O.O.O........OO.OOOO..................................O.................O.OO..................OO.OO.....O....O....
.........................................OOO...................................O...............O...O..O...............OOO...........OO.O................O...............OOO.......................................................O....O.........OO.O....O.............................OOO.................OO.O................................OOO...................................OO..O.............OO.................................OO..O.OO.............O.....O...............OO............OOO..................................O....................OOO.....................O.........O..O...
........OO.........OO.O.O.OO...............................................OO.O.OO...........OO...O...O................OO..............................OO..............O..OO....................O.O..............................OO...O.........O.O.O...O...............................OO................O...O..................................O..................................O.....O................................................O..O..............OO..O.O...................................................................OOO...O................O................................OO.O...
.......O..O........O..O.O...................................................O.OO.............O....O..................OOOO.............................O..OO...........OO...OO.O.................O.O.............................OO..............O..O......................................................O..OO....................................................................OO.OO.....................................................................O...O.OO.................................................O...O...........O...O.OO..............................................O.....O.OO
.......O.O..O......OOO.O.....................O............O..................O...............O..O..OO................O................................OO....O..........O.O..OO...O................O..............................O..O.............O.......................................................OO.OO.....................................................................OOOO...O.................................................................O.O.O.O.................................................OOO.O..O..........OOOOO....................OOO...........O............O.O....O.O.
........O...O.............OO................OOO.........OOO...................................O....................OOO....................................OOO...........OO...O.OO.O..........................O....................OO...............O.OO...............OO....................................OO...O...........O.O................................OO..O.O..............O....O...............OO.............O...OO...............................OOO.................OO.................................O.O.O..............OOO...OO................OOO.........O..O...........O..O..OO..O
............O.........O....O...................O........OOO....................................O..................OO.......................................OO..........OO.......O.O...............O.........O.OO...................................O..O..............O..O.........................................OO.........OO................................O..OO..O................OOO................OOO...........OO....OOO................................................O..O......................................O...................O................O..OO......O...O............OO......OO
.........O................O.................O..OO......O...O......OO.............................................OO...................................................OO.........OOO..................O....OO.O.........OO.........................OOO..............OO..O........................................OO..........O.................................O..OO..........OO.......O................OO..O..........OO........O......................................O.O......OO.OO.....................................OO.......OO........O....................OO......O...O......................
..........OO.............O...OO..........O..O...O.......OOOO......OO...........OO............................O....OO.............OO...................................OO...........OO............O....O.....O...........OO...........OO..............................OO..O.............OO................................................OO....................O.O..OO........OO...........OO...........O..OO...........OOOOO..O.O...........OO..........................OO........O...........OO....................O...O.O........OO...........OO..........OOO...OO......O...OO.....................
.............................O...........OO.............OO.O...................O...........................O.O...................O.................................................O.............O...................................O................................OOOO.............O.................................................O.............O...................................O............O..O..............OOO...O............O...........................O.....................O.........................O.O.....................O...........OOO.O..........O..O......................
..............................OOO...........O.O.................................OOO.........................OO....................OOO...............................................OOO..........O....................................OOO...............................................OOO...............................................OOO.........O.O...................................OOO..........OOO..................................OOO...............................................OOO...............................................OOO.........O.O.....................................
........................OO.OOO..O..........OO.O...................................O.................................................O.................................................O.................................................O.................................................O.................................................O.........O..O....................................O.................................................O.................................................O.................................................O..........O..O...................................
.......................O.O.O..O.............OO.......OO...O............................................OO...O............................................OO...O...................................OO.......OO...O............................................OO...O............................................OO...O...................................O........OO...O............................................OO...O............................................OO...O............................................OO...O..................................OOO.......OO...O.......................
......OO.........O......O..O.O.......................O...O.O...........................................O...O.O...........................................O...O.O..................................OO.......O...O.O...........................................O...O.O...........................................O...O.O...........................................O...O.O...........................................O...O.O...........................................O...O.O...........................................O...O.O...........................................O...O.O......................
.......O.........OO........O.OO.........OO............O...O.O.............................OO............O...O.O.............................OO............O...O.O.............................OO............O...O.O.............................OO............O...O.O.............................OO............O...O.O.............................OO............O...O.O.............................OO............O...O.O.............................OO............O...O.O.............................OO............O...O.O.............................OO............O...OO......................
.......O.O......O.O.......OO...O.......O.O.............O....O............................O.O.............O....O............................O.O.............O....O............................O.O.............O....O............................O.O.............O....O............................O.O.............O....O............................O.O.............O....O............................O.O.............O....O............................O.O.............O....O............................O.O.............O....O............................O.O.............O..........................
........OO.............O.O..O.O........O............OOO.....OO...........................O............OOO.....OO...........................O............OOO.....OO...........................O............OOO.....OO...........................O............OOO.....OO...........................O............OOO.....OO...........................O............OOO.....OO...........................O............OOO.....OO...........................O............OOO.....OO...........................O............OOO.....OO...........................O.............O.OOOOO...........O........OO
.......................OO..OO.OO......OO............O...................................OO............O...................................OO............O...................................OO............O...................................OO............O...................................OO............O...................................OO............O...................................OO............O...................................OO............O...................................OO............O...................................OO.............OO....O..........OOO...OO..O.
............OOOO............................................................................................................................................................................................................................................................................................................................................................................................................................................................................................................................................................OO.O.OO......OOOOO..O.O.O.
...........O..OOO........................................................................................................................................................................................................................................................................................................................................................................................................................................................................................................................................................OO.O.O.O.O.....OOO.OO.....O..
............O...O........................................................................................................................................................................................................................................................................................................................................................................................................................................................................................................................................................O.O....O.......OO.OO.........
............O..O...............................................................................................................................................................................................................................................................................................................................................................................................................................................................................................................................................................OO.........O......O....
.............OOO................................................................................................................................................................................................................................................................................................................................................................................................................................................................................................................................................................................O.O...
.................................................................................................................................................................................................................................................................................................................................................................................................................................................................................................................................................................................................O....
..................................................................................................................................................................................................................................................................................................................................................................................................................................................................................................................................................................................................OOO.
....................................................................................................................................................................................................................................................................................................................................................................................................................................................................................................................................................................................................O.
.........................................................................................................................................................................................................................................................................................................................................................................................................................................................................................................................................................................O............................
.........OO..............................................................................................................................................................................................................................................................................................................................................................................................................................................................................................................................................................OOO..........................
.........OO..............OO.................................................................................................................................................................................................................................................................................................................................................................................................................................................................................................................................................O.........................
.........................O.................................................................................................................................................................................................................................................................................................................................................................................................................................................................................................................................................OO..............OO.........
..........................OOO..............................................................................................................................................................................................................................................................................................................................................................................................................................................................................................................................................................OO.........
............................O.........................................................................................................................................................................................................................................................................................................................................................................................................................................................................................................................................................................
.O....................................................................................................................................................................................................................................................................................................................................................................................................................................................................................................................................................................................................
.OOO..................................................................................................................................................................................................................................................................................................................................................................................................................................................................................................................................................................................................
....O.................................................................................................................................................................................................................................................................................................................................................................................................................................................................................................................................................................................................
...O.O................................................................................................................................................................................................................................................................................................................................................................................................................................................................................................................................................................................OOO.............
....O......O.........OO...............................................................................................................................................................................................................................................................................................................................................................................................................................................................................................................................................................O..O............
.........OO.OO.......O....O.O........................................................................................................................................................................................................................................................................................................................................................................................................................................................................................................................................................O...O............
..O.....OO.OOO.....O.O.O.O.OO........................................................................................................................................................................................................................................................................................................................................................................................................................................................................................................................................................OOO..O...........
.O.O.O..OOOOO......OO.O.OO............................................................................................................................................................................................................................................................................................................................................................................................................................................................................................................................................................OOOO............
.O..OO...OOO..........O....OO.............OO...................................O............OO...................................O............OO...................................O............OO...................................O............OO...................................O............OO...................................O............OO...................................O............OO...................................O............OO...................................O............OO...................................O............OO......OO.OO..OO.......................
OO........O...........OOOOO.O.............O...........................OO.....OOO............O...........................OO.....OOO............O...........................OO.....OOO............O...........................OO.....OOO............O...........................OO.....OOO............O...........................OO.....OOO............O...........................OO.....OOO............O...........................OO.....OOO............O...........................OO.....OOO............O...........................OO.....OOO............O........O.O..O.O.............OO........
..........................O.............O.O............................O....O.............O.O............................O....O.............O.O............................O....O.............O.O............................O....O.............O.O............................O....O.............O.O............................O....O.............O.O............................O....O.............O.O............................O....O.............O.O............................O....O.............O.O............................O....O.............O.O.......O...OO.......O.O......O.O.......
......................OO...O............OO.............................O.O...O............OO.............................O.O...O............OO.............................O.O...O............OO.............................O.O...O............OO.............................O.O...O............OO.............................O.O...O............OO.............................O.O...O............OO.............................O.O...O............OO.............................O.O...O............OO.............................O.O...O............OO.........OO.O........OO.........O.......
......................O.O...O...........................................O.O...O...........................................O.O...O...........................................O.O...O...........................................O.O...O...........................................O.O...O...........................................O.O...O...........................................O.O...O.......OO..................................O.O...O...........................................O.O...O...........................................O.O...O.......................O.O..O......O.........OO......
.......................O...OO.......OOO..................................O...OO............................................O...OO............................................O...OO............................................O...OO........O...................................O...OO............................................O...OO............................................O...OO.......OO...................................O...OO............................................O...OO............................................O...OO.......OO.............O..O.O.O.......................
...................................O..O..........O.................................................O.................................................O.................................................O....................................O..O.........O.................................................O.................................................O.................................................O.................................................O.................................................O...................................O.OO..........O..OOO.OO........................
.....................................O.O.........OOO...............................................OOO...............................................OOO..................................OOO..........OOO...................................O.O.........OOO...............................................OOO...............................................OOO....................................O..........OOO...............................................OOO....................OO.........................OOO.................................O.O...........OOO..............................
......................O..O..........O.OOO...........O.....................O.O.........................O.....................O...........................O............O...OOO..............O..O............O...................................O.............O.................................................O.............OOOO................................O...................................O.............O.................................................O...................O.O...........................O...................O.OO.............OO...........O.............................
.....................OO...O......OO...OOO..........OO...........OO........O.O...O....................OO...........O........OO..........................OO...........O.O..OOOOO...........OO..O...........OO...........OO........OO..O.O....................OO................................................OO.............O..OO..............................OO...........OO...........O.....O....O............OO...........OO...................................OO.............OO....O............................OO...........OO......OOOO.......O...O..O..........OO...O.............OO..........
......................O...O......OO....................O........OO.......OO.....................................OO.OO......O.O......................................O........OO..........O..OO................O.......OO..........OO..O.................................O..........OO........................................O..OO..............OOO.........................OO.........O.OO....O..................OOO.........OO...................................................OO.............................................OO......O...O......OO..O.................O................O.........
OO......OO............O...O......OO..O................O...................O......................................O..O................................................OOO....OO...........OOO................OOO................O..OO..O................................OO.........OO.........................................O..O..............O..O...................................OO.O.........O...............O.O.......OO..........OO.......................................OO..................O....................................OOO........O...................O....O.........O............
O..OO..O..O...........O..O.........OOO................OO...OOO..............O.O.O.................................OO.................OOO...............................OO...O.............OO...............O....O..............O.O..OO................................O.O...........O...OO....................................OO...............OO.O...............OO....................O..........................O.OO.O...OO...........OOO....................................OOO....................O...................................OOO.........OOO................OO.............O...O........
.O.O....O.O............O...........OOO....................OOOOO..........O..O.OOO.................................................O.O.O.O.................................................................O...OOOO.....................................................................OO.OO.......................................................O.............O..O..............................O................O...OO..O.O..........O....OO................................O................OO..O..O...............O..................O............O.....................O.OOO......O..O.O.......
OO.O.....O..............................................OO.O...O...........O...O.................................................OO.O...O.....................................................................OO.OO....................................................................OO..O......................................................O..O..............OO.............................O.O.................O.OO...OO...........OO..O.............................OOOO..................O....O.............OO.O...................................................O.O..O........O..O.......
...O.OO................................O................O...OOO...................................................................O.O..OO..............O..O................................................O.....O..................................O..................................O...O................OO...............................O...O.O.O.........O...OO..............................O.O....................OO..O..............OO..............................OO................O...O...OO...........OO.O.OO...............................................OO.O.O.OO.........OO........
...O..O.........O.....................OOO....................O..................................OOO............OO...............O.....O.............OO.O..OO.................................OO.............O..OO...................................OOO................................O.OO.................OOO.............................O....O.OO.........O....O.......................................................OOO...............O................O.OO...........OOO...............O..O...O...............O...................................OOO.........................................
....O....O.....OO.OO..................OO.O.................O..................................OOOO.OO........O.O.O..............OO.O..O.............OO.O....O...............................O..O.......O.....O.....................................O...O............OO..................O..................O.OOO.............................O....O...........OOO.......................................OOO.................O.................................O...O.O.........O.O..............OO.................O.O....................................O...O................OOO.....................
.....OOOOO....O.OOOO.................OO..OO.....O..........O.............................O.O....OO..O........O.....O...........OO.OO.O.....OO.......OO.......................................OO........O.O......................................OOO....O............OO.O.........................OO.........O.OOO.........................................................................................O............................................OO...........O....O..O...O........................OO..................................................O.......O...............OO...............
.............O.O..........OO..........OOOO.....O............................OO...........OO.......OOO........OO.O...O.........OO...........OO.........O....OO...................OO...........O.........OO.........................OO............OOO.O.OO.............OOO............OO...........OO.........OOOO......................OO................................................OO..............O.O...............................OO...........OO.........O.O.....OOOOOO............OO...........OO.......OO..........................OO.........OO.OO.....OO...............O..O..OO..........
.......O.....O..O..........O..........OOO......OOO...........................O...............O.O..............O...OO...........O......................OO.OO.......O..............O.................................................O............OO...O................O..............O.......................OO............O...........O.................................................O..............OO.................................O..................O.O..........OO..OO............O.................................................O...........O........OO..............O.O....O..O.......
......O.O.....OO........OOO...............................................OOO.................................O.............OOO..................................O............OOO...............................................OOO...............................................OOO....................................O.O........OOO...............................................OOO...............................................OOO...............................................OOO...............................................OOO......................................O.....O.O.O......
.......O................O.................................................O....................................O.O..........O....................................O.O..........O.................................................O.................................................O.......................................OO........O.................................................O.................................................O.......................................O.........O.................................................O...........................................OO.O..O.......
................................................O...OO............................................O...OO........O...................................O...OO........O...................................O...OO............................................O...OO............................................O...OO............................................O...OO.............................................OO.OO............................................O...OO.......OOO..................................O...OO............................................O...OO..............O..O..........
...............................................O.O...O...........................................O.O...O...........................................O.O...O...........................................O.O...O...........................................O.O...O...........................................O.O...O...........................................O.O...O...........................................O.O...O...........................................O.O...O.......OOO.................................O.O...O...........................................O.O...O...........O....O...........
..............................................O.O...O............OO.............................O.O...O............OO.............................O.O...O............OO.............................O.O...O............OO.............................O.O...O............OO.............................O.O...O...........................................O.O...O............OO.............................O.O...O............OO.............................O.O...O............OO.............................O.O...O............OO.............................O.O...O............OOOOO............
..............................................O....O.............O.O............................O....O.............O.O............................O....O.............O.O............................O....O.............O.O............................O....O.............O.O............................O....O......OOOO..................................O....O.............O.O............................O....O.............O.O............................O....O.............O.O............................O....O.............O.O............................O....O..............................
.............................................OO.....OOO............O...........................OO.....OOO............O...........................OO.....OOO............O...........................OO.....OOO............O...........................OO.....OOO............O...........................OO......OO.O.....O................................OO.....OOO............O...........................OO.....OOO............O...........................OO.....OOO............O...........................OO.....OOO............O...........................OO.....OOO............O..............
......................................................O............OO...................................O............OO...................................O............OO...................................O............OO...................................O............OO..........................O...O...O.O..O...OO.O......................................O............OO...................................O............OO...................................O............OO...................................O............OO...................................O...........O.O.............
........................................................................................................................................................................................................................................................................................................OOOO.OOO.O..O.....O............................................................................................................................................................................................................................................................O..............
............................................................................................................................................................................................................................................................................................................O..OOOOOO...OO.OO.........................................................................................................................................................................................................................................................................
........................................................................................................................................................................................................................................................................................................OO.OO..O...O..OO....OOO.......................................................................................................................................................................................................................................................................
.........................................................................................................................................................................................................................................................................................................O.O.......OOOOO...O...O......................................................................................................................................................................................................................................................................
........................................................................................................................................................................................................................................................................................................O...OOO.O.......O...OOO.......................................................................................................................................................................................................................................................................
.........................................................................................................................................................................................................................................................................................................OOO..OOO....OOOOO....O.O.......O.............................................................................................................................................................................................................................................................
............................................................................................................................................................................................................................................................................................................O.O..OO.O.OOO......OO........OO...........................................................................................................................................................................................................................................................
...........................................................................................................................................................................................................................................................................................................O..OOO..OO.....O.............OO............................................................................................................................................................................................................................................................
............................................................................................................................................................................................................................................................................................................OO...O...O...O.OO.........................................................................................................................................................................................................................................................................
..............................................................................................................................................................................................................................................................................................................O.O.OO.OOOOO............................................................................................................................................................................................................................................................................
..............................................................................................................................................................................................................................................................................................................O.O..O...OO..OO.........................................................................................................................................................................................................................................................................
...............................................................................................................................................................................................................................................................................................................O.O..OOO..O...O........................................................................................................................................................................................................................................................................
................................................................................................................................................................................................................................................................................................................O.....OO....OO........................................................................................................................................................................................................................................................................
........................................................................................................................................................................................................................................................................................................................OO.O..OO......................................................................................................................................................................................................................................................................
.....................................................................................................................................................................................................................................................................................................................O......O.O.......................................................................................................................................................................................................................................................................
....................................................................................................................................................................................................................................................................................................................O..O.OO...O.......................................................................................................................................................................................................................................................................
....................................................................................................................................................................................................................................................................................................................O.O.O.O.OO........................................................................................................................................................................................................................................................................
..................................................................................................................................................................................................................................................................................................................OO....O..O..........................................................................................................................................................................................................................................................................
.................................................................................................................................................................................................................................................................................................................O..OOOO.OO..OOO......................................................................................................................................................................................................................................................................
.................................................................................................................................................................................................................................................................................................................OO.....O..OO..O.......................O..............................................................................................................................................................................................................................................
......................................................................................................................................................................................................................................................................................................................O...O..O..........................O.............................................................................................................................................................................................................................................
......................................................................................................................................................................................................................................................................................................................OO...OO.........................OOO.............................................................................................................................................................................................................................................
