!Name: p8bumper.rle
!Author: Tanner Jacobi, 2016
!http://conwaylife.com/wiki/P8_bumper
!http://www.conwaylife.com/patterns/p8bumper.rle
!
............................................................O..
............................................................O.O
............................................................OO.
..................................................O............
..................................................O.O..........
..................................................OO...........
..................................O............................
.O................................O.O..........................
OO................................OO...........................
O.O............................................................
........................O......................................
...........O............O.O....................................
..........OO............OO.....................................
..........O.O..................................................
................OO.............................................
.........OO....O..O............................................
.........OO.....O.O............................................
.........OO......O.............................................
..........O....................................................
.........O.O.........OO........................................
........OO.O.........O.........................................
......................OOO......................................
........................O......................................
.........OO....................................................
.........OO....................................................
