!Name: quasar3.rle
!http://conwaylife.com/wiki/Quasar
!http://conwaylife.com/patterns/quasar3.rle
!
..........................OOO...OOO..........................
........................O....O.O....O........................
........................O....O.O....O........................
........................O....O.O....O........................
..........................OOO...OOO..........................
........................OOO.......OOO........................
..................OOO..O....O...O....O..OOO..................
.......................O....O...O....O.......................
................O....O.O....O...O....O.O....O................
................O....O.................O....O................
................O....O..OOO.......OOO..O....O................
..................OOO...................OOO..................
................OOO.......................OOO................
..........OOO..O....O...................O....O..OOO..........
...............O....O...................O....O...............
........O....O.O....O...................O....O.O....O........
........O....O.................................O....O........
........O....O..OOO.......................OOO..O....O........
..........OOO...................................OOO..........
........OOO.......................................OOO........
..OOO..O....O...................................O....O..OOO..
.......O....O...................................O....O.......
O....O.O....O...................................O....O.O....O
O....O.................................................O....O
O....O..OOO.......................................OOO..O....O
..OOO...................................................OOO..
..OOO...................................................OOO..
O....O..OOO.......................................OOO..O....O
O....O.................................................O....O
O....O.O....O...................................O....O.O....O
.......O....O...................................O....O.......
..OOO..O....O...................................O....O..OOO..
........OOO.......................................OOO........
..........OOO...................................OOO..........
........O....O..OOO.......................OOO..O....O........
........O....O.................................O....O........
........O....O.O....O...................O....O.O....O........
...............O....O...................O....O...............
..........OOO..O....O...................O....O..OOO..........
................OOO.......................OOO................
..................OOO...................OOO..................
................O....O..OOO.......OOO..O....O................
................O....O.................O....O................
................O....O.O....O...O....O.O....O................
.......................O....O...O....O.......................
..................OOO..O....O...O....O..OOO..................
........................OOO.......OOO........................
..........................OOO...OOO..........................
........................O....O.O....O........................
........................O....O.O....O........................
........................O....O.O....O........................
..........................OOO...OOO..........................
