!Name: Riley's breeder
!Author: Mitchell Riley
!A small MMS breeder, discovered in July 2006.
!
.....................................................................................................................................O.
......................................................................................................................................O
..................................................................................................................................O...O
...................................................................................................................................OOOO
..................................................................................................................................O....
...................................................................................................................................O...
....................................................................................................................................O..
....................................................................................................................................O..
...................................................................................................................................OO..
.....................................................................................................................................O.
......................................................................................................................................O
..................................................................................................................................O...O
...................................................................................................................................OOOO
................................................................................................O......................................
.................................................................................................O.....................................
.............................................................................................O...O.....................................
..............................................................................................OOOO.....................................
...O...................................................................................................................................
....O..................................................................................................................................
O...O..................................................................................................................................
.OOOO..................................................................................................................................
