!Name: trafficlightextrudereaction.rle
!http://conwaylife.com/wiki/Traffic_lights_extruder
!http://www.conwaylife.com/patterns/trafficlightextrudereaction.rle
!
......................O.......................O....
......................O.......................O....
.........OOO..........O..........OOO..........O....
.OO................................................
OOO....O.....O....OOO...OOO....O.....O....OOO...OOO
.OO....O.....O.................O.....O.............
.......O.....O........O........O.....O........O....
......................O.......................O....
.........OOO..........O..........OOO..........O....
