!Name: Two-glider syntheses
!Author: Jason Summers
!A collection of all 71 distinct two-glider collisions, grouped by what they synthesize. Put together on January 29, 2005.
!www.conwaylife.com/wiki/index.php?title=Glider_synthesis
!
..........................................................................................................................................................O....................................O..................O........................................................................................................................................................................
..........................................................O..................O...................O................O...................O..................O...................O................O..................O....................................O....................................................................................................................................
.........................................................O..................O...................O................O...................O...................OOO................O.................OOO................OOO...............O.................O.....................................................................................................................................
.........................................................OOO................OOO.................OOO..............OOO.................OOO....................................OOO...................................................O..................OOO...................................................................................................................................
..................................................................................................................................................................................................................................OOO......................................................................................................................................................
..............................................................................................................................................................................................O............................................................................................................................................................................................
..........................................................OOO.................OOO.........................................................................................O..................OO.......................................................O....................................................................................................................................
..........................................................O...................O....................O.................O....................O.............OO...............OO..................O.O..............OO....................O................OO....................................................................................................................................
...........................................................O...................O..................OO................OO...................OO.............O.O..............O.O..................................O.O..................OO................O.O...................................................................................................................................
..................................................................................................O.O...............O.O..................O.O............O.....................................................O....................O.O.....................................................................................................................................................
.O....O...O.O...O.O.O..O...O...O...O....O....O.O...........................................................................................................................................................................................................................................................................................................................................
.O.O..O..O...O....O....O...O...O...O.O..O..O...............................................................................................................................................................................................................................................................................................................................................
.O..O.O..O...O....O....O.O.O...O...O..O.O..O..O.O..........................................................................................................................................................................................................................................................................................................................................
.O....O..O...O....O....O...O...O...O....O..O....O..........................................................................................................................................................................................................................................................................O...............................................................
.............................................................................................................................................................................................................................................................................O......................O.....................O..............................................................O.
.O....O...O.O.....O....O...O...O...O....O....O.O......................................................................................................................................................................................O...............O.....................O......................O......................OOO..................O......................O.................O..
.....................................................................................................................................................................................................................................O...............O......................OOO....................OOO........................................O......................O..................OOO
......................................................................................O................O.................O................O................O...............O.................O................O......................OOO.............OOO......................................................................................OOO....................OOO...................
..................................................................O..................O................O.................O................O................O...............O.................O................O.............................................................................................................................................................................
.................................................................O...................OOO..............OOO...............OOO..............OOO..............OOO.............OOO...............OOO..............OOO...........................................................................................................................................................................
.................................................................OOO.......................................................................................................................................................................................................................................................................................................................
................................................................................................................................................................................................................................OOO...............OOO...........................................................OO.........................................................................
............................................................................OOO................OOO................OOO...............OOO...............OOO..............OOO................OOO...............OOO...................O.................O...........OO.......................OO....................O.O....................OO........................................OO.........
......................................................OOO.....................O..................O..................O.................O.................O................O..................O.................O..................O.................O.............OO.......................OO.....................O.....................OO............OO..........................OO........
........................................................O....................O..................O..................O.................O.................O................O..................O.................O..................................................O........................O............................................O...............OO........................O..........
.......................................................O.............................................................................................................................................................................................................................................................................................O.....................................
..........................................................................................................O.............................................................................................................................................................O..................................................................................................................
..........................................................................O..............................O.............................................................................................................................................................O......................................O............................................................................
..O.O....O......O...O....O..O...O..O.O.O..O.O............................O...............O...............OOO.......................................................................................................................O.O.O..O............................OOO..............O....................O.............................................................................
..............................................O..........................OOO............O..............................................................................................................................................................................................O.....................OOO...........................................................................
..O...O..O......O...O.O..O..O..O...O......O.............................................OOO..........................................................................................................................................O....O............................................OOO.................................................................................................
..............................................O............................................................................................................................................................................................................................................................................................................................................
..O.O....O......O...O..O.O..O.O....O.O.O..O.O........................................................................................................................................................................................O....O................................................................................................................................................
..O...O..O......O...O....O..O..O...O......O..O.......................................................................................................................................................................................O....O................................................................................................................................................
.................................................................................................................................................................................................................................................................................................................OOO.......................................................................
..O.O....O.O.O..O...O....O..O...O..O.O.O..O...O.............................................................OO.......................................................................................................................O....O.O.O............................................O.....................O.........................................................................
............................................................................................................O.O..................................................................................................................................................OO.......................OO......................O........................................................................
..................................................................OO.....................OO.................O.....................................................................................................................................................OO......................O.O..............................................................................................
.................................................................O.O.....................O.O.....................................................................................................................................................................O.........................................................................................................................
...................................................................O.....................O.................................................................................................................................................................................................................................................................................................
....................................................................................O...............O.......................................O.........................................................................................................................................................O........................O...................O.......................................
.O.O....O.......O.O....O.O...O...O............................O....................O...............O.......................................O........................................................................................O...O..O.O.O....................O................O...............O........................O...................O........................................
.............................................................O.....................OOO.............OOO...............O.....................OOO.................O...................................................................................................O................O................OOO......................OOO.................OOO......................................
.O...O..O......O...O..O...O..O..O............................OOO....................................................O.........................................O.....................................................................O...O..O.......................OOO..............OOO....................................................................................................
....................................................................................................................OOO.......................................OOO..........................................................................................................................................................................................................................
.O.O....O......O...O..O......O.O....................................................................................................................................................................................................O.O.O..O.O.O...........................................................................................................................................
.O...O..O......O...O..O...O..O..O...................................................................................................................................................................................................O...O..O...............................................................................................................................................
.O.O....O.O.O...O.O....O.O...O...O.....................................................................................OOO..........................................................................................................O...O..O...............................................................................................................................................
......................................................OOO..............................................................O.................OO................O.......................................................................................................O...................................OO...................................OO.............................................
........................................................O.....................OO...............OO.......................O................O.O..............OO......................................................................................................OO................OO.................O.O...........OO......................OO............................................
.......................................................O.......................OO...............OO.......................................O................O.O.....................................................................................................O.O...............O.O................O..............OO....................O..............................................
..............................................................................O................O....................................................................................................................................................................................O................................O.....................................................................
.........................................................................OO...................OO...........................................................................................................................................................................................................................................................................................
..........................................................................O....................O........................................................................................................................................................OO.................................................................................................................................
.........................................................................................................................................................................................................................................................O.................................................................................................................................
................................................................O.........................................................................................................................................................................................................................................O................................................................................
...............................................................O....................O..................................................................................................................................................................................................O.................O.................................................................................
...............................................................OOO.................O......................................................................................................................................................................O...........................O..................OOO...............................................................................
..O.O...O......O...O.O....O.O.O..O.O...............................................OOO...............................................................................................................................................O.O.................O............................OOO..................................................................................................
.....................................O...................................................................................................................................................................................................................OOO...............................................................................................................................
O.......O......O...O...O..O......O...................................................................................................................................................................................................O...O.................................................................................................................................................
.....................................O...................................................................................................................................................................................................................................................................................OO................................................................
O..O.O..O......O...O...O..O.O.O..O.O.................................................................................................................................................................................................O.O..................................................................................O................................................................
................................................................................................................................................................................................................................................................OO.........................................................................................................................
O....O..O......O...O...O..O......O..O................................................................................................................................................................................................O...O.......................O.........................................................................................................................
................................................................................O..........................................................................................................................................................................................................................................................................................................
..O.O...O.O.O..O...O.O....O.O.O..O...O....................OO...................OO....................................................................................................................................................O.O..................O..........................................OO....................................................................................
.........................................................O.O...................O.O.......................................................................................................................................................................OO.............OO..........................O.O....................................................................................
...........................................................O.............................................................................................................................................................................................O.O.............OO...........................O....................................................................................
........................................................................................................................................................................................................................................................................O..................................................................................................................
............................................................................................................................................................................................................................................................OO........................OO...................................................................................................
.............................................................................................................................................................................................................................................................O.........................O...................................................................................................
..................................................................................................................................................................................................................................................................O...............O........................................................................................................
.................................................................................................................................................................................................................................................................O...............O..........................O..............................................................................
.............................................................O...................................................................................................................................................................................................OOO.............OOO.......................O...............................................................................
O.O.....O.O.....O....O.O.O..................................O.......................................................................................................................................................................O.O....O...............................................................OOO.............................................................................
............................................................OOO.........................................................................................................................................................................O.............................................O........................OOO.........................................................................
O...O..O...O...O.O.....O............................................................................................................................................................................................................O......O.........................................OO........................O...........................................................................
........................................................................................................................................................................................................................................O............................................O.O........................O..........................................................................
O.O....O...O..O...O....O............................................................................................................................................................................................................O.O....O...................OO.....................................OO...................................................................................
..............................................................................................................................................................................................................................................................O.O......................................O...................................................................................
O...O..O...O..O.O.O....O............................................................................................................................................................................................................O......O....................O..........................................................................................................................
O.O.....O.O...O...O....O............................................................................................................................................................................................................O......O...............................................................................................................................................
.....................................................OO....................................................................................................................................................................................................................................................................................................................................
......................................................OO...................................................................................................................................................................................................................................................................................................................................
.....................................................O.....................................................................................................................................................................................................................................................................................................................................
...O...O...O...O...O..O.O.O..............................O.........................................................................................................................................................................O......O.O...O.....O..................O.................................................................................................................
........................................................O...............................................................................................................................................................................................................O..................................................................................................................
...O...O...O...O...O..O.................................OOO........................................................................................................................................................................O.....O...O..O.O.O.O.................OOO................................................................................................................
...O.O.O...O...O...O..O.O.O........................................................................................................................................................................................................O.....O...O..O..O..O....................................................................................................................................
...O...O...O....O.O...O............................................................................................................................................................................................................O.....O...O..O.....O....................................................................................................................................
...O...O...O.....O....O.O.O................................OOO.....................................................................................................................................................................O.O.O..O.O...O.....O....................................................................................................................................
...........................................................O...........................................................................................................................................................................................................O...................................................................................................................
............................................................O.........................................................................................................................................................................................................OO...................................................................................................................
......................................................................................................................................................................................................................................................................O.O..................................................................................................................
...................................................................O.......................................................................................................................................................................................................................................................................................................................
..................................................................O........................................................................................................................................................................................................................................................................................................................
....O......O.O.....O....O.O.O.....................................OOO.............................................................................................................................................................O.O.O..O.O.O....O....O.O....O.O....O.O.....O.O...O.O.....................................................................................................
...........................................................................................................................................................................................................................................................O.............O.............O.................O.................................................................................
....O.....O...O...O.O...O...........................................................................................................................................................................................................O....O.......O.O...O......O...O..O......O...O..O....................O..................................................................................
...........................................................................................................................................................................................................................................................O.............O.............O................OOO................................................................................
....O.....O...O..O...O..O.O.O.......................................................................................................................................................................................................O....O.O.O..O...O..O.O....O...O..O.O....O...O..O.O.....................................................................................................
....O.....O...O..O.O.O..O...........................................................................................................................................................................................................O....O......O.O.O..O..O...O...O..O..O...O...O..O.......................................................................................................
....O.O.O..O.O...O...O..O...........................................................................................................................................................................................................O....O.O.O..O...O..O...O..O.O....O...O...O.O...O.......................................................................................................
..........................................................OO...............................................................................................................................................................................................................................................O...............................................................................
.........................................................O.O..............................................................................................................................................................................................................................................OO...............................................................................
...........................................................O..............................................................................................................................................................................................................................................O.O..............................................................................
...........................................................O...............................................................................................................................................................................................................................................................................................................................
..........................................................O................................................................................................................................................................................................................................................................................................................................
..........................................................OOO........................................................................................................................................................................................................................................................................O.....................................................
...O.O.O....O....O.O.O..O.O.O..O.O.................................................................................................................................................................................................O...O....O..O.O.O..O.O.O..O.O.....O.O...O...O....O....O....O....O.O...O.O.O......................O......................................................
...................................O.............................................................................................................................................................................................................................O..................................................................OOO....................................................
...O.......O.O.....O....O......O...................................................................................................................................................................................................O...O.O..O....O....O......O......O...O..O...O...O.O...O.O..O..O.......O.................................................................................
...................................O.............................................................................................................................................................................................................................O.........................................................................................................................
...O.O.O..O...O....O....O.O.O..O.O.................................................................................................................................................................................................O...O..O.O....O....O.O.O..O.O....O......O.O.O..O...O..O..O.O..O..O.O..O.O.O.............................................................................
.........................................................O.................................................................................................................................................................................................................................................................................................................................
...O......O.O.O....O....O......O..O.....................OO.........................................................................................................................................................................O...O....O....O....O......O..O...O...O..O...O..O.O.O..O....O..O....O..O..........................OOO....................................................
........................................................O.O.........................................................................................................................................................................................................................................................................O......................................................
...O.O.O..O...O....O....O.O.O..O...O...............................................................................................................................................................................................O...O....O....O....O.O.O..O...O...O.O...O...O..O...O..O....O....O.O...O.O.O.......................O.....................................................
.................................................................................................................................................................................................................................................................................................................OO........................................................................
..................................................................................................................................................................................................................................................................................................................O........................................................................
.......................................................O................O.............................................................................................................................................................................................................................................O....................................................................
..O.O.....O.O...O....O..O.O...........................O................O...........................................................................................................................................................O.O.O..O..............O.O...O......O...O.O....O.O.O..O.O..........................O.....................................................................
......O...............................................OOO..............OOO..................................................................................................................................................................................................................O........................OOO...................................................................
..O......O...O..O.O..O..O...O........................................................................................................................................................................................................O....O.......O....O.......O......O...O...O..O......O..................................................................................................
......O.....................................................................................................................................................................................................................................................................................O..............................................................................................
..O.O....O...O..O..O.O..O...O........................................................................................................................................................................................................O....O.....O.O.O..O..O.O..O......O...O...O..O.O.O..O.O................................................................................................
..O......O...O..O....O..O...O........................................................................................................................................................................................................O....O.......O....O....O..O......O...O...O..O......O..O..........................OOO..................................................................
......................................................................................................................................................................................................................................................................................................................O....................................................................
..O.......O.O...O....O..O.O..............................................O...........................................................................................................................................................O....O.O.O..........O.O...O.O.O..O...O.O....O.O.O..O...O..........................O...................................................................
..................................................OO....................OO.................................................................................................................................................................................................................................................................................................................
...................................................OO...................O.O................................................................................................................................................................................................................................................................................................................
..................................................O........................................................................................................................................................................................................................................................................................................................................
..O.O.....O.......O.O....O.......O.O....O.O...O...O........................................................................................................................................................................................................................................................................................................................................
..O...O...O.......O...O..O......O...O..O...O..O..O............................O...............................................................................................................................................................................................................................................O............................................................
.............................................................................O...............................................................................................................................................................................................................................................O.............................................................
..O.O.....O..O.O..O.O....O......O...O..O......O.O............................OOO.............................................................................................................................................................................................................................................OOO...........................................................
.....................................................................................................................................................................................................................................O.O....O.O...O.O.O...O.O...O.....O...O...O....O...O.O.................................................................................................
..O...O...O.......O...O..O......O...O..O...O..O..O.........................................................................................................................................................................................................................................................................................................................................
....................................................................................................................................................................................................................................O...O..O...O....O....O...O..O.O.O.O...O...O.O..O..O...O................................................................................................
..O.O.....O.......O.O....O.O.O...O.O....O.O...O...O........................................................................................................................................................................................................................................................................................................................................
....................................................................................................................................................................................................................................O...O..O........O....O...O..O..O..O...O...O..O.O..O...O................................................................................................
.............................................................................OOO...........................................................................................................................................................................................................................................................................................................
.............................................................................O......................................................................................................................................................O...O..O...O....O....O...O..O.....O...O...O....O..O...O................................................................................................
..............................................................................O............................................................................................................................................................................................................................................................................................................
.....................................................................................................................................................................................................................................O.O....O.O.....O.....O.O...O.....O...O...O....O...O.O..........................OO.....................................................................
...................................................................................................................................................................................................................................................................................................................O.O.....................................................................
.....................................................................................................................................................................................................................................................................................................................O.....................................................................
....................................................................................................................................................................................................................................................................................OO.....................................OO..............................................................
.....................................................................................................................................................................................................................................................................................O......................................O..............................................................
................................................................................................................O.............O............................................................................................................................................................................................................................................................
..O......O.O.....O....O.O.O.........O.O....O......O...O....O..O...O..O.O.O..O.O................................O.............O.............................................................................................................................................................................................................................................................
................................................................................O..............................OOO...........OOO...........................................................................................................................................................................................................................................................
..O.....O...O...O.O...O........O....O...O..O......O...O.O..O..O..O...O......O..............................................................................................................................................................................................................................................................................................................
................................................................................O..........................................................................................................................................................................................................................................................................................................
..O.....O...O..O...O..O.O.O..O.O.O..O.O....O......O...O..O.O..O.O....O.O.O..O.O............................................................................................................................................................................................................................................................................................................
..O.....O...O..O.O.O..O........O....O...O..O......O...O....O..O..O...O......O..O...........................................................................................................................................................................................................................................................................................................
..O.O.O..O.O...O...O..O.............O.O....O.O.O..O...O....O..O...O..O.O.O..O...O..........................................................................................................................................................................................................................................................................................................
...........................................................................................................OO.....................OO...................................................................................................................................................................................................O...................................................
...........................................................................................................O.O....................O.O.................................................................................................................................................................................................O....................................................
...........................................................................................................O......................O..................................................................................................O.O.O.........O.O...O......O...O.O....O.O.O..O.O.......O.....O..O.O.O...O.O...O.O................OOO..................................................
......................................................................................................................................................................................................................................................................................O....................................................................................................
.........................................................................................................................................................................................................................................O.......O.......O......O...O...O..O......O.........O.O.O.O..O......O.....O........................................................................
......................................................................................................................................................................................................................................................................................O....................................................................................................
.....................................................................................................................................................................................................................................O.O.O..O.O..O..O.O..O......O...O...O..O.O.O..O.O.......O..O..O..O.O.O...O.O...O.O.....................................................................
.....................................................................................................................................................................................................................................O...........O....O..O......O...O...O..O......O..O......O.....O..O..........O.....O....................................................................
....................................................................................................................................................................................................................................................................................................................................O......................................................
.....................................................................................................................................................................................................................................O.O.O.........O.O...O.O.O..O...O.O....O.O.O..O...O.....O.....O..O.O.O...O.O...O.O.............OO......................................................
...................................................................................................................................................................................................................................................................................................................................O.O.....................................................
.....................................................................O.....................................................................................................................................................................................................................................................................................................................
....................................................................O......................................................................................................................................................................................................................................................................................................................
..............................................O.....................OOO..................................O.................................................................................................................................................................................................................................................................................
...O.....O...O...O.O....O.O..................O..........................................................O..................................................................................................................................................................................................................................................................................
.............................................OOO........................................................OOO................................................................................................................................................................................................................................................................................
...O.O.O.O...O..O......O...O...............................................................................................................................................................................................................................................................................................................................................................
...O..O..O...O...O.O...O...................................................................................................................................................................................................................................................................................................................................................................
...O.....O...O......O..O...O...................OOO.........................................................................................................................................................................................................................................................................................................................................
...............................................O........................OO.................OOO.................................................................................................................................................................................OO................................OO........................................................................
...O.....O...O...O.O....O.O.....................O.......................O.O..................O..................................................................................................................................................................................O.................................O........................................................................
........................................................................O...................O..............................................................................................................................................................................................................................................................................................
