!Name: Up dove on dove synthesis
!Author: Mark D. Niemiec's life synthesis database, Thu Feb 19 02:01:26 2015
!18-355.rle
!http://codercontest.com/mniemiec/18/18-355.rle
!http://www.conwaylife.com/wiki/Up_dove_on_dove
!http://www.conwaylife.com/patterns/updoveondove_synth.rle
!
.................................................................O........
..................................................................OO......
.................................................................OO.......
...................................................................O......
............................................................OOO....OO.....
..............................................................O...O.O.....
.............................................................O.........OOO
.......................................................................O..
........................................................................O.
.............O.........................................O..................
...........O.O........................................O................OO.
............OO......................................OOO................OO.
..................................................OOO.....................
............OO....................................O....................OO.
...........O.O...................................O.....................OO.
.............O............................................................
.O.O......................................................................
..OO......................................................................
..O.......................................................................
......O.O.................................................O...............
.......OO..................................................O..............
.......O.................................................OOO..............
...........................................................OO.............
..........................................................O..O............
.........................................................OO...OO..........
................OOO............................................O..O.......
................O.............................................O..O........
.................O...........................................OOO..........
.............................................................OOO..........
..............................................................O..O........
..........O....................................................O..O.......
...........OO............................................OO...OO..........
..........OO..............................................O..O............
...........................................................OO.............
.........O...............................................OOO..............
........OO.................................................O..............
........O.O...............................................O...............
OO........................................................................
.OO.......................................................................
O.........................................................................
