!Name: 27vaseha.rle
!Author: Mark D. Niemiec's life synthesis database, Thu Feb 19 02:01:38 2015
!
....................................................................................O...O......
..................................................................................O.O...O.O....
...................................................................................OO...OO.....
.OO............................................................................................
O.O.O.....................................O.O...O.O...............................O...O........
..O.O.O....................................OO...OO.............................O.O.O.O.........
....OO.....................................O.....O..............................OO.OO..........
........................................OO.OO...............................OO.OO..............
........OO.................................O.O...................................O.O...........
........O.O................................O.O...................................O.O...........
........O....................................O......................................O..........
...............................................................................O.O.........O.O.
......................................O...............O.........................OO.........OO..
.......................................O.............O..........................O...........O..
.....................................OOO.............OOO.......................................
..............................................................................OO.............OO
........................................OO.........OO..........................OO...........OO.
.........................................OO.OO.OO.OO......................O.....OO.OO.....O....
........................................O...OO.OO...O.............................O...O........
...................................................................................O.O.........
............................................OO.OO...............................OO.OO..........
.............................................O.O...................................O.O.........
.............................................O.O...................................O.O.........
..............................................O......................................O.........
