!Name: 2020202
!CBy Jason Summers, 9 Jan 1999
!
.......................................................................................................................................O.....................................................................
......................................................................................................................................OOO....................................................................
.....................................................................................................................................O..O....................................................................
.....................................................................................................................................OO......................................................................
..........................O.......................................O.......................................O...........................OO.....................................................................
.........................O.O.....................................O.O.....................................O.O.................................................................................................
.........................O..O....................................O..O....................................O..O..........................O.O.....O.................O...O..O.O.O................O...O.O.O..O.O.O
..........................OO......................................OO......................................OO...........................OOO.....O.........................................O...................
.....................O.......................................O.......................................O...............O.................OO........................O...O..O...O................O...O...O..O...O
.....................O.......................................O.......................................O..............OO............................OO....................................O....................
.....................O.......................................O.......................................O.............OO............................OO..............O.O.O..O...O..O.O.O.........O...O.O.O..O.O.O
OOO.....................................OOO.....................................OOO................................O.............................O.....................................O.....................
.....................................................................................................................................................................O..O...O..O.............O.......O..O...O
......OO......................................OO......................................OO..............................................................................................O......................
.....O..O....................................O..O....................................O..O............................................................................O..O.O.O..O.O.O.........O...O.O.O..O.O.O
.....O.O.....................................O.O.....................................O.O.....................................................................................................................
......O.......................................O.......................................O......................................................................................................................
..................................................................................................................................OO.........................................................................
..................................................................................................................................OO.........................................................................
