!Name: 2500000
!C(1) Paul Tooke, Nov '03
!C(2) Hartmut Holzwart, Jan '06
!
..........................................................O................................................................
.........................................................O..O........O.....................................................
.........................................................O..O......OO.....O................................................
........................................................OO.OO............OO.OOOO...........................................
.........................................................OO.OO.OO.OO.OO...O.O...OO.........................................
............................................................OO.OO.OO.OO..O.................................................
.......................................................OO..OO..O..O.....O...OO....O.O......................................
......................................................O..O.....O.O..............O.O.OO.O......................O...O........
......................................................OOOO...O.O.......................O...................O...............
......................................................OO.O...O.OOO............................................O...O........
OO...OO...OO...OO...OO...OO...OO...OO...OO...OO...OO......................................................O................
..OO...OO...OO...OO...OO...OO...OO...OO...OO...OO...OO...........................................O.O.O........O.O.O........
..OO...OO...OO...OO...OO...OO...OO...OO...OO...OO...OO...................................................O.................
OO...OO...OO...OO...OO...OO...OO...OO...OO...OO...OO.............................................O................O........
......................................................OO.O...O.OOO......................................O..................
......................................................OOOO...O.O.......................O.........O.O.O............O........
......................................................O..O.....O.O..............O.O.OO.O...................................
.......................................................OO..OO..O..O.....O...OO....O.O......................................
............................................................OO.OO.OO.OO..O.................................................
.........................................................OO.OO.OO.OO.OO...O.O...OO.........................................
........................................................OO.OO............OO.OOOO...........................................
.........................................................O..O......OO.....O................................................
.........................................................O..O........O.....................................................
..........................................................O................................................................
............................................................................................O..............................
..........................................................................................OO...............................
........................................................................................OOO...OOO..........................
......................................................O.....OO.......................OOO.O.OOOO.O..........................
....................................................OO..OO..OO..........................OOO..O.O...........................
......................................................O.OO.....OOO..................O...OO.................................
........................................................OO..OO...............O....O...OO...................................
......................................................O.....OO.......OOOO...OOOO....O......................................
.....................................................................O.....O..OO.O.........................................
....................................................OO................O....OO...O.OOO......................................
OO...OO...OO...OO...OO...OO...OO...OO...OO...OO...OOOO.O..........OO..O.OOOOO.....O........................................
..OO...OO...OO...OO...OO...OO...OO...OO...OO...OO....O.O..OO.....O..O.O..O......OO.........................................
OOO..OOO..OOO..OOO..OOO..OOO..OOO..OOO..OOO..OOO..OO.O.O.OOOOOOOOO..O..OO.......OOO...................................O...O
....................................................O..O.......OO.OO..............O..OO............................O.......
OOOOOOOOOOOOOOOOOOOOOOOOOOOOOOOOOOOOOOOOOOOOOOOOOOOOO..O..O......O..................O.................................O...O
.....................................................OOOO.O.O.O..O...O............................................O........
OOOOOOOOOOOOOOOOOOOOOOOOOOOOOOOOOOOOOOOOOOOOOOOOOOOOO..OOO..O....O..OO.O.................................O.O.O........O.O.O
.......................................................OO...........O..O.OO......................................O.........
OOOOOOOOOOOOOOOOOOOOOOOOOOOOOOOOOOOOOOOOOOOOOOOOOOOOO..OOO..O....O..OO.O.................................O................O
.....................................................OOOO.O.O.O..O...O..........................................O..........
OOOOOOOOOOOOOOOOOOOOOOOOOOOOOOOOOOOOOOOOOOOOOOOOOOOOO..O..O......O..................O....................O.O.O............O
....................................................O..O.......OO.OO..............O..OO....................................
OOO..OOO..OOO..OOO..OOO..OOO..OOO..OOO..OOO..OOO..OO.O.O.OOOOOOOOO..O..OO.......OOO........................................
..OO...OO...OO...OO...OO...OO...OO...OO...OO...OO....O.O..OO.....O..O.O..O......OO.........................................
OO...OO...OO...OO...OO...OO...OO...OO...OO...OO...OOOO.O..........OO..O.OOOOO.....O........................................
....................................................OO................O....OO...O.OOO......................................
.....................................................................O.....O..OO.O.........................................
......................................................O.....OO.......OOOO...OOOO....O......................................
........................................................OO..OO...............O....O...OO...................................
......................................................O.OO.....OOO..................O...OO.................................
....................................................OO..OO..OO..........................OOO..O.O...........................
......................................................O.....OO.......................OOO.O.OOOO.O..........................
........................................................................................OOO...OOO..........................
..........................................................................................OO...............................
............................................................................................O..............................
