!Name: 41dots
!C41-cell pattern with (t log t) growth rate.
!CR. William Gosper, 11 Mar '06.
!Source: jslife-oversize-20100113
!
O..........................................................................................................................................................................................
O..........................................................................................................................................................................................
O..........................................................................................................................................................................................
....O...O..................................................................................................................................................................................
.....O.O...................................................................................................................................................................................
......O..O.................................................................................................................................................................................
.........O.................................................................................................................................................................................
.........O.................................................................................................................................................................................
.........................................................................................................................................................................................O.
..........................................................................................................................................................................................O
......................................................................................................................................................................................O...O
.......................................................................................................................................................................................OOOO
...................................................................................................................................................................................O.......
....................................................................................................................................................................................OO.....
...................................................................................................................................................................................O.......
.......................................................................................................................................................................................OOOO
......................................................................................................................................................................................O...O
..........................................................................................................................................................................................O
.........................................................................................................................................................................................O.
...............................................................................................................................................................................O...........
................................................................................................................................................................................O..........
..........................................................................................................................................................................O.....O..........
...........................................................................................................................................................................OOOOOO..........
