!Name: c2-0090
!CBy Paul Tooke, 8 Jan 2002
!
.............................................................................................................O.O...................................................................................................................
............................................................................................................O..O...................................................................................................................
...........................................................................................................OO......................................................................................................................
..........................................................................................................O....O...................................................................................................................
.........................................................................................................OOOOO.O.........O.O.......................................................................................................
......................................................................................................OO................O..O.......................................................................................................
.....................................................................................................O...OOO...........OO..........................................................................................................
....................................................................................................O...O.............O....O.......................................................................................................
....................................................................................................O.....O..........OOOOO.O.......................................................................................................
....................................................................................................OOO...O.......OO...............................................................................................................
.....................................................................................................O....OO.O...O...OOO...........................................................................................................
.....................................................................................................OO......O..O...O..............................................................................................................
.....................................................................................................O.O........O.....O............................................................................................................
.....................................................................................................OO..O......OOO...O............................................................................................................
......................................................................................................O.O........O....OO.O.........................................................................................................
.................................................................................................................OO......O.........................................................................................................
......................................................................................................OO.........O.O...............................................................................................................
......................................................................................................O..O.......OO..O.............................................................................................................
.......................................................................................................O....O.....OOO..............................................................................................................
.......................................................................................................OOOO.O......................................................................................................................
.........................................................................................................O......OOO................................................................................................................
..........................................................................................................OO...OO..O......OOO......................................................................................................
..........................................................................................................O..OO.OO.......OOO.......................................................................................................
..........................................................................................................OOO.OO.O.O....OOOO.......................................................................................................
..........................................................................O.O..............................O.......O..OO..O........................................................................................................
.........................................................................O..O.OO............................OOOO.O.O..O..OOO.......................................................................................................
........................................................................OO.......O..........................O...OO.......OOO.......................................................................................................
.......................................................................O....O....O..O.........................OO...O..O..OOO.......................................................................................................
......................................................................OOOOO.O....O..O.........................OOOO.O..OO..O........................................................................................................
...................................................................OO.........O...O..............................O.O....OOOO.......................................................................................................
..................................................................O...OOO.....O....OOO......O............................OOO.......................................................................................................
.................................................................O...O........OO.O.O.......O..O...........................OOO......................................................................................................
.................................................................O.....O.........O..OO..OOOO...O...................................................................................................................................
...................O.............................................O..O..O...........O.....O....OO....O.O........................O...................................................................................................
................OOOO..............................................O.O..OO.O.......OOOOO.......O..O.O..O.......................O....................................................................................................
................OO........................................................O......O......O...O..OOO..O..O........OO............OOO..................................................................................................
..............O..................................................OOO............O...OO......O...O...............OO.................................................................................................................
..............OOOO...............................................OO.............O...O..............................................................................................................................................
.............O...................................................OOO............O...OO......O...O...............OO.................................................................................................................
............OOO..O........................................................O......O......O...O..OOO..O..O........OO.................................................................................................................
.............OOO..................................................O.O..OO.O.......OOOOO.......O..O.O..O............................................................................................................................
..............O..................................................O..O..O...........O.....O....OO....O.O...............................O............................................................................................
...............OOO.O.............................................O.....O.........O..OO..OOOO...O......................................O.O..........................................................................................
...............O..OO.............................................O...O........OO.O.O.......O..O...........OO..........................OO...........................................................................................
................OOO...............................................O...OOO.....O....OOO......O............O.O.......................................................................................................................
..................O.............O..................................OO.........O...O........................O.......................................................................................................................
................O............OOOO...........O.O......O................OOOOO.O....O..O..............................................................................................................................................
................O.O..........OOO.........O.O..O...OO.O.................O....O....O..O..............................................................................................................................................
...............O...........O...O........O..O......O.....................OO.......O............................................................O....................................................................................
................O.O........OOO.........OO....O....O......................O..O.OO.............................................................O.....................................................................................
................O.......O.O....O......O......O..O.........................O.O................................................................OOO...................................................................................
.........O.O......O....OOOOOOOO......OOOO....OO.O..O...............................OOO.............................................................................................................................................
........O..O....OOO...OO.........O.......O.........O.................................O.............................................................................................................................................
.......OO......OOO...OOO...OOOOOOOOOOOOO...OOOO.OO...OO.O...........................O..............................................................................................................................................
......O.........OOO...OOO...O.....O.O...OOO..O...OOOO...O..........................................................................................................................................................................
.....OOOOOO.O.....O.....O....OO.O...OO.O.O..O..OO..................................................................................................................................................................................
..OO.......OO...O.....O.......O...O..O.........OO.OOOOOOOO.....O.....................................................................................O.............................................................................
.O...OOO.OO.....O.O...O.O......OOO....OOOO.O.....OO...OO......O.O....................................................................................O.O...........................................................................
O...O....OO....O.....O.....................O.O.....O....OOO..O...O...................................................................................OO............................................................................
O.....O...OO....O.O...O.O......OOO....OOOO.O.....OO...OO......O.O..................................................................................................................................................................
OOO...OOOO.O....O.....O.......O...O..O.........OO.OOOOOOOO.....O...................................................................................................................................................................
..................O.....O....OO.O...OO.O.O..O..OO..................................................................................................................................................................................
OOO...OOOO.O....OOO...OOO...O.....O.O...OOO..O...OOOO...O..........................................................................................................................................................................
O.....O...OO...OOO...OOO...OOOOOOOOOOOOO...OOOO.OO...OO.O...........................O........................................................................O.....................................................................
O...O....OO....O.O....OO.........O.......O.........O.................................O......................................................................O......................................................................
.O...OOO.OO....OO......OOOOOOOO......OOOO....OO.O..O...............................OOO......................................................................OOO....................................................................
..OO.......OO..O........O.O....O......O......O..O..................................................................................................................................................................................
.....OOOOOO.O..OO..........OOO.........OO....O....O................................................................................................................................................................................
......O........OO..........O...O........O..O......O................................................................................................................................................................................
.......OOOO.O..O.............OOO.........O.O..O...OO.O.............................................................................................................................................................................
.......O...OO..OOO...........OOOO...........O.O......O.............................................................................................................................................................................
.........OO....O................O........................................................................O..........................................................O..............................................................
.........OOOO..OO..O...................................................................................OOOOO.......................................OO...............O.O............................................................
............O..OO.....................................................................................OO..OO.......................................OO...............OO.............................................................
...............OO.....OO.......OO.......OO.......OO.......OO.......OO.......OO.......OO.......OO........O.......OO................OO.........................OO....................................................................
...............OO.....OO.......OO.......OO.......OO.......OO.......OO.......OO.......OO.......OO................OO................OO.........................OO....................................................................
............O..OO..................................................................................................................................................................................................................
.........OOOO..OO..O...............................................................................................................................................................................................................
.........OO....O...................................................................................................................................................................................................................
.......O...OO..OOO..................................................................................................................................................O..............................................................
.......OOOO.O..O...................................................................................................................................................OOO.............................................................
......O........OO.........................................................................................................................................O.O.....O.OO.............................................................
.....OOOOOO.O..OO........................................................................................................................................O..O.OO.O.................................................................
..OO.......OO..O........................................................................................................................................OO.......OO................................................................
.O...OOO.OO....OO......................................................................................................................................O....O.......OO.............................................................
O...O....OO....O.O....................................................................................................................................OOOOO.O....OO................................................................
O.....O...OO...OOO...................................................................................................................................O........OO.O.................................................................
OOO...OOOO.O....OOO..................................................................................................................................O.O.OO.O.....O.OO.............................................................
..................O.................................................................................................................................O...O...O......OOO.............................................................
OOO...OOOO.O....O...................................................................................................................................OOO..O..........O..............................................................
O.....O...OO....O.O.......................................................................................................................................OOOO.....................................................................
O...O....OO....O..................................................................................................................................O.OOO............................................................................
.O...OOO.OO.....O.O..............................................................................................................................OO..OO.....OOOO.................................................................O.
..OO.......OO...O................................................................................................................................O.O........O.....................................................................O
.....OOOOOO.O.....O....O.O.......................................................................................................................OO........O..O.................................................................OOO
......O.........OOO...O..O.......................................................................................................................O.........OO......O...............................................................
.......OO......OOO...OO.........................................................................................................................OOO..............OOO...............................................................
........O..O....OO..............................................................................................................................O..O.......O.O..OO.................................................................
.........O.O.....OOOOOOOO......................................................................................................................O..O.......OO....O..................................................................
..................O.O....O.....................................................................................................................OO......O...OO.....O................................................................
.....................OOO.............................................................................................................................OOO....OOOOOO.................................................................
.....................O...O.....................................................................................................................O.O..OO.......O.O...................................................................
.......................OOO....................................................................................................................OO....O...........OOOO.O.............................................................
.......................OOOO....................................................................................................................OO.....O.........O...OO.............................................................
..........................O.....................................................................................................................OOOOOO............OO...............................................................
.................................................................................................................................................O.O..............OOOO.............................................................
....................................................................................................................................................OOOO.O...........O.............................................................
....................................................................................................................................................O...OO.........................................................................
......................................................................................................................................................OO...........................................................................
......................................................................................................................................................OOOO.........................................................................
.........................................................................................................................................................O.........................................................................
