!Name: c5-r905
!Source: c5rakes
!
...........................................................................................................................................................O.....................................................................................................................................................................................................................................................................................................................................................................................................................................................................................................................................................................................................................................................................................................................................................................................
..........................................................................................................................................................O.O.....................................................................................................................................................................................................................................................................................................................................................................................................................................................................................................................................................................................................................................................................................................O..............................................................................
.........................................................................................................................................................O...O....................................................................................................................................................................................................................................................................................................................................................................................................................................................................................................................................................................................................................................................................................................O..............................................................................
.......................................................................................................................................................OO..O..OO..................................................................................................................................................................................................................................................................................................................................................................................................................................................................................................................................................................................................................................................................................................O..............................................................................
...................................................................................................................................................OO.O.........O.OO..........................................................................................................................................................................................................................................................................................................................................................................................................................................................................................................................................................................................................................................................................................O...O...O..........................................................................
..................................................................................................................................................O...O.O.....O.O...O......................................................................................................................................................................................................................................................................................................................................................................................................................................................................................................................................................................................................................................................................................O.O.OO.O.OO.O.O.......................................................................
..................................................................................................................................................O.O.O.O.....O.O.O.O.....................................................................................................................................................................................................................................................................................................................................................................................................................................................................................................................................................................................................................................................................................OO.O.O.OOO.O.O.OO......................................................................
...................................................................................................................................................OO.O.O..O..O.O.OO.....................................................................................................................................................................................................................................................................................................................................................................................................................................................................................................................................................................................................................................................................................O...O.........O...O.....................................................................
.....................................................................................................................................................O...O...O...O.......................................................................................................................................................................................................................................................................................................................................................................................................................................................................................................................................................................................................................................................................................O.O.O.OO...OO.O.O.O.....................................................................
.....................................................................................................................................................O.OOO...OOO.O...........................................................................................................................................................................................................................................................................................................................................................................................................................................................................................................................................................................................................................................................................................OO.O...O.OO.........................................................................
........................................................................................................................................................OO...OO...........................................................................................................................................................................................................................................................................................................................................................................................................................................................................................................................................................................................................................................................................................OO.O.........O.OO......................................................................
........................................................................................................................................................O.O.O.O..............................................................................................................................................................................................................................................................................................................................................................................................................................................................................................................................................................................................................................................................................................OO..O.O..OO.........................................................................
........................................................................................................................................................O.O.O.O..............................................................................................................................................................................................................................................................................................................................................................................................................................................................................................................................................................................................................................................................................................O.O.O.O.O.O.........................................................................
.......................................................................................................................................................OO.O.O.OO...............................................................................................................................................................................................................................................................................................................................................................................................................................................................................................................................................................................................................................................................................................O.O.O.O...........................................................................
......................................................................................................................................................O.O.O.O.O.O..............................................................................................................................................................................................................................................................................................................................................................................................................................................................................................................................................................................................................................................................................................O.O.O.O...........................................................................
.....................................................................................................................................................OO.O.O.O.O.OO.............................................................................................................................................................................................................................................................................................................................................................................................................................................................................................................................................................................................................................................................................................O.O.O.O...........................................................................
....................................................................................................................................................O...O.O.O.O...O.........................................................................................................................................................................................................................................................................................................................................................................................................................................................................................................................................................................................................................................................................................OO.O.O.O.O.OO........................................................................
.....................................................................................................................................................OO.O.O.O.O.OO.........................................................................................................................................................................................................................................................................................................................................................................................................................................................................................................................................................................................................................................................................................O.O.O.O.O.O.O.O.......................................................................
.........................................................................................................................................................O...O..............................................................................................................................................................................................................................................................................................................................................................................................................................................................................................................................................................................................................................................................................................O..O.O.O.O..O........................................................................
..............................................................................................................................................................................................................................................................................................................................................................................................................................................................................................................................................................................................................................................................................................................................................................................................................................................................O..O.O..O..........................................................................
........................................................................................................................................................O.....O..................................................................................................................................................................................................................................................................................................................................................................................................................................................................................................................................................................................................................................................................................................................................................................................
....................................................................................................................................................O.OO.O...O.OO.O..............................................................................................................................................................................................................................................................................................................................................................................................................................................................................................................................................................................................................................................................................................................................................................................
...................................................................................................................................................O.O.O..O.O..O.O.O..........................................................................................................................................................................................................................................................................................................................................................................................................................................................................................................................................................................................................................................................................................OOO...OOO..........................................................................
........................................................................................................................................................O.O.O.O............................................................................................................................................................................................................................................................................................................................................................................................................................................................................................................................................................................................................................................................................................O...OO...OO...O.......................................................................
...................................................................................................................................................O...OO.O.O.OO...O......................................................................................................................................................................................................................................................................................................................................................................................................................................................................................................................................................................................................................................................................................OOO....O.O....OOO......................................................................
....................................................................................................................................................O..O.OO.OO.O..O...........................................................................................................................................................................................................................................................................................................................................................................................................................................................................................................................................................................................................................................................................................O..O.O..O..........................................................................
.....................................................................................................................................................O..O.O.O.O..O...........................................................................................................................................................................................................................................................................................................................................................................................................................................................................................................................................................................................................................................................................................O.O.O.O.O.O.........................................................................
....................................................................................................................................................O.....O.O.....O........................................................................................................................................................................................................................................................................................................................................................................................................................................................................................................................................................................................................................................................................................O.....O.O.....O.......................................................................
...........................................................................................................................................................................................................................................................................................................................................................................................................................................................................................................................................................................................................................................................................................................................................................................................................................................................O.....O.O.....O.......................................................................
.....................................................................................................................................................O...O...O...O..........................................................................................................................................................................................................................................................................................................................................................................................................................................................................................................................................................................................................................................................................................OOOOO...OOOOO........................................................................
......................................................................................................................................................O..O...O..O................................................................................................................................................................................................................................................................................................................................................................................................................................................................................................................................................................................................................................................................................................................................................................................
.......................................................................................................................................................OOOOOOOOO.................................................................................................................................................................................................................................................................................................................................................................................................................................................................................................................................................................................................................................................................................................................................................................................
.......................................................................................................................................................O.O.O.O.O..............................................................................................................................................................................................................................................................................................................................................................................................................................................................................................................................................................................................................................................................................................O...O...O..........................................................................
........................................................................................................................................................OO...OO..............................................................................................................................................................................................................................................................................................................................................................................................................................................................................................................................................................................................................................................................................................O.OO.O.OO.O.........................................................................
........................................................................................................................................................OO...OO...............................................................................................................................................................................................................................................................................................................................................................................................................................................................................................................................................................................................................................................................................................OOO.O.OOO..........................................................................
.............................................................................................................................................................................................................................................................................................................................................................................................................................................................................................................................................................................................................................................................................................................................................................................................................................................................OO.......OO.........................................................................
.....................................................................................................................................................OOO.......OOO...........................................................................................................................................................................................................................................................................................................................................................................................................................................................................................................................................................................................................................................................................................OOO.....OOO.........................................................................
.......................................................................................................................................................O.......O............................................................................................................................................................................................................................................................................................................................................................................................................................................................................................................................................................................................................................................................................................OO.........OO........................................................................
....................................................................................................................................................O...O.....O...O..............................................................................................................................................................................................................................................................................................................................................................................................................................................................................................................................................................................................................................................................................................................................................................................
....................................................................................................................................................O....O...O....O.........................................................................................................................................................................................................................................................................................................................................................................................................................................................................................................................................................................................................................................................................................O..O.....O..O........................................................................
....................................................................................................................................................O.............O........................................................................................................................................................................................................................................................................................................................................................................................................................................................................................................................................................................................................................................................................................OO..OO...OO..OO.......................................................................
....................................................................................................................................................OOOOO.....OOOOO........................................................................................................................................................................................................................................................................................................................................................................................................................................................................................................................................................................................................................................................................................OO..OO...OO..OO.......................................................................
...........................................................................................................................................................................................................................................................................................................................................................................................................................................................................................................................................................................................................................................................................................................................................................................................................................................................O..O.......O..O.......................................................................
........................................................................................................................................................OOO......................................................................................................................................................................................................................................................................................................................................................................................................................................................................................................................................................................................................................................................................................................................................................................................
........................................................................................................................................................O........................................................................................................................................................................................................................................................................................................................................................................................................................................................................................................................................................................................................................................................................................................................................................................................
.........................................................................................................................................................O.......................................................................................................................................................................................................................................................................................................................................................................................................................................................................................................................................................................................................................................................................................................................................................................................
........................................................................................................O.....OO.....OO.....O....................................................................................................................................................................................................................................................................................................................................................................................................................................................................................................................................................................................................................................................................................................................................................................................................................
......................................................................................................O..OO.OO..O...O..OO.OO..O........................................................................................................................................................................................................................................................................................................................................................................................................................................................................................................................................................................................................................................................................................................................................................................OO.....OO.................................
....................................................................................................OOO....O.O...O.O...O.O....OOO..............................................................................................................................................................................................................................................................................................................................................................................................................................................................................................................................................................................................................................................................................................................................................................OOOO.O.O.O.....O.O.O.OOOO.........................
....................................................................................................OO..O..OOO.OO...OO.OOO..O..OO.............................................................................................................................................................................................................................................................................................................................................................................................................................................................................................................................................................................................................................................................................................................................................................OOO.O.O.OO.O...O.OO.O.O.OOO........................
....................................................................................................OOO..OOO....O...O....OOO..OOO.............................................................................................................................................................................................................................................................................................................................................................................................................................................................................................................................................................................................................................................................................................................................................................O...O.O.............O.O...O........................
.....................................................................................................O.O..O...............O..O.O.................................O.......O.....................................................................................................................................................................................................................................................................................................................................................................................................................................................................................................................................................................................................................................................................................................................O.OOO.....OO.OO.....OOO.O.........................
......................................................................................................O.......................O............................OO.O.O.OO...OO.O.O.OO...............................................................................................................................................................................................................................................................................................................................................................................................................................................................................................................................................................................................................................................................................................................OO.....................OO.........................
........................................................................................................................................................OOO.O.OOO.........OOO.O.OOO...........................................................................................................................................................................................................................................................................................................................................................................................................................................................................................................................................................................................................................................................O.....OO.....OO.....O............................OOOOO...............OOOOO.........................
........................................................................................................................................................O...O.O.....O.O.....O.O...O.........................................................................................................................................................................................................................................................................................................................................................................................................................................................................................................................................................................................................................................................O..OO.OO..O...O..OO.OO..O.............................OO...............OO............................
............................................................................................................................................................OO......O.O......OO...........................................................................................................................................................................................................................................................................................................................................................................................................................................................................................................................................................................................................................................................OOO....O.O...O.O...O.O....OOO..........................................................................
.........................................................................................................................................................OO.........O.O.........OO........................................................................................................................................................................................................................................................................................................................................................................................................................................................................................................................................................................................................................................................OO..O..OOO.OO...OO.OOO..O..OO..........................................................................
.........................................................................................................................................................OO.OO...............OO.OO..........................................................................................................................................................................................................................................................................................................................................................................................................................................................................................................................................................................................................O.............................................OOO..OOO....O...O....OOO..OOO..........................................................................
................................................................................................OO.....OO.....OO.....OO......................................O...............O..............................................................................................................................................................................................................................................................................................................................................................................................................................................................................................................................................................................................................OO.............................................O.O..O...............O..O.O...........................................................................
..............................................................................................O...O...O..O...O..O...O...O..................................................................................................................................................................................................................................................................................................................................................................................................................................................................................................................................................................................................................................................................O.O..............................................O.......................O.........................................O.......O..........................
..............................................................................................O...O.O.OOO.....OOO.O.O...O...............................................................................................................................................................................................................................................................................................................................................................................................................................................................................................................................................................................................................................................................................................................................................................................OO.O.O.OO...OO.O.O.OO....................
..............................................................................................O.....OO..OOO.OOO..OO.....O............................O.....OO.....OO.....O...........................................................................................................................................................................................................................................................................................................................................................................................................................................................................................................................................................................................................................................................................................................................OOO.O.OOO.........OOO.O.OOO.................
..............................................................................................OO.OOO...............OOO.OO..........................O..OO.OO..O...O..OO.OO..O..............................................................................................................................................................................................................................................................................................................................................................................................................................................................................................................................................................................................................................................................................OO.....OO..................................O...O.O.....O.O.....O.O...O.................
..............................................................................................O.........................O........................OOO....O.O...O.O...O.O....OOO....................................................................................................................................................................................................................................................................................................................................................................................................................................................................................................................................................................................................................................................................OOOO.O.O.O.....O.O.O.OOOO..............................OO......O.O......OO.....................
...............................................................................................O...O...............O...O.........................OO..O..OOO.OO...OO.OOO..O..OO...................................................................................................................................................................................................................................................................................................................................................................................................................................................................................................................................................................................................................................................................OOO.O.O.OO.O...O.OO.O.O.OOO..........................OO.........O.O.........OO..................
................................................................................................O..O...............O..O..........................OOO..OOO....O...O....OOO..OOO...................................................................................................................................................................................................................................................................................................................................................................................................................................................................................................................................................................................................................................................................O...O.O.............O.O...O..........................OO.OO...............OO.OO..................
..................................................................................................................................................O.O..O...............O..O.O.....................................................................................................................................................................................................................................................................................................................................................................................................................................................................................................................................................................................................................................................................O.OOO.....OO.OO.....OOO.O...............................O...............O......................
...................................................................................................................................................O.......................O......................................................................................................................................................................................................................................................................................................................................................................................................................................................................................................................................................................................................................................................................OO.....................OO......................................................................
..................................................................................................................................................................................................................................................................................................................................................................................................................................................................................................................................................................................................................................................................................................................................................................................................................................................OOOOO...............OOOOO......................................................................
.....................................................................................................................................................................................................................................................................................................................................................................................................................................................................................................................................................................................................................................................................................................................................................................................................................................................OO...............OO.........................................................................
.........................................................................................................................................O.....OO.....OO.....O.............................................................................................................................................................................................................................OO....................................................................................................................................................................................................................................................................................................................................................................................................................................................................................................................................................
.......................................................................................................................................O..OO.OO..O...O..OO.OO..O..........................................................................................................................................................................................................................OO..........................................................................................................................................................................................................................................................................................................................................................................................................................................................................OO.....OO..................................................................
.....................................................................................................................................OOO....O.O...O.O...O.O....OOO..........................................................................................................................................................................................................................O.................................................................................................................................................................................................................................................................................................................................................................................................................................................................OOOO.O.O.O.....O.O.O.OOOO..........................................................
.....................................................................................................................................OO..O..OOO.OO...OO.OOO..O..OO...........................................................................................................................................................................................................................................................................................................................................................................................................................................................................................................................................................................................................................................................................................OOO.O.O.OO.O...O.OO.O.O.OOO.........................................................
.....................................................................................................................................OOO..OOO....O...O....OOO..OOO...........................................................................................................................................................................................................................................................................................................................................................................................................................................................................................................................................................................................................................................................................................O...O.O.............O.O...O.........................................................
.....................................................................................................O.......O........................O.O..O...............O..O.O.............................................................................................................................................................................................................................................................................................................................................................................................................................................................................................................................................................................................................................................................................................O.OOO.....OO.OO.....OOO.O..........................................................
...............................................................................................OO.O.O.OO...OO.O.O.OO...................O.......................O..............................................................................................................................................................................................................................................................................................................................................................................................................................................................................................................................................................................................................................................................................................OO.....................OO..........................................................
............................................................................................OOO.O.OOO.........OOO.O.OOO.......................................................................................................................................................................................................................................................................................................................................................................................................................................................................................................................................................................................................................................................................................................................................OOOOO...............OOOOO..........................................................
............................................................................................O...O.O.....O.O.....O.O...O..........................................................................................................................................................................................................................................................................................................................................................................................................................................................................................................................................................................................................................................................................................................................................OO...............OO.............................................................
................................................................................................OO......O.O......OO..............................................................................................................................................................................................................................................................................................................................................................................................................................................................................................................................................................................................................................................................................................................................................................................................................................
.............................................................................................OO.........O.O.........OO...........................................................................................................................................................................................................................................................................................................................................................................................................................................................................................................................................................................................................................................................................................................................................................................................................................
.............................................................................................OO.OO...............OO.OO...........................................................................................................................................................................................................................................................................................................................................................................................................................................................................................................................................................................................................................................................................................................................................................................................................................
.................................................................................................O...............O...............................................................................................................................................................................................................................................................................................................................................................................................................................................................................................................................................................................................................................................................................................................................................................................................................................
.........................................................................................................................................................................................................................................................................................................................................................................................................................................................................................................................................................OOO.....................................................................................................................................................................................................................................................................................................................................................................................
...........................................................................................................................................................................................................................................................................................................................................................................................................................................................................................................................................................O.....................................................................................................................................................................................................................................................................................................................................................................................
..........................................................................................................OO.....O........................................................................................................................................................................................................................................................................................................................................................................................................................................O......................................................................................................................................................................................................................................................................................................................................................................................
.........................................................................................................O..OO.OO..O.......................................................................................................................................................................................................................................................................................................................................................................................................................................................................................................................................................................................................................................................................................................................................................................................OO.....OO.....OO.....OO...............
....................................................................................OO.....OO...........O...O.O....OOO...................................................................................................................................................................................................................................................................................................................................................................................................................................................................................................................................................................................................................................................................................................................................................................................O...O...O..O...O..O...O...O.............
............................................................................OOOO.O.O.O.....O.O.O.OOOO....OO.OOO..O..OO...................................................................................................................................................................................................................................................................................................................................................................................................................................................................................................................................................................................................................................................................................................................................................................................O...O.O.OOO.....OOO.O.O...O.............
...........................................................................OOO.O.O.OO.O...O.OO.O.O.OOO...O....OOO..OOO...................................................................................................................................................................................................................................................................................................................................................................................................................................................................................................................................................................................................................................................................................................................................................................................O.....OO..OOO.OOO..OO.....O.............
...........................................................................O...O.O.............O.O...O.........O..O.O....................................................................................................................................................................................................................................................................................................................................................................................................................................................................................................................................................................................................................................................................................................................................................................................OO.OOO...............OOO.OO.............
............................................................................O.OOO.....OO.OO.....OOO.O..............O.....................................................................................................................................................................................................................................................................................................................................................................................................................................................................................................................................................................................................................................................................................................................................................................................O.........................O.............
............................................................................OO.....................OO.....................................................................................................................................................................................................................................................................................................................................................................................................................................................................................................................................................................................................................................................................................................................................................................................................O...O...............O...O..............
............................................................................OOOOO...............OOOOO......................................................................................................................................................................................................................................................................................................................................................................................................................................................................................................................................................................................................................................................................................................................................................................................................O..O...............O..O...............
...............................................................................OO...............OO...............................................................................................................................................................................................................................................................................................................................................................................................................................................................................................................................................................................................................................................................................................................................................................................................................................................
...............................................................................................................................................................................................................................................................................................................................................................................................................................................................................................................................................................................................................................................................................................................................................................................................................................................................................................................O...OOO.....OOO...O...............
...........................................................................................................................................................OO.....OO.....OO.....OO..........................................................................................................................................................................................................................................................................................................................................................................................................................................................................................................................................................................................................................................................................................................................OO.OOOOO.OO...OO.OOOOO.OO............
.........................................................................................................................................................O...O...O..O...O..O...O...O......................................................................................................................................................................................................................................................................................................................................................................................................................................................................................................................................................................................................................................................................................................................O.OO.O.....O.O.O.O.....O.OO.O..........
.........................................................................................................................................................O...O.O.OOO.....OOO.O.O...O.....................................................................................................................................................................................................................................................................................................................................................................................................................................................................................................................................................................................................................................................................................................................O...O.O...OOOOO.OOOOO...O.O...O.........
.........................................................................................................................................................O.....OO..OOO.OOO..OO.....O.........................................................................................................................................................................................................................................................................................................................................................................................................................................................................................................................................................................................................................................................................................................................OOO.....OO...OO.....OOO.............
.........................................................................................................................................................OO.OOO...............OOO.OO.............................................................................................................................................................................................................................................................................................................................................................................................................................................................................................................................................................................................................................................................................OO.....OO................................O..O.OOO.............OOO.O..O..........
...........................................................................................................O.......O.....................................O.........................O.....................................................................................................................................................................................................................................................................................................................................................................................................................................................................................................................................................................................................................................................................OOOO.O.O.O.....O.O.O.OOOO..........................O.......................O............
OO...................................................................................................OO.O.O.OO...OO.O.O.OO................................O...O...............O...O.....................................................................................................................................................................................................................................................................................................................................................................................................................................................................................................................................................................................................................................................................OOO.O.O.OO.O...O.OO.O.O.OOO..............................................................
O.O...............................................................................................OOO.O.OOO.........OOO.O.OOO..............................O..O...............O..O......................................................................................................................................................................................................................................................................................................................................................................................................................................................................................................................................................................................................................................................................O...O.O.............O.O...O..............................................................
O.................................................................................................O...O.O.....O.O.....O.O...O............................................................................................................................................................................................................................................................................................................................................................................................................................................................................................................................................................................................................................................................................................................................O.OOO.....OO.OO.....OOO.O...............................................................
......................................................................................................OO......O.O......OO................................................................................................................................................................................................................................................................................................................................................................................................................................................................................................................................................................................................................................................................................................................................OO.....................OO...............................................................
...................................................................................................OO.........O.O.........OO.............................................................................................................................................................................................................................................................................................................................................................................................................................................................................................................................................................................................................................................................................................................................OOOOO...............OOOOO...............................................................
...................................................................................................OO.OO...............OO.OO................................................................................................................................................................................................................................................................................................................................................................................................................................................................................................................................................................................................................................................................................................................................OO...............OO......................................O.....OO.....OO.....O.......
.......................................................................................................O...............O...........................................................................................................................................................................................................................................................................................................................................................................................................................................................................................................................................................................................................................................................................................................................................................................................O..OO.OO..O...O..OO.OO..O.....
.................................................................................................................................................................................................................................................................................................................................................................................................................................................................................................................................................................................................................................................................................................................................................................................................................................................................................................................OOO....O.O...O.O...O.O....OOO...
..................................................................................................................................................................................................................................................................................................................................................................................................................................................................................................................................................................................................................................................................................................................................................................................................................................................................O...OOO.....OOO...O............................OO..O..OOO.OO...OO.OOO..O..OO...
..................................................................................................................O.....OO.....OO.....O......................................................................................................................................................................................................................................................................................................................................................................................................................................................................................OO................................................................................................................................................................................................................................OO.OOOOO.OO...OO.OOOOO.OO.........................OOO..OOO....O...O....OOO..OOO...
................................................................................................................O..OO.OO..O...O..OO.OO..O.........................OO.....OO.....OO.....OO....................................................................................................................................................................................................................................................................................................................................................................................................................................O.O.............................................................................................................................................................................................................................O.OO.O.....O.O.O.O.....O.OO.O........................O.O..O...............O..O.O....
..............................................................................................................OOO....O.O...O.O...O.O....OOO.....................O...O...O..O...O..O...O...O..................................................................................................................................................................................................................................................................................................................................................................................................................................O..............................................................................................................................................................................................................................O...O.O...OOOOO.OOOOO...O.O...O........................O.......................O.....
..............................................................................................................OO..O..OOO.OO...OO.OOO..O..OO.....................O...O.O.OOO.....OOO.O.O...O.....................................................................................................................................................................................................................................................................................................................................................................................................................................................................................................................................................................................................................................................................OOO.....OO...OO.....OOO..........................................................
..............................................................................................................OOO..OOO....O...O....OOO..OOO.....................O.....OO..OOO.OOO..OO.....O..................................................................................................................................................................................................................................................................................................................................................................................................................................................................................................................................................................................................................................................................O..O.OOO.............OOO.O..O.......................................................
...............................................................................................................O.O..O...............O..O.O......................OO.OOO...............OOO.OO....................................................................................................................................................................................................................................................................................................................................................................................................................................................................................................................................................................................................................................................................O.......................O.........................................................
................................................................................................................O.......................O.......................O.........................O......................................................................................................................................................................................................................................................................................................................................................................................................................................................................................................................................................................................................................................................................................................................................................
.................................................................................................................................................................O...O...............O...O.......................................................................................................................................................................................................................................................................................................................................................................................................................................................................................................................................................................................................................................................................................................................................................
..................................................................................................................................................................O..O...............O..O........................................................................................................................................................................................................................................................................................................................................................................................................................................................................................................................................................................................................................................................................................................................................................
.......................................................................................................................................................................................................................................................................................................................OO........................................................................................................................................................................................................................................................................................................................................................................................................................................................................................................................................................................................................................
........................................................................................................................................................................................................................................................................................................................OO.......................................................................................................................................................................................................................................................................................................................................................................................................................................................................................................................................................................................................................
.......................................................................................................................................................................................................................................................................................................................O.........................................................................................................................................................................................................................................................................................................................................................................................................................................................................................................................................................................................................................
..........................................................................................................................................................................................................................................................................................................................................................................................................................................................................................................................................................................................................................................................................................................................................................................................................................................................................................................................O.......O..............
....................................................................................................................................................................................................................................................................................................................................................................................................................................................................................................................................................................................................................................................................................................................................................................................................................................................................................................................OO.O.O.OO...OO.O.O.OO........
.................................................................................................................................................................................................................................................................................................................................................................................................................................................................................................................................................................................................................................................................................................................................................................................................................................................................................................................OOO.O.OOO.........OOO.O.OOO.....
.................................................................................................................................................................................................................................................................................................................................................................................................................................................................................................................................................................................................................................................................................................................................................................................................................................................................................................................O...O.O.....O.O.....O.O...O.....
.............................................................................................................................................................................O.......O...............................................................................................................................................................................................................................................................................................................................................................................................................................................................................................................................................................................................................................................................................................................................OO......O.O......OO.........
.......................................................................................................................................................................OO.O.O.OO...OO.O.O.OO......................................................................................................................................................................................................................................................................................................................................................................................................................................................................................................................................................................................................................................................................................................................OO.........O.O.........OO......
....................................................................................................................................................................OOO.O.OOO.........OOO.O.OOO...................................................................................................................................................................................................................................................................................................................................................................................................................................................................................................................................................................................................................................................................................................................OO.OO...............OO.OO......
.......................................................................................................................OO.....OO.....OO.....OO......................O...O.O.....O.O.....O.O...O.......................................................................................................................................................................................................................................................................................................................................................................................................................................................................................................................................................................................................................................................................................................................O...............O..........
.....................................................................................................................O...O...O..O...O..O...O...O........................OO......O.O......OO......................................................................................................................................................................................................................................................................................................................................................................................................................................................................................................................................................................................................................................................................................................................................................
.....................................................................................................................O...O.O.OOO.....OOO.O.O...O.....................OO.........O.O.........OO...................................................................................................................................................................................................................................................................................................................................................................................................................................................................................................................................................................................................................................................................................................................................................
.....................................................................................................................O.....OO..OOO.OOO..OO.....O.....................OO.OO...............OO.OO...................................................................................................................................................................................................................................................................................................................................................................................................................................................................................................................................................................................................................................................................................................................................................
.....................................................................................................................OO.OOO...............OOO.OO.........................O...............O.......................................................................................................................................................................................................................................................................................................................................................................................................................................................................................................................................................................................................................................................................................................................................................
.....................................................................................................................O.........................O.................................................................................................................................................................................................................................................................................................................................................................................................................................................................................................................................................................................................................................................................................................................................................................................................
......................................................................................................................O...O...............O...O..................................................................................................................................................................................................................................................................................................................................................................................................................................................................................................................................................................................................................................................................................................................................................................................................
.......................................................................................................................O..O...............O..O...................................................................................................................................................................................................................................................................................................................................................................................................................................................................................................................................................................................................................................................................................................................................................................................................
................................................................................................................................................................................................................................................................................................................................................................................................................................................................................................................................................................................................................................................................................................................................................................................................................................................................O................................................................................
..........................................................................................................................OO.....OO.....OO.....OO..............................................................................................................................................................................................................................................................................................................................................................................................................................................................................................................................................................................................................................................................................................................OO................................................................................
........................................................................................................................O...O...O..O...O..O...O...O............................................................................................................................................................................................................................................................................................................................................................................................................................................................................................................................................................................................................................................................................................................O.O...............................................................................
........................................................................................................................O...O.O.OOO.....OOO.O.O...O..............................................................................................................................................................................................................................................................................................................................................................................................................................................................................................................................................................................................................................................................................................................................................................................................
........................................................................................................................O.....OO..OOO.OOO..OO.....O..............................................................................................................................................................................................................................................................................................................................................................................................................................................................................................................................................................................................................................................................................................................................................................................................
........................................................................................................................OO.OOO...............OOO.OO..............................................................................................................................................................................................................................................................................................................................................................................................................................................................................................................................................................................................................................................................................................................................................................................................
........................................................................................................................O.........................O..............................................................................................................................................................................................................................................................................................................................................................................................................................................................................................................................................................................................................................................................................................................................................................................................
.........................................................................................................................O...O...............O...O...............................................................................................................................................................................................................................................................................................................................................................................................................................................................................................................................................................................................................................................................................................................................................................................................
..........................................................................................................................O..O...............O..O................................................................................................................................................................................................................................................................................................................................................................................................................................................................................................................................................................................................................................................................................................................................................................................................
...........................................................................................................................OO.....OO.....OO.....OO...............................................................................................................................................................................................................................................................................................................................................................................................................................................................................................................................................................................................................................................................................................................................................................................................
.........................................................................................................................O...O...O..O...O..O...O...O.............................................................................................................................................................................................................................................................................................................................................................................................................................................................................................................................................................................................................................................................................................................................................................................................
.........................................................................................................................O...O.O.OOO.....OOO.O.O...O.............................................................................................................................................................................................................................................................................................................................................................................................................................................................................................................................................................................................................................................................................................................................................................................................
.........................................................................................................................O.....OO..OOO.OOO..OO.....O.............................................................................................................................................................................................................................................................................................................................................................................................................................................................................................................................................................................................................................................................................................................................................................................................
.........................................................................................................................OO.OOO...............OOO.OO.............................................................................................................................................................................................................................................................................................................................................................................................................................................................................................................................................................................................................................................................................................................................................................................................
.........................................................................................................................O.........................O.................O.....OO.....OO.....O.......................................................................................................................................................................................................................................................................................................................................................................................................................................................................................................................................................................................................................................................................................................................................................
..........................................................................................................................O...O...............O...O................O..OO.OO..O...O..OO.OO..O.....................................................................................................................................................................................................................................................................................................................................................................................................................................................................................................................................................................................................................................................................................................................................................
...........................................................................................................................O..O...............O..O...............OOO....O.O...O.O...O.O....OOO...................................................................................................................................................................................................................................................................................................................................................................................................................................................................................................................................................................................................................................................................................................................................................
.................................................................................................................................................................OO..O..OOO.OO...OO.OOO..O..OO...................................................................................................................................................................................................................................................................................................................................................................................................................................................................................................................................................................................................................................................................................................................................................
.................................................................................................................................................................OOO..OOO....O...O....OOO..OOO...................................................................................................................................................................................................................................................................................................................................................................................................................................................................................................................................................................................................................................................................................................................................................
..................................................................................................................................................................O.O..O...............O..O.O...........................................................................................................................................................................................................................................................................................................................................................................................................................................................................................................................................................................................................................................................................................................................OO.....OO.....OO.....OO..
...................................................................................................................................................................O.......................O..........................................................................................................................................................................................................................................................................................................................................................................................................................................................................................................................................................................................................................................................................................................................O...O...O..O...O..O...O...O
......................................................................................................................................................................................................................................................................................................................................................................................................................................................................................................................................................................................................................................................................................................................................................................................................................................................................................................................O...O.O.OOO.....OOO.O.O...O
......................................................................................................................................................................................................................................................................................................................................................................................................................................................................................................................................................................................................................................................................................................................................................................................................................................................................................................................O.....OO..OOO.OOO..OO.....O
......................................................................................................................................................................................................................................................................................................................................................................................................................................................................................................................................................................................................................................................................................................................................................................................................................................................................................................................OO.OOO...............OOO.OO
......................................................................................................................................................................................................................................................................................................................................................................................................................................................................................................................................................................................................................................................................................................................................................................................................................................................................................................................O.........................O
.......................................................................................................................................................................................................................................................................................................................................................................................................................................................................................................................................................................................................................................................................................................................................................................................................................................................................................................................O...O...............O...O.
........................................................................................................................................................................................................................................................................................................................................................................................................................................................................................................................................................................................................................................................................................................................................................................................................................................................................................................................O..O...............O..O..
