!Name: grow-ss-lwss
!CDavid Bell, 20 Jan 2010
!
.........................................................................OOOOOO............................................................................................................................................
.........................................................................O.....O...........................................................................................................................................
.........................................................................O.......................................OOO.......................................................................................................
...................................OO.........................OO..........O....O................OO..............OOOOO......................................................................................................
.................................O....O......................OO.OOO.........OO....OOOOO........OO.OOOO.........OO.OOO......................................................................................................
................................O.............................OOOOO...............O....O........OOOOOO..........OO.........................................................................................................
................................O.....O...........OOOO.........OOO................O..............OOOO......................................................................................................................
......................OOO.......OOOOOO......O.....O...O............................O...O...................................................................................................................................
.....................OOOOO................O...O...O..................................O.......OO....................................OOO.....................................................................................
....................OO.OOO...............O.........O...............O.......................O........................................OO.....................................................................................
..........O..O.......OO..................O....O......OO...........OOO......OO.............O......O.........OO.................O.O..........................................................................................
.........O...............................OOOOO...........OOO.....OO..O.....OO.............O........O............OO..............O..........................................................................................
.........O...O....................OOO.............OO...OO...O.....OOO.....................OOOOOOOO.O.......OO...OO....O.........O..........................................................................................
.........OOOO.....................O..O...........OO.OOO.O..O.......OO..........................OO........O.OO........O.O....O..O...........................................................................................
....................O................O............OOOOOOOOO.............................................OOO..........O.O.....O.............................................................................................
..................OO.O.......O...OOOO..............OOOO.....................O.........................................O....................................................................................................
..........OOO..........O....O...O..........................................O...............OO..............................................................................................................................
.........OOOOO.........O.....O.O...O.......................................OOO............OO.OO............................................................................................................................
........OO.OOOO.....O.OO.......O...........................................................OOOO.........................................................O..................................................................
.........OO.....OO..O...........O......................OOOOOO...............................OO...OOOOOO...............................................O.O..................................................................
.....................O..........O..O...................O.....O...................................O.....O...............................................OO..................................................................
.................................O.....................O.........................................O.........................................................................................................................
.................OO.....................................O....O....................................O....O...................................................................................................................
...............O....O.....................................OO........................O...............OO.....................................................................................................................
..............O....................................................................O.......................................................................................................................................
..............O.....O..............................................................OOO.....................................................................................................................................
..............OOOOOO....................O...............OO..............OO..............OO..............OO..............OO..............OO..............OO..............OO......O.......OO..............OO..............OO.
........................................OO..............OO..............OO..............OO..............OO..............OO..............OO..............OO..............OO....O.O.......OO..............OO..............OO.
...............................................................................................................................................................................OO..........................................
........................................OO..............OO..............OO..............OO..............OO..............OO..............OO..............OO..............OO..............OO..............OO..............OO.
..............OOOOOO....................O...............OO..............OO..............OO..............OO..............OO..............OO..............OO..............OO..............OO..............OO..............OO.
..............O.....O......................................................................................................................................................................................................
..............O.........................................................................................................................................................................................................O..
...............O....O........................................................................O...............O...............O...............O...............O...............O...............O.........................OOO.
.................OO.........................................................................O.O.............O.O.............O.O.............O.O.............O.O.............O.O.............O.O..........OO..OO........O.OO
.................................O..........................................................O.O.............O.O.............O.O.............O.O.............O.O.............O.O.............O.O..........O....O.........OOO
.....................O..........O..O.........................................................O...............O...............O...............O...............O...............O...............O............OOOO..........OO.
.........OO.....OO..O...........O........................OO.............................O.O................................................................................................................................
........OO.OOOO.....O.OO.......O........................OO.OOOO.........................O...................................................................................................................OO.............
.........OOOOO.........O.....O.O...O.....................OOOOOO.........................O...................................OO.............................................................................O.O.............
..........OOO..........O....O...O.........................OOOO..................OO........................................O....O............................................................................O..............
..................OO.O.......O...OOOO..........................................OO........................................O........................................................OO.......................................
....................O................O..............OO.....................OOO..O........................................O.....O.................................................O.O.......................................
.........OOOO.....................O..O............O....O........O.........O...O.....................................OO...OOOOOO....................................................O.......................................
.........O...O....................OOO............O.............OOO............O....................................OOOO....................................................................................................
.........O...............................OOOOO...O......O......O..O......O....O...................................OO.OO....................................................................................................
..........O..O.......OO..................O....O..OOOOOOOO.......OOO......O..O......................................OO.............................................................................OOO......................
....................OO.OOO...............O............OO.......OO.........O.....................................................................O.................................................O........................
.....................OOOOO................O...O..............O.O...........................................................O......OO...........O.O.................................................O.......................
......................OOO.......OOOOOO......O................O.O.......................................................OOOOOO........O.........O.O........OO...............................................................
................................O.....O...........OO.................O............................................OOOOOOOO...O.....OO.OO..OO....O........O.O...........OO..................................................
................................O................OO.OO...............O............................................O........OO.......OOO...OO...............O.........O....O................................................
.................................O....O...........OOOO..........OOO...............................................O......OOO........................................O......................................................
...................................OO..............OO..........OOOOO...............................................O.....OO.........................................O.....O................................................
..............................................................OO.OOO.................................................OO.............................................OOOOOO................OOO..............................
...............................................................OO.........................................................................................................................O................................
.........................................................................................................................OOOO..............................................................O...............................
........................................................................................................................OOOOOO..........OO.................................................................................
.......................................................................................................................OO.OOOO.........OO.OOO...................OOOO.......................................................
........................................................................................................................OO..............OOOOO..................OOOOOO........OO............................................
.........................................................................................................................................OOO..................OO.OOO.O......O..O...........................................
...............................................................................................................................................................OO...OO......O..OOOO........................................
..............................................................................................................................................................................O..O.OO.......OO.............................
..................................................................................................................................................................OO......OOO...OO...O......OO.............................
................................................................................................................................................................O.........OO.....OO.OO.....................................
...............................................................................................................................................................O.................OOO..O...........O........................
...............................................................................................................................................................O...O..................O.........O...O......................
...............................................................................................................................................................OOOO.........OOO......O.........O...........................
...........................................................................................................................................................................OOOOO...............O....O......................
..........................................................................................................................................................................OO.OOO.........OO....OOOOO.......................
...........................................................................................................................................................................OO..........O....O..............................
......................................................................................................................................................................................O....................................
......................................................................................................................................................................................O.....O..............................
......................................................................................................................................................................................OOOOOO...............................
..............................................................................................................................................................................OOOOOO.......................................
..............................................................................................................................................................................O.....O......................................
..............................................................................................................................................................................O............................................
...................................................................................................................................................................OO..........O....O......................................
..................................................................................................................................................................OO.OOO.........OO....OOOOO...............................
...................................................................................................................................................................OOOOO...............O....O..............................
.......................................................................................................................................................OOOO.........OOO......O.........O...................................
.......................................................................................................................................................O...O..................O.........O...O..............................
.......................................................................................................................................................O.................OOO..O...........O................................
........................................................................................................................................................O.........OO.....OO.OO.............................................
..........................................................................................................................................................OO......OOO...OO...O......OO.....................................
......................................................................................................................................................................O..O.OO.......OO.....................................
.......................................................................................................................................................OO...OO......O..OOOO................................................
.................................................................................................................................OOO..................OO.OOO.O......O..O...................................................
................................................................................................................OO..............OOOOO..................OOOOOO........OO....................................................
...............................................................................................................OO.OOOO.........OO.OOO...................OOOO...............................................................
................................................................................................................OOOOOO..........OO.........................................................................................
.................................................................................................................OOOO..............................................................O.......................................
.......................................................OO.........................................................................................................................O........................................
......................................................OO.OOO.................................................OO.............................................OOOOOO................OOO......................................
...........................OO..............OO..........OOOOO...............................................O.....OO.........................................O.....O........................................................
.........................O....O...........OOOO..........OOO...............................................O......OOO........................................O..............................................................
........................O................OO.OO...............O............................................O........OO.......OOO...OO...............O.........O....O........................................................
........................O.....O...........OO.................O............................................OOOOOOOO...O.....OO.OO..OO....O........O.O...........OO..........................................................
..............OOO.......OOOOOO......O................O.O.......................................................OOOOOO........O.........O.O........OO.......................................................................
.............OOOOO................O...O..............O.O...........................................................O......OO...........O.O.................................................O...............................
............OO.OOO...............O............OO.......OO.........O.....................................................................O.................................................O................................
..O..O.......OO..................O....O..OOOOOOOO.......OOO......O..O......................................OO.............................................................................OOO..............................
.O...............................OOOOO...O......O......O..O......O....O...................................OO.OO............................................................................................................
.O...O....................OOO............O.............OOO............O....................................OOOO............................................................................................................
.OOOO.....................O..O............O....O........O.........O...O.....................................OO...OOOOOO....................................................O...............................................
............O................O..............OO.....................OOO..O........................................O.....O.................................................O.O...............................................
..........OO.O.......O...OOOO..........................................OO........................................O........................................................OO...............................................
..OOO..........O....O...O.........................OOOO..................OO........................................O....O............................................................................O......................
.OOOOO.........O.....O.O...O.....................OOOOOO.........................O...................................OO.............................................................................O.O.....................
OO.OOOO.....O.OO.......O........................OO.OOOO.........................O...................................................................................................................OO.....................
.OO.....OO..O...........O........................OO.............................O.O........................................................................................................................................
.............O..........O..O.........................................................O...............O...............O...............O...............O...............O...............O............OOOO.....................
.........................O..........................................................O.O.............O.O.............O.O.............O.O.............O.O.............O.O.............O.O..........O....O....................
.........OO.........................................................................O.O.............O.O.............O.O.............O.O.............O.O.............O.O.............O.O..........OO..OO....................
.......O....O........................................................................O...............O...............O...............O...............O...............O...............O.....................................
......O....................................................................................................................................................................................................................
......O.....O..............................................................................................................................................................................................................
......OOOOOO....................O...............OO..............OO..............OO..............OO..............OO..............OO..............OO..............OO..............OO..............OO..............OO.........
................................OO..............OO..............OO..............OO..............OO..............OO..............OO..............OO..............OO..............OO..............OO..............OO.........
.......................................................................................................................................................................OO..................................................
................................OO..............OO..............OO..............OO..............OO..............OO..............OO..............OO..............OO....O.O.......OO..............OO..............OO.........
......OOOOOO....................O...............OO..............OO..............OO..............OO..............OO..............OO..............OO..............OO......O.......OO..............OO..............OO.........
......O.....O..............................................................OOO.............................................................................................................................................
......O....................................................................O...............................................................................................................................................
.......O....O.....................................OO........................O...............OO.............................................................................................................................
.........OO.....................................O....O....................................O....O...........................................................................................................................
.........................O.....................O.........................................O.................................................................................................................................
.............O..........O..O...................O.....O...................................O.....O...............................................OO..........................................................................
.OO.....OO..O...........O......................OOOOOO...............................OO...OOOOOO...............................................O.O..........................................................................
OO.OOOO.....O.OO.......O...........................................................OOOO.........................................................O..........................................................................
.OOOOO.........O.....O.O...O.......................................OOO............OO.OO....................................................................................................................................
..OOO..........O....O...O..........................................O...............OO......................................................................................................................................
..........OO.O.......O...OOOO..............OOOO.....................O.........................................O............................................................................................................
............O................O............OOOOOOOOO.............................................OOO..........O.O.....O.....................................................................................................
.OOOO.....................O..O...........OO.OOO.O..O.......OO..........................OO........O.OO........O.O....O..O...................................................................................................
.O...O....................OOO.............OO...OO...O.....OOO.....................OOOOOOOO.O.......OO...OO....O.........O..................................................................................................
.O...............................OOOOO...........OOO.....OO..O.....OO.............O........O............OO..............O..................................................................................................
..O..O.......OO..................O....O......OO...........OOO......OO.............O......O.........OO.................O.O..................................................................................................
............OO.OOO...............O.........O...............O.......................O........................................OO.............................................................................................
.............OOOOO................O...O...O..................................O.......OO....................................OOO.............................................................................................
..............OOO.......OOOOOO......O.....O...O............................O...O...........................................................................................................................................
........................O.....O...........OOOO.........OOO................O..............OOOO..............................................................................................................................
........................O.............................OOOOO...............O....O........OOOOOO..........OO.................................................................................................................
.........................O....O......................OO.OOO.........OO....OOOOO........OO.OOOO.........OO.OOO..............................................................................................................
...........................OO.........................OO..........O....O................OO..............OOOOO..............................................................................................................
.................................................................O.......................................OOO...............................................................................................................
.................................................................O.....O...................................................................................................................................................
.................................................................OOOOOO....................................................................................................................................................
