!Name: make-blockarray
!CLengthening a 2xN array of blocks is a difficult problem.
!CHere's one way to do it.
!CJason Summers, 4/05
!
.O.............................................O.O.........
..O...O........................................OO..........
OOO....O................................O.O.....O..........
.....OOO.....O..........................OO.................
..............O..........................O.....O...........
............OOO...............................O............
..........................................O...OOO..........
.........................................O.................
.........................................OOO...............
........................................................O..
........................................................O.O
.......................O................................OO.
........................OO.....................O.O.........
.......................OO......................OO..........
................................................O..........
........................................O..................
........................................O.O................
........................................OO.................
.......................................O.O.................
.......................................OO..................
........................................O..................
................OO.OO.OO.OO................................
................OO.OO.OO.OO................................
................OO.OO.OO.OO................................
................OO.OO.OO.OO................................
..............................OO...........................
.............................O.O...........................
...............................O...........................
................................................O..........
.......................OO......................OO....OO....
........................OO.....................O.O..OO.....
.......................O..............................O....
.........................................OOO...............
.........................................O.................
..........................................O...OOO..........
............OOO...............................O............
..............O..........................O.....O...........
.....OOO.....O..........................OO.................
OOO....O................................O.O.....O..........
..O...O........................................OO..........
.O.............................................O.O.........
