!Name: o0008
!
..OO.O...........................................................................................OO..................OO..........................................................................................................................
..O.OO...........................O..O............................................................OO..................OO..........................................................................................................................
OO....OO.............................O............................................................................................OOO.......................OO...................................................................................
O.....O............OO.................OO...............OO............................OO.....................................................................O...................O................................................................
.O.....O.........O..O...........O.OO......O........................OO.O.OO.............O........OOO.................OOO..................................OO.O..................OO................................................................
OO....OO........................O..O...O..............O...O...........O...........O...O........O...................O........OO.O.......O.OO..........O..O.O.OO................O.OO..............OOO..............................................
..OO.O...........O..O..........O...O.OOO.............O....O........O.....O.......OO...O.......OO..O...............OO..O.....O.............O..........OOOO.....O..............OOO..O.............OOO..............................................
..O.OO............O..O........O...........O.........O.O.O...........OOOOO.........O.O.........O.O.................O.O........OO.........OO................OO.OO................O.O.O............OOO..............................................
OO....OO...........O.O...........OOO.O...O.........O.O.O........................O...OO....................................OOO..OOOOOOOOO..OOO..........OOOO.....................O.O.O........OOO.................................................
O.....O.............O............O...O..O........O....O.........................O...O.....................................O..O...........O..O..........O...O.OOOO................O..OOO......OOO.................................................
.O.....O......................O......OO.O........O...O.............OOO.OOO.....O.............OO...............O.O..........OO.............OO............OO.O.O..O.................OO.O.......OOO.................................................
OO....OO...........OO............OO.............................................OO...........OO.............O..OO........................................O.OO......................OO...O........................................................
..OO.O.............OO..............O...............OO..........................................................O..................OOO....................O.........................O....OO.......................................................
..O.OO..............................O..O...............................................................OO...OOO.........................................OO..............................O........................................................
......................................................................................................O..O.......................................................................................................................................
......................................................................................................O.O.O......................................................................................................................................
.......................................................................................................O..O......................................................................................................................................
...........................................................................................................O.....................................................................................................................................
........................................................................................................O.O......................................................................................................................................
.........................................................................................................................................................OO...O..................................................................................
........................................................................................................................................................O..O.O.O..................................OO.............................................
........................................................................................................................................................O.OO.O..O.............OO.................................................................
.......................................................................................................................................................OO....OOO.O...............................O...O...........................................
.................................................................................O......................OO.....................O..........................O.O..OO.O.........O...O...............O....O...........................................
......................O................O.OO.....................................O.O......................O.....................OOO.....................OO....O....O.........O....O.............O.O.O.............................................
.....................O.O...............OO.O......................................O.....................O..........................O...................O...OOOO..OO............O.O.O.....OO....O.O.O..............................................
......................O..................................OO.OO.........................................OOOOO.....................OO.........OO.........OO.O..O.O...............O.O.O......O.O....O...............................................
.......................................OOO..............O.O.O..................OOOOO.......................O................................O...........O.O.OO.O................O....O.O....O...O................................................
....................OOOOO..........OO.O.O.O.............O.O.O.................O....O...................OO.................................O.O...........O..O..O..................O...O..OO.......................................................
.................O.O.....O.O.......OO.O...O..........OO.O...O.OO.............O..O..................OO.O.O..........................OOO....OO...........OO...OO................................OO.................................................
.................OO.O...O.OO..........O...O.OO.......OO.O...O.OO..........O..O.OO.................O.O.O...OO......................O...O...........................................OO.............................................................
....................O...O.............O...O.OO..........O...O............O.O.O....OO..............O.O.OO.O..O..OO................O.....O.........................................................................................................
....................O...O..............OOO..............O.O.O.............O..O...O..O..OO........OO.O....O.O....O..O..............O...O..........................................................................................................
.....................OOO.................................OO.OO...............OO..O.O....O..O........O.....O.....O.O.O........OO....OOO...........................................................................................................
......................................O.OO........................................O.....O.O.O.......O.O......OO.O..O........O.O..................................................................................................................
.....................OO.O.............OO.O...........................................OO.O..O.........OO......OO.O...........O....................................................................................................................
.....................O.OO............................................................OO.O.................O....O...........OO.........OO....................O....................................................................................
..................................................................................O....O..................OOOOO.......................O......................O.....................................OO............................................
..................................................................................OOOOO................................................OOO.............OO....O...................................................................................
............................................................................................................O............................O.............O..OO.O.OO..............OO.................O...O..........................................
....................................................................................O......................O.O..........................................OOO..O..O................................O....O..........................................
...................................................................................O.O......................O..............................................O..O..............O...O..............O.O.O............................................
....................................................................................O...................................................................OO.O.OO.O............O....O............O.O.O.............................................
........................................................................................................................................................OO.OO..O.O.............O.O.O.....OO..O....O..............................................
..............................................................................................................................................................O..O..............O.O.O......O.O...O...............................................
...............................................................................................................................................................OO................O....O.O........................................................
.......................................................................................................................OO.........................................................O...O..OO....OO................................................
....................................................................................................................O..O...O.....................................................................................................................
..........................................................................O.......................................OOO...OOOOOO.....................................................OO............................................................
.................OO.......OO..................................OO........OOO......................................O............O..................................................................................................................
.................O..OO.OO..O..............O....................O.......O........................OO................OOOOOO...OOO...................................................................................................................
..................OO.O.O.OO...............OOO........OO........O.O.....OO...........................OO..............O...O..O.....................................................................................................................
...................O.O.O.O...................O.......O..........OO.............O...............OO.O..O.................OO........................................................................................................................
...................O.OOO.O..................O......O.O..............OOO......OOO................O.OOO.................................................OO....O....................OO..............OO..............................................
....................OOOOO...................O...O..OO...............O..O....O....................O....................................................OO....O...................O.O..............O.O.............................................
.................................................O..................O.......OO..............O....OOOO.................................................OO....O...................O.O.OO........OO.O.O.............................................
..............................................O..O...................O....................O.OO...O..O..................OO.....OO.......................O.........................O.O.O........O.O.O..............................................
...............................................OOO.......................O................O...OOO.OO................O..O...O..O...O...................O.O..........................O............O................................................
.....................OOO.........................................OO.......O.................OO.O.O................OOO...OOOO...OOOOOO................OO.O....OOO..................O..O........O..O...............................................
......................O....................OO.....................O....O..O..................O.O.O...............O...................O......................O.....................O..............O...............................................
......................O...................O.O.....OO...........OOO......OOO................O.O.OO.................OOOOOO...OOOO...OOO.......................O...O.................O...O..OO..O...O...............................................
..................O.......O...............O.......O............O.............OO............OO.......................O...O..O...O..O...................OO....O..O.O................O...O....O.O...O...............................................
.................O.O.OO..O.O.............OO........OOO................OO.....O.O.......................................OO.....OO......................OO......O.O..O..............O.....O........O...............................................
.................OO..OO...OO.........................O.................O.......O...............................................................................O...O..............O..O...OO...O..O...............................................
....................................................................OOO........OO..................................................................................O...............O............O................................................
....................................................................O...........................................................................................OOO..............O.O.O........O.O.O..............................................
................................................................................................................................................................................O.O.OO........OO.O.O.............................................
................................................................................................................................................................................O.O..............O.O.............................................
.................................................................................................................................................................................OO..............OO..............................................
..........................................................................................................................OOO....................................................................................................................
.....................................................................................................................OO.........OO...............................................................................................................
......................................................................................................................O.........O................................................................................................................
...............................................................................................................................................................O.................................................................................
.....................................................................................................................OOOOOOOOOOOOO............................O.OO...............................................................................
............................................................................................OO......................O.............O....................OO.........O.....................OO.......................................................
...........................................................................................O..O....................O...............O...................O......O..O.O...................O.O.......................................................
....................OO.OO...................................O.............O...............O.O.O................O..O.................O..O....................O...O..O..................O..O.OO.O..................................................
....................OO.OO..................................O.O...........O.O..............O..O.................OO.O........O........O.OO.............OOOOOO.O....OO.................OOO.O.O.O.OOO................................................
............................................O.............O...O.........O...O............O........................O.....OO...OO.....O................O.............................O....O...O....O...............................................
..................OOOOOOOOO................O.O.............O...O.......O...O..............O.O.....................O....O.O...O.O....O.................OO.OO...OO...................OOOOO.O.O.OOOOO...............................................
.................O....O....O..............O...O.............O...O.....O...O............O..........................O....OO.....OO....O..................O.O....O.O...................O..O.O.O.O..O................................................
..................OOO...OOO................O...O.............O...O...O...O...........OO.O.....OO..............O...O.................O...O..............O.O......O...................O.O.......O.O................................................
....................O.O.O...................O...O.............O.O.....O.O...........O........O..O...OO........O...O...O.........O...O...O...............O.......OO......................OO.OO....................................................
.............................................O...O.............O.......O...........O.O..O...O..O...O..O.......O...O.................O...O...................................OO......OO....O....OO................................................
......................................O.......O.O..................O...............O..O....O.....O..O.O...........O....OO.....OO....O.......................................O.O.......OO.....OO........OO........................................
.....................................O.O.......O..................O.O...............OO....O..........O............O....O.O...O.O....O.........................................OOO.....................O.O........................................
....................................O...O..........................O......................O.O....O.OO.............O.....OO...OO.....O........................................O...O........O.........OOO..........................................
....................O.O.O............O...O.....................O.......O...................O......O............OO.O........O........O.OO.....................................OOOOO...O.............O...O.........................................
..................OOO...OOO...........O...O......O............O.O.....O.O....................O.O...............O..O.................O..O........................................OO...OOO..OO...O...OOOOO.........................................
.................O....O....O...........O...O....O.O..........O...O...O...O......................O..................O...............O.........................................OOOOO...O....OO.OOO...OO............................................
..................OOOOOOOOO.............O.O....O.O..........O...O.....O...O.................O..O....................O.............O..........................................O...O.............O...OOOOO.....................OO..................
.........................................O....O.O..........O...O.......O...O...............O.O.O.....................OOOOOOOOOOOOO............................................OOO.........O........O...O.....................O.O.................
....................OO.OO......................O..........O...O.........O...O..............O..O.............................................................................O.O.....................OOO...................OO.O.O.................
....................OO.OO..................................O.O...........O.O................OO........................O.........O...........................................OO........OO.....OO.......O.O.................O.O.O..................
............................................................O.............O..........................................OO.........OO..................................................OO....O....OO......OO...................O....................
..........................................................................................................................OOO...........................................................OO.OO.............................O..O...................
....................................................................................................................................................................................O.O.......O.O............................O...................
....................................................................................................................................................................................O..O.O.O.O..O.....................OO.O...O...................
...................................................................................................................................................................................OOOOO.O.O.OOOOO....................OO.....O...................
...................................................................................................................................................................................O....O...O....O..................OO....O..O...................
....................................................................................................................................................................................OOO.O.O.O.OOO...................OO......O....................
......................................................................................................................................................................................O.OO.O..O...........................O.O.O..................
.......................................................................................................................................OO..................................................O.O......................O.....OO.O.O.................
.....................................................................................OO......OO.............OO......OO.................OO..................................................OO..................OO.O...O.OO...O.O.................
....................................................................................O..O....O..O...........O..O....O..O........................................................................................O.........O...OO..................
....................................................................................O.O......O.O...........O.O......O.O..............OOOOOO.....................................................................OO.....OO........................
.....................OO...OO...........OO...OO...........OO.........OO............OO..OOO..OOO..OO.......OO..OOO..OOO..OO...........O......O.................................................................OOO..OOOOO..OOO.....................
....................O.O...O.O.........O.O...O.O.........O.O.........O.O..........O......O..O......O.....O......O..O......O..........O...O.OO.................................................................O..O.......O..O.....................
....................O.......O.........O.......O.........O.............O..........O.OO..........OO.O.....O.OO..........OO.O........OO....O...OO................................................................OO.........OO......................
.................OO.OO.....OO.OO...OO.OO.....OO.OO...OO.OO...........OO.OO........O.O..........O.O.......O.O..........O.O........O....O.....O.O..................................................................................................
.................OO.O...O...O.OO...OO.O.......O.OO...OO.O.............O.OO..........OO........OO...........OO...OO...OO..........O...O........O..................................................................................................
....................O.O...O.O.........O.OO..O.O.........O.OO..O.O..OO.O........................................O..O...........OO.O.........OO.O.OO...............................................................................................
....................O.O...O.O.........O.O...O.O.........O.O...O.O...O.O........................................O..O...........OO.O.OO.........O.OO...............................................................................................
...................OO.O...O.OO.......OO.O...O.OO.......OO.O...O.O...O.OO............OO........OO...........OO...OO...OO..........O........O...O..................................................................................................
....................O..OOO..O.........O..OOO............O..OOO...OOO..O...........O.O..........O.O.......O.O..........O.O........O.O.....O....O............................................................................OO....................
....................O.......O.O.......O...............O.O.............O.O........O.OO..........OO.O.....O.OO..........OO.O........OO...O....OO............................................................................O.O....OO..............
.....................OOO.....OO........OOO............OO...OO.O.O.OO...OO........O......O..O......O.....O......O..O......O..........OO.O...O..............................................................................O.O.OO..O..............
.......................O.................O.................O.OO.OO.O..............OO..OOO..OOO..OO.......OO..OOO..OOO..OO...........O......O...............................................................................O.O.O.O...............
....................................................................................O.O......O.O...........O.O......O.O..............OOOOOO..................................................................................O.O.OO..............
....................................................................................O..O....O..O...........O..O....O..O.....................................................................................................OO..O..O.............
.....................................................................................OO......OO.............OO......OO.................OO..................................................................................O.O....O.O............
.......................................................................................................................................OO..................................................................................OO..OO.O..O...........
...............................................................................................................................................................................................................................OOO..OO...........
.......................................O.........................................................................................................................................................................................................
.......................................O..OO.....................................................................................................................................................................................O...............
.......................................O.............................................................................................................................................................................OO.........OO...............
........................................O..O........................................................................................................................................................................O..O.......OO.......OO.......
........................................OOO.....................................................................O...................................................................................................OOO..OOOOOOOO.......O.O......
.......................................OO......................................................................O.O..............................OO..OO............................................................OO...OO..................O.....
.....................................OOO..................................................................OO...O.O.........................OO....O...O.....O.....................................................O.O..O..................OO.O.OO.
....................................O..O............................O...............O.....................O...OO..OO........................O..O.O.O.O.OO.O.O....................................................O.O.O.O.O....O......OO.O...OO.O.
........................................O...........................OOO...........OOO.......................O...OO..O.......................O.O.O.O.O.O.O.O.O.....................................................O.O.O....OO......OOO..OO.O.....
....................................OO..O..............................O.........O.........................OOOO...O.O....................OO.O.O.O.O.O...O.O.O.OO....................................................O..............OO...OO..OOO..
........................................O.............................OO.........OO.......................O.....OOO.OO...................O.O.O.O....OO..O..O.O.O...................................................O..O.........O..O..........O..
..........................................................................................................OO..O......O.....................O...O.....OO..O.O.O.........................................OO..........O........OO.....O......OOOO...
....................O.O.........OO........O...................................................................OOO.OO.....................O.O.OO...O.O.O..O...O.O......................................O..O..OO.....O...O....OO.O...O.....O.O..OOO
....................O..O.......O.O...OO..O.O..................OO..........O...O..........OO.....................O..OO....................OO.O.O.O.O.O.O...O.O.OO......................................OOO..O.O.....O...O..OO.......O.....OO..O..O
.......................O........O......O..OO...................O........OO.O.O.OO........O........OO..OO........OO..........................O.O.O.O.O.O.O.O.O............................................OOOO......O......OO....O..O..........OO.
......................OOO..OOO........OO.......................O.O.....O...O.O...O.....O.O........O..O.O.........OOOO....OO.................O..O.O.O.O.OO.O.O...........................................O..........O..O...........O..............
...................OOO..OOO......OO.............................OO....O.OO.O.O.OO.O....OO...........OO...............O.O..OOO..............OO....O...O.....O............................................OOO..OO...OO.......O....O.O.O............
.........................O......O.O...........O.O....................O.O..O...O..O.O.................O...........OO..O.OO....O..................OO..OO.....................................................O.OO..OOO.....O...O.O.O.O.O...........
.........................O..O...O.........O...O..O...................O.O.O.....O.O.O...............O.O.OO.......OO.O.O..O.OO.O.........................................................................O.OO...O.OO..............O..O.O...........
..........................O.O...........O.O......O..................O...O.......O...O............OOO....O......OO..O.OO...O.O.OO.......................................................................OO.O.OO................OO...OO............
........................................OO......OOO..OOO.............OOO.........OOO............O...O.O.OOO...OO......OOO.O.O...O..........................................................................O...........OOOOOOO..OOO..............
...................................OO........OOO..OOO............................................OO.O.O...OO.OO.........O....OOO............................................................................O.O........OO......O..O..............
...............................OO..O......O........O.................OOO.........OOO...............O.OO.O..O.O..........OO.O.O...............................................................................OO.......OO........OO...............
...............................O.O..OO...O.O.......O..O.............O...O.......O...O..............O....OO.O..OO...........O...........OO....................O.............OO....................OO...................O..........................
................................O........OO.........O.O..............O.O.O.....O.O.O................OOO..O.O...............OO..........O.O..................O.O....O.......OO..O................O.O..............................................
.....................................................................O.O..O...O..O.O..................OO....OOOO.........O.O..O..........OOO............OO.O..O......O...OOO..O.O.............OOO.................OO..OOO........................
..................................O.............................OO....O.OO.O.O.OO.O....OO......................OO........OO..OO.........O...O.......OO.O...OO...OO...O.OO..O....OO..O........O...O................O..O.OO..OO....................
.................................O.............................O.O.....O...O.O...O.....O.O..................OO..O.......................OOOOO...O...OO.O....OOOO......O.O...O...O...O....O...OOOOO.................O.O....O.O....................
.................................O..OO..OO.....................O........OO.O.O.OO........O...................OO.OOO........................OO...OOO..O....O..O...O.OOOO.O...O..O....O..OOO...OO.....................O..O..OO.....................
..............................OO.O.OO.O..O....................OO..........O...O..........OO................O......O..OO.................OOOOO...O....O...O...O...O.O......OOOO....O.OO...O...OOOOO...................OO.O.O......................
..............................O..O.OO.OO...................................................................OO.OOO.....O.................O...O........O..OO....O..OO.O...OO...OO...O.OO.......O...O....................O.O.O.O....................
................................OO.OO.O.....................................................................O.O...OOOO...................OOO.............O.O..OOO...O......O..O.OO............OOO....................O..OO.O.O...................
......................................O...............................OO.........OO.........................O..OO...O..................O.O................O..OO.......O....O.O..................O.O..................OO....O.O...................
...................................O.OO.OO.............................O.........O...........................OO..OO...O................OO....................OO.............O....................OO........................OO....................
...............................OO.O.O..O.O..........................OOO...........OOO..........................O.O...OO..........................................................................................................................
................................O.O.OO.O............................O...............O..........................O.O...............................................................................................................................
................................O.O.O..O........................................................................O................................................................................................................................
.................................O...OO..........................................................................................................................................................................................................
