!Name: o0055
!
...................................O.........................O..................................................................................
..................................O.O.......................O.O.................................................................................
...................................O.........................O...............................................OO.................................
........................................O...............O...................................................O..O................................
.................................OOOOO..OOO...........OOO..OOOOO...........................................O.OO.O..OO...........................
................................O....O.....O.........O.....O....O..........................................O....O...O...........................
..O.OO......O.OO...............O..O.......OO.........OO.......O..O........................................OO.O.O.OOO............................
..OO.O......OO.O............O..O.OO...........................OO.O..O.....................................O..O.O.O..............................
OO........OO...............O.O.O.....O.....................O.....O.O.O.....................................OO...O...............................
.O.........O................O..O....O.O...................O.O....O..O........................................O.OO...............................
O.........O....................OO..O..O.....OOO...OOO.....O..O..OO.....................................OO..OOOO.OO.......OO.....................
OO........OO........................OO......O.O...O.O......OO..........................................O..O......O......O.O.....................
..O.OO......O.OO............................OOO...OOO...................................................O.OO..OOO.....OOOO......................
..OO.O......OO.O.....................................................................................OOO.O.............O........................
......OO........OO...........................................OO.....................................O....O........OO.........OO.................
.......O.........O..................OO.....................O..O...................................OOO.OO.OO.......OO..O.O....O..................
......O.........O..............OO..O..O....................OOO...................................O...O.OO..O...........OO.....OOO...............
......OO........OO..........O..O....O.O.........................OO..............................O..O......OOO...O..........OOO...O..............
..O.OO......O.OO...........O.O.O.....O.....................OO.O..O..............................O.OOO.....OOO..O.O........O..O.O..O.............
..OO.O......OO.O............O..O.OO.........................O.OO..............................O.O....O..O..OO...OO..OO...O.O...OO.O.............
...............................O..O.........................O.................................OO.OOOOO..OO.O........OO....O..O.O..OO............
................................O....O...OO...........OO...OO....................................O.O.O.O...O...............OOOOO.O..O...........
.................................OOOOO....O...........O..........................................O.O.O..OO..............OOO....O..O.O...........
........................................O.O.O..........OOO........................................O.O.O.O...............O...OOOO.OO.O.OO........
...................................O...O.O.OO............O.........................................O..O.O................OOO...O.....O.O........
..................................O.O..O.O............................................................OO...................O.O.OO.OOO...........
...................................O....OO..................................................................................OOOOOOO..OO...OO....
......................................................................................................................OO.............O.O.O.OOO..
.........................................................................................................O............O.O..............O.O....O.
....................................................................................OO..................O.............O...............O...O.OO.O
....................................................................................OO..OO..............OOO.............................OO.O.O.O
......................................................................................O...O....................................O....O.OOOOO...O.
..........................................................................................O...................................O.O...O.......OO..
......................................................................................O.OO....................................OO...OOO....OO....
.......................................................................................O.....OO...................................OO.......O....
..............................................................................OO.............OO...................................OO.......O.O..
..............................................................................O.O.......OO...................................OO.............OO..
................................................................................O.......OO...................................OO.....O...........
................................................................................OO....OOO...OO....................................OO.O..........
..............................................................................OO.......O...O.O...................................O..............
.............................................................................O...OOOOO.O....O....................................O...O..........
............................................................................O.O.O.OO.............................OOO..............OO..OO........
............................................................................O.OO.O...O...............O.............O..................OO........
...........................................OO....OO..........................O....O.O..............O.O............O.............................
............................................O....O.O....OO...OO...............OOO.O.O.O.............OO..........................................
............................................O.OO.O..O...O.O.O.O.................OO...OO..OOOOOOO................................................
...........................................OO.O.O.OO......O.O..OO......................OOO.OO.O.O...................OO..........................
..................................................O.......O.OO.O....................O.O.....O...OOO................O.O..O.......................
.........................................O.OO.OO.OO.......O....O....................OO.O.OO.OOOO...O...............O.O.O.O......................
............................................OO...OOO.OO.OO..OO.OO......................O.O..O....OOO..............OO..O.O.O.....................
...................................OO..O...O.O..OO.O.OO.O...OO.O..O....................O..O.OOOOO...............O...O.O.O.O.....................
..................................O..O.O...O.O..O...O.O.....O..O.OO.....................OO..O.O..O....OO........O.OO..OOOOO.OO..................
............................OO..............OO.....OOOO.....O..O.........................O.OO...O.O...OO..OO...OO..O..O....O.O..................
.............................O...........O.OO.OO.O.....O...O...O.........................O..O.O..O........O.O..OOO.....OOO.O....................
............................O.....O.OO..........O.OOOOO.....OOO...........................O...OOO..........O...OOO......O..O....................
............................OO..OOO.O......OO.O.OO........O.O..............................OOO.....OO...........O..OO.O...O.....................
...............................O....O.O.....O.OO...OO.....OO..................................O....O.O..OO.......OO.OO.OOO......................
............................OOO.OO.OO.OOO...O....OO.O........................................OO.........OO........O....O........................
...........................O..O.O....O...O...OOO.O..................................................O.............O.OOO.........................
..........................O.OO....OO.O..O......O.O................................................OOOO.....OOO..OO.O............................
..........................O.O.O.O..O.O.O........O................................................O.O......O......O..O...........................
...........................O..OOOOO..OO..........................................................OO.......OO.OOOO..OO...........................
............................OO....O.O......................................................................OO.O.................................
..............................OOOO..O......................................................................O...OO...............................
............................OO......OO....................................................................O.O.O..O..............................
............................O..O........................................................................OOO.O.O.OO..............................
..............................OO.......................................................................O...O....O...............................
.......................................................................................................OO..O.OO.O...............................
............................................................................................................O..O................................
.............................................................................................................OO.................................
