!Name: s0030
!C1. Engine by Karel Suhajda, 6/'07
!C (stabilization by Jason Summers)
!C2. By Nicolay Beluchenko, 3/'09
!
...........O........................................OO..................................................................O.O.O...........................................................................................................
....................................................OO..................................................................................................................................................................................
...........O................................................................................................................O...........................................................................................................
.................................................................................................................................................O......................................................................................
...........O............................................................................................................O.O.O.....................O.....................................................................................
.....................................................O..........................................................................................OOO.....................................................................................
...........O........................................OOO.................................................................O...............................................................................................................
...................................................O...O................................................................................................................................................................................
...........O......................................O.OOO.O...............................................................O.O.O.............................................................................O.............................
...................................................OOOOO..................................................................................................................................................O.O...........................
..........................................................................................................................................................................................................OO............................
......................................OO.................................................................................................................O..............................................................................
......................................OO...............................................................................................................O.O..............................................................................
........................................................................................................................................................OO..............................................................................
.......................................O............O..OO..........................................................................................................................................O....................................
......................................O.O...........O.O...........................................................................................................................................O.....................................
.....................................O...O.........OO.............................................................................................................................................OOO...................................
.....................................OOOOO........OO............................................................................................................O...........O..OO.......................................................
....................................OO...OO.......OO.O...........................................................................................................O........OOO...O.......................................................
.....................................OOOOO.........OOO.........................................................................................................OOO.......O......O.OO....................................................
......................................OOO................................................................................................................................OO......O.O....................................................
.......................................O................................................................................................................................................................................................
....................................................OO...OO................................................................................................................................O............................................
.......................................................O...................................................................................................................................O.O..........................................
....................................................O.....O................................................................................................................................OO...........................................
.......................O.O..................O.O......OO.OO..............................................................................................................................................................................
.......................O..O.................OO........O.O.........................................................O..O..........................O..O.................OOO................................................................
........O......O..........OO......OO.........O.........O..............................................................O...........OOOO..............O..................O.......O........................................................
.......O.O.....O........O...OO....OO...................O..........................................................O...O..........O...O..........O...O................OOO........O.......................................................
......O.OO......O.........OO.......................................................................................OOOO..............O...........OOOO...........................O....................................O..O...............
OO...OO.OO.........OO..O..O......................................................................................................O..O....................................O...........................OOOO...........O..............OOOO.
OO....O.OO.....OOO..O..O.O...............................................................................................................................................O........OOO................O...O..........O...O..........O...O
.......O.O.......OOOO.....................................................................................................................................................O.......O..................O..............OOOO...........O....
........O.........OO...................................OO.........................................................................................................................OOO.................O..O..........................O..O
......................................O................OO...............................................................................................................................................................................
.....................................O.OO......O.................O...........................................................................................OO.........................................................................
....................................O....O....O.O...............OOOO........................................................................................O.O.........................................................................
..........................O..........O...O...O...O.............OO.O.O...OO....................................................................................O.........................................................................
...........................OO.........OOO....O..O.............OOO.O..O..OO..............................................................................................................................................................
..........................OO.................O..O..............OO.O.O.................................................................................................O.O......OO.......................................................
..............................................OO................OOOO..................................................................................................OO.O......O.......OOO.............................................
...................O.............................................O.......................................................................................................O...OOO........O...............................................
.................OOOO................OO..................................................................................................................................OO..O...........O..............................................
................O.O.OO..............O..O.................OO..........................................................................................OOO................................................................................
...........OO..O..O.OOO.............O..O....OOO.........OO.............................................................................................O................................................................................
...........OO...O.O.OO.............O...O...O...O..........O...........................................................................................O.................................................................................
.................OOOO...............O.O....O....O.......................................................................................................................................................................................
...................O.................O......OO.O................................................................................................................................................OO......................................
............................OO................O.................................................................................................................................................O.O.....................................
............................OO...................................OO.........O...................................................................................................................O.......................................
................................................................OOOO.......O.O................................................................OO........................................................................................
...........................................................O.O..O..OOO.....OO.O....OO........................................................O.O........................................................................................
..........................................................O..O..OO.........OO.OO...OO..........................................................O........................................................................................
.........................................................OO.........O......OO.O.........................................................................................................................................................
.............................O...................OO....OO...O........O.....O.O..........................................................................................................................................................
.............................O.........O.........OO......OO..........O......O..........................................................................................................................OOO..............................
............................O.O........OO.................O..O.........................................................................................................................................O................................
...........................OO.OO......O.O..................O.O..........................................................................................................................................O...............................
..........................O.....O.......................................................................................................................................................................................................
.............................O..........................................................................................................................................................................................................
..........................OO...OO.......................................................................................................................................................................................................
.............................................O..........................................................................................................................................................................................
............................................OOO.........................................................................................................................................................................................
...............................OOO.........OOOOO........................................................................................................................................................................................
...............................O.OO.......OO...OO.......................................................................................................................................................................................
.................................OO........OOOOO........................................................................................................................................................................................
................................OO.........O...O........................................................................................................................................................................................
..............................O.O...........O.O.........................................................................................................................................................................................
............................OO..O............O..........................................................................................................................................................................................
.............................................OO.........................................................................................................................................................................................
.............................................OO.........................................................................................................................................................................................
.............................OOOOO......................................................................................................................................................................................................
............................O.OOO.O.....................................................................................................................................................................................................
.............................O...O......................................................................................................................................................................................................
..............................OOO.......................................................................................................................................................................................................
...............................O........................................................................................................................................................................................................
...............................OO.......................................................................................................................................................................................................
...............................OO.......................................................................................................................................................................................................
.........O.O.O..........................................................................................................................................................................................................................
.............O..........................................................................................................................................................................................................................
.........O.O.O..........................................................................................................................................................................................................................
.............O..........................................................................................................................................................................................................................
.........O.O.O..........................................................................................................................................................................................................................
....................................O...................................................................................................................................................................................................
..................................O.O...................................................................................................................................................................................................
........................OO......OO......................................................................................................................................................................................................
.......................O...O....OO............OO........................................................................................................................................................................................
......................O.....O...OO............OO........................................................................................................................................................................................
............OO........O...O.OO....O.O...................................................................................................................................................................................................
............OO........O.....O.......O...................................................................................................................................................................................................
.......................O...O............................................................................................................................................................................................................
........................OO..............................................................................................................................................................................................................
...................................O....................................................................................................................................................................................................
....................................OO..................................................................................................................................................................................................
...................................OO...................................................................................................................................................................................................
..........................................O.O...........................................................................................................................................................................................
...........................................OO...........................................................................................................................................................................................
...........................................O............................................................................................................................................................................................
................................................OO......................................................................................................................................................................................
..............................................O....O....................................................................................................................................................................................
..............................................O....O....................................................................................................................................................................................
..............................................O....O....................................................................................................................................................................................
................................................OO......................................................................................................................................................................................
....................................................OO..................................................................................................................................................................................
....................................................O.O.................................................................................................................................................................................
....................................................O...................................................................................................................................................................................
.......................................................................OO...............................................................................................................................................................
...........................................................OOO..O.....O...O.............................................................................................................................................................
.......................................................O...O.........O.....O...OO.......................................................................................................................................................
.....................................................O.O....O........O...O.OO..OO.......................................................................................................................................................
.............................................OO....OO................O.....O............................................................................................................................................................
.............................................OO....OO.................O...O.............................................................................................................................................................
...................................................OO..................OO...............................................................................................................................................................
.....................................................O.O................................................................................................................................................................................
.......................................................O................................................................................................................................................................................
