!Name: w00075
!
.......................................OO..O.........................................................................................................
....O.OO......O.OO.....................O..O.O........................................................................................................
....OO.O......OO.O......................O.O.O...........................OO...........................................................................
........OO..OO.........................OO.O.OO.........................O..O..........................................................................
.........O...O........................O...O...O........................O.O..O..O.....................................................................
........O...O........................O.O.O....O.......................OO.O.OOOOO.....................................................................
........OO..OO.......................O...OO...O......................O...O..........................................OO...............................
......OO......O.OO....................OO.O....O......................O....O.OO......................................O.O..............................
.......O......OO.O........................O...O......................O...OO...O.......................................O..............................
......O...........OO................OOOOO.O.OO.......................O....O.O.O...................................OOOO.OO............................
......OO...........O................O...O.O.O........................O...O...O....................................O..O.O.............................
....OO............O..................OO.O.O.O..............OOO........OO.O.OO........................................O...O...........................
.....O............OO.............O....O.O.OO..............O..O.........O.O.O.........................................OO.OO...........................
....O.........O.OO...............OOO..O.O..........OOO....OOO..........O.O..OOO.......................................O.O............................
....OO........OO.O..................O.O.O.........O..O..............OO.O.O....O....................................................O.................
...................................OO.O.OO........OOO..............O.O.O.OO........................................................O.................
..................................O...O...O........................O.O.O...O......................................................O.O................
.................................O.O.O....O.......................OO.O.OOOOO.......................................................O.................
.................................O...OO...O......................O...O.............................................................O.................
..................................OO.O....O......................O....O.OO......................................OO...................................
......................................O...O......................O...OO...O.....................................O.O................O.................
................................OOOOO.O.OO.......................O....O.O.O.......................................O................O.................
................................O...O.O.O........................O...O...O....................................OOOO.OO.............O.O................
.................................OO.O.O.O..............OOO........OO.O.OO.....................................O..O.O...............O.................
.............................O....O.O.OO..............O..O.........O.O.O.........................................O...O.............O.................
.............................OOO..O.O..........OOO....OOO..........O.O..OOO......................................OO.OO........................O.O....
................................O.O.O.........O..O..............OO.O.O....O.......................................O.O........................OO.OO...
...............................OO.O.OO........OOO..............O.O.O.OO........................................................O.............O...O...
..............................O...O...O........................O.O.O...O.......................................................O...............O.O..O
.............................O.O.O....O.......................OO.O.OOOOO......................................................O.O.............OO.OOOO
.............................O...OO...O......................O...O.............................................................O................O....
..............................OO.O....O......................O....O.OO.........................................................O................O.O..
..................................O...O......................O...OO...O.....................................OO...................................OO..
............................OOOOO.O.OO.......................O....O.O.O.....................................O.O................O.....................
............................O...O.O.O........................O...O...O........................................O................O.....................
.............................OO.O.O.O..............OOO........OO.O.OO.....................................OOOO.OO.............O.O....................
.........................O....O.O.OO..............O..O.........O.O.O......................................O..O.O...............O.....................
.........................OOO..O.O..........OOO....OOO..........O.O..OOO......................................O...O.............O.....................
............................O.O.O.........O..O..............OO.O.O....O......................................OO.OO........................O.O........
...........................OO.O.OO........OOO..............O.O.O.OO...........................................O.O........................OO.OO.......
..........................O...O...O........................O.O.O...O.......................................................O.............O...O.......
.........................O.O.O....O.......................OO.O.OOOOO.......................................................O...............O.O..O....
.........................O...OO...O......................O...O............................................................O.O.............OO.OOOO....
..........................OO.O....O......................O....O.OO.........................................................O................O........
..............................O...O......................O...OO...O........................................................O................O.O......
........................OOOOO.O.OO.......................O....O.O.O.....................................OO...................................OO......
........................O...O.O.O........................O...O...O......................................O.O................O.........................
.........................OO.O.O.O..............OOO........OO.O.OO.........................................O................O.........................
.....................O....O.O.OO..............O..O.........O.O.O......................................OOOO.OO.............O.O........................
.....................OOO..O.O..........OOO....OOO..........O.O..OOO...................................O..O.O...............O.........................
........................O.O.O.........O..O..............OO.O.O....O......................................O...O.............O.........................
.......................OO.O.OO........OOO..............O.O.O.OO..........................................OO.OO........................O.O............
......................O...O...O........................O.O.O...O..........................................O.O........................OO.OO...........
.....................O.O.O....O.......................OO.O.OOOOO.......................................................O.............O...O...........
.....................O...OO...O......................O...O.............................................................O...............O.O..O........
......................OO.O....O......................O....O.OO........................................................O.O.............OO.OOOO........
..........................O...O......................O...OO...O........................................................O................O............
....................OOOOO.O.OO.......................O....O.O.O........................................................O................O.O..........
....................O...O.O.O........................O...O...O......................................OO...................................OO..........
.....................OO.O.O.O..............OOO........OO.O.OO.......................................O.O................O.............................
.................O....O.O.OO..............O..O.........O.O.O..........................................O................O.............................
.................OOO..O.O..........OOO....OOO..........O.O..OOO...................................OOOO.OO.............O.O............................
....................O.O.O.........O..O..............OO.O.O....O...................................O..O.O...............O.............................
...................OO.O.OO........OOO..............O.O.O.OO..........................................O...O.............O.............................
..................O...O...O........................O.O.O...O.........................................OO.OO........................O.O................
.................O.O.O....O.......................OO.O.OOOOO..........................................O.O........................OO.OO...............
.................O...OO...O......................O...O.............................................................O.............O...O...............
..................OO.O....O......................O....O.OO.........................................................O...............O.O..O............
......................O...O......................O...OO...O.......................................................O.O.............OO.OOOO............
................OOOOO.O.OO.......................O....O.O.O........................................................O................O................
................O...O.O.O........................O...O...O.........................................................O................O.O..............
.................OO.O.O.O..............OOO........OO.O.OO.......................................OO...................................OO..............
.............O....O.O.OO..............O..O.........O.O.O........................................O.O................O.................................
.............OOO..O.O..........OOO....OOO..........O.O..OOO.......................................O................O.................................
................O.O.O.........O..O..............OO.O.O....O...................................OOOO.OO.............O.O................................
...............OO.O.OO........OOO..............O.O.O.OO.......................................O..O.O...............O.................................
..............O...O...O........................O.O.O...O.........................................O...O.............O.................................
.............O.O.O....O.......................OO.O.OOOOO.........................................OO.OO........................O.O....................
.............O...OO...O......................O...O................................................O.O........................OO.OO...................
..............OO.O....O......................O....O.OO.........................................................O.............O...O...................
..................O...O......................O...OO...O........................................................O...............O.O..O................
............OOOOO.O.OO.......................O....O.O.O.......................................................O.O.............OO.OOOO................
............O...O.O.O........................O...O...O.........................................................O................O....................
.............OO.O.O.O..............OOO........OO.O.OO..........................................................O................O.O..................
.........O....O.O.OO..............O..O.........O.O.O........................................OO...................................OO..................
.........OOO..O.O..........OOO....OOO..........O.O..OOO.....................................O.O................O.....................................
............O.O.O.........O..O..............OO.O.O....O.......................................O................O.....................................
...........OO.O.OO........OOO..............O.O.O.OO.......................................OOOO.OO.............O.O....................................
..........O...O...O........................O.O.O...O......................................O..O.O...............O.....................................
.........O.O.O....O.......................OO.O.OOOOO.........................................O...O.............O.....................................
.........O...OO...O......................O...O...............................................OO.OO........................O.O........................
..........OO.O....O......................O....O.OO............................................O.O........................OO.OO.......................
..............O...O......................O...OO...O........................................................O.............O...O.......................
........OOOOO.O.OO.......................O....O.O.O........................................................O...............O.O..O....................
........O...O.O.O........................O...O...O........................................................O.O.............OO.OOOO....................
.........OO.O.O.O..............OOO........OO.O.OO..........................................................O................O........................
.....O....O.O.OO..............O..O.........O.O.O...........................................................O................O.O......................
.....OOO..O.O..........OOO....OOO..........O.O..OOO..........................................................................OO......................
........O.O.O.........O..O..............OO.O.O....O........................................................O.........................................
.......OO.O.OO........OOO..............O.O.O.OO............................................................O.........................................
......O...O...O........................O.O.O...O..........................................................O.O........................................
.....O.O.O....O.......................OO.O.OOOOO...........................................................O.........................................
.....O...OO...O......................O...O.................................................................O.........................................
......OO.O....O......................O....O.OO........................................................................O.O............................
..........O...O......................O...OO...O......................................................................OO.OO...........................
....OOOOO.O.OO.......................O....O.O.O......................................................................O...O...........................
....O...O.O.O........................O...O...O.........................................................................O.O..O........................
.....OO.O.O.O..............OOO........OO.O.OO.........................................................................OO.OOOO........................
.O....O.O.OO..............O..O.........O.O.O............................................................................O............................
.OOO..O.O..........OOO....OOO..........O.O..OOO.........................................................................O.O..........................
....O.O.O.........O..O..............OO.O.O....O..........................................................................OO..........................
...OO.O.OO........OOO..............O.O.O.OO..........................................................................................................
..O...O...O........................O.O.O...O.........................................................................................................
.O.O.O....O.......................OO.O.OOOOO.........................................................................................................
.O...OO...O......................O...O...............................................................................................................
..OO.O....O......................O....O.OO...........................................................................................................
......O...O......................O...OO...O..........................................................................................................
OOOOO.O.OO.......................O....O.O.O..........................................................................................................
O..O..O.O........................O...O...O...........................................................................................................
.....O..O.........................OO.O.OO............................................................................................................
......OO...........................O.O.O.............................................................................................................
...................................O.O..O............................................................................................................
....................................O..OO............................................................................................................
