!Name: wavestretcher.rle
!http://conwaylife.com/wiki/Wavestretcher
!http://www.conwaylife.com/patterns/wavestretcher.rle
!
........................................................................OO...............................
.......................................................................OOO...............................
........................................................................OO...............................
.....................................................................OO..................................
..................................................................OOOO...................................
.................................................................O.......................................
.................................................................OO......................................
..............................................................OO.OOO.....................................
............................................................OO.OOO.......................................
.................................................................O.......................................
...........................................................O...OOO.......................................
..............................................................OOO.OOO....................................
...........................................................OO.OOO........................................
...............................................................O...OO....................................
...........................................................O.....O.......................................
.............................................................O.O.........................................
............................................................O.O..........................................
........................................................OO...............................................
.........................................................OO..............................................
.....................................................OO..O...............................................
...................................................OO.O.O................................................
...................................................OO..O.................................................
....................................................OO...................................................
....................................................OOO..................................................
...................................................OO....................................................
...................................................O..O..................................................
..................................................OO..OO.................................................
..................................................OO..OO...............................O.......O.........
..................................................O..O...........................OO.O.O.OO...OO.O.O.OO...
..............................................................................OOO.O.OOO.........OOO.O.OOO
..............................................................................O...O.O.....O.O.....O.O...O
................................................OO.....................O..........OO......O.O......OO....
..........................................OOO...OO.....................OO......OO.........O.O.........OO.
...............................OO........O.OOO....O...................O.OO.....OO.OO...............OO.OO.
..............................OO..........O.............................O...O......O...............O.....
...............................O.O..........O.OO............O...O........O..O............................
..........................O....OOO.........OO.......OO..O..O.O.O.OO.O....OO..O...........................
.........................OOOOO.OOO..O.OO...OOO..O..O.O.O.......O....OO.O.................................
.........................O..OO......O...OO..OO....OO.O.OO.OOOOO.O....OOO.................................
...................................O....OO....OO..OOO.OO..........O......................................
...........................OO..OO.OO..OO...............O..........OO.....................................
...................................O..............................OO.....................................
.....................OOO...O.....OO..................OO..................................................
.....................O.....O..O.OO...................OO..................................................
......................O...OO.O...........................................................................
.........................OO...O.O........................................................................
.............OOO..........O..............................................................................
.............O.....OOO..OO...............................................................................
..............O..OO.OOO.OO...............................................................................
................O..........O.............................................................................
.................O.O.OO....O.............................................................................
...................OO.O..................................................................................
.................OO...O.O................................................................................
................OO.......................................................................................
..................O......................................................................................
...............OO........................................................................................
..............OOO........................................................................................
.............OO.O........................................................................................
............OOOO.O.......................................................................................
.................OOO.....................................................................................
..................OO.....................................................................................
..........OOO.OO.........................................................................................
.........O...OOO.........................................................................................
............OOO..........................................................................................
........O.O.O............................................................................................
.......OOOO..............................................................................................
.......O.................................................................................................
........OO...............................................................................................
.........O..O............................................................................................
OO.......................................................................................................
O.O...OOO................................................................................................
O...O....O...............................................................................................
...OO....................................................................................................
...O.....O...............................................................................................
