!Name: c2-0198
!Cp198 rake by David Bell, 27 May 2001
!
.......................................................................................................................................................................................................................................................................................O.O.................................................................................................................................................................
......................................................................................................................................................................................................................................................................................O..O.................................................................................................................................................................
.....................................................................................................................................................................................................................................................................................OO....................................................................................................................................................................
....................................................................................................................................................................................................................................................................................O..............................O.......................................................................................................................................
...................................................................................................................................................................................................................................................................................OOOO.........................OOOO.......................................................................................................................................
......................................................................................................................................................................................................................................................................O.O.........O....O........................OOO........................................................................................................................................
.....................................................................................................................................................................................................................................................................O..O.........O..O........................O...O........................................................................................................................................
....................................................................................................................................................................................................................................................................OO............O..O........................OOO..........................................................................................................................................
...................................................................................................................................................................................................................................................................O...............O.......................O.O....O........................................................................................................................................
..................................................................................................................................................................................................................................................................OOOO..............OOOO.O................OOOOOOOO.........................................................................................................................................
...............................................................................................................................................................................................................................O.O...............................O....O..............O...O...............OO................................................................................................................................................
..............................................................................................................................................................................................................................O..O...............................O..O.................O.................OO....OO...........................................................................................................................................
.............................................................................................................................................................................................................................OO..................................O..O.................O.O................O.O...O..O........................................................................................................................................
..................................................................................O............................................................................................................................O............O..............................O......O.............................................O.O........................................................................................................................................
...............................................................................OOOO.........................................................................................................................OOOO...........OOOO.........................OOOO.......OOOO.O............OOO.................OO................................................................................................................................................
...............................................................................OO...........................................................................................................................OO............O....O........................OOO.........O...O............OO..................O..O..............................................................................................................................................
.............................................................................O.............................O.O............................................................................................O...............O..O........................O...O..........O...............OOO..................O..O.............................................................................................................................................
.............................................................................OOOO.........................O..O............................................................................................OOOO............O..O........................OOO............O.O......................O...........OOO..............................................................................................................................................
.................................................................O..........O............................OO..............................................................................................O.................O.......................O.O....O...........................O.O..OO.O............O...............................................................................................................................................
..............................................................OOOO.........OOO..O.......................O...O...........................................................................................OOO..O..............OOOO.O................OOOOOOOO..........OOO..............O..O..O...............OO..............O.OOO...........................................................................................................................
..............................................................OO............OOO........................OOO.O.............................................................................................OOO.................O...O...............OO.................OO...............O.....O.........O.....O.O............O.O.O............................................................................................................................
............................................................O................O......................OO....................................................................................................O...................O.................OO....OO............OOO..............O...O........OO.O.....OO....OO........OO.OO...........................................................................................................................
............................................................OOOO..............OOO.O................O...OOOOO...............................................................................................OOO.O..............O.O................O.O...O..O..................O........O...OOO.....O.........OOOOO.O........OO.OOOOO........................................................................................................................
..........................O................................O..................O..OO...............O...O....................................................................................................O..OO........................................O.O..........O.O..OO.O.........OO.........O...............O........OO.OO...........................................................................................................................
.......................OOOO...............................OOO..O...............OOO................O.....OO..................................................................................................OOO..............OOO.................OO.................O..O..O...............OOOOO.O.........OOOOO.OO........O.O.O............................................................................................................................
.......................OO..................................OOO...................O................OOO...OOOO..................................................................................................O..............OO..................O..O...............O.....O.........O......O....O........OO.....O............OOO...........................................................................................................................
.......O.O...........O.............................O.O......O..................O...................O.......O................................................................................................O................OOO..................O..O..............O...O........OO.O.......OO...........O.O.........OO.O..................................................................................................................................
......O..O...........OOOO.........................O..O.......OOO.O.............O.O.................OO.......................................................................................................O.O.......................O...........OOO................O...OOO.....O...........O..O.OO.....OO..........O....O................................................................................................................................
.....OO.............O............................OO..........O..OO............O....................O.O.....................................................................................................O..................O.O..OO.O............O..................OO.........O............O.O....OO..O............OOO..................................................................................................................................
....O..............OOO..O.......................O...O.........OOO..............O.O.................OO..O....................................................................................................O.O..............O..O..O...............OO....................OOOOO.O.....................OOOO.O................................................................................................................................................
...OOOO.............OOO........................OOO.O............O..............O.......O............O.O.....................................................................................................O.......O........O.....O.........O.....O.O....................O....O........................O.O..........OO....................................................................................................................................
..O....O.............O......................OO................O..................O...OOO......................................................................................................................O...OOO........O...O........OO.O.....OO.OO...................OO.....O.................................O.O....................................................................................................................................
..O..O................OOO.O................O...OOOOO..........O.O..............OOO..OO..............OO..............OO.OO...................................................................................OOO..OO...........O...OOO.....O.........OOOOO....O..............O..O.O..O..........................................O...........................................................................................................................
..O..O................O..OO...............O...O..............O................OOO...O.........O.....O..O...........O...O...................................................................................OOO...O.........O...OO.........O............OO...O.O..............O.O...OO........................................OO............................................................................................................................
...O...................OOO................O.....OO............O.O..............OO.....O.....OOO......O....O.........O..O..O.................................................................................OO.....O.....OOO......OOOOO.O.........OOOOO........O.................OOO..........................................OO...........................................................................................................................
....OOOO.O...............O................OOO...OOOO..........O.......O.........OOOOOO.....OO........OOOOOOO.........OOO..O..................................................................................OOOOOO.....OO.........O....O........OO........O..O..................OOO..O.............OO.....................................................................................................................................................
.....O...O.............O...................O.......O............O...OOO..........O.O.......O...............O........O..O..O...................................................................................O.O.......O...........OO...........O.O.......OOO......................OO...............OO....................................................................................................................................................
......O................O.O.................OO.................OOO..OO...............OOOO.O.O.......OOOOOOO.........O...O.........................................................................................OOOO.O.O....O.O.....O..O.OO.....OO.................................O.O.............O......................................................................................................................................................
......O.O.............O....................O.O...............OOO...O.........O......O...OO.........O....OO.........OOO.OO........................................................................................O...OO.....O..O.O....O.O....OO..O......................................O..........................................O.O.....................................................................................................................
.......................O.O.................OO..O..............OO.....O.....OOO........OO...O......O..O........OO.OOO...............................................................................................OO...O..OO................OOOO.O....................................OOO.........................................OO......................................................................................................................
.....OOO...............O.......O............O.O................OOOOOO.....OO..........OOOO.O......OO..........O...O................................................................................................OOOO.O......OO...............O.O.........OO........................OO.O..........................................O......................................................................................................................
.....OO..................O...OOO................................O.O.......O..............O.O..OO...............OOO....................................................................................................O.O......O..O.........................O.........................OO...................................................................................................................................................................
.....OOO...............OOO..OO..............OO.....................OOOO.O.O....................O..O.O...........................................................................................................................O...OOO.......................O..........O.O.........OOO...................................................................................................................................................................
..............O.......OOO...O.........O.....O..O...................O...OO.......................O.O..........OOO................................................................................................................OOOOOOO...................................OO........OO.O......................OOO.........................O................................................................................................................
......O.O..OO.O........OO.....O.....OOO......O.......................OO...O....................................O...................................................................................................................OO........O............................O............O..O...................O.........................OO.................................................................................................................
.....O..O..O............OOOOOO.....OO........OO.OO...O...............OOOO.O.O.O...............................O........O......................................................................................................OOOO...O.......O...........OO.........OO.........OO...O..OO.O...OO...............OO........................OO................................................................................................................
.....O.....O.........O...O.O.......O............O.....OO................O..O..O........................................O.O....................................................................................................O......OO...................O........O.O........O.O....OO......O.O.................OOO.......................................................................................................................................
.....O...O........OO.O......OOOO.O.O.......OOOOO......OO..................OO...........................................OO...........................................................................................O.O......O..O.....O..........O......OO..........O..........O.............O.O................OOO........................................................................................................................................
......O...OOO.....O.........O...OO.........O........O.OO...................O...O.............OO..................................................................................................................OOOO.O......OO.................O.O..........................................OO................O.O.........................................................................................................................................
.......OO.........O...........OO...O......O..O......OO......................O.O.O...........O.O..................................................................................................................OO...O..OO....................OO.OO...........................................................OO.............................O.O..........................................................................................................
..........OOOOO.O.......O.O...OOOO.O......OO..................................O...............O..............................O.................................................................................O...OO.....O..O.O................O..O..............................O.O.........................................................OO........................................................................................................OO.
...........O....O....OOOO.O......O.O..OO....................................................................................O..................................................................................OOOO.O.O....O.O.....O.O.OO.......OO.OO.............................OO...........................................................O........................................................................................................O.O
............OO.......OO..O.............O..O.O...................................OOO.........................................OOO.............................................................................O.O.......O...........O..O...........O.O...........................OOO..O...................................................................................................................................................................O..
.............O..O.OO.....OO.............O.O..........OO.........................O..O.......................................................................................................................OOOOOO.....OO.........OO.....OO........O............................OOO.........................................................................................................................................................................
..............O.O........O.O.........................O.O...........O...........O..........................................................................................................................OO.....O.....OOO......O....OOO...................................O.O...OO..................................................................O.....................................................................................................
.........................OO...OO....................................O..........O....O....................................................................................................................OOO...O.........O.....OOOOOO.OO..................................O..O.O..O................................................................OO......................................................................................................
..........................OOOO..O.....................OO..........OOO.........O.O.......................OO........................O.......................................................................OOO..OO...................OO.O.O.O........O.O..................OO.....O...................................................................OO.....................................................................................................
......................................OO.....................................OO.O...O..................OO.........................O.O.......................................................................O...OOO..........O.OOO.O...O.OO......OOOO.O.................O....O.............................................................................................................................................................................
........................OOO...O......O............OO.........OO.........OO...OO.O.O.O..OO...............O..O......................OO.................................................O.O..................O.......O.........OO..OO.O.......O.....OO...O................OOOOO.O.............................................................................................................................................................................
.......................OO..O..OOO...............O..O........O.O........O.O.....O........O...............O..O........................................................................O..O..................O.O...............O.O................O...OO...............OO.........O...........................................................................................................................................................................
............O.O........O.O.......................OO..........O..........O.............OO...................O.......................................................................OO....................O..................OO.................OOOO.O.O............O...OOO.....O.........................................................................O.O...............................................................................................
...........O..O.OO.....OO................OOO..........................................OO.........O......O.O.............................O.........................................O....O..................O.O...............O.......O.......O.O.......O...........O...O........OO.O......................................................................OO................................................................................................
..........OO.......OO..O.................O.O.....................................................O......OO.............................O.........................................OOOOO.O..................O................OOO...OOOO......OOOOOO.....OO..........O.....O.........O.......................................................................O................................................................................................
.........O....O....OOOO.O................O..O...............................O..........................................................OOO....................................OO............................O..............O.....OO.......OO.....O.....OOO........O..O..O..................................................................................................................................................................................
........OOOOO.O.......O.O.....O.O.........O.O.............................O.O.O..............................................................................................O...OOO...............O......OOO..............O...O.........OOO...O.........O.........O.O..OO.O...............................................................................................................................................................................
.....OO.........O..........OOOO.OO.O......OOO............................O...O..............................................................................................O...O...............OOOO.....O..OO..............O...OOOOO.....OOO..OO..........................O....................................................................................O..........................................................................................
....O...OOO.....O..........OO..O.OO.....................................OO..................................................................................................O.....O.............OO.......OOO.O...............OO.............O...OOO...............OOO.........................................................................................OO...........................................................................................
...O...O........OO.O.....O....OO......................................O..O..O................................................................O..............................OOO...O...........O...OO....O.......................OOO.O.....O.......O...............OO...........................................................................................OO..........................................................................................
...O.....O.........O.....OOOOO.....................................OOOO.O.O.O................................................................O.O.............................O....OO.O........OOOO.O...OOO.......................O...O....O.O.....................OOO......................................................................................................................................................................................
...O..O..O..............O......O.O.O........O.O....................OO...O....................................................................OO..............................OO......O.....O.O........OOO..O......................OO.....O.................................................................................................................................................................................................................
....O.O..OO.O.........OOOO.O.O..O..O.O.....O..O.OO...............O...OO...................................................................O..................................O.O..........OOOOOO.......O...........................O..O...O.O......................O.O.....................................................................................................................................................................................
............O.........O....O........O.....OO.....................OOOO.O.O..............................................................OOOO..................................OOO.O.......OO.....O.......OOOO........................O.O...O........................O................................................................................................O.O....................................................................................
...OOO...............O..O................O....O...............O.O.......O..............................................................OOO.........O..........................OO........OO....O.........O...................................O.....................O...O.............................................................................................OO.....................................................................................
...OO................OO.................OOOOO.O..............OOOOOO.....OO...........................................................O...O........O............................OO.O....OO.....OO..........OO..............................OOO....................OOOO.O..............................................................................................O.....................................................................................
...OOO......................O.O......OO.........O...........OO.....O.....OOO.........................................................OOO..........OOO...........................OO....O..O.....OOO........OOOO...........................O..OO..................O..........................................................................................................................................................................................
.....................O.O...O..O.....O...OOO.....O..........OOO...O.........O......................................................O.O....O............................................O.OOO.O....O...........O...........................OOO.O.................O..O........................................................................................................................................................................................
....O.O.............OO....OO.......O...O........OO.O........OOO..OO......................................................O.O.....OOOOOOOO.......................................OO...O...O.O............................................O......................O..O........................................................................................................O...............................................................................
....O................OO............O.....O.........O..........O...OOO...................................................O..O....OO.............................................OO....OOO...............................................OOO.....................O....O....................................................................................................OO................................................................................
...O...O..............OOOOOOOO.....O..O..O..................O.......O..................................................OO......OOO...OO.................O.......................OO....................................................OOO..O....................OOOO......................................................................................................OO...............................................................................
..OOOO.O...............O.O....O.....O.O..OO.O...............O.O.......................................................O.........OOO...O..O..............O.O......................OOOOOO.O..............................................O.........................O.........................................................................................................................................................................................
.O........................OOO...............O..............O.........................................................OOOOOO.O.....O....O.O..............OO........................O.O...O.O.............................................OOOO......................OO.......................................................................................................................................................................................
O..O......................O...O....OOO......................O.O...................................................OO.......OO...O...................................................OO......O...........................................O..........................O..O....................................................................................................................................................................................
O..O........................OOO....OO.......................O....................................................O...OOO.OO.....O.O.................................................O..OOOO...............................................OO........................O.O........................................................................................................O.O.........................................................................
O....O......................OOOO...OOO........................O.................................................O...O....OO....O..............................O......................O......O.............................................OOOO.................................................................................................................................OO..........................................................................
.OOOO..........................O............................OOO.................................................O.....O...OO....O.O..........................O.......................OO.O.O..................................................O..................................................................................................................................O..........................................................................
..O.................................O.O....................O..OO................................................OOO...OOOO.O....O............................OOO........................O..................................................................................................................................................................................................................................................................
...OO...............................O......................OOO.O..................................................................O........................................................................................................................................................................................................................................................................................................................
....O..O...........................O...O..................O.....................................................OOO...OOOO.O....OOO...................................................................................................................................................................................................................................................O....................................................................
.....O.O..........................OOOO.O.................OOO....................................................O.....O...OO...OOO..................................................................................................................................................................................................................................................OO.....................................................................
.................................O......................OOO..O..................................................O...O....OO....O.O.................................O.................................................................................................................................................................................................................OO....................................................................
................................O..O.....................O.......................................................O...OOO.OO....OO..................................O.O.....................................................................................................................................................................................................................................................................................
................................O..O.................O....OOOO....................................................OO.......OO..O...................................OO............................................................................................OO.................................................................................................OO.....................................................................................
................................O....O............OOOO....O..........................................................OOOOOO.O..OO................................................................................................................................OO.................................................................................................OO.....................................................................................
.................................OOOO.............OO........OO..............O.O.......................................O........OO.........................................................................................................................................................................................................................................................O.O..............................................................
..................................O.............O...........OOOO...........O..O........................................OOOO.O..O.........................................O...............................OO......................................................OO.........................................OO......................................................OO....................OO...............................................................
...................................OO...........OOOO...........O..........OO...........................................O...OO..OOO......................................O................................OO......................................................OO.........................................OO......................................................OO.....................O...............................................................
....................................O..O.......O.........................O...............................................OO....O.....O..................................OOO................................................................................................................................................................................................................................................................................
.....................................O.O......OOO..O....................OOOO.............................................OOOO..OO..O.O.....................................................................................................................................................................................................................................................................................................................
...............................................OOO.....................O....O...............................................O..OO................................................................................................................................................................................................................................................................O.........................................................
................................................O......................O..O....................................................OOOO.OO.....OO.......OO.......OO.......OO................................................................................OO.................................................................................................OO..................................OO..........................................................
.....................O...........................OOO.O.................O..O....................................................OOOO.OO.....OO.......OO.......OO.......OO................................................................................OO.................................................................................................OO...................................OO....OOO..................................................
..................OOOO...........................O..OO..................O...................................................O..OO.............................................O.......................................................................................................................................................................................................................O....................................................
..................OO..............................OOO....................OOOO.O..........................................OOOO..OO..O.O.......................................OO........................................................................................................................................................................................................................O...................................................
................O...................................O.....................O...O..........................................OO....O.....O.......................................O.O...........................................................................................................................................................................................................................................................................
................OOOO........................O.O...O........................O...........................................O...OO..OOO.........................................................................................................................................................................................................................................................................................................................
...............O...........................O..O...O.O......................O.O.........................................OOOO.O..O.................................................................................................................................................................................................................................................................OO........................................................
..............OOO..O......................OO.....O....................................................................O........OO................................................................................................................................................................................................................................................................O.O.......................................................
...............OOO.......................O...O....O.O.....................OOO........................................OOOOOO.O..OO.......................................OO.................................................................................O.O...................................................................................................................................O.........................................................
................O.......................OOO.O.....O.......O...............OO......................................OO.......OO..O.......................................OO.................................................................................O..O.............................................................................................................................................................................................
.................OOO.O...............OO.............O...OOO...............OOO....................................O...OOO.OO....OO........................................O...............................................................................OO..........................O.....................................................................................................................................................................
.................O..OO..............O...OOOOO.....OOO..OO..........................O............................O...O....OO....O.O......................................................................................................................O.........................OOOO.....................................................................................................................................................................
..................OOO..............O...O.........OOO...O.........O.........O.O..OO.O............................O.....O...OO...OOO.....................................................................................................................OOOO.......................OO.......................................................................................................OOO.............................................................
....................O..............O.....OO.......OO.....O.....OOO........O..O..O...............................OOO...OOOO.O....OOO................................O..................................................................................O....O....................O..........................................................................................................O...............................................................
..................O................OOO...OOOO......OOOOOO.....OO..........O.....O.........O.......................................O...............................OO..................................................................................O..O......................OOOO........................................................................................................O..............................................................
..................O.O...............O.......O.......O.O.......O...........O...O........OO.O.....................OOO...OOOO.O....O.................................O.O.................................................................................O..O.....................O...........................................................................................................................................................................
.................O..................OO.................OOOO.O.O............O...OOO.....O........................O.....O...OO....O.O....................................................................................................................O......................OOO..O.......................................................................................................................................................................
..................O.O...............O.O................O...OO...............OO.........O........................O...O....OO....O...........................................................................................O.O..........................OOOO.O.................OOO....................................................................................................OO...................................................................
..................O.......O.........OO..OO.O.......O.....OO...O................OOOOO.O...........................O...OOO.OO.....O.O.......................................................................................O..O...........................O...O..................O.....................................................................................................O.O..................................................................
....................O...OOO..........O.OOO.O...O.OO......OOOO.O.................O....O............................OO.......OO...O............................OO..........................................................OO...............................O......................OOO.O................................................................................................O....................................................................
..................OOO..OO...................OO.O.O.O........O.O..................OO.....O............................OOOOOO.O.....O....O.O..................OO..........................................................O.................................O.O....................O..OO.....................................................................................................................................................................
.................OOO...O.........O.....OOOOOO.OO............O.....................O..O.O..O...........................O.........OOO...O..O....................O........................................................OOOO..........................O............................OOO......................................................................................................................................................................
..................OO.....O.....OOO......O....OOO...........OOO.....................O.O...OO............................OO......OOO...OO...............................................................................O....O......................OOOO...OOO........................O......................................................................................................................................................................
...................OOOOOO.....OO.........OO.....OO.........OOO.........................OOO..............................O..O....OO....................................................................................O..O........................OOO....OO.......................O.............................................................................................OOO........................................................................
....................O.O.......O...........O..O...........O.....O.......................OOO..O............................O.O.....OOOOOOOO...............O.............................................................O..O......................O...O....OOO......................O.O...........................................................................................O..........................................................................
.......................OOOO.O.O....O.O.....O.O.OO........O.O.O.O..........................OO......................................O.O....O.............OO..............................................................O........................OOO...............O..............O...............................................................................................O.........................................................................
.......................O...OO.....O..O.O..................................................O.O........................................OOO...............O.O..............................................................OOOO.O...............O.O....O.....O.O..OO.O...............O.O......................................................................................................................................................................
.........................OO...O..OO.....................O.O.O.O.......................................OO.................O.O.........O...O...............................................................................O...O..............OOOOOOOO.....O..O..O..................O.......O................................................................................................................................................................
.........................OOOO.O......OO.................O.....O.......................................OO.OO.............O..............OOO................................................................................O................OO............O.....O.........O..........O...OOO................................................................................OO..............................................................................
............................O.O......O..O......OO.........OOO......O..........O..........O...........O...OO................O.O.........OOOO...............................................................................O.O.............OO....OO.......O...O........OO.O........OOO..OO..................................................................................O.O.............................................................................
......................................O........O.OO.......OOO.....O.O........O.O........O.O......O....OO...O............OOO..O............O.......OO.......................................................................................O.O...O..O.....O...OOO.....O..........OOO...O.........O.........................................................................O...............................................................................
......................................OOOOO......OO................OO.........OO.....O...OO........O..OO.OO............OOO..O....................OO......................................................................OOO......................O.O......OO.........O...........OO.....O.....OOO.........................................................................................................................................................
...........................................O.....OO..................................OO..........O.OO....OO............OO..O.......................O.....................................................................OO................OO.................OOOOO.O..............OOOOOO.....OO...........................................................................................................................................................
........................................OO.OO...O...................................O.O.........O..OO..................O.OOO.............................................................................................OOO...............O..O................O....O...............O.O.......O............................................................................................................................................................
........................................O.......................................................O.O.....................OO........................................................................................................O.........O....O........O.....OO.....................OOOO.O.O......................................................................OOO...................................................................................
..............................O.O......O..O...........................OO.........................O...........................................O............................................................................O.O..OO.O.........OOOO.O.O..O..O.O.....O..O.OO...............O...OO........................................................................O.....................................................................................
...........................OOOO.O......OO...............O.O...........OO...........................O........................................OO...........................................................................O..O..O..............O......O.O.O........O.O....................OO...O.......................................................................O....................................................................................
...........................OO...O..OO................OOOO.O...........OO..........................O.O.......................................O.O..........................................................................O.....O.........O.....OOOOO.....................................OOOO.O.O.O........................................................................................................................................................
.........................O...OO.....O..O.O....O.O....OO..O...........OOO..........................O.O....................................................................................................................O...O........OO.O.....O....OO......................................O..O..O........................................................................................................................................................
.........................OOOO.O.O....O.O.....O..O.OO.....OO.........O...O...................O.O....O......................................................................................................................O...OOO.....O..........OO..O.OO...........OO.OO.....................OO................................................................OO.........................................................................................
......................O.O.......O...........OO...........O.O........OO...O..................OO.................O...........................................................................................................OO.........O..........OOOO.OO.O...............O.....................O...O............................................................O.O........................................................................................
.....................OOOOOO.....OO.........O....O........OO...O...........O..............OOO..O.................OO.....................OO.....................................................................................OOOOO.O.......O.O.....O.O.............O....O......................O.O.O...........................................................O..........................................................................................
....................OO.....O.....OOO......OOOOO.O.........OOOOO.O......O..O..............OOO...................OO.....................OO.......................................................................................O....O....OOOO.O...................O......O........................O........................................................................................................................................................
...................OOO...O.........O...OO.........O..............O.....O..O..........O.O...OO...........................................O.......................................................................................OO.......OO..O...........OOO......O..O.O......................................OO.OOO.......................................................................................................................................
....................OOO..OO...........O...OOO.....O.........OOOOO......OO...........O..O.O..O....................................................................................................................................O..O.OO.....OO.........O...O......O.OO...........................O...........O.O.OO.OO...............OO...................................................................................................................
......................O...OOO........O...O........OO.O.....OO...O..................OO.....O....................................OO.................................................................................................O.O........O.O........OO...O......O.O......O..........O.......O..O..........O.....OOO.................O.................OOO..............................................................................................
....................O.......O........O.....O.........O.....O.O....................O....O........................O.O...........O.OO...........................................................................................................OO...O...........O.....O.O.....O.O........O.O......O...O.........O...O....O..................................O................................................................................................
....................O.O..............O..O..O...............OO....................OOOOO.O.....................OOOO.O..........OO..OO...........................................................................................................OOOOO.O......O..O..............OO.........OO..........O.......OO......OOO...............OOO..................O...............................................................................................
...................O..................O.O..OO.O............O..................OO.........O............O.O....OO..O...........OOO.OOO.................................................................................................................O.....O..O.....OOO.........................OOOO........OO.....O.OO...............OO...................................................................................................................
....................O.O.......................O...........OOO................O...OOO.....O...........O..O.OO.....OO...........O.OO......O.......................................................................................................OOOOO......OO...................................OO.........O......................O........................................................................................................................
....................O................OOO..................O..O..............O...O........OO.O.......OO...........O.O......O....O.......OO......................................................................................................OO...O......................................................O..O..................O...................OO....................................................................................................
......................O..............OO..................O..O...............O.....O.........O......O....O........OO....OOO............O.............................................................................................O.O........O.O..............................OO.........................O..O...................O..................O.O...................................................................................................
....................OOO..............OOO.................OO.................O..O..O...............OOOOO.O.........OOOOOOO.O..O.........O...........................................................................................O..O.OO.....OO.............O.O...............OO.........................O.........................................O.....................................................................................................
...................O..OO........................................O.O..........O.O..OO.O.........OO.........O...................O......O....O.......................................................................................OO.......OO..O.............O..O.O............O...........................OO..............................................................................................................................................
...................OOO.O..............O.O................O.O...O..O..................O........O...OOO.....O.........OOO....O..O......OOO..OOO....................................................................................O....O....OOOO.O......O.O..OO.................OOO.........................O...............................................................................................................................................
..................O...................O.................OO....OO............OOO..............O...O........OO.O.....OO..O...O.O............O.....................................................................................OOOOO.O.......O.O...OOOO.O......OO............O...O.................O.......O..............................................................................................................................................
.................OOO.................O...O...............OO.................OO...............O.....O.........O.....O.O.....O.O...............................................................................................OO.........O...........OO...O......O..O.....O....O....OO.............O.O.O........................................OOO.........................................................................................................
................OOO..O..............OOOO.O................OOOOOOOO..........OOO..............O..O..O...............OO.......................................................................................................O...OOO.....O.........O...OO.........O....O.O.O....O.....O...........O...O.....................O...................O...........................................................................................................
.................O.................O.......................O.O....O...........................O.O..OO.O............O.......................................................................................................O...O........OO.O......OOOO.O.O.......OOOOOO..OOOO..O................OO..........................O...................O..........................................................................................................
..................OOOO............O..O........................OOO............O.O......................O...........OOO......................................................................................................O.....O.........O...O.O.......O.................OO...O...O.........O..O..O.....................OOO..............................................................................................................................
..................O...............O..O........................O...O..........O...............OOO..................O..O.....................................................................................................O..O..O............OOOOOO.....OO........OOOO......O..O.O........OOOO.O.O.O.....................................OOO..............................................................................................................
....................OO............O....O........................OOO.........O...O............OO..................O..O.......................................................................................................O.O..OO.O........OO.....O.....OOO......O......OOO..............OO...O.........................................OO.O.............................................................................................................
....................OOOO...........OOOO.........................OOOO.......OOOO.O............OOO.................OO.................................................................................................................O.......OOO...O.........O.....O..O....OO.............O...OO.......................O.O...............O.....O............................................................................................................
.......................O............O..............................O......O.............................................O.O................................................................................................OOO...............OOO..OO..............OO.....................OOOO.O.O....................O..O.O..............OOO..O............................................................................................................
.....................................OO..................................O..O.................O.O................O.O...O..O................................................................................................OO..................O...OOO................................O.O.......O..............O.O..OO.....................O.OO............................................................................................................
......................................O..O...............................O..O.................O.................OO....OO...................................................................................................OOO...............O.......O............O.O................OOOOOO.....OO..........OOOO.O......OO..................O....OO........................................................................................................
.......................................O.O...............................O....O..............O...O...............OO..........................................................................................................................O.O.................OO..O..............OO.....O.....OOO........OO...O......O..O...................O...........................................................................................................
..........................................................................OOOO..............OOOO.O................OOOOOOOO..................................................................................................O.O.............O....................O.O...............OOO...O.........O......O...OO.........O......O.............O.....O......................................................................................................
...........................................................................O...............O.......................O.O....O.................................................................................................O................O.O.................OO.................OOO..OO...............OOOO.O.O.......OOOO..OOO.....O......OO....O......................................................................................................
............................................................................OO............O..O........................OOO..................................................................................................O...O.............O...................O.......O............O...OOO..........O.O.......O..............OO....O.O........O...O.....................................................................................................
.............................................................................O..O.........O..O........................O...O...............................................................................................OOOO.O...............O................OOO...OOOO..........O.......O.........OOOOOO.....OO........OOOOOO....O...O.....O...O.O.....................................................................................................
..............................................................................O.O.........O....O........................OOO..............................................................................................O...................OOO................O.....OO............O.O..............OO.....O.....OOO......O...O......O.O......OOOOOOO.....................................................................................................
...........................................................................................OOOO.........................OOOO............................................................................................O..O................O..OO...............O...O..............O................OOO...O.........O.....O..O.........O.......OOO.........................................................................................................
............................................................................................O..............................O............................................................................................O..O................OOO.O................O...OOOOO..........O.O..............OOO..OO..............OO...............................................................................................................................
.............................................................................................OO.........................................................................................................................O....O.............O......................OO................O..................O...OOO.............................................................................................................................................
..............................................................................................O..O.......................................................................................................................OOOO.............OOO........................OOO.O............O..............O.......O............O.O..............................................................................................................................
...............................................................................................O.O........................................................................................................................O..............OOO..O.......................O...O.........OOO..............O.O.................OO..O.............................................................................................................................
...........................................................................................................................................................................................................................OO.............O............................OO..........O..OO............O....................O.O...............................................................................................................................
............................................................................................................................................................................................................................O..O...........OOOO.........................O..O.......OOO.O.............O.O.................OO................................................................................................................................
.............................................................................................................................................................................................................................O.O...........O.............................O.O......O..................O...................O.......O.........................................................................................................................
.............................................................................................................................................................................................................................................OO..................................OOO...................O................OOO...OOOO.........................................................................................................................
.............................................................................................................................................................................................................................................OOOO...............................OOO..O...............OOO................O.....OO...........................................................................................................................
................................................................................................................................................................................................................................................O................................O..................O..OO...............O...O..............................................................................................................................
..................................................................................................................................................................................................................................................................................OOOO..............OOO.O................O...OOOOO.........................................................................................................................
..................................................................................................................................................................................................................................................................................O................O......................OO...............................................................................................................................
....................................................................................................................................................................................................................................................................................OO............OOO........................OOO.O.........................................................................................................................
....................................................................................................................................................................................................................................................................................OOOO.........OOO..O.......................O...O........................................................................................................................
.......................................................................................................................................................................................................................................................................................O..........O............................OO..........................................................................................................................
...................................................................................................................................................................................................................................................................................................OOOO.........................O..O.......................................................................................................................
...................................................................................................................................................................................................................................................................................................O.............................O.O.......................................................................................................................
.....................................................................................................................................................................................................................................................................................................OO....................................................................................................................................................
.....................................................................................................................................................................................................................................................................................................OOOO..................................................................................................................................................
........................................................................................................................................................................................................................................................................................................O..................................................................................................................................................
