!Name: c2-0020
!
........................................................................................................................................................................................O..O..............................
.......................................................................................................................................................................................O..................................
.......................................................................................................................................................................................O...O..............................
........................................................................................................OOOO.........................................................OOOO..............OOOO...............................
............O..O........................................................................................O...O........................................................O...O................................................
...OO......O............................................................................................O............................................................O....................................................
..OO.OO....O...O.........................................................................................O..O..................OOO....................................O..O..................OO..........O.........O.......
...OOOO....OOOO..................................................................................................................O............................................................O........O.O.......O.O......
....OO...........................................................................................................................OO...........................................................OO........OO........OO......
.................OO........................................................................................OO...OO......................................................OO...OO...........................................
..........................................................................................................O.O......O...................................................O.O......O.........................................
......OOO.......O..O......................................................................................O......O..O..................................................O......O..O........................................
.....OO...O.....OO.OO.....................................................................................OOO.......OO.................................................OOO.......OO.......................................
....OO..O.O..OOOOO.O...............................................................................................OO...........................................................OO........................................
.....O.....O.OOO..O.......................................................................................................................................................................................................
......OO..O...O..............OO...........................................................................................................................................................................................
..........O.................OO............................................................................................................................................................................................
........O.....................O.........................................................................OOOO.....OO..................................................OOOO.....OO..........................................
........................................................................................................O...O...OO.OO................................................O...O...OO.OO........................................
...OO...................................................................................................O........OOOO................................................O........OOOO........................................
..OO.OO..............OO..................................................................................O..O.....OO..................................................O..O.....OO.........................................
...OOOO.............OOOO..................................................................................................................................................................................................
....OO.............OO.OO..................................................................................................................................................................................................
....................OO....................................................................................................................................................................................................
.....................OO...................................................................................................................................................................................................
....................OOOO..................................................................................................................................................................................................
...OO..............OO.OO..................................................................................................................................................................................................
..OOOO..............OO..................................................................................OOOO.............................................................................OO...............................
.OO.OO......................OO..........................................................................O...O........................................................OOOO..............O....O.............................
..OO.......................O.O..........................................................................O............................................................O...O............O...................................
.............................O...........................................................................O..O........................................................O................O.....O.............................
.......O..............................................................................................................................................................O..O............OOOOOO..............................
.........O................................................................................................................................................................................................................
.....OO..O...O.............................................................................................OO.....OO......................................................................................................
....O.....O.OOO..O........................................................................................O.O...O.......................................................OO...OO...........................................
...OO..O.O..OOOOO.O.......................................................................................O......O.O...................................................O.O......O.............O.........O.................
....OO...O.....OO.OO......................................................................................OOO.....O....................................................O......O..O...........O.O.......O.O................
.....OOO.......O..O....................................................................................................................................................OOO.......OO...OO.....O.O.......O.O................
................................................................................................................................................................................OO....OO......O.........O.................
................OO..............................................................................................................................................................OO........................................
...OO.....................................................................................................................................................................................................................
..OOOO....OOOO..........................................................................................OOOO..............................................................................................................
.OO.OO....O...O.........................................................................................O...O........................................................OOOO.....OO..........................................
..OO......O.............................................................................................O............................................................O...O...OO.OOO.......................................
...........O..O..........................................................................................O..O........................................................O........OOOOO.......................................
......................................................................................................................................................................O..O.....OOO........................................
...................OO.....................................................................................................................................................................................................
..................OOOO....................................................................................................................................................................................................
.................OO.OO....................................................................................................................................................................................................
.OO...............OO......................................................................................................................................................................................................
OO.OO...................................................................................................................................................................................OO................................
.OOOO..................................................................................................................................................................................OOOO...............................
..OO..................................................................................................................................................................................OO.OO...............................
......................O..............................................................................................................................................OOOO..............OO.................................
................OO...OOO................................OOO..........................................................................................................O...O................................................
....OOO.........OOO.OOOOO..............................O..O..........................................................................................................O......................O..........O.........O........
...OO...O.........OOO........O.O..........................O...........................................................................................................O..O..................OOO.......O.O.......O.O.......
..OO..O.O.........OOO........OO...........................O...................................................................................................................................O.......O..O......O..O......
...O.....O.........O..........O........................O.O....................................................................................................................................OO.......OO........OO.......
....OO..O...........O...................................................................................................................................................OO...OO...........................................
........O..............................................................................................................................................................O.O......O.........................................
......O...........................O.O..................................................................................................................................O......O..O........................................
..........O..O....................OO...................................................................................................................................OOO.......OO.......................................
.OO......O............OO...........O............................................................................................................................................OO........................................
OO.OO....O...O.......OO.OOOO..................OOO.........................................................................................................................................................................
.OOOO....OOOO.........OOOOOO.................O..O.........................................................................................................................................................................
..OO...................OOOO............O.O......O.........................................................................................................................................................................
.......................................OO.......O....................................................................................................................OOOO.....OO..........................................
........................................O....O.O.....................................................................................................................O...O...OO.OO........................................
...................OOOOOOOOO.........................................................................................................................................O........OOOO........................................
...................O........O.........................................................................................................................................O..O.....OO.........................................
...................O........O.............................................................................................................................................................................................
....................O......O.........OO...................................................................................................................................................................................
......................OO.............OO...................................................................................................................................................................................
................................OOO.......................................................................................................................................................................................
......................OO.......OOOOO......OOO.............................................................................................................................................................................
.....................OO.OOOO..OO.OOO......O...............................................................................................................................................................................
....OOOO.....OO.......OOOOOO...OO..........O..............................................................................................................................................................................
....O...O...OO.OO......OOOO...............................................................................................................................................................................................
....O........OOOO.........................................................................................................................................................................................................
.....O..O.....OO.....................OOO..................................................................................................................................................................................
.....................................O....................................................................................................................................................................................
.........OO...........................O...................................................................................................................................................................................
.......OOOOO...........OO.O...............................................................................................................................................................................................
......O....O..........O.....O.............................................................................................................................................................................................
......O..OOO..........O.........OOO.......................................................................................................................................................................................
......OO..O...........O.....O...O......................................................................................................................................................OOOO...............................
........OO.........OO..O...O.....O....................................................................................................................................................OOOOOO..............................
...................OO...OOO................................................................................OOOOOO....................................................OOOO............OO.OOOO..............................
...........................................................................................................O.....O...................................................O...O............OO.......................O.........O
...........................................................................................................O.........................................................O.........................................O.........O
....OOOO....................................................................................................O....O....................................................O..O.....................................O.........O
....O...O.............O..O....................................................................................OO........................................................................OO................................
....O................O.......................................................................................OOO.......................................................................OO.................................
.....O..O............O...O..................................................................................OOOOO.......................................................OO...OO........OOO.O........OO.O.......O..........
.....................OOOO..................................................................................OO.OOOO.....................................................O.O......O.......OOOO......OO...O......OOO.........
............................................................................................................OO.........................................................O......O..O.......OO.O....O.....O.....O.O.O........
.......................................................................................................................................................................OOO.......OO.....O...........O........O.O.O........
................................................................................................................................................................................OO.....OOO.O.........OO.......OOO.........
.......................................................................................................................................................................................OOOOO......OO.O.........O..........
...........................................................................................................OOOOOO.......................................................................O..O........OO....................
...........................................................................................................O.....O.............................................................O..O......OO...............................
...........................................................................................................O.........................................................OOOO.....O...........................................
............................................................................................................O....O...................................................O...O....O...O.......................................
.....................OO.......................................................................................OO.....................................................O........OOOO........................................
.....OO.............OO.OO.............................................................................................................................................O..O................................................
....OOOO.............OOOO.................................................................................................................................................................................................
...OO.OO..............OO..................................................................................................................................................................................................
....OO....................................................................................................................................................................................................................
..................OO....O.................................................................................................................................................................................................
.......OO.........OO...OOO.......O........................................................................................................................................................................................
......O..O............OO.OO....OO.........................................................................................................................................................................................
.....OO..O...........OOO.OOO....OO........................................................................................................................................................................................
......OO..O...........OO.OOO..............................................................................................................................................................................................
.......OOOO............O.O................................................................................................................................................................................................
......................................O...................................................................................................................................................................................
....................................OO....................................................................................................................................................................................
.....OO..............................OO...................................................................................................................................................................................
....OOOO....OOOO..........................................................................................................................................................................................................
...OO.OO....O...O.........................................................................................................................................................................................................
....OO......O..............................O..............................................................................................................................................................................
.............O..O...OO...................OO...............................................................................................................................................................................
...................OOOO....OOOO...........OO..............................................................................................................................................................................
..................OO.OO....O...O..........................................................................................................................................................................................
...................OO......O..............................................................................................................................................................................................
............................O..O................O.........................................................................................................................................................................
..............................................OO..........................................................................................................................OOOOOO..........................................
........................O........O.............OO.........................................................................................................................O.....O.........................................
......................OOOO.......O...O....................................................................................................................................O..............OOO..............................
.....................O.OOOOOOOO...O...O....................................................................................................................................O....O.......OOOOO.............................
....................OO........O......O...............O.......................................................................................................................OO........OO.OOO.............................
.....................OOO.O.........OO..............OO....................................................................................................................OOOOOOO........OO................................
......................OOO.....OO....................OO..................................................................................................................OOOOOOOO..OO......................................
...........................O...O.......................................................................................................................................OO.OOOOOO..........................................
........................................................................................................................................................................OO........O.......................................
....................OO.........................O..........O......................................................................................................................O........................................
...................OOOO.........................O.......OO..............................................................................................................................O.................................
..................OO.OO...............OO......OOO........OO............................................................................................................................OO.................................
...................OO................OOOO...............................................................................................................................................OO......O.........O...............
....................................OO.OO......................OOOOO......................................................................................................OOOOOO................O.........O...............
.....................................OO.......................O....O......................................................................................................O.....O..OOOOO........O.........O...............
...................................................................O......................................................................................................O........O....O.................................
..............................................................O...O........................................................................................................O....O..O......................................
............................OO..................................O............................................................................................................OO.....O...O.................................
...........................OO.OO...........OOO........................................................................................................................................O....OOOO...........................
..........OO................OOOO.............O............................................................................................................................................OOOOOO..........................
.........OO.OO...............OO.............O............................................................................................................................................OO.OOOO..........................
..........OOOO............................................................................................................................................................................OO..............................
...........OO.............................................................................................................................................................................................................
...............................O..........................................................................................................................................................................................
.........................OO...OOO.........................................................................................................................................................................................
.............OOO.........OOO.OOOOO........................................................................................................................................................................................
............OO...O.........OOO............................................................................................................................................................................................
...........OO..O.O.........OOO............................................................................................................................................................................................
............O.....O.........O.............................................................................................................................................................................................
.............OO..O...........O............................................................................................................................................................................................
.................O........................................................................................................................................................................................................
...............O..........................................................................................................................................................................................................
...................O..O...................................................................................................................................................................................................
..........OO......O.......................................................................................................................................................................................................
.........OO.OO....O...O...................................................................................................................................................................................................
..........OOOO....OOOO....................................................................................................................................................................................................
...........OO.............................................................................................................................................................................................................
............................................................................................................OOOOOO........................................................OOOOOO..........................................
............................................................................................................O.....O.......................................................O.....O.........................................
............................................................................................................O.............................................................O...............................................
.............................................................................................................O....O........................................................O....O.........................................
...............................................................................................................OO............................................................OO...........................................
...........................................................................................................OOOOOOO.......................................................OOOOOOO..........................................
..........................................................................................................OOOOOOOO..OO..................................................OOOOOOOO..OO......................................
.........................................................................................................OO.OOOOOO.....................................................OO.OOOOOO..........................................
..........................................................................................................OO........O...................................................OO........O......OO...............................
...................................................................................................................O.............................................................O......O.........OO........OO............
.........................................................................................................................................................................................OO.......OO........OO............
......................................................................................................................................................................................O...................................
....................................................................................................................................................................................O...O.................................
............................................................................................................OOOOOO........................................................OOOOOO...O......................................
............................................................................................................O.....O.......................................................O.....O..O....O.................................
............................................................................................................O.............................................................O........OOOOO..................................
.............................................................................................................O....O........................................................O....O.........................................
...............................................................................................................OO............................................................OO...........................................
