!Name: c2-0102
!Cp102  puffer by Paul Tooke, Apr 2001
!CRake by David Bell
!
................................................................................................................................................................O.O......................................................................................................................................................................................................................................................................................................................................................................................................................................................................................................................................................................................................................................................................................................................................................................................................................................................................................................................................................................
...............................................................................................................................................................O..O......................................................................................................................................................................................................................................................................................................................................................................................................................................................................................................................................................................................................................................................................................................................................................................................................................................................................................................................................................................
..............................................................................................................................................................OO.........................................................................................................................................................................................................................................................................................................................................................................................................................................................................................................................................................................................................................................................................................................................................................................................................................................................................................................................................................................
.............................................................................................................................................................O....O......................................................................................................................................................................................................................................................................................................................................................................................................................................................................................................................................................................................................................................................................................................................................................................................................................................................................................................................................................................
............................................................................................................................................................OOOOO.O......................................................................................................................................................................................................................................................................................................................................................................................................................................................................................................................................................................................................................................................................................................................................................................................................................................................................................................................................................................
.........................................................................................................................................................OO..............................................................................................................................................................................................................................................................................................................................................................................................................................................................................................................................................................................................................................................................................................................................................................................................................................................................................................................................................................................
........................................................................................................................................................O...OOO..........................................................................................................................................................................................................................................................................................................................................................................................................................................................................................................................................................................................................................................................................................................................................................................................................................................................................................................................................................................
.......................................................................................................................................................O...O.......................O.....................................................................................................................................................................................................................................................................................................................................................................................................................................................................................................................................................................................................................................................................................................................................................................................................................................................................................................................................................
.......................................................................................................................................................O.....O...................O..O....................................................................................................................................................................................................................................................................................................................................................................................................................................................................................................................................................................................................................................................................................................................................................................................................................................................................................................................................................
.......................................................................................................................................................OOO...O..................O........................................................................................................................................................................................................................................................................................................................................................................................................................................................................................................................................................................................................................................................................................................................................................................................................................................................................................................................................................
........................................................................................................................................................O....OO.O.O....O.O.....OO........................................................................................................................................................................................................................................................................................................................................................................................................................................................................................................................................................................................................................................................................................................................................................................................................................................................................................................................................................
........................................................................................................................................................OO......O..O..O..O.OO.OO.........................................................................................................................................................................................................................................................................................................................................................................................................................................................................................................................................................................................................................................................................................................................................................................................................................................................................................................................................................
........................................................................................................................................................O.O......O...OO.......OOO........................................................................................................................................................................................................................................................................................................................................................................................................................................................................................................................................................................................................................................................................................................................................................................................................................................................................................................................................................
........................................................................................................................................................OO..O.....O......O......O...O....................................................................................................................................................................................................................................................................................................................................................................................................................................................................................................................................................................................................................................................................................................................................................................................................................................................................................................................................................
.........................................................................................................................................................OOO.......OOOOO.O....OOO........................................................................................................................................................................................................................................................................................................................................................................................................................................................................................................................................................................................................................................................................................................................................................................................................................................................................................................................................................
...........................................................................................................................................................................OO.OO.........................................................................................................................................................................................................................................................................................................................................................................................................................................................................................................................................................................................................................................................................................................................................................................................................................................................................................................................................................
.........................................................................................................................................................OOO.......OOOOO.O.....OO........................................................................................................................................................................................................................................................................................................................................................................................................................................................................................................................................................................................................................................................................................................................................................................................................................................................................................................................................................
........................................................................................................................................................OO..O.....O......O......O........................................................................................................................................................................................................................................................................................................................................................................................................................................................................................................................................................................................................................................................................................................................................................................................................................................................................................................................................................
........................................................................................................................................................O.O......O...OO..........O..O....................................................................................................................................................................................................................................................................................................................................................................................................................................................................................................................................................................................................................................................................................................................................................................................................................................................................................................................................................
........................................................................................................................................................OO......O..O..O..O.OO......O.....................................................................................................................................................................................................................................................................................................................................................................................................................................................................................................................................................................................................................................................................................................................................................................................................................................................................................................................................................
........................................................................................................................................................O....OO.O.O....O.O...............................................................................................................................................................................................................................................................................................................................................................................................................................................................................................................................................................................................................................................................................................................................................................................................................................................................................................................................................................
.......................................................................................................................................................OOO...O...........................................................................................................................................................................................................................................................................................................................................................................................................................................................................................................................................................................................................................................................................................................................................................................................................................................................................................................................................................................
.......................................................................................................................................................O.....O...........................................................................................................................................................................................................................................................................................................................................................................................................................................................................................................................................................................................................................................................................................................................................................................................................................................................................................................................................................................
.......................................................................................................................................................O...O.............................................................................................................................................................................................................................................................................................................................................................................................................................................................................................................................................................................................................................................................................................................................................................................................................................................................................................................................................................................
........................................................................................................................................................O...OOO..........................................................................................................................................................................................................................................................................................................................................................................................................................................................................................................................................................................................................................................................................................................................................................................................................................................................................................................................................................................
.........................................................................................................................................................OO..............................................................................................................................................................................................................................................................................................................................................................................................................................................................................................................................................................................................................................................................................................................................................................................................................................................................................................................................................................................
............................................................................................................................................................OOOOO.O......................................................................................................................................................................................................................................................................................................................................................................................................................................................................................................................................................................................................................................................................................................................................................................................................................................................................................................................................................................
.............................................................................................................................................................O....O......................................................................................................................................................................................................................................................................................................................................................................................................................................................................................................................................................................................................................................................................................................................................................................................................................................................................................................................................................................
..............................................................................................................................................................OO.........................................................................................................................................................................................................................................................................................................................................................................................................................................................................................................................................................................................................................................................................................................................................................................................................................................................................................................................................................................
...............................................................................................................................................................O..O......................................................................................................................................................................................................................................................................................................................................................................................................................................................................................................................................................................................................................................................................................................................................................................................................................................................................................................................................................................
................................................................................................................................................................O.O......................................................................................................................................................................................................................................................................................................................................................................................................................................................................................................................................................................................................................................................................................................................................................................................................................................................................................................................................................................
.........................................................................................................................................................................OO.......................O......................................................................................................................................................................................................................................................................................................................................................................................................................................................................................................................................................................................................................................................................................................................................................................................................................................................................................................................................
.........................................................................................................................................................................O.O......................O.O....................................................................................................................................................................................................................................................................................................................................................................................................................................................................................................................................................................................................................................................................................................................................................................................................................................................................................................................................
.........................................................................................................................................................................O........................OO.....................................................................................................................................................................................................................................................................................................................................................................................................................................................................................................................................................................................................................................................................................................................................................................................................................................................................................................................................
..........................................O.O............................................................................................................................................................................................................................................................................................................................................................................................................................................................................................................................................................................................................................................................................................................................................................................................................................................................................................................................................................................................................................................................................................
.........................................O..O............................................................................................................................................................................................................................................................................................................................................................................................................................................................................................................................................................................................................................................................................................................................................................................................................................................................................................................................................................................................................................................................................................
........................................OO...............................................................................................................................................................................................................................................................................................................................................................................................................................................................................................................................................................................................................................................................................................................................................................................................................................................................................................................................................................................................................................................................................................
.......................................O.................................................................................................................................................................................................................................................................................................................................................................................................................................................................................................................................................................................................................................................................................................................................................................................................................................................................................................................................................................................................................................................................................................
......................................OOOO...............................................................................................................................................................................................................................................................................................................................................................................................................................................................................................................................................................................................................................................................................................................................................................................................................................................................................................................................................................................................................................................................................................
.....................................O....O..............................................................................................................................................................................................................................................................................................................................................................................................................................................................................................................................................................................................................................................................................................................................................................................................................................................................................................................................................................................................................................................................................................
.....................................O..O................................................................................................................................................................................................................................................................................................................................................................................................................................................................................................................................................................................................................................................................................................................................................................................................................................................................................................................................................................................................................................................................................................
.....................................O..O................................................................................................................................................................................................................................................................................................................................................................................................................................................................................................................................................................................................................................................................................................................................................................................................................................................................................................................................................................................................................................................................................................
......................................O........................O.........................................................................................................................................................................................................................................................................................................................................................................................................................................................................................................................................................................................................................................................................................................................................................................................................................................................................................................................................................................................................................................................................
.......................................OOOO.O...............OOOO.........................................................................................................................................................................................................................................................................................................................................................................................................................................................................................................................................................................................................................................................................................................................................................................................................................................................................................................................................................................................................................................................................
........................................O...O...............OO...........................................................................................................................................................................................................................................................................................................................................................................................................................................................................................................................................................................................................................................................................................................................................................................................................................................................................................................................................................................................................................................................................
.........................................O................O...OO.........................................................................................................................................................................................................................................................................................................................................................................................................................................................................................................................................................................................................................................................................................................................................................................................................................................................................................................................................................................................................................................................................
.........................................O.O..............OOOO.O.........................................................................................................................................................................................................................................................................................................................................................................................................................................................................................................................................................................................................................................................................................................................................................................................................................................................................................................................................................................................................................................................................
.......................................................O.O.....................................................................................................................................................................................................................................................................................................................................................................................................................................................................................................................................................................................................................................................................................................................................................................................................................................................................................................................................OOO.......................................................................................................................................
........................................OOO...........OOOOOO...................................................................................................................................................................................................................................................................................................................................................................................................................................................................................................................................................................................................................................................................................................................................................................................................................................................................................................................................O.........................................................................................................................................
........................................OO...........OO.....O...................................................................................................................................................................................................................................................................................................................................................................................................................................................................................................................................................................................................................................................................................................................................................................................................................................................................................................................................O........................................................................................................................................
........................................OOO.........OOO...O..............................................................................................................................................................................................................................................................................................................................................................................................................................................................................................................................................................................................................................................................................................................................................................................................................................................................................................................................................................................................................................................................................
.................................................O...OOO..OO.............................................................................................................................................................................................................................................................................................................................................................................................................................................................................................................................................................................................................................................................................................................................................................................................................................................................................................................................................................................................................................................................................
.........................................O.O..OO.O.....O...OOO...........................................................................................................................................................................................................................................................................................................................................................................................................................................................................................................................................................................................................................................................................................................................................................................................................................................................................................................................................................................................................................................................................
........................................O..O..O......O.......O..............................................................................................................................................................O............................................................................................................................................................................................................................................................................................................................................................................................................................................................................................................................................................................................................................................................................................................................................................................................................................................................................................................
........................................O.....O......O.O.......................................................................................OOO.........................................................................O.............................................................................................................................................................................................................................................................................................................................................................................................................................................................................................................................................................................................................................................................................................................................................................................................................................................................................................................
........................................O...O.......O..........................................................................................O...........................................................................OOO...........................................................................................................................................................................................................................................................................................................................................................................................................................................................................................................................................................................................................................................................................................................................................................................................................................................................................................................
.........................................O...OOO....O........O..................................................................................O........................................................................................................................................................................................................................................................................................................................................................................................................................................................................................................................................................................................................................................................................................................................................................................................................................................................................................................................................................................................
..........................................OO.........O.....OO.O..........................................................................................................................................................................................................................................................................................................................................................................................................................................................................................................................................................................................................................................................................................................................................................................................................................................................................................................................................................................................................................................................................
.............................................OOOOO.O...O..OOO............................................................................................................................................................................................................................................................................................................................................................................................................................................................................................................................................................................................................................................................................................................................................................................................................................................................................................................................................................................................................................................................................
..............................................O....O...O.O...............................................................................................................................................................................................................................................................................................................................................................................................................................................................................................................................................................................................................................................................................................................................................................................................................................................................................................................................................................................................................................................................................
...............................................OO......O..OOO............................................................................................................................................................................................................................................................................................................................................................................................................................................................................................................................................................................................................................................................................................................................................................................................................................................................................................................................................................................................................................................................................
................................................O..O.O.....OO.O..........................................................................................................................................................................................................................................................................................................................................................................................................................................................................................................................................................................................................................................................................................................................................................................................................................................................................................................................................................................................................................................................................
.................................................O.O.........O...........................................................................................................................................................................................................................................................................................................................................................................................................................................................................................................................................................................................................................................................................................................................................................................................................................................................................................................................................................................................................................................................................
.............................................................................................................................OO.................................................OO.................................................OO.................................................OO.................................................OO.................................................OO.................................................OO.................................................OO.................................................OO.................................................OO.................................................OO.................................................OO.................................................OO.................................................OO.................................................OO.................................................OO.................................................OO.................................................OO.................................................OO.................................................OO.
............................................................................................................................O..O...............................................O..O...............................................O..O...............................................O..O...............................................O..O...............................................O..O...............................................O..O...............................................O..O...............................................O..O...............................................O..O...............................................O..O...............................................O..O...............................................O..O...............................................O..O...............................................O..O...............................................O..O...............................................O..O...............................................O..O...............................................O..O...............................................O..O
.....................................................................O.O.....................................................OO.................................................OO.................................................OO.................................................OO.................................................OO.................................................OO.................................................OO.................................................OO.................................................OO.................................................OO.................................................OO.................................................OO.................................................OO.................................................OO.................................................OO.................................................OO.................................................OO.................................................OO.................................................OO.................................................OO.
............O..................O.O......O............................O...................................................................................................................................................................................................................................................................................................................................................................................................................................................................................................................................................................................................................................................................................................................................................................................................................................................................................................................................................................................................................................................................
..........OO.O..............O.O..O...OO.O.........................OOOO...O...............................................................................................................................................................................................................................................................................................................................................................................................................................................................................................................................................................................................................................................................................................................................................................................................................................................................................................................................................................................................................................................................
..........OO...O...........O..O......O...........................OOOOO..OOOOO............................................................................................................................................................................................................................................................................................................................................................................................................................................................................................................................................................................................................................................................................................................................................................................................................................................................................................................................................................................................................................................................
........O...OO.O..........OO....O....O..........................O..O.......OO............................................................................................................................................................................................................................................................................................................................................................................................................................................................................................................................................................................................................................................................................................................................................................................................................................................................................................................................................................................................................................................................
........OOOO.OO..........O......O..O............................O.O..O.O..O..O...........................................................................................................................................................................................................................................................................................................................................................................................................................................................................................................................................................................................................................................................................................................................................................................................................................................................................................................................................................................................................................................................
......O......O..........OOOO....OO.O..O.....O.O......................O.O...OOO........................................................................................................................................................................................................................................................................................................................................................................................................................................................................................................................................................................................................................................................................................................................................................................................................................................................................................OO.................................................................................................................................................................
......OOOOOOO...OO...OO.....O.........O.....OOOO..OO............OO........OOO............................................................................................................OO...........................................................................................................................................................................................................................................................................................................................................................................................................................................................................................................................................................................................................................................................................................................................................................................O.O................................................................................................................................................................
...O.O......OO..O.O.O...OOO...OOOO.OO........O......O.........O.OO..OO....................................OO.................................................OO.........................O.O.....................OO.................................................OO.................................................OO.................................................OO.................................................OO.................................................OO.................................................OO.................................................OO.................................................OO............................................................................................................................................................................................................................................................................................................................O..................................................................................................................................................................
..OOOOOOOOO.....OOOO...O...OOO..O...OOOO.....O...O...O........O.O...OO...................................O..O...............................................O..O.........................O.....................O..O...............................................O..O...............................................O..O...............................................O..O...............................................O..O...............................................O..O...............................................O..O...............................................O..O...............................................O..O..............................................................................................................................................................................................................................................................................................................................................................................................................................................................................................
.OO..............O...O...OO.O..O..OO........O.......O..........O..........................................OO......................OOO........................OO.................................................OO.................................................OO.................................................OO.................................................OO.................................................OO.................................................OO.................................................OO.................................................OO.................................................OO...............................................................................................................................................................................................................................................................................................................................................................................................................................................................................................
OO....OO.O..........O....OO.......OO.OOOOOOO...O..OO..............................................................................O..O...................................................................................................................................................................................................................................................................................................................................................................................................................................................................................................................................................................................................................................................................................................................................................................................................................................................................................................................................................................................................
.OO....O.........OO........OO.O.....OO...OOO.....................................................................................O...O...................................................................................................................................................................................................................................................................................................................................................................................................................................................................................................................................................................................................................................................................................................................................................................................................................................................................................................................................................................................................
.........O.......OOO..........O.O.....O...OO.OO.......................................................................OO.........O.O.OO..............................................................................................................O...................................................................................................................................................................................................................................................................................................................................................................................................................................................................................................................................................................................................................................................................................................................................................................................................................................................................................
.OO....O.........OO........OO.O.....OO...OOO..........................................................................O.O.........OO.OO..............................................................................................................O.O.................................................................................................................................................................................................................................................................................................................................................................................................................................................................................................................................................................................................................................................................................................................................................................................................................................................................................
OO....OO.O..........O....OO.......OO.OOOOOOO...O..OO..................................................................O...........O..O...............................................................OO..............................................OO..................................................................................................................................................................................................................................................................................................................................................................................................................................................................................................................................................................................................................................................................................................................................................................................................................................................................................
.OO..............O...O...OO.O..O..OO........O.......O..........O..........................................OO.......................O..O......................OO.....................................O..O........OO.................................................OO.................................................OO.................................................OO.................................................OO.................................................OO.................................................OO.................................................OO.................................................OO.................................................OO.................................................OO.................................................OO.................................................OO.................................................OO................................................................................................................................................................................................................................
..OOOOOOOOO.....OOOO...O...OOO..O...OOOO.....O...O...O........O.O...OO...................................O..O.....................OOOOO.....................O..O......................................OO.......O..O...............................................O..O...............................................O..O...............................................O..O...............................................O..O...............................................O..O...............................................O..O...............................................O..O...................................OO..........O..O...............................................O..O...............................................O..O...............................................O..O...............................................O..O...............................................O..O...............................................................................................................................................................................................................................
...O.O......OO..O.O.O...OOO...OOOO.OO........O......O.........O.OO..OO....................................OO.....................OO.O.O......................OO................................O.....OO.OO......OO.................................................OO.................................................OO.................................................OO.................................................OO.................................................OO.................................................OO.................................................OO...................................O.O...........OO.................................................OO.................................................OO.................................................OO.................................................OO.................................................OO................................................................................................................................................................................................................................
......OOOOOOO...OO...OO.....O.........O.....OOOO..OO............OO........OOO......................................................O..........................................................O.O....OO...O.................................................................................................................................................................................................................................................................................................................................................................................................................O............................................................................................................................................................................................................................................................................................................................................................................................................................................................................................................
......O......O..........OOOO....OO.O..O.....O.O......................O.O...OOO..............................................OOO....O.........................................................O..O...OOO...O..............................................................................................................................................................................................................................................................................................................................................................................................................................................................................................................................................................................................................................................................................................................................................................................................................................................................................................................................
........OOOO.OO..........O......O..O............................O.O..O.O..O..O..............................................OOO...OO..........................................................OO.....OO...O..............................................................................................................................................................................................................................................................................................................................................................................................................................................................................................................................................................................................................................................................................................................................................................................................................................................................................................................................
........O...OO.O..........OO....O....O..........................O..O.......OO...............................................O.O..OO..........................................................O.......OO.OO................................................................................................................................................................................................................................................................................................................................................................................................................................................................................................................................................................................................................................................................................................................................................................................................................................................................................................OO.............................
..........OO...O...........O..O......O...........................OOOOO..OOOOO................................................O...O.........................................................OOOOO......OO.................................................................................................................................................................................................................................................................................................................................................................................................................................................................................................................................................................................................................................................................................................................................................................................................................................................................................................O.O.............................
..........OO.O..............O.O..O...OO.O.........................OOOO...O...............................................O...OO...OO.......................................................O........O..O...................................................................................................................................................................................................................................................................................................................................................................................................................................................................................................................................................................................................................................................................................................................................................................................................................................................................................................O.............................
............O..................O.O......O............................O...................................................O....O.............................................................OOO......OO..............................................................................................................................................................................................................................................................................O...................................................................................................................................................................................................................................................................................................................................................................................................................................................................................................................................................................................................................................................
.....................................................................O.O.................................................O...................................................................O.......................................................................................................................................................................................................................................................................................O.............................................................................................................................................................................................................................................................................................................................................................................................................OO....................................................................................................................................................................................................................................
....................................................................................................................................................................................................................................................................................................................................................................................................................................................................................O.O...........................................................................................................................................................................................................................................................................................................................................................................................................O.O....................................................................................................................................................................................................................................
..........................................................................................................................................................................................................................................................................................................................................................................................................................................................................O.O.....OO................................................................................................................................................................................................................................................................................................................................................................................................................O....................................................................................................................................................................................................................................
...................................................................................................................................O..................O.O.......O........................................................................................................................................................................................................................................................................................................O..O.OO.O..O....................................................................................................................................................................................................................................................................................................................................................................................................................................................................................................................................................................................................................................................
.................................................O.O.........O....................................................................OO...............OOOO.O......O.O.....................................................................................................................................................................................................................................................................................O.O.OO.....O.O...OO.......O..O....................................................................................................................................................................................................................................................................................................................................................................................................................................................................................................................................................................................................................................................
................................................O..O.O.....OO.O..........................O.O.......OO.............................OO...............OO...O.O.O.OO.O..................O.O.........O.....................................................................................................................................................................................................................................................O..O.....OOOO.O..O....O.......O....................................................................................................................................................................................................................................................................................................................................................................................................................................................................................................................................................................................................................................................
...............................................OO......O..OOO.........................OOOO.O.....O...............................................O...OO...OO..O....................O..O.O.....OO.O...................................................................................................................................................................................................................................................OO.....OO..OO..O.OOOOO.O....O..O.......................................................................................................................................................................................................................................................................................................................................................................................................................................................OOO..........................................................................................................................................................................................
..............................................O....O...O.O............................OO...O.O.O.O.OO............................................OOOO.O.O.O.O.OO.O................OO......O..OOO....................................................................................................................................................................................................................................................O....OOO......O...........OO.O..O.......................................................................................................................................................................................................................................................................................................................................................................................................................................................O............................................................................................................................................................................................
.............................................OOOOO.O...O..OOO.......................O...OO...OO.O.............................................O.O.......O......O.O...............O....O...O.O......................................................................................................................................................................................................................................................OOOOOO.OO...OOOO.O.OOOOO.O.....OO.........................................................................................................................................................................................................................................................................................................................................................................................................................................................O...........................................................................................................................................................................................
..........................................OO.........O.....OO.O.....................OOOO.O.O.O.O.O.OO........................................OOOOOO.....OO......O...............OOOOO.O...O..OOO........................................................................................................................................................................................................................................................OO.O.OO..O..O..O....O.......O.O..................................................................................................................................................................................................................................................................................................................................................................................................................................................................................................................................................................................................................................................
.........................................O...OOO....O........O...................O.O.......O.....O..........................................OO.....O....OO...................OO.........O.....OO.O...............................................................................................................................................................................................................................................O.OOO.O...O.OOOO.O.O...OO...........O...................................................................................................................................................................................................................................................................................................................................................................................................................................................................................................................................................................................................................................................
........................................O...O.......O...........................OOOOOO.....OO......OO......................................OOO...O......OOO.................O...OOO....O........O...............................................................................................................................................................................................................................................OO..OO.O........O.O......O..O.OO.....O...................................................................................................................................................................................................................................................................................................................................................................................................................................................................................................................................................................................................................................................
........................................O.....O......O.O.......................OO.....O....OO...............................................OOO..OO..............O.........O...O.......O.......................................................................................O....................................................................................................O...........................................................O.O.......................O.O............................................................................................................................................................................................................................................................................................................................................................................................................................................................................................................................................................................................................................................................
........................................O..O..O......O.......O................OOO...O......OOO................................................O...OOO....O.O..OO.O.........O.....O......O.O...................................................................................O..................................................................................................OOOO...........................................................OO.......................................................................................................................................................................................................................................................................................................................................................................................................................................................................................................................................................................................................................................................................................
.........................................O.O..OO.O.....O...OOO.................OOO..OO..............O.......................................O.......O...O..O..O............O..O..O......O.......O.............................................................................OOO................................................................................................OO.............................................................O.......O................................................................................................................................................................................................................................................................................................................................................................................................................................................................................................................................................................................................................................................................................
.................................................O...OOO..OO.....................O...OOO....O.O..OO.O.......................................O.O.........O.....O.............O.O..OO.O.....O...OOO..............................................................................................................................................................................O...............................................................OOO...OOOO................................................................................................................................................................................................................................................................................................................................................................................................................................................................................................................................................................................................................................................................................
........................................OOO.........OOO...O....................O.......O...O..O..O.........................................O............O...O.......................O...OOO..OO................................................................................................................................................................................OOOO............................................................O.....OO..................................................................................................................................................................................................................................................................................................................................................................................................................................................................................................................................................................................................................................................................................
........................................OO...........OO.....O..................O.O.........O.....O..........................................O.O..........O...OOO...........OOO.........OOO...O................................................................................................................................................................................O................................................................O...O..........................................................................................OOO........................................................................................................................................................................................................................................................................................................................................................................................................................................................................................................................................................................................
........................................OOO...........OOOOOO..................O............O...O............................................O.............OO...............OO...........OO.....O.............................................................................................................................................................................OOO..O.............................................................O...OOOOO.......................................................................................O........................................................................................................................................................................................................................................................................................................................................................................................................................................................................................................................................................................................
.......................................................O.O.....................O.O..........O...OOO...........................................O..............OOOOO.O.......OOO...........OOOOOO...............................................................................................................................................................................OOO................................................................OO............................................................................................O.........................................................................................................................................................................................................................................................................................................................................................................................................................................................................................................................................................................................
.........................................O.O..............OOOO.O...............O.............OO.............................................OOO...............O....O......................O.O..................................................................................................................................................................................O....................................................................OOO.O................................................................................................................................................................................................................................................................................................................................................................................................................................................................................................................................................................................................................................................................................
.........................................O................O...OO.................O..............OOOOO.O....................................O..OO...............OO...........O.O..............OOOO.O.................................................................................................................................................................O...........OOO.O................................................................O...O...............................................................................................................................................................................................................................................................................................................................................................................................................................................................................................................................................................................................................................................................................
........................................O...O...............OO.................OOO...............O....O....................................OOO.O................O..O........O................O...OO..............................................................................................................................................................OOOO...........O..OO.................................................................OO...........................................O.........................................................................................................................................................................................................................................................................................................................................................................................................................................................................................................................OOO.........................................................................................................
.......................................OOOO.O...............OOOO..............O..OO...............OO......................................O......................O.O.......O...O...............OO................................................................................................................................................................OO..............OOO...................................................................O..O........................................O.O.........................................................................................................................................................................................................................................................................................................................................................................................................................................................................................................................O.........................................................................................................
......................................O........................O..............OOO.O................O..O..................................OOO..............................OOOO.O...............OOOO............................................................................................................................................................O...................O....................................................................O.O........................................OO.........................................................................................................................................................................................................................................................................................................................................................................................................................................................................................................................O..........................................................................................................
.....................................O..O....................................O......................O.O.................................OOO..O...........................O........................O............................................................................................................................................................OOOO..............O.......................................................................................................................................................................................................................................................................................................................................................................................................................................................................................................................................................................................................................................................................................................................................................
.....................................O..O...................................OOO..........................................................O..............................O..O..................................................................................................................................................................................O..................O.O......................................................................................OO............................................................................................................................................................................................................O.O...........................................................................................................................OOO................................................................................................................................................................................................................................................................................................................
.....................................O....O................................OOO..O.........................................................OOOO..........................O..O.................................................................................................................................................................................OOO..O.............O.........................................................................................O.O..........................................................................................................................................................................................................O..O.............................................................................................................................O................................................................................................................................................................................................................................................................................................................
......................................OOOO..................................O.............................................................O.............................O....O................................................................................................................................................................................OOO................O.O......................................................................................O...........................................................................................................................................................................................................OO...............................................................................................................................O.................................................................................................................................................................................................................................................................................................................
.......................................O.....................................OOOO...........................................................OO...........................OOOO..................................................................................................................................................................................O.................O...................................................................................................................................................................................................................................................................................................O....O..............................................................................................................................................................................................................................................................................................................................................................................................................................................
........................................OO...................................O..............................................................OOOO..........................O............................................................................................................................................................O.O......................OOO.O..............O................................................................................................................................................................................................................................................................................................OOOOO.O..............................................................................................................................................................................................................................................................................................................................................................................................................................................
.........................................O..O..................................OO..............................................................O...........................OO.........................................................................................................................................................O..O......................O..OO............OOO.............................................................................................................................................................................................................................................................................................OO................................................................................................................................................................................................................................OO....................................................................................................................................................................................................................
..........................................O.O..................................OOOO.........................................................................................O..O.....................................................................................................................................................OO..........................OOO............O..OO...........................................................................................................................................................................................................................................................................................O...OOO............................................................................................................................................................................................................................O.O...................................................................................................................................................................................................................
..................................................................................O..........................................................................................O.O....................................................................................................................................................O..............................O............OOO.O..........................................................................................................................................................................................................................................................................................O...O...............................................................................................................................................................................................................................O.....................................................................................................................................................................................................................
...................................................................................................................................................................................................................................................................................................................................OOOO..........................O.............O.....................................................................................................................................................................................................................................O.........................................................O.....O...................O...............................................................................................................................................................................................................................................................................................................................................................................................................................
..................................................................................................................................................................................................................................................................................................................................O....O.........................O.O..........OOO.................................................................................................................................................................................................................................OOOO.........................................................OOO...O..................OOO..............................................................................................................................................................................................................................................................................................................................................................................................................................
..................................................................................................................................................................................................................................................................................................................................O..O..........................O............OOO..O........O......................................................................................................................................................................................................................OO............................................................O....OO.O.O....O.O.....O.OO...............................................................................................O..............................................................................................................................................................................................................................................................................................................................
..................................................................................................................................................................................................................................................................................................................................O..O...........................O.O..........O.........OO.O....................................................................................................................................................................................................................O...............................................................OO......O..O..O..O.OO.O................................................................................................OOOO..............................................................................................................................................................................................................................................................................................................................
........................................................................................................................................................................................................................................................................................................O..........................O.............................O.............OOOO.....O.......................................................................................................................................................................................................................OOOO............................................................O.O......O...OO.......OO...............................................................................................OO................................................................................................................................................................................................................................................................................................................................
........................................................................................................................................................................................................................................................................................................O.O.........................OOOO.O.........................O...........O........O......................................................................................................................................................................................................................O................................................................OO..O.....O......O.......OO..........................................................................................O...................................................................................................................................................................................................................................................................................................................................
........................................................................................................................................................................................................................................................................................................OO...........................O...O.......................OOO............OOOOO.O.......................................................................................................................................................................................................................OOO..O.............................................................OOO.......OOOOO.O....OO.............................................................................................OOOO................................................................................................................................................................................................................................................................................................................................
......................................................................................................................................................................................................................................................................................................................................O.........................O..OO............O....O........................................................................................................................................................................................................................OOO.................................................................................OO.O.............................................................................................O....................................................................................................................................................................................................................................................................................................................................
......................................................................................................................................................................................................................................................................................................................................O.O............O.O........OOO.O.............OO.....O........................................................................OO............................................................................................................................................O................................................................OOO.......OOOOO.O.....O.OO........................................................................................OOO..O................................................................................................................................................................................................................................................................................................................................
....................................................................................................................................................................................................................................................................................................................................................O..O.......O...................O..O.O..O.....................................................................O.O.................................................................................................................................O...........OOO.O..........................................................OO..O.....O......O......OOO.........................................................................................OOO..................................................................................................................................................................................................................................................................................................................................
.....................................................................................................................................................................................................................................................................................................................................OOO...........OO.........OOO...................O.O...OO.......................................................................O..............................................................................................................................OOOO...........O..OO..........................................................O.O......O...OO..........O...........................................................................................O...................................................................................................................................................................................................................................................................................................................................
.....................................................................................................................................................................................................................................................................................................................................OO...........O....O.....OOO..O........O............OOO.......................................................................................................................................................................................................OO..............OOO...........................................................OO......O..O..O..O.OO.....................................................................................O...........OOO.O..............................................................................................................................................................................................................................................................................................................................
.....................................................................................................................................................................................................................................................................................................................................OOO.........OOOOO.O......O.........OO.O............OOO..O..................................................................................................................................................................................................O...................O...........................................................O....OO.O.O....O.O.....................................................................................OOOO...........O..OO..............................................................................................................................................................................................................................................................................................................................
..............................................................................................................................................................................................................................................................................................................................................OO...............OOOO.....O..................OO................................................................................................................................O..................................................................OOOO..............O............................................................OOO...O.................................................................................................OO..............OOO.......................................................................................................................................OO......................................................................................................................................................................................
.............................................................................................................................................................................................................................................................................O.O.OO.....O.O...........................................O.O....O...OOO...........O........O..................O.O..............................................................................................................................O..................................................................O..................O.O..........................................................O.....O...............................................................................................O...................O......................................................................................................................................O.O......................................................................................................................................................................................
............................................................................................................................................................................................................................................................................O..O.....OOOO.O......O.O.......O.O........................O.....O...O...............OOOOO.O.....................................................................................................................................................OOO...............................................................OOO..O.............O.............................................................O...O.................................................................................................OOOO..............O..........................................................................................................................................O......................................................................................................................................................................................
...........................................................................................................................................................................................................................................................................OO.....OO..OO..O.O...O..O......O..O.......................O...O..O.....O..............O....O........................................................................................................................................................................................................................OOO................O.O...........................................................O...OOO.............................................................................................O..................O.O...............................................................................................................................................................................................................................................................................................................................
..........................................................................................................................................................................................................................................................................O....OOO......O...OOO.O......OO.O.........................OOOO.O..O..O..O...............OO.....O......................................................................................................................................................................................................................O.................O..............................................................OO.......................................................OO.......................................OOO..O.............O..................................................................................................................................................................................................................................................................................................................................
.........................................................................................................................................................................................................................................................................OOOOOO.OO...OOOO.O.O.....O....O....O......................O.........O.O..OO.O.............O..O.O..O....................................................................OOO.....................................................................................................................O.O......................OOO.O..............O...............................................................OOOOO.O..............................................O.O........................................OOO................O.O...............................................................................................................................................................................................................................................................................................................................
..............................................................................................................................................................................................................................................................................OO.O.OO..O..O.......O....O....O.....................O..O...............O..............O.O...OO....................................................................O......................................................................................................................O..O......................O..OO............OOO................................................................O....O................................................O.........................................O.................O.................................................................................................................................................................................................................................................................................................................................
.......................................................................................................................................................................................................................................................................O.OOO.O...O.OOOO.O.O.......OO.O......OO.O..................O..O......OOO.........................OOO......................................................................O....................................................................................................................OO..........................OOO............O..OO................................................................OO.....................................................................O.O......................OOO.O..............O...............................................................................................................................................................................................................................................................................................................................
......................................................................................................................................................................................................................................................................OO..OO.O........O.O............O..O......O.O................O....O....OO..........................OOO..O..........OO...........................................................................................................................................................................O..............................O............OOO.O.................................................................O..O.............................O...................................O..O......................O..OO............OOO...............................................................................................................................................................................................................................................................................................................................
......................................................................................................................................................................................................................................................................O.O.............................O.O.........O................OOOO.....OO.............................OO..........O..O.........................................................................................................................................................................OOOO..........................O.............O.......................................................................O.O............................O...................................OO..........................OOO............O..OO..............................................................................................................................................................................................................................................................................................................................
......................................................................................................................................................................................................................................................................OO........................................O...................O.......O.....OO.......................O.O............O........................................................................................................................................................................O....O.........................O.O..........OOO.....................................................................................................OOO................................O..............................O............OOO.O..............................................................................OOO.............................................................................................................................................................................................................................................
......................................................................................................................................................................................................................................................................O.......O................................OOO...................OOOO.O.O.O.O..OO..................................OOO.....O...................................................................................................................................................................O..O..........................O............OOO..O........O............................................................................................................................OOOO..........................O.............O...................................................................................O...............................................................................................................................................................................................................................................
.....................................................................................................................................................................................................................................................................OOO...OOOO...............................OO.....................O...OO...OO...............................................O...................................................................................................................................................................O..O...........................O.O..........O.........OO.O...........................................................................................................................O....O.........................O.O..........OOO...................................................................................O..............................................................................................................................................................................................................................................
.....................................................................................................................................................................................................................................................................O.....OO..................O.............OO........................OO...O.O.O..OO...............................................................................................................................................................................................................O.............................O.............OOOO.....O..............................................................................................................................O..O..........................O............OOO..O........O.......................................................................................................................................................................................................................................................................................................................
.....................................................................................................................................................................................................................................................................O...O..................O.O.O.............O.O......................OOOO.O.....OO.................................................................................................................................................................................................................OOOO.O.........................O...........O........O....................................................................OOO.......................................................O..O...........................O.O..........O.........OO.O.......................................................................................................................................................................................................................................................................................................................
......................................................................................................................................................................................................................................................................O...OOOOO............O..O...................OO.O.O..................O.O.........................................................................................................................................................................................................................O...O.......................OOO............OOOOO.O......................................................................O..........................................................O.............................O.............OOOO.....O..........................................................................................................................................................................................................................................................................................................................
.......................................................................................................................................................................................................................................................................OO.................OO........O..O.O....OOOO..OO.O.O........O....................................................................................................................................................................................................................................O.........................O..OO............O....O.......................................................................O..........................................................OOOO.O.........................O...........O........O..........................................................................................................................................................................................................................................................................................................................
..........................................................................................................................................................................................................................................................................OOO.O..........O....O..O.OO..OOO...O....OO.O..O........O.....................................................................................................................................................................................................................................O.O............O.O........OOO.O.............OO.....O................................................................................................................................O...O.......................OOO............OOOOO.O............................................................................................................................................................................................................................................................................................................................
...........................................................................................................................................................................................................................................................................O...O........OOOOO.O.O...O..OO....O.O...OO.OO.O.......OOO.................................................................................................................................................................................................................................................O..O.......O...................O..O.O..O...............................................................................................................................O.........................O..OO............O....O............................................................................................................................................................................................................................................................................................................................
............................................................................................................................................................................................................................................................................OO.......OO...........OOO.O.O...O.....O.....OO.........................................................O..O.O.............................................................................................................................................................................OOO...........OO.........OOO...................O.O...OO...............................................................................................................................O.O............O.O........OOO.O.............OO.....O.........................................................................................................................................................................................................................................................................................................................
.............................................................................................................................................................................................................................................................................O..O...O...OOO.OOO.....O.......OO.O.O..OOO..OO...................................................OO...OOO...O............................................................................................................................................................................OO...........O....O.....OOO..O........O............OOO..............................................................................................................................................O..O.......O...................O..O.O..O.......................................................................................................................................................................................................................................................................................................................
..............................................................................................................................................................................................................................................................................O.O..O...O....OOO.OO..O.O........O....O...OO..O................................................O.O........O.............................................................................................................................................................................OOO.........OOOOO.O......O.........OO.O............OOO..O............................................................................................................................OOO...........OO.........OOO...................O.O...OO.......................................................................................................................................................................................................................................................................................................................
...................................................................................................................................................................................................................................................................................O.....O...O........O....O..........OO...OO.OO................................................OOOO...........................................................................................................................................................................................OO...............OOOO.....O..................OO.............................................................................................................................OO...........O....O.....OOO..O........O............OOO........................................................................................................................................................................................................................................................................................................................
...................................................................................................................................................................................................................................................................................OOO...OOOO.......OOO.O.OO.O........OOO..OO..OO............................................OO.OOOOO.O.......................................................................................................................O.O.OO.....O.O...........................................O.O....O...OOO...........O........O..................O.O............................................................................................................................OOO.........OOOOO.O......O.........OO.O............OOO..O.....................................................................................................................................................................................................................................................................................................................
...................................................................................................................................................................................................................................................................................................OOO..O.O................OO.O..O............................................O.O.O.O........................................................................................................................O..O.....OOOO.O......O.O.......O.O........................O.....O...O...............OOOOO.O............................................................................................................................................................OO...............OOOO.....O..................OO......................................................................................................................................................................................................................................................................................................................
...................................................................................................................................................................................................................................................................................OOO...OOOO.......OOO.O.OO.O........OOO..OO..OO..................................................O........................................................................................................................OO.....OO..OO..O.O...O..O......O..O.......................O...O..O.....O..............O....O...........................................................................................O.O.OO.....O.O...........................................O.O....O...OOO...........O........O..................O.O.....................................................................................................................................................................................................................................................................................................................
...................................................................................................................................................................................................................................................................................O.....O...O........O....O..........OO...OO.OO...........................................................................................................................................................................O....OOO......O...OOO.O......OO.O..........O..............OOOO.O..O..O..O...............OO.....O.......................................................................................O..O.....OOOO.O......O.O.......O.O........................O.....O...O...............OOOOO.O.......................................................................OOO..................................................................................................................................................................................................................................................................
...................................................................................................................................................................................................................................................................................O...O....OOO.OO..O.O........O....O...OO..O......................................................OOO....................................................................................................................OOOOOO.OO...OOOO.O.O.....O....O....O........O.O...........O.........O.O..OO.O.............O..O.O..O....................................................................................OO.....OO..OO..O.O...O..O......O..O.......................O...O..O.....O..............O....O.........................................................................O..................................................................................................................................................................................................................................................................
....................................................................................................................................................................................................................................................................................O...OOO.OOO.....O.......OO.O.O..OOO..OO....................................................................................................................................................................................OO.O.OO..O..O.......O....O....O........OO...........O..O...............O..............O.O...OO...................................................................................O....OOO......O...OOO.O......OO.O.........................OOOO.O..O..O..O...............OO.....O.....................................................................O...................................................................................................................................................................................................................................................................
.....................................................................................................................................................................................................................................................................................OO...........OOO.O.O...O.....O.....OO..............................................................................................................................................................................O.OOO.O...O.OOOO.O.O.......OO.O......OO.O..................O..O......OOO.........................OOO...................................................................................OOOOOO.OO...OOOO.O.O.....O....O....O......................O.........O.O..OO.O.............O..O.O..O.......................................................................................................................................................................................................................................................................................................................................
........................................................................................................................................................................................................................................................................................OOOOO.O.O...O..OO....O.O...OO.OO.O.................................................O.O.........................................OO..............................................................................OO..OO.O........O.O............O..O......O.O................O....O....OO..........................OOO..O..............................................OOO....................................OO.O.OO..O..O.......O....O....O.....................O..O...............O..............O.O...OO.......................................................................................................................................................................................................................................................................................................................................
.........................................................................................................................................................................................................................................................................................O....O..O.OO..OOO...O....OO.O..O.................................................O..O.O....O..................................O.O.............................................................................O.O.............................O.O.........O................OOOO.....OO......OO.....................OO.................................................O.............................O.OOO.O...O.OOOO.O.O.......OO.O......OO.O..................O..O......OOO.........................OOO........................................................................................................................................................................................................................................................................................................................................
..........................................................................................................................................................................................................................................................................................OO........O..O.O....OOOO..OO.O.O...............................................OO......O.O.OO................................O...............................................................................OO........................................O...................O.......O.....O...............O........O.O...............................................O.............................OO..OO.O........O.O............O..O......O.O................O....O....OO..........................OOO..O.....................................................................................................................................................................................................................................................................................................................................
...........................................................................................................................................................................................................................................................................................O..O...................OO.O.O................................................O....O...O...O.................................................................................................................O.......O................................OOO...................OOOO.O.O.O.O.O.OO...........O.O.......................................................................................O.O.............................O.O.........O................OOOO.....OO......OO.....................OO......................................................................................................................................................................................................................................................................................................................................
............................................................................................................................................................................................................................................................................................O.O.O.............O.O......................................................OOOOO.O...O.O.OO...............................................................................................................OOO...OOOO...............................OO.....................O...OO...OO.O...............O.........................................................................................OO........................................O..........O........O.......O.....O........................O.O.....................................................................................................................................................................................................................................................................................................................................
...............................................................................................................................................................................................................................................................................................O.............OO.......................................................O........O....O.................................................................................................................O.....OO..................O.............OO........................OO...O.O.O.O.OO...............O.....................................................................................O.......O................................OOO.........O.O.......OOOO.O.O.O.O.O.OO....................................................................................OO.......................................................................................................................................................................................................................................................................
..............................................................................................................................................................................................................................................................................................................OO......................................................OOOO....O.......................................................................................................................O...O..................O.O.O.............O.O......................OOOO.O.....O...................O...................................................................................OOO...OOOO...............................OO...........OO........O...OO...OO.O........................................................................................O.O......................................................................................................................................................................................................................................................................
...............................................................................................................................................................................................................................................................................................................OOO...................................................O........O........................................................................................................................O...OOOOO............O..O...................OO.O.O..................O.O.......OO..........OO........................................................................................O.....OO..................O.............OO........................OO...O.O.O.O.OO.........................O..........................................................O........................................................................................................................................................................................................................................................................
................................................................................................................................................................................................................................................................................................................O...................................................OOO..O.....O.O......................................................................................................................OO.................OO........O..O.O....OOOO..OO.O.O......................................O...O..O..................................................................................O...O..................O.O.O.............O.O......................OOOO.O.....O........................OOOO.O..................................................................................................................................................................................................................................................................................................................................
..................................................................................................................................................................................................................................................................................................................O..................................................OOO.......O.......O...................................................................................................................OOO.O..........O....O..O.OO..OOO...O....OO.O..O........................................OOO................................................................OO.....................O...OOOOO............O..O...................OO.O.O..................O.O.......OO.....................OOO.OO..................................................................................................................................................................................................................................................................................................................................
.............................................................................................................................................................................................................................................................................................................O.O.O....................................................O..........O...OOO...................O.O.OO...........................................................................................O...O........OOOOO.O.O...O..OO....O.O...OO.OO.O.......................................O....O.............................................................O.O.....................OO.................OO........O..O.O....OOOO..OO.O.O.........................................................................................................................................................................................................................................................................................................................................................................................
............................................................................................................................................................................................................................................................................................................O..O.......................................................OOO.O...OOO..OO....................O..O...............................................................................................OO.......OO...........OOO.O.O...O.....O.....OO...........................................O..............................................................O..........................OOO.O..........O....O..O.OO..OOO...O....OO.O..O..........................................................................................................................................................................................................................................................................................................................................................................................
...........................................................................................................................................................................................................................................................................................................OO..........................................................O..OO..OOO...O....................OO.....OO............................................................................................O..O...O...OOO.OOO.....O.......OO.O.O..OOO..OO..............................OO......O..............................................................................................O...O........OOOOO.O.O...O..OO....O.O...OO.OO.O.........................................................................................................................................................................................................................................................................................................................................................................................
..........................................................................................................................................................................................................................................................................................................O.............................................................OOO....OO.....O.................O....OOO...............................................................................................O.O..O...O....OOO.OO..O.O........O....O...OO..O............................OO......................................................................................................OO.......OO...........OOO.O.O...O.....O.....OO...............................................O...OOO...................................................................................................................................................................................................................................................................................................................................
.........................................................................................................................................................................................................................................................................................................OOOOOO.O.........................................................O.....OOOOOO.................OOOOOO.OO....................................................................................................O.....O...O........O....O..........OO...OO.O...................................................................................................................................O..O...O...OOO.OOO.....O.......OO.O.O..OOO..OO...........................................O.....O......................................................................................................................................................................................................................................................................................................................................
......................................................................................................................................................................................................................................................................................................OO.......OO.......................................................O........O.O........................OO.O.O.O................................................................................................OOO...OOOO.......OOO.O.OO.O........OOO..OO..O.................................................................OO.....OO.........................................................O.O..O...O....OOO.OO..O.O........O....O...OO..O.........................................O...O....O...................................................................................................................................................................................................................................................................................................................................
.....................................................................................................................................................................................................................................................................................................O...OOO.OO.........................................................O.O.........OOOO.O...........O.OOO.O...O.OO.................................................................................................................OOO..O.O................OO.O.O................................................................OO.....O.O.............................................................O.....O...O........O....O..........OO...OO.O.........................................OOO.OOO....................................................................................................................................................................................................................................................................................................................................
....................................................................................................................................................................................................................................................................................................O...O....OO........................................................O............O...OO..........OO..OO.O.......O................................................................................................OOO...OOOO.......OOO.O.OO.O........OOO..OO..O......................................................................OO................................................................OOO...OOOO.......OOO.O.OO.O........OOO..OO..O...............................................................................OO.OO...............................................................................................................................................................................................................................................................................................
....................................................................................................................................................................................................................................................................................................O.....O...OO........................................................O.O...........OO............O.O.............................................................................................................O.....O...O........O....O..........OO...OO.O.......................................................................O.OO..............................................................................OOO..O.O................OO.O.O..............................................................................OO.OO...............................................................................................................................................................................................................................................................................................
....................................................................................................................................................................................................................................................................................................OOO...OOOO.O........................................................O.............OOOO..........OO..............................................................................................................O...O....OOO.OO..O.O........O....O...OO..O.........................................................................O..O..............................................................OOO...OOOO.......OOO.O.OO.O........OOO..OO..O...............................................................................OO.OO...............................................................................................................................................................................................................................................................................................
..........................................................................................................................................................................................................................................................................................................................................................................O..............O..........O.......O........................................................................................................O...OOO.OOO.....O.......OO.O.O..OOO..OO............................................................................O................................................................O.....O...O........O....O..........OO...OO.O....................................................................................................................................................................................................................................................................................................................................................................................
....................................................................................................................................................................................................................................................................................................OOO...OOOO.O........................................................OOO........................OOO...OOOO.........................................................................................................OO...........OOO.O.O...O.....O.....OO.............................................................................O...O............................................................O...O....OOO.OO..O.O........O....O...OO..O......................................................................................................................................................................................................................................................................................................................................................................................
....................................................................................................................................................................................................................................................................................................O.....O...OO.......................................................O..OO.......................O.....OO..............................................................................................................OOOOO.O.O...O..OO....O.O...OO.OO.O.................................................O.O.........O...............OO...O............................................................O...OOO.OOO.....O.......OO.O.O..OOO..OO........................................................................................................................................................................................................................................................................................................................................................................................
....................................................................................................................................................................................................................................................................................................O...O....OO........................................................OOO.O.......................O...O..................................................................................................................O....O..O.OO..OOO...O....OO.O..O.................................................O..O.O.....OO.O...............O..O..............................................................OO...........OOO.O.O...O.....O.....OO.........................................................................................................................................................................................................................................................................................................................................................................................
.....................................................................................................................................................................................................................................................................................................O...OOO.OO.......................................................O.............................O...OOOOO..............................................................................................................OO........O..O.O....OOOO..OO.O.O...............................................OO......O..OOO.................OOO..................................................................OOOOO.O.O...O..OO....O.O...OO.OO.O.................................................O.O.........O...........................................................................................................................................................................................................................................................................................................................
......................................................................................................................................................................................................................................................................................................OO.......OO....................................................OOO.............................OO.....................................................................................................................O..O...................OO.O.O................................................O....O...O.O..........................................................................................O....O..O.OO..OOO...O....OO.O..O.................................................O..O.O.....OO.O..........................................................................................................................................................................................................................................................................................................................
.........................................................................................................................................................................................................................................................................................................OOOOOO.O...................................................OOO..O..............................OOO.O................................................................................................................O.O.O.............O.O......................................................OOOOO.O...O..OOO........................................................................................OO........O..O.O....OOOO..OO.O.O...............................................OO......O..OOO............................................................................................................................................................................................................................................................................................................................
..........................................................................................................................................................................................................................................................................................................O..........................................................O...................................O...O..................................................................................................................O.............OO.......................................................O........O.....OO.O.......................................................................................O..O...................OO.O.O................................................O....O...O.O..................................OO...........................................................................................................................................................................................................................................................................................
...........................................................................................................................................................................................................................................................................................................OO.........................................................OOOO................................OO...................................................................................................................................OO......................................................OOOO....O........O.........................................................................................O.O.O.............O.O......................................................OOOOO.O...O..OOO...........................O..O.OO..........................................................................................................................................................................................................................................................................................
............................................................................................................................................................................................................................................................................................................O..O......................................................O....................................O..O.................................................................................................................................OOO...................................................O........O.....................................................................................................O.............OO.......................................................O........O.....OO.O........................OOOO..OO..........................................................................................................................................................................................................................................................................................
.............................................................................................................................................................................................................................................................................................................O.O........................................................OO..................................O.O..................................................................................................................................O...................................................OOO..O.....O.O.................................................................................................................OO......................................................OOOO....O........O........................O...OO.O...........................................................................................................................................................................................................................................................................................
........................................................................................................................................................................................................................................................................................................................................................................OOOO.......................................................................................................................................................................O..................................................OOO.......O.......O............................................................................................................OOO...................................................O........O..................................OO...OO...........................................................................................................................................................................................................................................................................................
...........................................................................................................................................................................................................................................................................................................................................................................O..................................................................................................................................................................O.O.O....................................................O..........O...OOO...................O.O.OO....................................................................................O...................................................OOO..O.....O.O.................................O..O............................................................................................................................................................................................................................................................................................
.............................................................................................................................................................................................................................................................................................................................................................................................................................................................................................................................................O..O.......................................................OOO.O...OOO..OO....................O..O.........................................................................................O..................................................OOO.......O.......O...........................OOO.............................................................................................................................................................................................................................................................................................
............................................................................................................................................................................................................................................................................................................................................................................................................................................................................................................................................OO..........................................................O..OO..OOO...O....................OO.....OO................................................................................O.O.O....................................................O..........O...OOO...................O.O.OO..OO..............................................................................................................................................................................................................................................................................................
...........................................................................................................................................................................................................................................................................................................................................................................................................................................................................................................................................O.............................................................OOO....OO.....O.................O....OOO.................................................................................O..O.......................................................OOO.O...OOO..OO....................O..O.....................................................................................................................................................................................................................................................................................................
..........................................................................................................................................................................................................................................................................................................................................................................................................................................................................................................................................OOOOOO.O.........................................................O.....OOOOOO.................OOOOOO.OO................................................................................OO..........................................................O..OO..OOO...O....................OO.....OO.................................................................................................................................................................................................................................................................................................
.......................................................................................................................................................................................................................................................................................................................................................................................................................................................................................................................................OO.......OO.......................................................O........O.O........................OO.O.O.O...........................................................................O.............................................................OOO....OO.....O.................O....OOO...................................................................................................................................................................................................................................................................................................
......................................................................................................................................................................................................................................................................................................................................................................................................................................................................................................................................O...OOO.OO.........................................................O.O.........OOOO.O...........O.OOO.O...O.OO...........................................................................OOOOOO.O.........................................................O.....OOOOOO.................OOOOOO.OO...................................................................................................................................................................................................................................................................................................
.....................................................................................................................................................................................................................................................................................................................................................................................................................................................................................................................................O...O....OO........................................................O............O...OO..........OO..OO.O.......O.......................................................................OO.......OO.......................................................O........O.O........................OO.O.O.O...............................................................................................................................................................................................................................................................................................
.....................................................................................................................................................................................................................................................................................................................................................................................................................................................................................................................................O.....O...OO........................................................O.O...........OO............O.O...................................................................................O...OOO.OO.........................................................O.O.........OOOO.O...........O.OOO.O...O.OO................................................................................................................................................................................................................................................................................................
.....................................................................................................................................................................................................................................................................................................................................................................................................................................................................................................................................OOO...OOOO.O........................................................O.............OOOO..........OO...................................................................................O...O....OO........................................................O............O...OO..........OO..OO.O.......O...............................................................................................................................................................................................................................................................................................
...........................................................................................................................................................................................................................................................................................................................................................................................................................................................................................................................................................................................................O..............O..........O.......O............................................................................O.....O...OO........................................................O.O...........OO............O.O............................................................................................................................................................................................................................................................................................................
.....................................................................................................................................................................................................................................................................................................................................................................................................................................................................................................................................OOO...OOOO.O........................................................OOO........................OOO...OOOO............................................................................OOO...OOOO.O........................................................O.............OOOO..........OO.............................................................................................................................................................................................................................................................................................................
.....................................................................................................................................................................................................................................................................................................................................................................................................................................................................................................................................O.....O...OO.......................................................O..OO.......................O.....OO....................................................................................................................................................O..............O..........O.......O......................................................................................................................................................................................................................................................................................................
.....................................................................................................................................................................................................................................................................................................................................................................................................................................................................................................................................O...O....OO........................................................OOO.O.......................O...O.................................................................................OOO...OOOO.O........................................................OOO........................OOO...OOOO......................................................................................................................................................................................................................................................................................................
......................................................................................................................................................................................................................................................................................................................................................................................................................................................................................................................................O...OOO.OO.......................................................O.............................O...OOOOO............................................................................O.....O...OO.......................................................O..OO.......................O.....OO........................................................................................................................................................................................................................................................................................................
.......................................................................................................................................................................................................................................................................................................................................................................................................................................................................................................................................OO.......OO....................................................OOO.............................OO..................................................................................O...O....OO........................................................OOO.O.......................O...O...........................................................................................................................................................................................................................................................................................................
..........................................................................................................................................................................................................................................................................................................................................................................................................................................................................................................................................OOOOOO.O...................................................OOO..O..............................OOO.O.............................................................................O...OOO.OO.......................................................O.............................O...OOOOO......................................................................................................................................................................................................................................................................................................
...........................................................................................................................................................................................................................................................................................................................................................................................................................................................................................................................................O..........................................................O...................................O...O.............................................................................OO.......OO....................................................OOO.............................OO............................................................................................................................................................................................................................................................................................................
............................................................................................................................................................................................................................................................................................................................................................................................................................................................................................................................................OO.........................................................OOOO................................OO..................................................................................OOOOOO.O...................................................OOO..O..............................OOO.O......................................................................................................................................................................................................................................................................................................
.............................................................................................................................................................................................................................................................................................................................................................................................................................................................................................................................................O..O......................................................O....................................O..O................................................................................O..........................................................O...................................O...O.....................................................................................................................................................................................................................................................................................................
..............................................................................................................................................................................................................................................................................................................................................................................................................................................................................................................................................O.O........................................................OO..................................O.O.................................................................................OO.........................................................OOOO................................OO.......................................................................................................................................................................................................................................................................................................
.........................................................................................................................................................................................................................................................................................................................................................................................................................................................................................................................................................................................................OOOO.....................................................................................................................O..O......................................................O....................................O..O....................................................................................................................................................................................................................................................................................................
............................................................................................................................................................................................................................................................................................................................................................................................................................................................................................................................................................................................................O......................................................................................................................O.O........................................................OO..................................O.O....................................................................................................................................................................................................................................................................................................
..............................................................................................................................................................................................................................................................................................................................................................................................................................................................................................................................................................................................................................................................................................................................................................................................OOOO.......................................................................................................................................................................................................................................................................................................................................
.................................................................................................................................................................................................................................................................................................................................................................................................................................................................................................................................................................................................................................................................................................................................................................................................O.......................................................................................................................................................................................................................................................................................................................................
