!Name: c2-0046
!CPuffer by Paul Tooke, 10 Dec 2001
!CRake by David Bell
!
...............................................................O.O...............................................................
............................................................OOOO.O...............................................................
............................................................OO...O..............O................................................
..........................................................O...OO.............OOOO................................................
..........................................................OOOO.O.O...........OO..................................................
.......................................................O.O.......O.........O.....................................................
......................................................OOOOOO.....OO........OOOO..................................................
.....................................................OO.....O....OO.......O......................................................
....................................................OO....O......OOO.....OOO..O..................................................
....................O.O..............................O.O..OO..............OOO....................................................
...................O..O....................................OOO....O.O......O.....................................................
..................OO.................................OO......O...O..O.......OOO.O................................................
.................O...................................O..O........O..........O..OO................................................
................OOOO..................................O..O.......O..O........OOO.................................................
...............O....O.................................OOO.........O.O..........O.................................................
...............O..O....................................O.....................O...................................................
...............O..O....................................OO........OOO.........O.O.................................................
................O......................................O.O.......OO.........O....................................................
.................OOOO.O................................OO..O.....OOO.........O.O.................................................
..................O...O.................................O.O..................O.......O...........................................
...................O..............................................O.O..........O...OOO...........................................
...................O.O..................................OO........O..O.......OOO..OO.............................................
........................................................O..O......OO........OOO...O.........O....................................
..................OOO....................................O....O.....OOOO.....OO.....O.....OOO....................................
..................OO.....................................OOOO.O.O...O.........OOOOOO.....OO......................................
..................OOO......................................O......O.OO.O.......O.O.......O.......................................
.....O.O....................................................OOOOO.................OOOO.O.O.......................................
....O..O...........O.O....................................O.......OOOOOO..........O...OO.........................................
...OO..............O.....................................OO...O....O................OO...O.......................................
..O...............O...O...................................OOOO.....OOO..............OOOO.O.O.O...................................
.OOOO............OOOO.O....................................O....O......................O..O..O...................................
O....O..........O...........................................OOO.O.O......................OO......................................
O..O...........O..O.........................................O......OO.....................O...O..................................
O..O...........O..O...........................................OO...OO......................O.O.O.................................
.O.............O....O.........................................OOOO.O.........................O...................................
..OOOO.O........OOOO.......O.O...................................O.O.............................................................
...O...O.........O........O..O...................................................................................................
....O.............OO.....OO.......O............O.O...............................................................................
....O.O............O..O........OO.O.O..O....OOOO.O..OO.......................................O...................................
....................O.O.O.OOO..O......O.O...OO..O.OO...O..........OO........................OOO..................................
...OOO...................O...O..OOOOO.....O.....OO..OOOOO.........OO.OO.............OO.....OO.OO.................................
...OO....................OOO..........OO.O.....O..O.O....O.......OO...O...........O....O.....O.OO................................
...OO....O.O....O.O.......O.....OOO....O........O...OOOO.OO..........OO...........O.............OO.................O.............
...OOOOO.O..O..O..O.OO.....OOO..O......OOOO.....OOO......O............O...........O....O........OO................O..............
.....O....O...OO.......OO..O..O...OO.OO.....OO.......OO...............OOO...........OOO...........................OOO............
...O.......O......O....OOOO.O....O....O..OOOO...OOOOO..O.............OO..O.......................................................
...O.O......OOOOO.O.......O.O.O..O.....OOO...OOOO...OO.................O.........................................................
..O.................OO........OOOO..O.....O..O...O...............................................................................
...O.O......OOOOO.O.......O.O.O..O.....OOO...OOOO...OO.................O.........................................................
...O.......O......O....OOOO.O....O....O..OOOO...OOOOO..O.............OO..O.......................................................
.....O....O...OO.......OO..O..O...OO.OO.....OO.......OO...............OOO...........OOO..........................................
...OOOOO.O..O..O..O.OO.....OOO..O......OOOO.....OOO......O............O...........O....O........OO...............................
...OO....O.O....O.O.......O.....OOO....O........O...OOOO.OO..........OO...........O.............OO...............................
...OO....................OOO..........OO.O.....O..O.O....O.......OO...O...........O....O.....O.OO................................
...OOO...................O...O..OOOOO.....O.....OO..OOOOO.........OO.OO.............OO.....OO.OO..............................O..
....................O.O.O.OOO..O......O.O...OO..O.OO...O..........OO........................OOO...............................O.O
....O.O............O..O........OO.O.O..O....OOOO.O..OO.......................................O................................OO.
....O.............OO.....OO.......O............O.O...............................................................................
...O...O.........O........O..O...................................................................................................
..OOOO.O........OOOO.......O.O...................................O.O.............................................................
.O.............O....O.........................................OOOO.O.............................................................
O..O...........O..O...........................................OO...OO............................................................
O..O...........O..O.........................................O......OO............................................................
O....O..........O...........................................OOO.O.O..............................................................
.OOOO............OOOO.O....................................O....O................................................................
..O...............O...O...................................OOOO.....OOO...........................................................
...OO..............O.....................................OO...O....O.............................................................
....O..O...........O.O....................................O.......OOOOOO.........................................................
.....O.O....................................................OOOOO................................................................
..................OOO......................................O......O.OO.O.........................................................
..................OO.....................................OOOO.O.O...O............................................................
..................OOO....................................O....O.....OOOO.........................................................
........................................................O..O......OO.............................................................
...................O.O..................................OO........O..O...........................................................
...................O..............................................O.O............................................................
..................O...O.................................O.O......................................................................
.................OOOO.O................................OO..O.....OOO.............................................................
................O......................................O.O.......OO..............................................................
...............O..O....................................OO........OOO.............................................................
...............O..O....................................O.........................................................................
...............O....O.................................OOO.........O.O............................................................
................OOOO..................................O..O.......O..O............................................................
.................O...................................O..O........O...............................................................
..................OO.................................OO......O...O..O............................................................
...................O..O....................................OOO....O.O............................................................
....................O.O..............................O.O..OO.....................................................................
....................................................OO....O......OOO.............................................................
.....................................................OO.....O....OO..............................................................
......................................................OOOOOO.....OO..............................................................
.......................................................O.O.......O...............................................................
..........................................................OOOO.O.O...............................................................
..........................................................O...OO.................................................................
............................................................OO...O...............................................................
............................................................OOOO.O...............................................................
...............................................................O.O...............................................................
