!Name: caber2
!CA pattern whose population grows logarithmically.
!CThis is an updated version of Dean Hickerson's
!C"caber tosser" pattern.
!CJason Summers, 17 Jan 2010
!
....................................................................................OO................................
............................................................................O....O..O.................................
...........................................................................O.O..O.OOO..O..............................
............................................................................OOOO....O..O..............................
....................................................................................O..O..............................
.............................................................................O......O.................................
..................................................................................O.OO................................
................................................................OO...........O........................................
................................................................OO............OO......................................
........................................................OO............................................................
........................................................OO............................................................
....................................................................O.................................................
..................................................................O.O.................................................
..................................................................OOO............O..O.................................
..................................................................O..........OOO.OOO..................................
..............................................................................O.O.OO..................................
...............................................................................OOO....................................
...............................................................................OO..........OO.........................
...................................................................................O....OO............................
..................................................................................O...OOOO.OO.........................
...................................................................................OOOO....OOOOO......................
...................................................................................O......OOO.........................
...........................................................................................O..........................
..........................................................................................OOO.........................
.....................................................................................O............................OO..
.....................................................................................O....................O....O..O...
.........................................................................................................O.O..O.OOO..O
..........................................................................................................OOOO....O..O
..................................................................................................................O..O
...........................................................................................................O......O...
.......................................................................................................O........O.OO..
......................................................................................................O....O..........
......................................................................................................OOO...OO........
..................................................................................................................OO..
..................................................................................................................OO..
..........................................................................................................OO..........
..........................................................................................................OO..........
.......................O.O............................................................................................
.......................O..O...........................................................................................
........O......O..........OO..........................................................................................
.......O.O.....O........O...OO....OO..................................................................................
......O.OO......O.........OO......OO..................................................................................
OO...OO.OO.........OO..O..O...........................................................................................
OO....O.OO.....OOO..O..O.O............................................................................................
.......O.O.......OOOO.................................................................................................
........O.........OO..................................................................................................
..........................O...........................................................................................
...........................OO.........................................................................................
..........................OO..........................................................................................
................................OO....................................................................................
...............................O......O.O.............................................................................
.................................O....O..O............................................................................
.......................O.......OOO.......OO...........................................................................
......................O.O........OO....O...OO....OO...................................................................
...............OO....O.OO.......OO.O.....OO......OO...................................................................
...............OO...OO.OO.......OO.OO.O..O............................................................................
.....................O.OO......O.O.O..O.O.............................................................................
......................O.O.......OOOO..................................................................................
.......................O.........OO...................................................................................
