!Name: d-0937500
!
.O................................................................................................
O.O...............................................................................................
O.O...............................................................................................
.O................................................................................................
....OO............................................................................................
...O..O...........................................................................................
....OO............................................................................................
.............O....................................................................................
............O.O...................................................................................
............O.O...................................................................................
.............O....................................................................................
................OO................................................................................
...............O..O...............................................................................
................OO................................................................................
.........................O........................................................................
........................O.O.......................................................................
........................O.O.......................................................................
.........................O........................................................................
............................OO....................................................................
...........................O..O...................................................................
............................OO....................................................................
.....................................O............................................................
....................................O.O...........................................................
....................................O.O..................O...O.O.O................O...O.O.O..O.O.O
.....................................O........................................O...................
.........................................................O.......O................O.......O..O...O
.............................................................................O....................
.........................................................O...O.O.O..O.O.O.........O...O.O.O..O.O.O
............................................................................O.....................
.........................................................O...O......O.............O...O......O...O
........................................OO.................................O......................
.......................................O..O..............O...O.O.O..O.O.O.........O...O.O.O..O.O.O
........................................OO........................................................
.........................................OOO......................................................
.........................................OOO......................................................
.........................................O.O......................................................
