!Name: d-9999999
!CDiagonal lightspeed fuses.
!C
!CA1. simplest fuse
!CA2. Harvester (David W. Poyner)
!CA3. The Baker (Keith McClelland)
!CA4. (p4 from "reverse fuse")
!CB1. Beacon Maker (Steve Tower)
!CB2. Boat Maker
!C
!
.....................OO...........................................................................................................................................................................................
.....................O.O..........................................................................................................................................................................................
........................O.................................................................................................OO......................................................................................
.........................O...............................................OO...............................................O.O.....................................................................................
..........................O..............................................O.O.................................................O...............................................OO...................................
...........................O................................................O.................................................O..............................................O.O..................................
..O.........................O................................................O.................................................O................................................O.................................
.............................O................................................O.................................................O................................................O................................
.O.O..........................O................................................O.................................................O................................................O...............................
...............................O................................................O.................................................O................................................O..............................
O...O...........................O................................................O.................................................O................................................O.............................
.................................O................................................O.................................................O................................................O............................
O.O.O.............................O................................................O.................................................O................................................O...........................
...................................O................................................O.................................................O................................................O..........................
O...O...............................O................................................O.................................................O................................................O.........................
.....................................O................................................O.................................................O................................................O........................
......................................O................................................O.................................................O................................................O.......................
.......................................O................................................O.................................................O................................................OO.....................
........................................O................................................O.................................................O................................................OO....................
.........................................O................................................O.................................................O...............................................OOOO..................
..........................................O................................................O.................................................OOO..............................................OO.............O...O
...........................................O................................................O.................................................O..O.............................................O..................
............................................O................................................O...............................................................................................................O...O
.............................................O................................................O................................................O..O...............................................................
..............................................O................................................OOOOO............................................O.O..................................................O.O.O...O.O.O
...............................................O................................................OOOO.............................................OOO..............................................................
................................................O...............................................OO.O.................................................................................................O...O.......O
.................................................O.....................................................O..........................................................................................................
..................................................O.....................................................O............................................OO..............................................O.O.O.......O
...................................................O...................................................OO...........................................O..O..........................................................
....................................................O................................................................................................O.O.............................................O............
.....................................................O...............O................................................................................O...........................................................
......................................................O....................................................OO............................................OO...........O...O..........................O............
.......................................................O.............O.....................................OO...........................................O..O......................................................
............................................................................................................................O...O........................O.O..........O...O.......................................
.............................................................O.O.O...O....................................................................................O.......................................................
...............................................................................................................OO...........O...O.............................O.O.O...O.O.O.......................................
.............................................................O...O...O.........................................OO.................................................................................................
....................................................................................................................O.O.O...O.O.O.............................O...O.......O.......................................
.............................................................O.O.O...O............................................................................................................................................
....................................................................................................................O...O.......O.............................O.O.O.......O.......................................
.............................................................O....................................................................................................................................................
....................................................................................................................O.O.O.......O.............................O...................................................
.............................................................O....................................................................................................................................................
....................................................................................................................O.........................................O...................................................
....................................................................................................................O.............................................................................................
.......................................................................OO.........................................................................................................................................
....................OO.................................................O.O........................................................................................................................................
....................O.O...................................................O.......................................................................................................................................
.......................O...................................................O......................................................................................................................................
........................O...................................................O.....................................................................................................................................
.........................O...................................................O....................................................................................................................................
..........................O...................................................O...................................................................................................................................
...........................O...................................................O..................................................................................................................................
............................O...................................................O.................................................................................................................................
.............................O...................................................O................................................................................................................................
O.O...........................O...................................................O...............................................................................................................................
...............................O...................................................O..............................................................................................................................
O...O...........................O...................................................O.............................................................................................................................
.................................O...................................................O............................................................................................................................
O.O...............................O...................................................O...........................................................................................................................
...................................O...................................................O..........................................................................................................................
O...O...............................O...................................................O.........................................................................................................................
.....................................O...................................................O........................................................................................................................
O.O...................................O...................................................OOOOO...................................................................................................................
.......................................O..................................................O.....O.................................................................................................................
........................................O.................................................O......O................................................................................................................
.........................................OOO..............................................O.......O...............................................................................................................
.........................................O...O............................................O....O.OO...............................................................................................................
.........................................O....O...............................................O...................................................................................................................
...............................................O...........................................O.........O............................................................................................................
..........................................O.....O...........................................O.O.....O.O...........................................................................................................
...........................................O....O............................................OO......OO...........................................................................................................
............................................O.....................................................................................................................................................................
.............................................OO..................................................O.......O........................................................................................................
................................................................................................O.O.....O.O.......................................................................................................
.................................................................................................OO......OO.......................................................................................................
......................................................OO.............................................O............................................................................................................
.......................................................O............................................O.O...........................................................................................................
....................................................O................................................OO...........................................................................................................
....................................................OO............................................................................................................................................................
.......................................................................................................................O...O......................................................................................
.......................................................................................................................O...O......................................................................................
..............................................................OO...............................................O.O.O...O.O.O......................................................................................
...............................................................O..................................................................................................................................................
............................................................O.................O.O.O............................O...O.......O......................................................................................
............................................................OO....................................................................................................................................................
..............................................................................O...O............................O.O.O.......O......................................................................................
......................................................................O.O.O...O.O.O............................O..................................................................................................
......................................................................O...O...O...O............................O..................................................................................................
......................................................................O.O.O...O.O.O...............................................................................................................................
......................................................................O...........................................................................................................................................
......................................................................O...........................................................................................................................................
............................O.....................................................................................................................................................................................
...........................O.O....................................................................................................................................................................................
............................O.O...................................................................................................................................................................................
.............................O.O..................................................................................................................................................................................
..............................O.O.................................................................................................................................................................................
...............................O.O................................................................................................................................................................................
................................O.O...............................................................................................................................................................................
.................................O.O..............................................................................................................................................................................
..................................O.O.............................................................................................................................................................................
...................................O.O............................................................................................................................................................................
....................................O.O...........................................................................................................................................................................
.....................................O.O..........................................................................................................................................................................
......................................O.O.........................................................................................................................................................................
.......................................O.O........................................................................................................................................................................
........................................O.O.......................................................................................................................................................................
.........................................O.O......................................................................................................................................................................
..........................................O.O.....................................................................................................................................................................
...........................................O.O....................................................................................................................................................................
............................................O.O...................................................................................................................................................................
.............................................O.O..................................................................................................................................................................
..............................................O.O.................................................................................................................................................................
...............................................O.O.................O...O..........................................................................................................................................
................................................O.OO..............................................................................................................................................................
................................................OO.OO..............O...O..........................................................................................................................................
.................................................O.OO.............................................................................................................................................................
...........................................................O.O.O...O.O.O..........................................................................................................................................
...........................................................O...O.......O..........................................................................................................................................
...........................................................O.O.O.......O..........................................................................................................................................
...........................................................O......................................................................................................................................................
...........................................................O......................................................................................................................................................
