!Name: diagpuf-breeder
!CImpacting the output from c/4 diagonal puffers with
!Ca p392 rake produces switch engines.
!CDavid Bell, 23 Jul '05.
!
.............................................................................OO............................................................................
.............................................................................O.O...........................................................................
.............................................................................O.............................................................................
................................................................................O..........................................................................
................................................................................OO.........................................................................
................................................................................OO.........................................................................
...............................................................................OO..........................................................................
...........................................................................OO.OO...........................................................................
...........................................................................O....O..........................................................................
...........................................................................O.OOOO..........................................................................
...............................................................................OO..........................................................................
...............................................................................OO..........................................................................
...............................................................................OO..........................................................................
.................................................................................O.OOO.....................................................................
.............................................................................O..O..........................................................................
............................................................................OOOOO......O...................................................................
............................................................................O..OO.....O.O..................................................................
..........................................................................O.O..........O...................................................................
.........................................................................OOO....O..........................................................................
.........................................................................O..OO.............................................................................
.............................................................................OOO...........................................................................
.............................................................................OO..........O.................................................................
...............................................................................O........O.O...O............................................................
.............................................................................O.O........O.O..O.O...........................................................
......................................................................OO....OO...........O....O............................................................
.....................................................................OO.....OO.O...........................................................................
.......................................................................O....OO.OO.O..OO....................................................................
............................................................................OOO.O.O..O.O...................................................................
...................................................................OO...OO..OO.......O..........O..........................................................
..................................................................OO...OO...............O......O.O...O.....................................................
....................................................................O..OOO..............OO.....O.O..O.O....................................................
......................................................................OOOO..............OO......O....O.....................................................
.....................................................................O.O...............OO..................................................................
....................................................................OO.............OO.OO...................................................................
....................................................................O.O............O....O..................................................................
...................................................................O...............O.OOOO..............O...................................................
....................................................................OO.................OO.............O.O...O..............................................
.......................................................................................OO.............O.O..O.O.............................................
.......................................................................................OO..............O....O..............................................
.........................................................................................O.................................................................
.....................................................................................O..O....O.............................................................
....................................................................................OOOOO....O.............................................................
....................................................................................O..OO....O................O............................................
..................................................................................O.O............O...........O.O...O.......................................
.................................................................................OOO....O.......O.O..........O.O..O.O......................................
.................................................................................O..OO...........O............O....O.......................................
.....................................................................................OOO...................................................................
.......................................................O.O...........................OO....................................................................
......................................................O..O.............................O...................................................................
.....................................................OO..............................O.O...........O.................O.....................................
....................................................O.........................OO....OO............O.O...O...........O.O...O................................
...................................................OOOO......................OO.....OO.O..........O.O..O.O..........O.O..O.O...............................
..................................................O....O......O................O....OO.OO.O........O....O............O....O................................
..................................................O..O.....OO.O.....................OOO.O.O................................................................
..................................................O..O.....O...............OO...OO..OO.....................................................................
...................................................O.......O..............OO...OO..........................................................................
....................................................OOOO.O......OO..........O..OOO........................O.................O..............................
.....................................................O...O....O....O..........OOOO.......................O.O...O...........O.O...O.........................
......................................................O......O...............O.O.........................O.O..O.O..........O.O..O.O........................
......................................................OOOOO..O.....O........OO............................O....O............O....O.........................
.............................................................OOOOOO.........O.O............................................................................
......................................................OOOOO................O...............................................................................
......................................................O.....................OO.............................................................................
.....................................................O...O..O........................OO..........................O.................O.......................
...........O.O............OO........................OOOO.O.........................O....O.......................O.O...O...........O.O...O..................
..........O..O..........O....O.....................O.......O.OO...................O.............................O.O..O.O..........O.O..O.O.................
.........OO.......O....O..........................O..O.....O..O......O............O.....O........................O....O............O....O..................
........O......OO.O....O.....O....................O..O.....O..O....O.O............OOOOOO.........OO........................................................
.......OOOOOO..O.......OOOOOO.....................O....O....OO......OO.....O....................OOOO.......................................................
....OO.......O...OOOO..............................OOOO..................O.O...................OO.OO.......................................................
...O...OOO.O....O...................................O.....................OO.....O..............OO......................O.................O................
..O...O...OO.O..OO.O..O..............................OO........................O.O.....O...............................O.O...O...........O.O...O...........
..O.....OO...O.....O......OO..........................O..O......................OO.....O...............................O.O..O.O..........O.O..O.O..........
..OOO...OOOO.O.......O.O..OOO..........................O.O...........................O.O................................O....O............O....O...........
...........O.........O......O.........................................................OO...................................................................
..OOO......O.O.......O......O.....O.........................................................................OO.............................................
.O.....O.....O........O....O....O.O...OO..OO..OO..OO..OO..OO..OO..OO..OO..OOO.OO...........................O..O...OOO......................................
O...OO.O...OO...........OO.......OO...OO..OO..OO..OO..OO..OO..OO..OO..OO..OOOO..O...........................OO......O..........O.................O.........
O...O......OOO..............................................................O.OO...................................O..........O.O...O...........O.O...O....
O...OO.O...OO...........OO.......OO...OO..OO..OO..OO..OO..OO..OO..OO..OO..OO..................................................O.O..O.O..........O.O..O.O...
.O.....O.....O........O....O....O.O...OO..OO..OO..OO..OO..OO..OO..OO..OO..OO..................................OO...............O....O............O....O....
..OOO......O.O.......O......O.....O...........................................................................O..O.........................................
...........O.........O......O................................................................................OO............................................
..OOO...OOOO.O.......O.O..OOO..............................................................................O...............................................
..O.....OO...O.....O......OO..................................................OO...........................O..........................O.................O..
..O...O...OO.O..OO.O..O......................................................OO.OO.........................O....O....................O.O...O...........O.O.
...O...OOO.O....O.............................................................OOOO......OO...................OOO.....................O.O..O.O..........O.O.
....OO.......O...OOOO..........................................................OO......OO.OOO.........................................O....O............O..
.......OOOOOO..O.......OOOOOO...........................................................OOOOO..............................................................
........O......OO.O....O.....O...........................................................OOO...............................................................
.........OO.......O....O...............................................................................................OO..................................
..........O..O..........O....O........................................................................................OO.OOOO................O.............
...........O.O............OO...........................................................................................OOOOOO...............O.O...O........
........................................................................................................................OOOO................O.O..O.O.......
.............................................................................................................................................O....O........
....................................................................................................................................................O......
...................................................................................................................................................O.O...O.
...................................................................................................................................................O.O..O.O
....................................................................................................................................................O....O.
