!Name: make-osc-p003
!C
!CSome glider syntheses of oscillators.
!C
!C3-1. "cis skewed poles", Stephen Silver and Mark D. Niemiec, 1/00
!C3-2. "cross", Jason Summers, 8/04
!C3-3. "short keys", JS, 8/04
!C3-4. JS, 9/04
!C3-5. "bent keys", JS, 9/04
!C3-6. "asymmetric keys", MDN, 1/00
!C3-7. "star", JS, 8/04
!C3-8. JS, 8/04
!C3-9. "diamond ring" with nonstandard stator. JS, 8/04
!
O..O..O..O..O..O..O..O..O..O..O..O..O..O..O..O..O..O..O..O..O..O..O..O..O..O..O..O..O..O..O..O..O..O..O..O..O..O..O..O..O..O..O..O..O..O..O..O..O..O..O..O..O..O..O..O..O..O..O..O..O..O..O..O..O..O..O..O..O..O..O..O..O..O..O..O.............................................
O.........................................O...................O........................O...............................................O.........................................................................................O.............................................
....O.O.O.......O...........................................O.O............................O.O.O.......O.O.O...............................O.O.O.......O.O.O...................................................................................................................
.............................................................OO..........O.....................................................................................................................................................................................................
O.......O.......O.........................O.............................O..............O.......O.......O...................O...........O.......O.......O.........................................................................O.............................................
........................................................................OOO..............................................OO....................................................................................................................................................
....O.O.O..O.O..O.............................O............................................O.O.O..O.O..O.O.O..............OO...............O.O.O..O.O..O.O.O...................................................................................................................
O.........................................O....OO......................................O...............................................O.........................................................................................O.............................................
........O.......O.............................OO...O..................O........................O...........O...................................O.......O...O...................................................................................................................
....................................................OO................O.O......................................................................................................................................O...............................................................
O...O.O.O.......O.........................O........OO.................OO.........O.O...O...O.O.O.......O.O.O...........................O...O.O.O.......O.O.O.................................................OO..................O.............................................
..............................O..................................................OO................................O..........................................................................................OO...............................................................
.............................O....................................................O..........................O.O..O............................................................................................................................................................
O............................OOO..........O.....................O.O....................O.....................OO...OOO..................O.........................................................................................O.............................................
................O................................................OO...........................................O...........O.....................................................................................O.O.......O....................................................
..............O.O................................................O.......................................................O.................................O....................................................OO........O.O..................................................
O..............OO.........................O...........................O.O..............O..................O..............OOO...........O....................OO...................................................O...O.O..OO.....O.............................................
......................................................................OO...................................OO..............................................OO........................................................OO........................................................
.......................................................................O..................................OO...........................................................................................O.O............O........................................................
O...........................O.............O...O.O.O.......O.O.O........................O...............................................O...............................................................OO........................O.............................................
............................O.O.........................................................................................................................................................................O......................................................................
........O...................OO.....O..............O...........O.......................................................OO.......................................................................................................................................................
O........OO......................OO.......O............................................O.............................OO................O.........................................................................................O.............................................
........OO........................OO..........O.O.O..O.O..O.O.O...........OO...........................................O.........................................O.............................................................................................................
...........................................................................OO..................................................................................O.O.............................................................................................................
O.........................................O.......O...........O...........O............O.......................O.......................O......O.O...............OO...............................................................O.............................................
...........O....................O..............................................................................OO..............................OO..............................................................................................................................
...........OO...OO....O........OO.............O.O.O.......O.O.O...............................................O.O..............................O...............................................................................................................................
O.........O.O....OO..OO........O.O........O............................................O........OO...................O............OO...O.........................................................................................O.............................................
................O....O.O..............................................O........................O.O..................OO............O.O..........................................................................................................................................
......................................................................OO.........................O..................O.O...........O............................................................................................................................................
O.........................................O..........................O.O...............O...............................................O.............................O...........................................................O.............................................
......................................................................................................................................................................OO.......................................................................................................
.....................................................................................................................................................................OO........................................................................................................
O..O..O..O..O..O..O..O..O..O..O..O..O..O..O..O..O..O..O..O..O..O..O..O..O..O..O..O..O..O..O..O..O..O..O..O..O..O..O..O..O..O..O..O..O..O.........................................................................................O.............................................
.........................................................................................................................................................................O.O...................................................................................................
O.........................................O............................................O...............................................O..................................OO.....................................................O.............................................
....O.O.O.......O.O.O.........................O.O.O.......O...O...........................................................................................................O....................................................................................................
O.......O...........O.....................O.......O.......O...O........................O...............................................O.........................................................................................O.............................................
.............................................................................................................................................................................O.................................................................................................
....O.O.O..O.O..O.O.O.........................O.O.O..O.O..O.O.O...............................................................................................................OO...............................................................................................
O.........................................O............................................O...............................................O.....................................OO..................................................O.............................................
........O.......O.................................O...........O................................................................................................................................................................................................................
..................................................................................................................................................................................O............................................................................................
O...O.O.O.......O.O.O.....................O...O.O.O...........O........................O...............................................O........................................OO...............................................O.............................................
.................................................................................................................................................................................OO............................................................................................
O.........................................O............................................O...............................................O...............................OOO.......................................................O.............................................
.........................................................................................................................................................................O.....................................................................................................
..................O.O.........................................O.O.......................................................................................................O......................................................................................................
O.................OO......................O....................OO......................O...............................................O.........................................................................................O.............................................
...................O...........................................O..........................................................................................................OO...................................................................................................
...........................O......................O....................O.................................................................................................O.O...................................................................................................
O.........................O...............O........OO...............O..O.O.............O...............................................O...................................O.....................................................O.............................................
...............O.O........OOO.....................OO..............O.O..OO......................................................................................................................................................................................................
................OO...O.............................................OO..........................................................................................................................................................................................................
O...............O.....O...................O.............O..............................O...............................................O.........................................................................................O.............................................
..........O.........OOO..................................OO....................................................................................................................................................................................................................
........O.O.............................................OO.....................................................................................................................................................................................................................
O........OO....................O..........O......................O.....................O...............................................O.........................................................................................O.............................................
.............................OO...................................O............................................................................................................................................................................................................
..............................OO................................OOO............................................................................................................................................................................................................
O..................................OO.....O............................................O...............................................O.........................................................................................O.............................................
............OO....................OO...........................................................................................................................................................................................................................................
...........O.O..............O.......O..........................................................................................................................................................................................................................................
O....O.......O..............O.O...........O............................................O...............................................O...............................................................OO........................O.............................................
......OO....................OO........................................................................................................................................................................OO.......................................................................
.....OO.......................................................................................................................................OO........................................................O......................................................................
O.........OO..............................O............................................O...............................................O.....O.O.................................................................................O.............................................
...........OO...............................................................OO.................................................................O...............................................................................................................................
..........O....................OO...................OO......................O.O................................................................................................................................................................................................
O..............................O.O........O..........OO.....................O..........O...............................................O.........................................................................................O.............................................
...................OOO.........O....................O.......................................................................................O..................................................................................................................................
...................O.....O..................................................................................................................OO.................................................................................................................................
O...................O...OO................O................................O...........O...............................................O...O.O...................................................................................O.............................................
.............OOO........O.O.........................O.....................OO...................................................................................................................................................................................................
...............O....................................OO....................O.O..................................................................................................................................................................................................
O.............O...........................O........O.O.................................O...............................................O..............................................................................OO.........O.............................................
......................O......................................O...................................................................................................................................................O...OO........................................................
......................OO...............................OO....OO.................................................................................................................................................OO.....O.......................................................
O....................O.O..................O.............OO..O.O................O.......O...............................................O........................................................................O.O..............O.............................................
.......................................................O......................OO..............................................................OO....OO.........................................................................................................................
..............................................................................O.O............................................................O.O...O.O.........................................................................................................................
O.........................................O............................................O...............................................O.......O.....O...........................................................................O.............................................
O..O..O..O..O..O..O..O..O..O..O..O..O..O..O..O..O..O..O..O..O..O..O..O..O..O..O..O..O..O...............................................O..O..O..O..O..O..O..O..O..O..O..O..O..O..O..O..O..O..O..O..O..O..O..O..O..O..O..O..O..O..O.............................................
O..O..O..O..O..O..O..O..O..O..O..O..O..O..O..O..O..O..O..O..O..O..O..O..O..O..O..O..O..O..O..O..O..O..O..O..O..O..O..O..O..O..O..O..O..O..O..O..O..O..O..O..O..O..O..O..O..O..O..O..O..O..O..O..O..O..O..O..O..O..O..O..O..O..O..O..O..O..O..O..O..O..O..O..O..O..O..O..O..O..O
O.........................................................................................O.........................................................................................O.........................................................................................O
...................O.O.O.......O.O.O..........................................................O.O.O.......O.O.O.........................................................................O.O.O.......O.O.O......................................................................
.............................................................................................................................................................O.................................................................................................................
O......................O...........O......................................................O.......O.......O...O.............................................O.......................O.......O.......O...O.....................................................................O
............................................................................................................................................................OOO................................................................................................................
...................O.O.O..O.O......O..........................................................O.O.O..O.O..O.O.O.........................................................................O.O.O..O.O..O.O.O......................................................................
O............O............................................................................O.........................................................................................O.........................................................................................O
..............OO.......O...........O..............................................................O.......O...O.....O.......................................................................O...........O................................................O.....................
.............OO......................................................................................................O..................................................................................................................................O......................
O..................O.O.O...........O......................................................O...O.O.O.......O.O.O....OOO..............................................................O...O.O.O.......O.O.O..........................................O....OOO...................O
...................................................................................................................................................................................................................................................O.O.........................
................................................................................O.O.......................................................................................................................O.O......................................OO..........................
O...............................................................................OO........O.........................................................................................O......................OO.................................................................O
.................................................................................O.........................................................................................................................O...................................................................
O........................O................................................................O.........................................................................................O.........................................................................................O
..........................O....................................................................................................................................................................................................................................................
........................OOO....................................................................................................................................................................................................................................................
O.........................................................................................O.........................................................................................O.........................................................................................O
...................................................................................................O..............................................................................................O.................................................................O..........
.................................................................................................O.O....................................................................O..........................OO...........................................O...................O.O........
O.........................................................................................O.......OO...........................................O.O......................O.O.........O.............OO............................................O.O.................OO........O
.......................................................................O.......................................................................OO.......................OO......................................................................OO.............................
.......................................................................O.O......................................................................O..............................................................................................................................
O......................................................................OO.................O.........................................................................................O......................................................O.......................O..........O
.........................................................................................................................................................................................................................................OO.......................O............
...................................O...........................................................................................O.O....................O...................................................................................OO......................OOO..........
O................................O.O......O...............................................O.....................................OO..................OO..............................O...................................................................O.....................O
..................................OO....O.O.....................................................................................O....................OO................................................................................................O.......................
.........................................OO............................................................................................................................................................................................................OOO.....................
O.........................................................................................O.........................................................................................O.............................O...........................................................O
.............................................................O..................................................................................................................................................O.O............................................................
............................................................O.......................................................O..................................O.........................................................OO............................................................
O...........................................................OOO...........................O..........................OO..............................OO.............................O.........................................................................................O
...............................................O....................................................................OO................................OO..............................................................O.O.............OOO......................................
................................................O......................................................................................................................................................................OO.............O........................................
O.............................................OOO.........................................O.................................................O.......................................O..................................O...............O......................................O
..........................................................................................................................................OO...................................................................................................................................
............................................................O.......................................................................O......OO............................................................................O.....................................................
O..........................................................O..............................O..........................................O..............................................O....................................O.O..................................................O
.....................................OO....................OOO.....................................................................OOO...................................................................................OO..........OO........................................
....................................O.O.............................................................................................................................................................................................OO.........................................
O.....................................O...................................................O.........................................................................................O.................................................O.......................................O
.....................................................................................................................................O.........................................................................................................................................
....................................................O................................................................................O.O......................................................................................O................................................
O...................................................O.O...................................O..........................................OO.............................................O..........................................OO.............................................O
.............................OOO....................OO........................................................................................................................................................................OO..........OO...................................
...............................O.........................................................................................................................................................................................................O.O...................................
O.............................O...........................................................O................................................................OO.......................O......................................................O..................................O
..........................................................................................................................................................OO...................................................................................................................
..........................................OOO...............................................................................................................O................................................................O...............O.................................
O.........................................O...............................................O.........................................................................................O.........................................O.............OO................................O
...........................................O................................................................................................................................................................................OOO.............O.O................................
............................OOO.......................................................................................................................O........................................................................................................................
O.............................O...........................................................O...............................OO....................O....OO.............................O.............................................................OO..........................O
.............................O.............................................................................................OO..................OO....O.O..........................................................................................O.O..........................
..........................................................................................................................O....................O.O................................................................................................O............................
O...............................................OO........................................O.........................................................................................O......................OOO................................................................O
................................................O.O....OO....................................................................................................................................................O.................................................................
................................................O......O.O......................................................................O...........................................................................O..................................................................
O......................................................O..................................O............OO.......................OO..................................................O...........OOO......................OO...................................................O
......................................................................................................O.O......................O.O...........................................OO...................O.......................OO...................................................
..................OO....................................................................................O....................................................................O.O.................O.......................O.....................................................
O................O.O......................................................................O..................................................................................O......O.........................................................................................O
...................O...............................................................................................................................................................................................OO..........................................................
...............................................................................................................................................................................................OO.................O.O............................................OO............
O.........................................................................................O.........................................................................................O.........O.O...................O...........................................OO............O
................................................................................................................................................................................................O.................................................................O............
O...............................................................OOO.......................O.........................................................................................O.........................................................................................O
................................................................O..............................................................................................................................................................................................................
.................................................................O.............................................................................................................................................................................................................
O.........................................................................................O.........................................................................................O.........................................................................................O
.........O.................................................................................................................................................OOO...........................................................................................O.....................
.........OO................................................................................................................................................O............................................................................................OO.....................
O.......O.O...............................................................................O.................................................................O.......................O...........................OO......................................O.O...................O
...............................................................................................................................................................................................................O.O.............................................................
..........................................................................................................................................................................................................OOO....O.............................................................
O...........................................................................OO............O.......................OOO...............................................................O.......................O.................................................................O
...........................................................................OO.......................................O......................................................................................O...................................................................
.............................................................................O.....................................O...........................................................................................................................................................
O.........................................................................................O.........................................................................................O.........................................................................................O
O.........................................................................................O.........................................................................................O.........................................................................................O
O..O..O..O..O..O..O..O..O..O..O..O..O..O..O..O..O..O..O..O..O..O..O..O..O..O..O..O..O..O..O..O..O..O..O..O..O..O..O..O..O..O..O..O..O..O..O..O..O..O..O..O..O..O..O..O..O..O..O..O..O..O..O..O..O..O..O..O..O..O..O..O..O..O..O..O..O..O..O..O..O..O..O..O..O..O..O..O..O..O..O
