!Name: o0006-spark
!CPeriod 6 oscillators with sparks
!C
!CA1 "p6 pipsquirter" [Noam D. Elkies, 15 Nov 97]
!CA2 "T-nosed p6" [Achim Flammenkamp, 12 Sep 94]
!CA3 [David Eppstein 26 Jun 00]
!CA4 [DE 10 Jun 00]
!CA5 [Karel Suhajda]
!CA6 [DE 6 Jul 00]
!C
!CB1 [Nicolay Beluchenko]
!CB2 [NDE 4 Nov 98]
!C
!CC1,C2 [KS, Aug 04]
!CC3 [NDE 19 Dec 97]
!CC4 [DE 7 Jul 00]
!CC5 [NDE 26 Oct 97]
!C
!CD1 "unix"
!CD2 [Dean Hickerson, 1989]
!CD3 [NDE Dec 04]
!CD4 [DE 6 Jul 00]
!C
!CE1 [NDE 19 Dec 97]
!CE2 variant of C5
!
..OO.O.....................O..........................O.O.O.........................O.O.O........................O...O........................O.O.O.......................O.O.O...................................
..O.OO............................................................................................................................................................................................................
OO.........................O..............................O.............................O........................O...O........................O...........................O.......................................
O.................................................................................................................................................................................................................
.O.........................O..........................O.O.O.........................O.O.O........................O.O.O........................O.O.O.......................O.O.O...................................
OO................................................................................................................................................................................................................
..OO.O.....................O..........................O.................................O............................O............................O.......................O...O...................................
..O.OO............................................................................................................................................................................................................
OO....OO...................O..........................O.O.O.........................O.O.O............................O........................O.O.O.......................O.O.O...................................
O.....O...........................................................................................................................................................................................................
.O.....O..........................................................................................................................................................................................................
OO....OO..........................................................................................................................................................................................................
..OO.O............................................................................................................................................................................................................
..O.OO............................................................................................................................................................................................................
...............................O.......................O............................O............................O..............................O.............................O........................O..........
..O............................O.......................O.............................O.........................O...O..........................O...O...............................................................
......................................................OOO........................O....O....................OO.O.....O.OO..................................................O.......O.................O.....O.......
.O.O.........................O...O..............................................O...OOO....................O...........O.....................O.....O......................O.......O................O.......O......
...........................OOO.O.OOO..................OOO.......................OOO....OO...................OOO.OOO.OOO.................OO..O..OOO..O..OO...............O...O...O...O..............O..OOO..O......
O...O.....................O....OO...O................................................O.O................................................O....O.....O....O...............O.O..OOO..O.O.............OO.......OO.....
.........................O.O.OO..OO.O.............OO..OOO..OO...................OOOOOO.O..................OOOO.......OOOO................OOOOO.....OOOOO.....................O.O..................OO.......OO.....
O.O.O....................O.OO..OO..O..............O.O..O..O.O...................O.....O..................O....O.....O....O............OOO.......O.......OOO.............OOO..O.O..OOO...........O.OO.......OO.O...
........................OO.O.OO..OO................O.......O.......................OOO...................O.O..O.....O..O.O............O...OO...OOO...OO...O.............OO..OO.OO..OO.........OOO.O.........O.OOO.
O...O.................O..O.O.O..O..................................................O......................OOOOOO...OOOOOO..............OO.O..O.OOO.O..O.OO...............OO.O...O.OO.........O....O.OO...OO.O....O
......................OO..OO.OOOO..................O.......O............................................................................O..OO.......OO..O................OO...O...OO..........OOOOO..O...O..OOOOO.
............................O.....................O.O..O..O.O...............................................OOO.O.O.OOO.................O....O.....O....O..................OO.O.OO.................O.O...O.O......
............................O.O...................OO..OOO..OO................................................O..O.O..O...................OOOOOOOOOOOOOOO....................O...O............O.OO..O.O...O.O..OO.O
.............................OO............................................................................O...O.O.O...O..............................................OO.............OO......OO.O...OO...OO...O.OO
......................................................OOO..................................................OOOOO.O.OOOOO...................OO.......OO................O..OOO..O..OOO..O...........................
................................................................................................................OOO........................O..OO.OO..O..................OO.O.O.O.O.OO.............................
......................................................OOO....................................................OO.....OO...................O.O.........O.O....................OO.OO.....................OOO.........
.......................................................O.....................................................O.OOOOO.O...................OO.....O.....OO................OO.........OO................O.O.O........
.......................................................O.........................................................O.............................OOO.....................O..O.......O..O.............OOO...OOO......
........................................................................................................................................................................O.O.O...O.O.O.............O....O....O.....
.......................................................................................................................................................................OO.O.O...O.O.OO............O.OO..O.OO.O....
......................................................................................................................................................................O..O.........O..O............O..OOOO.O.O....
......................................................................................................................................................................OO..OOO...OOO..OO.............OO....OO.OO...
.......................................................................................................................................................................O.O..OO.OO..O.O................O..O.O.O..O.
.......................................................................................................................................................................O..O.OO.OO.O..O................OOOO.OO..OO.
........................................................................................................................................................................OO..OO.OO..OO.....................O.......
............................................................................................................................................................................O.O.O.......................O.O.......
........................................................................................................................................................................................................OO........
............................................................................................................................................................................O...O.................................
............................................................................................................................................................................O.O.O.................................
.........................................................................O.....O.................O...........................................................................O.O..................................
.........................................................................O.....O.................O...........................................................................O.O..................................
O.O...................................OO.............................................O.....O................OO..............................................................OOOOO.................................
........................OO......O....O..O...............................O.O...O.O....O....O.O...O.O..........O....................................................................................................
O...O..................O..O..........OO.O..........OOO..OO.OO...OO.....O.O.O.O.O.O.......O...O.O.O.O.....OO..O.OO......................................................OO...........OO............................
.......................O..O..O....OOO.O.O.OO.........O.O.OOOOO.OOOOOO..OO.OO.OO.OO..O.O..O.O.O.OO.OO..OOOOOO.O.O.......................................................O.....O.O.....O............................
O.O.................O...OO..OO......O...O.OO.......OO........O.O...O.O.O.O.O.O.O.O.O.O.O.O...O.O.O.O.O.O...O.O.O.........................................................O..OO.OO..O..............................
....................OOO...O...O.OO......O...........O.O.OOOO.O..O.O..O.O.O.O.O.O.O.OO.OO.O...O.O.O.O.O..O.O..OO.........................................................OOOOOO.OOOOOO.............................
O...O...............OOOOO.....OOOO..O...O.OO........O.O.O...O.O.O...OO.O.OO...O.O..O.O.O.O.O.O.O.OO..OO...O.O.....................................................................................................
......................O..O...O....OOO.O.O.OO.........O.O...O..O.O....O..O......O...O.O.O.O.OO...O....O....O.O.............................................................OO.....OO...............................
O.O.....................OO...........OO.O.............O....OO..O...O.O...O.O........OO.O.O.......O.O.O.O...O..............................................................OO.....OO...............................
........................OO...........O..O..........................OO.....OO............OO........OO.OO.O.........................................................................................................
......................................OO................................................................O.........................................................................................................
........................................................................................................OO........................................................................................................
............................OO..........................OO..........................OO..............................OO......................OO....................................................................
..........................O....O......................O....O......................O....O......................OO..........OO....................O.................................................................
..............................................................OO..........................OO..................O..O......O..O..................O..O.O.OO..OOO......................................................
.........................O......O....................O......O..O.................O......O..O...................O.O.OOOO.O.O...............O..OOO.O.OOO.O.O........................................................
.......................OOO.O.OO.OOO................OOO.O.OO.OO.................OOO.O.OO.OO...................O.O..........O.O.............O....O.O........OO......................................................
......................O....O...O...O..............O....O...O..OOOO............O....O...O..OOOO..............O.O.OO.OOOO.OO.O.O.............OOOO...OOOOO.O.O.......................................................
.......................OOOOO..OO.OOO..............OOOOOO..OO.O...O.............OOOOO..OO.O...O..............O.O.O..OOOO..O.O.O........................O.O.O.......................................................
............................O...........................OO...O.OO....................O...O.O.................OO.O.OOOOOO.O.OO................OO.....O.O.OO........................................................
..O......................OO.....O.OOOO..............O.O..OOOO..O.................OOOOOO.O..OO...................OOO....OOO...................OO.....OO............................................................
.........................O.......OO..O.............O.OOO....O.O..O...............O......O.O..O...............OOO..O....O..OOO.....................................................................................
O...O..................O.O...OOO...................O....O.O...OOOO..................OOOO..O.OO..............O...OO.O..O.OO...O....................................................................................
.......................OO....OOOOOO.................OOO.OOO.O......................O.O.OO.O..................OOO..........OOO.....................................................................................
O...........................OOO....O..................OO......OO...................O.O.O...OOO..................OOOOOOOOOO........................................................................................
..................................O.O....................O.OO.O..................OO..OO.OOO..O.................O..........O.......................................................................................
O...O..........................OO.O..O................OO.O..O..O..................O.O.....O....................O..OO..OO..O.......................................................................................
.............................O...O..OO................OO.OO.OOOO.................O..OOO.......................OO.O.OOOO.O.OO......................................................................................
..O........................OO.............................O.O....................O.O...........................O.OO....OO.O.......................................................................................
............................OO............................O.O.OO................OO.OOOO.......................O..O......O..O......................................................................................
.......................OO.O.O..............................OO.OO.......................O......................O.OO.O..O.OO.O......................................................................................
.......................O.OO.O.O......................................................OO......................OO..O.OOOO.O..OO.....................................................................................
.............................OO..................................................OO.O...O...................O..O..O....O..O..O....................................................................................
.................................................................................OO.O.OOO....................OO.....OOO....OO.....................................................................................
....................................................................................O..O...........................OO.............................................................................................
....................................................................................OO............................................................................................................................
O.O.......................................................OO......................................................................................................................................................
.....................O..O..............................O...O.....................O..................................O..O..........................................................................................
O...O...................O............................O...OO....................O..O...............................................................................................................................
....................O....O...........................O.............................O...............................O....O.........................................................................................
O...O...............OO..O.O........................O....O.....................O...O.......O....OO..............OO...OOOO...OO.....................................................................................
.........................O.OO......................OO.OOO...................OOO.O.OO.OO.O.....O..O.............O..O.O..O.O..O.....................................................................................
O...O......................................................................O....O.O.O...O.OOO..O.O..............OOOOOOOOOOOO......................................................................................
...................................................OO.O.O..................OO.OO....O.O...O.OO.O.OO...............................................................................................................
O.O......................O..O......................OO.OO.......................O.O.O......O......O..............OOOO.OO.OOOO......................................................................................
.........................OO....................................................O.O.O.OOOOOOOOOOO.O.............O...OO..OO...O.....................................................................................
................................................................................OO.O.O..........O.............O..OO......OO..O....................................................................................
....................................................................................O...OOOO..O...............OOO.OO....OO.OOO....................................................................................
........................................................................................O..O..OO............OO......OOOO......OO..................................................................................
............................................................................................................O..O.O.O.OO.O.O.O..O..................................................................................
..............................................................................................................OO...O....O...OO....................................................................................
.................................................................................................................O..OOOO..O.......................................................................................
..............................................................................................................OO.OOOO..OOOO.OO....................................................................................
...............................................................................................................O....O..O....O.....................................................................................
.............................................................................................................O..OO..O..O..OO..O...................................................................................
.............................................................................................................OO.O...O..O...O.OO...................................................................................
..............................................................................................................O.O....OO....O.O....................................................................................
.............................................................................................................O..OO..O..O..OO..O...................................................................................
..............................................................................................................OO...OOOOOO...OO....................................................................................
................................................................................................................OOO.O..O.OOO......................................................................................
................................................................................................................O.O......O.O......................................................................................
.............................................................................................................OO.O.O.O..O.O.O.OO...................................................................................
.............................................................................................................O.O.OOO....OOO.O.O...................................................................................
..................................OO............................................................................O..........O......................................................................................
O.O.O............OO.O.O...........O.O.............................................................................................................................................................................
........................OO......O.O.O.................OO......................................................OOOOO......OOOOO....................................................................................
O................O......O.......OO..O.OO..............O.....O.O.O............................................O....O......O....O...................................................................................
..................OOO...O...OOO.....O.O.O..........OO.O.....O.O.O.O...........................................O.O.O......O.O.O....................................................................................
O.O.O...............O.O.OO..O.O....OO.O.O..........O.OO.OO.OO......O...........................................OO.O......O.OO.....................................................................................
.....................OO.O.O....O..O..O.O.OO.............O.O...OO.OO...............................................OO....OO........................................................................................
O....................O...O.OOOO..OOO...O..O.............O.OOOO.O.O.............................................OO..OO..OO..OO.....................................................................................
......................OO.O........O..O.O..O.OO...........O...O.O.O.............................................O....OOOO....O.....................................................................................
O.O.O..................O.O.OO......OO....OO..O............O...O.O................................................OOOO..OOOO.......................................................................................
.......................O.O.OO.......O.O....OO..............O...O.............................................OOOO..........OOOO...................................................................................
........................O...........O.O.O.O...............OO.................................................O..O.O.O..O.O.O..O...................................................................................
..................................OO.O....O......................................................................O..O..O..O.......................................................................................
.................................O.O.O.OOO.........................................................................O....O.........................................................................................
..................................O...OO.....................................................................O.OOOO......OOOO.O...................................................................................
.............................................................................................................OO.O..........O.OO...................................................................................
