!Name: o0013
!
..............................................................................................................................O.OO.........................OO.OO.....
..............................................................................................................................OO.O.......................O..O.O..O...
.................................................................O............................................O..........................................OO.....OO...
OO...OO.O.......................................................O.O......................OO.OO...............O.O..............OOO..........................OOOOO.....
.O...O.OO..................OO.OO.....................OO.OO..............................O.O.O.O.............O.O.O............O...O.......................OO.....OO...
O........OO.................O.O.......................O.O.........O.....................O.....O...........OOO.O.OOO........OOO.O.OOO....................O...O.O...O..
OO.......O.................O.O.......................O.O.......O..O..................OO.O.....O.OO.....O.O...O.O...O.O..O.O...O.O...O.O...............O..OO.....OO..O
..........O.................OO........................OO...........O.................O.O..O.O.OO.O.....OO.OO.....OO.OO..OO.OO.....OO.OO...............OO.O.......O.OO
OO.......OO.................O.........................O............O....................OO.O.O............O.O...O.O........O.O...O.O.....................O.......O...
.O...OO.O....................O.........................O.......O...O.....................O.O.O............O.......O........O.......O.....................O.O.O.O.O...
O....O.OO............O.O......OO...............O.O......OO......OOO.....................O..OO..............OOOOOOO..........OOOOOOO.......................O.O.O.O....
OO.......OO..........OO.OO.....OO.OO...........OO.OO.....OO.OO.......OOO................OO..................................................................O.O......
.........O.............OO.O.......OO.............OO.O.......OO......O...OO.O..............................O.OO.OO.O........O.OO.OO.O........................O.O......
OO........O..........OO....O...................OO....O..............O.......O.............................OO.O.O.OO........OO.O.O.OO......................O.O.O.O....
.O.......OO..........O.....OO..................O.....OO.............O......O..............................................................................OO...OO....
O....OO.O...................O.........................O..............O..O............................................................................................
OO...O.OO............................................................................................................................................................
............................OO........................OO..........OO.................................................................................................
............................OO........................OO..........OO.................................................................................................
.............................................................................................OO..............OO.............................................OO.O.....
.................................................O..O..............O.........................O..............O.O..........................OO.O..............O..OO.....
..............................................O......O.............OO.....O............OO.OO.O..............O.O.OO.OO....................O.OO...............O...OO...
.............................................O.......O..............O....OO..........O..O.O.O.OO.............O.O.O.O.O................OO.O...............OOO.OO...O..
..............................................O.OO...O......OO.......O.OO............OO.O.O.O.O..O.OO..........O...O.O..............OOO.O.OOO...........O..O.O.OOO.O.
..................................................OOO.......OO.OO.....OO.OO.............O.O.O...OO.O...........O...O.O.OO..........O....O.O..O..........O..O.O.O..O.O
.......................................................OOO......OO......O.O.............O.O......O.O......OO.O.O...O.O.OO..........O.OO...O.O.O......OO.O.OO...O.O..O
......................................................O...O.......O...................OO..O.O...O..OO.....O.OO.O.O.O.O..............O.O...O.O.O......O..O..O...O.O.O.
....................O...............O.................O............O.................O.O.OO.....O.O...........O..OOO.O................O.O.O.O.OO.......O.O.O.O.O.O.OO
...................O.O.............O.O................O...........OO.................O.O..O.OOO.O.O........OO..OO...O.............OOOO.OO.O.O.........OO.O..OO.O.O...
...................O.O.............O.O.................O..O.......O.O.................O.O..O...O.O.........O.....OOO..............O..O...OO.O..........O.O....OO.O...
.................OOO.OO...........OO.OOO...............O.........O.O...................O.....O.O.............O...O....................OO...O...........O.OOOO...O....
................O.......................O.......................OO.OO.......................OO.OO...........OO..........................OOO.............O....OOO.....
.................OOO.OO...........OO.OOO...............O.O..............................................................................O.................O..O.......
...................O.OO...........OO.O..................O................................................................................................OO..........
..........................O...O......................................................................................................................................
...........................O.O.......................................................................................................................................
..........................OO.OO......................................................................................................................................
........................O..O.O..O....................................................................................................................................
.......................O.O.O.O.O.O...................................................................................................................................
.......................OO..O.O..OO...............................................................................O...................................................
...........................O.O..................................................................................O.O..................................................
............................O..............................................................O.....................O...................................................
...........................................................................................OOO.............OO.........OO.............................................
........................................................................................O.....O.............O..OOOOO..O.............OO......O.O..O...................
........................................................................................OOOOOOO.............O.O.....O.O.............O......OO.OOOO...................
...............................................................................................OO.........OO.O.O...O.O.OO........OO.O.....O..........................
......................................................................................OOOO...OO..O.......O...O.O...O.O...O........O.OO.OO.O.OOOO.....................
......................................................................................O..O.....O.O........O.O....O....O.O........O..O...O.O....O.....................
...........................................................................................O..OO..OO.....OO.O...OOO...O.OO.......OO..OO.O.O..OO......................
................................................................................................O.O.........O.O.....O.O...............O..OO.O..OOO...................
...........................................................................................O.O.OO..O........O.O.O.O.O.O...............O.....O....O...................
.........................................................................................OOO.O...OO..........OO.O.O.OO.................OOO.O.OOO.....................
........................................................................................O....O.OO..............OO.OO.....................O.O...OO....................
........................................................................................OO...OO.O..........OOO.......OOO..................OO.........................
...........................................................................................................O..OOOOOOO..O.............................................
..............................................................................................................O..O..O................................................
