!Name: o0026
!C1. By Matthias Merzenich with Mike Playle, 2/2012
!
...........................................OO...OO.......................................................................................................
..........................................O..O.O..O......................................................................................................
..OO.O......OO.O......................OO...OO...OO...OO..................................................................................................
..O.OO......O.OO......................O...............O..................................................................................................
......OO..OO.......................OO.O...............O.OO...............................................................................................
......O...O.......................O.O.OO.............OO.O.O..............................................................................................
.......O...O......................O.O.....OOO...OOO.....O.O..............................................................................................
......OO..OO....................OO..O.....O.O...O.O.....O..OO............................................................................................
..OO.O......OO.O...............O....OO....OOO...OOO....OO....O...........................................................................................
..O.OO......O.OO...............OOOOO.....................OOOOO...........................................................................................
OO........OO....OO.................O.....................O...............................................................................................
O.........O.....O............OOOO...........................OOOO.........................................................................................
.O.........O.....O...........O..O...........................O..O.........................................................................................
OO........OO....OO.......................................................................................................................................
..OO.O......OO.O...........................OO...OO.......................................................................................................
..O.OO......O.OO............O....OOO........O...O........OOO....O........................................................................................
...........................O.O...O.O.....O.........O.....O.O...O.O.......................................................................................
...........................O.O...OOO.....OO.......OO.....OOO...O.O.......................................................................................
............................O...................................O........................................................................................
............................O...................................O........................................................................................
...........................O.O...OOO.....OO.......OO.....OOO...O.O.......................................................................................
...........................O.O...O.O.....O.........O.....O.O...O.O.......................................................................................
............................O....OOO........O...O........OOO....O........................................................................................
...........................................OO...OO.......................................................................................................
.............................O..O...........................O..O.........................................................................................
.............................OOOO...........................OOOO.........................................................................................
...................................O.....................O...............................................................................................
...............................OOOOO.....................OOOOO...........................................................................................
...............................O....OO....OOO...OOO....OO....O...........................................................................................
................................OO..O.....O.O...O.O.....O..OO............................................................................................
..................................O.O.....OOO...OOO.....O.O..............................................................................................
..................................O.O.OO.............OO.O.O..............................................................................................
...................................OO.O...............O.OO.........................................................................O...O.................
......................................O...............O......................................................................OO....O...O....OO...........
......................................OO...OO...OO...OO......................................................................O.....O...O.....O...........
..........................................O..O.O..O.......................................................................OO.O...............O.OO........
...........................................OO...OO......................................................................O..O.OO.............OO.O.O.......
........................................................................................................................OO.O.....OOO...OOO.....O.O.......
...........................................................................................................................O.....O.O...O.O.....O..OO.....
...........................................................................................................................OO....OOO...OOO....OO....O....
....................................................................................................................O...........................OOOOO....
....................................................................................................................OOO.........................O........
.......................................................................................................................O...........................OOOO..
......................................................................................................................OO...........................O..O..
............................................................................O..O.O..O.............................................OO...OO................
............................................................................OOOO.OOOO...................................OOO........O...O........OOO....O.
..........................................................................OO.........OO............................OO...O.O.....O.........O.....O.O...O.O
...........................................OO...OO....................OO.O.O.OOOOOOO.O.O.OO........................OO...OOO.....OO.......OO.....OOO...O.O
..........................................O..O.O..O...................OO.O..OO..O..OO..O.OO............................................................O.
......................................OO...OO...OO...OO..........OO......OO...........OO......OO.........................................................
......................................O...............O..........O....OOO...............OOO....O...............OO......................................O.
...................................OO.O...............O.OO.........O.O..O...............O..O.O..........OO.....OO.......OOO.....OO.......OO.....OOO...O.O
..................................O.O.OO.............OO.O..O......OO.OO...................OO.OO..........O..............O.O.....O.........O.....O.O...O.O
..................................O.O.....OOO...OOO.....O.OO........O..O....OOO...OOO....O..O............O.O............OOO........O...O........OOO....O.
................................OO..O.....O.O...O.O.....O...........O.OO....O.O...O.O....OO.O.............OO......................OO...OO................
...............................O....OO....OOO...OOO....OO..........OO.O.....OOO...OOO.....O.OO................OOO...OOO..................................
...............................OOOOO...............................O..O...................O..O................O.O...O.O............................O..O..
...................................O........................OO...O.O..OO.................OO..O.O..............OOO...OOO............................OOOO..
.............................OOOO...........................O.O.O.O...........................O.O...............................................O........
.............................O..O.............................O.O...............................O..OO...........................................OOOOO....
.............................................................OO.OO.............................OO.O.O............................OOO...OOO..........O....
...........................................OO...OO...........................OO...OO..............O..............................O.O...O.O........O......
............................O....OOO........O...O........OOO.......OOO........O...O........OOO....OO.............................OOO...OOO........OO.....
...........................O.O...O.O.....O.........O.....O.O.......O.O.....O.........O.....O.O.................OO...OO......................OO...........
...........................O.O...OOO.....OO.......OO.....OOO.......OOO.....OO.......OO.....OOO.......OOO........O...O........OOO............O.O..........
............................O........................................................................O.O.....O.........O.....O.O..............O..........
.....................................................................................................OOO.....OO.......OO.....OOO.......OO.....OO.........
............................O..........................................................................................................OO................
...........................O.O...OOO.....OO.......OO.....OOO.......OOO.....OO.......OO.....OOO...........................................................
...........................O.O...O.O.....O.........O.....O.O.......O.O.....O.........O.....O.O...........................................................
............................O....OOO........O...O........OOO.......OOO........O...O........OOO.......OOO.....OO.......OO.....OOO...OO....................
...........................................OO...OO...........................OO...OO.................O.O.....O.........O.....O.O...OO....................
.............................................................OO.OO.............................OO....OOO........O...O........OOO.........................
.............................O..O.............................O.O...............................O..............OO...OO...................................
.............................OOOO...........................O.O.O.O...........................O.O.OO.....................................................
...................................O........................OO...OO...........................OO..O.............................OO.......................
...............................OOOOO..............................................................O.O...........................O........................
...............................O....OO....OOO...OOO....OO.............OO....OOO...OOO....OO........OO............................OOO.....................
................................OO..O.....O.O...O.O.....O.............O.....O.O...O.O.....O........................................O.....................
..................................O.O.....OOO...OOO.....O.OO.......OO.O.....OOO...OOO.....O.OO..........OO....OOO...OOO....OO............................
..................................O.O.OO.............OO.O..O........O.O.OO.............OO.O.O...........O.....O.O...O.O.....O............................
...................................OO.O...............O.OO..........O.O.O...............O.O.O........OO.O.....OOO...OOO.....O.OO.........................
......................................O...............O..............O..O...............O..O.........O..O.OO.............OO.O..O.........................
......................................OO...OO...OO...OO.................OO...OO...OO...OO..............OO.O...............O.OO...........................
..........................................O..O.O..O.........................O..O.O..O.....................O...............O..............................
...........................................OO...OO...........................OO...OO......................OO...OO...OO...OO..............................
..............................................................................................................O..O.O..O..................................
...............................................................................................................OO...OO...................................
...................................................OO....................................................................................................
...................................................O.O...................................................................................................
......................................................O..OO..............................................................................................
....................................................OO.O..O..............................................................................................
...................................................O.O.OO................................................................................................
....................................................O....................................................................................................
......................................................OO.................................................................................................
.....................................................O..O................................................................................................
.....................................................O.O.................................................................................................
.....................................................O.O.................................................................................................
................................................OO....O..................................................................................................
...............................................O.O..................O....................................................................................
...............................................O....................OOO..................................................................................
..............................................OO.......................O.................................................................................
......................................................................OO.................................................................................
...................................................O.O...................................................................................................
...................................................OO............OO.............O..OO....................................................................
....................................................O...........OO.............O.O..O....................................................................
........................O.........................................O.....OOO.....OO.O.....................................................................
.......................................................................O...O......O......................................................................
........................O...............................................OO.O....OO.......................................................................
..........................................................................O.....O........................................................................
........................O.........................................................O......................................................................
..................................OO.............................................OO......................................................................
........................O.........O......................................................................................................................
....................................O.....O..............................................................................................................
........................O..........OO....O.OO............................................................................................................
..................................O......O...O...........................................................................................................
.................................O.OO.....OOO.....O......................................................................................................
................................O..O.O.............OO...........O........................................................................................
................................OO..O.............OO............OO.......................................................................................
...............................................................O.O.......................................................................................
.............................................OO..........................................................................................................
.............................................O.......................OO..................................................................................
..............................................OOO....................O...................................................................................
................................................O..................O.O...................................................................................
..............................................................O....OO....................................................................................
.............................................................O.O.........................................................................................
.............................................................O.O.........................................................................................
............................................................O..O.........................................................................................
.............................................................OO..........................................................................................
................................................................O........................................................................................
............................................................OO.O.O.......................................................................................
..........................................................O..O.OO........................................................................................
..........................................................OO..O..........................................................................................
...............................................................O.O.......................................................................................
................................................................OO.......................................................................................
