!Name: o0048-gun
!CBy Noam Elkies (see p24 gun)
!
...........................................OO...........OO...........OO...........OO.................
..........................................O..O.........O..O.........O..O.........O..O................
OO...OO....OO.O...........................O.O...OO.OO...O.O.........O.O...OO.OO...O.O................
OO...OO....O.OO.........................OO..O.O.......O.O..OO.....OO..O.O.......O.O..OO..............
.........OO....OO........................O.O.O....O....O.O.O.......O.O.O....O....O.O.O...............
OO...OO..O.....O........................O..OO..OOOOOOO..OO..O.....O..OO..OOOOOOO..OO..O..............
O.O.O.O...O.....O.......................OO.....O.O.O.O.....OO.....OO.....O.O.O.O.....OO..............
..O.O....OO....OO................................O.O.......................O.O.......................
.OO.O......OO.O................O..OO.........OOO.....OOO...............OOO.....OOO.........OO..O.....
.....OO....O.OO...............O.O..O..O.....O.O.O...O.O.O.............O.O.O...O.O.O.....O..O..O.O....
......O..OO....OO.............O.OO.O.O.O....OO..OOOOO..OO.............OO..OOOOO..OO....O.O.O.OO.O....
.....O...O.....O.............OO.O..O.O..O.............................................O..O.O..O.OO...
.....OO...O.....O............O..O.OO..O.................................................O..OO.O..O...
......O..OO....OO.............OOO.O.O...OOO.........................................OOO...O.O.OOO....
.....O.....OO.O.................OO.O.....OO.................................OOO.....OO.....O.OO......
.....OO....O.OO.............O.O..O.O...O..O......O..................................O..O...O.O..O.O..
............................OO..OO.O.OO..OOO....O.O.......................O.....O..OOO..OO.O.OO..OO..
..................................OO.O...OO....O...O......................O.....O...OO...O.OO........
............................OOOOO....O..........O.O.......................O.....O........O....OOOOO..
...........................O....O.OOO............O....OO...............OO.................OOO.O....O.
...........................O.OO.O.O......OO...........O.O.............O.O...OOO.....OO......O.O.OO.O.
..........................OO.O..O......OOOO.............O.............O.............OOOO......O..O.OO
...........................O.O.O.O.....OO..O........O...OO...........OO.........O..O..OO.....O.O.O.O.
...........................O.O.OO.O..O.......OOO.....O...................O.....OOO.......O..O.OO.O.O.
..........................OO.OO..OO...OOOO.........OOO..................O.....OO.OO..OOOO...OO..OO.OO
.............................O..OOO..O..OO...O.O..............OO........OOO....OOO...OO..O..OOO..O...
.............................O.O.OO.....O.....O...............OO................O.....O.....OO.O.O...
............................OO.O..OO.O..O.............................................O..O.OO..O.OO..
..............................O...OO..O..O................O......OOO.................O..O..OO...O....
..............................O.O.......O..................O...OOOOOO.................O.......O.O....
.............................OO.OO..........OOO..........OOO..OO.....O..........OOO..........OO.OO...
..........................................OOOOOOO.............OO.O..O.........OOOOOOO................
...................................OO..O..OO.O.OO..O..OO.........O.....OO..O..OO.O.OO..O..OO.........
...................................O....OOOO...OOOO....O...............O....OOOO...OOOO....O.........
....................................OOOO...........OOOO.................OOOO...........OOOO..........
........................................OO.......OO..........OO.............OO.......OO..............
....................................OOOOO.O..O..O.OOOOO...OOOOO...OO....OOOOO.O..O..O.OOOOO..........
...................................O......OOOOOOO......O..OOO.OOOOO....O......OOOOOOO......O.........
....................................OOO.O.........O.OOO........OOO......OOO.O.........O.OOO..........
......................................OO.O.OO.OO.O.OO...........O.........OO.O.OO.OO.O.OO............
........................................OO.O...O.OO...................O.....OO.O...O.OO..............
........................................O..O...O..O....................O....O..O...O..O..............
.........................................OO.....OO...................OOO.....OO.....OO...............
