!Name: o0050
!
..O.OO......OO.O..............................................................................................................................O...................................................................................................
..OO.O......O.OO..............OO..O......................................O..OO...............................................................O.O..................................................................................................
OO........OO....OO............O..OO........O.............................OO..O..........................................................O....O.O..................................................................................................
.O........O.....O..............OOOOO.......O............................OOOOO..........................................................O.O..OO.OO..OO.............................................................................................
O..........O.....O.........................O.......OOO..................................................................................O...O...O....O................................................OO..........................................
OO........OO....OO.................................O.O............OOO.O......................................................................OOO....O..O.............................................O..O.........................................
..O.OO....O.....O..............OOOOO...OOO...OOO...OOO............O.O...OOOOO.........................................................OOOOO....O.O..O.OO........................................OO..O.OO.O........................................
..OO.O.....O.....O............O..OO...............................OOO....OO..O.......................................................O....O.....OOO.O...OO......................................O...O..O.O........................................
......OO..OO....OO............OO..O........O.............................O..OO......................................................O..O...........OO...O........................................OOO..O..OO.......................................
.......O..O.....O..........................O.....................................................................................O..O.OO..................O........................................O.O.O..O.......................................
......O....O.....O.........................O....................................................................................O.O.O.....O...........OOOO.O.........................................OO.OO........................................
......OO..OO....OO..................OOOO............................OO...........................................................O..O....O.O..........O....O.........................................OO...........................................
..O.OO......OO.O...................O.OO.O..........................OO..O............................................................OO..O..O...........O..................................OO.........O..OO..OO....................................
..OO.O......O.OO...................OO..OO.............................OO.................................................................OO............OO.................................OO.........O.O..O..O....................................
...................................OO..OO..........................OO...OO.......................................................OO....................O..OO................................O.O....O.....OO.O.....................................
...................................O.OO.O...........................OOOO..O....................................................OOO.O................O...OO.OOO.................................O...OOO.....O.OOO..................................
....................................OOOO...............................O.OO...................................................O....O..............O.O....O....O............................O..O..OOO.......O....O.................................
.......................................................................O.......................................................OOO.OO..............OO....O.OOO.......................OO....O..O..OO.......OO.OO.OOO...............................
......................................................................OO.........................................................OO..O............OO......OO..........................O.....OO............O..O.O...O..............................
....................................................................................................................................OO............OO...............................OOO..............O.....OO.....O..O.............................
.....................................................................................................................................O........O.OO..O..OO.........................O...OOO..........O.O....OOOOOOOOO.O.............................
.................................................................................................................................O....O........OOO.O....O..O.....................O..O.O..O.....OO..OO.....O..O.O....O.O...........................
.................................................................................................................................O.OOOO......OOO..O.....O.O.O....................O.OO.OOO.O....OO.........OO.O.OO.OO.OO...........................
..................................................................................................................................O..................OO.O..O....................OO..O.O..O................O..O.O...O..............................
..............................OO..O.................................................................................................O...OO...........O..O......................O..O..OOOO..................OO..O.O.O..............................
..............................O..OO........O.................................................................O..OO.................OO...O.OOO.....O....O.......................O.O.......OOO................O.O.O.O...............................
...............................OOOOO.......O........................................................O........OO..O...................OO.O..O.O....OOOOO.....................OO.O.OO....O...O................O.O..O................................
...........................................O.......OOO.....................OOO......................O.......OOOOO....................O..O....OOO............................O.O...O..OO.OOO..................OO...................................
...................................................O.O............OOO......O.O............OOO.......O..................................O....O...O...O..........................OOO....O.O.........................................................
...............................OOOOO...OOO...OOO...OOO............O.O......OOO............O.O...........................................OO..OO.OO..O.O..................OO...OO..O.OO...................O.O.......................................
..............................O..OO...............................OOO.....................OOO...OOO...OOO...OOOOO............................O.O....O.................OOO.O.O.O...OOOOOO....OOO..........OO.......................................
..............................OO..O........O.................................................................OO..O...........................O.O.....................O....O.O......OOO........O..........O........................................
...........................................O........................................................O........O..OO............................O.....................O.O.OO.OO................O....................................................
...........................................O........................................................O...............................................................O.O.....O.O...................................................................
....................................OOOO............................................................O................................................................O..OO.O..O.....O.............................................................
...................................O.OO.O...............................................................OOOO..........................................................OO..OOO.O....O.O............................................................
...................................OO..OO..............................................................O.OO.O...........................................................OO..OO......OO............................................................
...................................OO..OO..............................................................OO..OO...........................................................O.......OO................................................................
...................................O.OO.O..............................................................OO..OO.........................................................O.O.......OO................................................................
....................................OOOO...............................................................O.OO.O.........................................................OO.............OO...........................................................
........................................................................................................OOOO.........................................................................OO.................................................OO........
..............................................................................................................................................................................O..O...................................O.................O.O........
..............................................................................................................................................................................OO..O............OO.....................OO...........OO..OO.........
.............................................................................................................................................................................OO..OO...........OO.....................OO............O..OO..........
............................................................................................................................................................................O.O.................O...................................O..O..........
............................................................................................................................................................................OO.................................................OO.................
...............................................................................................................................................................................................................................OO.............OO..
....................................................................................................................................................................................................................................OO.......O.O..
....................................................................................................................................................................................................................................OO.......O....
................................................................................................................................................................................................................................OO......OO..OO....
................................................................................................................................................................................................................................O.O....O.OOO..OO..
.................................................................................................................................................................................................................................O.....O..O.OO..O.
.......................................................................................................................................................................................................................................O.O.....O.O
........................................................................................................................................................................................................................O................OO.OO.O.O
............................................................................................................................................................................................................O..........O........OOO......O.O....O.
..........................................................OO......OO............................OO......OO.................................................................................................OO..........OOO....OOOOOO...O.O.O.OOO..
....................................................O.OO.O.O......O.O.OO.O................O.OO.O.O......O.O.OO.O...........................................................................................O.O...................OO.O..OO...OO....
....................................................OO.O.O..........O.O.OO................OO.O.O..........O.O.OO.............................................................................................................O.O....OOO...........
........................................................O.O........O.O........................O.O........O.O...........................................................................................OO..................OOO.OO..O...O.O........
....................................................................................................................................................................................................O..O.O................O...O....OO.O.OO........
.........................................................O..O....O..O........OO......OO........O..O....O..O........................................................................................O.O.O.O................OOO.......O.O...........
..........................................................O...OO...O.........OO......OO.........O...OO...O........................................................................................O.O.O..OO..................OOOO..O..O...........
............................................................OOOOOO................................OOOOOO..........................................................................................O...O.O..O................O..O.O..OO............
.............................................................OOOO..................................OOOO........................................................................................OO.OO.OO.O.OO.........OO....O.OOO.OO.O.............
.......................................................OOO..........OOO......................OOO..........OOO..................................................................................O.O....O.O..O.....OO..OO.....O..O.O..O.............
................................OOOO...................OOOOO.OOOO.OOOOO......................OOOOO.OOOO.OOOOO...................OOOO.............................................................O.OOOOOOOOO....O.O..........OOO...O..............
...............................O.OO.O.....................O........O............................O........O.....................O.OO.O............................................................O..O.....OO.....O..............OOO...............
...............................OO..OO......................O......O..............................O......O......................OO..OO.............................................................O...O.O..O............OO.....O..................
...............................OO..OO.......................O....O................................O....O.......................OO..OO..............................................................OOO.OO.OO.......OO..O..O....OO.................
...............................O.OO.O.........................OO....................................OO.........................O.OO.O................................................................O....O.......OOO..O..O.......................
................................OOOO................................OO........................OO................................OOOO..................................................................OOO.O.....OOO...O...........................
....................................................................OO........................OO.........................................................................................................O.OO.....O....O.O........................
...........................................................OOO........................................OOO...............................................................................................O..O..O.O.........OO......................
..........................OO..O......O............OOO.........................OO....OO.........................OOO............O......O..OO..............................................................OO..OO..O.........OO......................
..........................O..OO........O.................O.....O.............O.O....O.O.............O.....O.................O........OO..O.....................................................................OO.................................
...........................OOOOO.......O........O.....O..O.....O............OO........OO............O.....O..O.....O........O.......OOOOO...................................................................OO.OO.................................
.....................................O.O........O.....O..O.....O.............O.O....O.O.............O.....O..O.....O........O.O............................................................................O..O.O.O...............................
................................................O.....O.......................OO....OO.......................O.....O.......................................................................................OO..O..OOO.............................
...........................OOOOO...........................OOO........................................OOO...........................OOOOO...................................................................O.O..O...O............................
..........................O..OO...................OOO...............OO........................OO...............OOO...................OO..O..................................................................O.OO.O..OO............................
..........................OO..O.....................................OO........................OO.....................................O..OO...................................................................O..O.................................
..............................................................OO....................................OO........................................................................................................OO..................................
............................................................O....O................................O....O..........................................................................................................................................
...........................................................O......O..............................O......O.........................................................................................................................................
..........................................................O........O............................O........O........................................................................................................................................
.......................................................OOOOO.OOOO.OOOOO......................OOOOO.OOOO.OOOOO.....................................................................................................................................
.......................................................OOO..........OOO......................OOO..........OOO.....................................................................................................................................
.............................................................OOOO..................................OOOO...........................................................................................................................................
............................................................OOOOOO................................OOOOOO..........................................................................................................................................
..........................................................O...OO...O.........OO......OO.........O...OO...O........................................................................................................................................
.........................................................O..O....O..O........OO......OO........O..O....O..O.......................................................................................................................................
........................................................O.O........O.O........................O.O........O.O......................................................................................................................................
....................................................OO.O.O..........O.O.OO................OO.O.O..........O.O.OO..................................................................................................................................
....................................................O.OO.O.O......O.O.OO.O................O.OO.O.O......O.O.OO.O..................................................................................................................................
..........................................................OO......OO............................OO......OO........................................................................................................................................
