!Name: o0060-gun
!CA: p60 guns based on p30 gun.
!CA4-5 by David Bell
!CA6-7 by Paul Rendell
!C
!CB1-B2: Pre-pulsar-based guns
!Cby Jason Summers (Oct 2001),
!Cbased on a reaction found by David Bell.
!C
!CB3: Herschel-based gun by Dietrich Leithner
!C(Jan 1998), based on hershel technology mostly by
!CDavid Buckingham.
!C
!CC: Some p60 LWSS guns
!
......................................................................................................OO....................................................OO..................................................................................................OO...........................................................................................................................................................................................................
..OO.O......OO.O......................................................................................OO....................................................OO..................................................................................................OO.......................................................................................................................................................OO..................................................
..O.OO......O.OO.....................................................................................................................................................................................................................................................................................................OO..................................................................................................OO..................................................
OO........OO....OO..............................................................................................................................................................................................................................................O....................................................OO......................................................................................................OO..............................................
O.........O.....O........................................OO....................................................................................................................................................................................................O.O............................................................................................................................................................O..............................................
.O.........O.....O.......................................O..O..................................................................................................................................................................................................O.O...................................................................................................................OO.......................................O.O............................................
OO........OO....OO..............................................................................................................................................................................................................................................O.....................................................O.............................................................O..O.......................................OO............................................
..OO.O....O.....O..........................OO................O.......................................................................................................................................................................................................................................................OOO...............................................................O..................................................O..................................
..O.OO.....O.....O.........................OO..............................................................................................................................................................................................................................OO.......................................O...O..............................................................O...................................................O.................................
OO....OO..OO....OO.........................................OO..............................................................................................OOO....................................................OO.........................................OO.O.OO.......OO.........................................O..............................................................O.O................................OOO..............OOO.................................
O.....O...O.....O.........................................O...............................................................................................O...O.................................................O..O.........................................O.....O...............................................O.....O...........O.O.............................................O.O...............................O...O.................................................
.O.....O...O.....O.................................................................................OO...OO...............................................O.....O...............................................O...............O.O............................O...O................................................O.....O..........O..O....O.........................................O......................................................................................
OO....OO..OO....OO.......................................................................................................................................OO.O.OO.......................................OO......O..........OOO..O...O...........................OOO..................................................O...O..........OO.....OO..........................................................................O.....O................................................
..OO.O......OO.O.......................................OO...OO......................................O...O..............................................................................................OO......O...................O.................................................................................OOO.........OO...O........OO.....................................................................OO...OO................................................
..O.OO......O.OO.......................................OO...OO.......................................OOO........................................................................................................O..O..OO.......O....O....OO........................................................................................OO..........OO..................................OO...OO...................................................................................
........................................................OOOOO........................................OOO....................................................O.....................................................OO..O..O.O.......O.....OO................................O..............................................OO........O..O...........................................O.....O...................................................................................
.........................................................O.O...............................................................................................O.O.........................................................OOO.....O...O......................................OOO..............................................OO........O.O...................................................................................OO................................................
............................................O..............................................................................................................O.O.................................................................O.O........................................OOO.............................................O.......O.................................................O...O..................................O.O...............................................
...........................................OOO...........OOO...............................................................................................OO......................................................................................................................................................................O.................................................OOO.....................................O...............................................
..........................................OOOOO...........................................................................................................O..............................................OOO......................................................O.....OO...OO..................................................OOO.......................................OO...............................................OO...............................................
..........................O..............OO...OO.........................................................................................................OOO...........................................O.OOO....O......OO.OO.......................................O....OO...OO............................................................................................OO............................................O...................................................
..........................................OOOOO.....................................................O.....O.............................................O...O.........................................O.O.O....O...........O.....................................OOO..............................................................................................OO...O......OO.........................................O..O................................................
.........................O.O..............O...O....................................................OOO.....O...........................................O.OOO.O........................................O..O.....OOO....O..OO.......................................................................................................................................O.O...O.....OOO........................................O...............................O...................
...........................................O.O.....................................................OOO...OOO............................................OOOOO....O.....................................OO..............OOO.................................................O............................................O..........................................OOOOO......OO.................................................................O........O..................
........................O...O...............O..........O..........................................................................................................OO...................................................OOO................................................O............................................OOO.......OO.................................OOO....OO....................................................................OOO....OOO..................
......................................................O..........................................OO...OO.........................................................OO...................................................O..OO................................................O.....O.....................................OOO........OO......O................................OO...........................................OO.O.OO.....................O........................
........................O.O.O.........................OOO........................................OO...OO...................................................................................................................O................................OOOOO................OO..............................................O......O.O........................................................................................................OO........................
..........................................O.................O..........................................................................................................................................................OO.OO...............................O.OOO.O................OO.................................OO...OO.............OO............................OOO..............................................O.....O..............................................
........................O...O...........OO.OO..............OOO..............................................................................................................................................................................................O...O.................OOO.......OO.......................OO...OO...........................................OOO.........OO........................................................................................
.................................................O........OOOOO...................................................O.........................................................................................OOO..............................................OOO.............OO...OO........OO........................................OO..............................O...O.........OO...................................OO.OO................OO......O......................
.......................................O.....O....O......OO...OO................................................O.O...........................................................................................................................................O..................OO...................................................O..............................O.....O.......O.....O.................................O..........O.......O.O....O.O.....................
................................................OOO..............................................................OO.....................................................O.O.................................O.O..................................................................O........................................OO...........OOO............................O...O...............O..........................................OOO...OO.O.O...O...O....................
.......................................OO.O.OO...................................................OO........O.............................................................OO................................OOOOO..........................................................................................................O.O............O.............................OOO..............OOO.........................................OO.O...O.O.O.....OOO.....................
..................................................................................................O......OOO.............................................................O................................OO...OO...........................................................................................................OO......................................................................................................OOO......O.....OO...OO...................
...........................................................OOO.................................OOO......O.................................................................................................OO...OO.............................................OO...........................................................OO........................................................................................................OO....O..O..............................
...........................................................OOO.................................O........OO............................................OOO................................................................O....................................OO...OO......................................................OO...............................................O.............................................OO..................O..............................
...................................................................................................................OO....O......................................OOO.......................................................OO......................................O.O......O...........................................OOO..................................................OO............................................OO..............O...O..............................
..............................................................OO....................................................OO....O...........................O.O.........O..........................................O...........OO.......................................O.........O..............................................................................................O.O................................................................O..............................
..............................................................O....................................................O....OOO..........................OOOOO.......O.........................................OO....................................................OO.......OOO..............................................................................................................................................................O..O.........O....................
...............................................................OOO..................................................................................OO...OO..................................................................................................................................................................................................................................................................................O..........O................OO..
.................................................................O..................................................................................OO...OO...............................................O.............................................................................................................................................OO...................................................................OO............O.O.O....OOO.O................O.O.
..........................................OO.......................................................OO...OO.............................................................................................................................................................................................................OO...OO..........................O.O..................................................................OO............OO.O.O..........................O.
..........................................OO.......................................................OO...OO.................................................................................................O..O...........................................................................................................................................O...................................................................................O.O..O.......................OO
....................................................................................................OOOOO...O............................................OO..................................................OO.........................................................................................................O...O.............................OO..................................................................................OO...OO.O......................
................................................................O....................................O.O....OO...........................................O.OO............................................................................................................................................................OOO..............................................O..........................................................................OO......................
.................................................................O.........................................O.O..............................................O..........................OO................................................................................................................................OOO.............................................OOO..........................................................O......................................
...............................................................OOO...................................OOO...............................................................................O.O..........................................OO..................................................................................................................................OOOOO...........................OO....................O......OOO.....................................
.......................................................................................................................................................O.OOO.............................O..........................................O.O................................................................................................................................O.O.O.O..........................O.O.................OO.OO....O.OO............OO...OO.................
.......................................................................................................................................................O.................................OO...........................................O................................................................................................................................OO...OO............................O...........................OOO............OO...OO.................
.......................................................................................................................................................O..............................................................................OO..................................................................................................................................................................OO...............O.....O....OO......O.......OOOOO..................
......................................................................................................................................OO.................................................................................................................................................................................OO..................................................................................................................O.........O.O...................
........................................................................................................O.............................O.O................................................................................................................................................................................OO...............................................O................................................OO.O.OO...........OOO.............................
.......................................................................................................O.O..............................O.................................................................................................................................................OO.............................................................................O.O...........................................................................OOO...................
......................................................................................................O...O.............................OO................................................................................................................................................O.O............................................................................O.O.................................................................................................
.......................................................................................................OOO............................................OO...OO...............................................................................................................................O.............................................................................O......................................................OO..........................................
.....................................................................................................OO...OO............................................OOO.................................................................................................................................OO............................................................................OO....................................................O.O..........................................
.......................................................................................................................................................O...O..............................................................................................................................................................................................................OO.....................................................O...........................................
........................................................................................................................................................O.O...............................................................................................................................................................................................................OO....................................................OO...........................................
.........................................................................................................................................................O......................................................................................................................................................................................................................................................................OOO.................OOO......................
.................................................................................................................................................................................................................................................................................................................................................................................................................................OO......OOO........OOO......................
...............................................................................OO..............................................................................................................................................................................................................................................................................................................................................O.........O.........O...O.....................
...............................................................................O.O........................................................................................................................................................................................................................................................................................................................................................O..................................
.................................................................................O.......................................................................OO.......................................................................................................................................................................................................................................................................................OO...OO....................
.................................................................................OO......................................................................OO..................................................................................................................................................................................................................................................................................................................
................................................................................................................................................................................................................................................................................................................................................................................................................................O............................................
...............................................................................................................................................................................................................................................................................................................................................................................................................................OOO...........................................
........................................................................................................OO....................................................................................................................................................................................................................................................................................................................OOOOO..............OO..........................
........................................................................................................OO...................................................................................................................................................................................................................................................................................................................OO...OO.............O.O.........................
..............................................................................................................................................................................................................................................................................................................................................................................................................................OOOOO..............O...........................
..............................................................................................................................................................................................................................................................................................................................................................................................................................O...O..........................................
...............................................................................................................................................................................................................................................................................................................................................................................................................................O.O...........................................
................................................................................................................................................................................................................................................................................................................................................................................................................................O................O...........................
...............................................................................................................................................................................................................................................................................................................................................................................................................................OO............................................
.............................................................................................................................................................................................................O.................................................................................................................................................................................................................OO............................................
.............................................................................................................................................................................................................OOO.....OO..................OO.......................................................................................................................................................................................................OOO........................
................................................................................................................................................................................................................O....O...................O........................OO...............O.............................................................................................................................................................O...O.......................
..............................................................................................................................................................................................OO...............O...O.O....................OOO......OO.............O........OO.....O.O...........................................................................................................................................................O.....O......................
...............................................................................................................................................................................................O..............O...O.O.......................O......OO...........O.O.......O..O.....O............................................................................................................................................................O.....O......................
...............................................................................................................................................................................................O.O............OO...O............................................OO.........O.O.....................................................................................................................................................................O.........................
................................................................................................................................................................................................OO..OO....................................................OOOO.........OO...O....OOOOO...........................................................................................................................................................O...O.......................
....................................................................................................................................................................................................OO..................................................OOOO.OO.........O.OO.....O....O...........................................................................................................................................................OOO........................
...................................................................................................................................................................................................................O.O..................O...............OO.OO.O...........O.........O..O...........................................................................................................................................................O.........................
...............................................................................................................................................................................................................O.O....................OO.OO...........OO.O..O.............O.........OO.O..O..................................................................................................................................................................................
....................................................................O.....O....................................................................................................................................O......................O....O...O.....OO...O.OO...................O.....O.O.O.................................................................................................................................................................................
....................................................................OO...OO....................................................................................................................................O.O...O...........OO...O...O.O..OO.....O.O.O.OO..................O.O....O..O........................................................................................................................................................OO........................
....................................................................OO...OO.............................................................O.....O...................................................................OO.O...........OO....OOOO.....O......OOO......................O..O..OO...........................................................................................................................................................OO........................
.....................................................................O...O..............................................................OO...OO............................................................................................O..OO........O...................O....OO..........................................................................................................................................................................................
........................................................................................................................................OO...OO.............................................................................................OO.....................O.......OOO...............................................................................................................................................................................................
.................................................................................................................................OO......O...O...................................................................................................................O.O......OO.OO..............................................................................................................................................................................................
..................................................................................................................................O...............................................................................................................................OO..........O..............................................................................................................................................................................................
..................................................................................................................................O.O....O...O...............................................................................................................................................................................................................................................................................................................................
....................................................................O..............................................................OO...O.....O........O......................................OO....................................OO......................................O................................................................................................................................................................................................
....................................................................O...........O.......................................................O.....O......O..O....................................O.O................OO...................O........................OO...O.......OO................................................................................................................................................................................................
...................................................................O.O........O..O......................................................O.....O......O..O....................................O......OOO.........O.O.................O.............OO...OO.....O...O.O......O.O...............................................................................................................................................................................................
....................................................................O.........O..O........................................................OOO.........O.....................................OO......OO.O..........O.................OO.............O...O.......O...OO........................................................................................................................................................................................................
....................................................................O..........O..................................................................................................................OO.O.O....OO....OO............................OOO.....OOO.....O........O...................................................................................................................................................................................................
........................................................OO................................................................................OOO.........O.....................................................O..O................................O.........O...O.OOOOO....OO..............OO..................................................................................................................................................................................
........................................................OO..........O..........O........................................................O.....O......O..O............................................OO.......OO.............................................O.O....O.....O..........OO..O...................................................................................................................................................................................
....................................................................O.........O..O......................................................O.....O......O..O....................................................................................................O..OOO.O.OO.............O.O.O...................................................................................................................................................................................
.........................................................O.........O.O........O..O......................................................O.....O........O....................................................................................................OO....O..O.O................O....................................................................................................................................................................................
........................................................O.O.........O...........O..............................OO...OO.............................................................................................................................................O.O.......................................................................................................................................................................................................
...................................................OO..O..O.........O.........................................O.......O.......O...........OOO.......................................................................................................................OO................O......................................................................................................................................................................................
...................................................OO.O..........................................................O.O..........OO.................................................................................................................................................O.OOO.O.....................................................................................................................................................................................
.......................................................OO.........................OO.....OO....................OO...OO.......O.O..................................................................................................................................................OOO.O......................................................................................................................................................................................
..................................................................................OO.....O........................................................................................................................................................................................O....OOO...................................................................................................................................................................................
.......................................................................................O.O...............................................................................................................................................................................................O...................................................................................................................................................................................
.................................................................OOO...................OO............................................................O.......................................................................................................................................................................................................................................................................................................................
...................................................................O...............OO.................................................................OO.....................................................................................................................................................................................................................................................................................................................
.............................................OO...................O................O.O..........................................OO.OO......O..O......OO.........................................................................................................................O............................................................................................................................................................................................
.............................................O.O.............................O......O...............................................O....O..OO..O..............................................................................................................................OOO...........................................................................................................................................................................................
...............................................O............................O...........................OOO...OOO...OOO........O..OO.....O..OO..O...................O......................O...................................................................................O.OO..........................................................................................................................................................................................
........................O.O................OOOO.OO..OO......................OOO..........................OOO.O..................OOO........OOOO...................OOO......................OOO....................................................................................O..........................................................................................................................................................................................
...........................................O..O.O.O..O.............................OOO...........................O.O....O.......OOO......O.O..O.O................O............................O.............................................................................OO...OO..........................................................................................................................................................................................
........................O...O............OO..O....OO.............................................................O.O....O......O..OO.....OO....OO................OO..........................O.O.....O......................................................................OO..OOO..........................................................................................................................................................................................
........................................O..OO..OO.O...............................O.O.O..........................O.O....O...........O.........................................................O....OOOO........OO............................................................OO..............................................................................................................................................................................................
........................O.O............O.OO..OO.O.O.............................OOO.O.OOO................OOO.O..................OO.OO..............................................................OOOO........O.O..........................................................O.O..............................................................................................................................................................................................
.......................................O...O.....O.............................O.....O...O..............OOO...OOO...OOO.....................................................................O................O.O..O....OO..................................................O.................................................................................................................................................................................................
........................O...O...........OOO.O.OOO.............................O.O.OO..OO.O...............................................................OOO...OOO...OOO...................O.O.O.............OO.O.OOO..O.......................................................OOO...........................................................................................................................................................................................
..........................................O.O.O...............................O.OO..OO..O..................................................OO.OO..................O.OOO....................O..OO...OOOO.........O....O.O.............................................OO.......OO..OO.........................................................................................................................................................................................
........................O.O..................................................OO....O..OO...................................................O...........O....O.O...........................OO.......OOO..........OOOOO.O...O.........O................................O..O...OOOO.O...........................................................................................................................................................................................
...........................................OOO.............................O..O.O.O..O.......................OO................OO....OO.....OO..O......O....O.O.....................................O...............O.....OOO.....OOO............................OO....OO...OO...............................................................................................................................................................................................
..................................................OOO......................OO..OO.OOOO........................O................O.O..O.O......OOO.......O....O.O.................................................OO...O.......O...O.............OO.................O....................OO....................................................................................................................................................................................
....................................................O............................O.........................OOO...................OOOO........OOO..................O.OOO.........................................O.O...O.....OO...OO.............O.................O.O..................O.....................................................................................................................................................................................
............................................O......O.............................O.O.......................O...................O..OO..O.....OO..O........OOO...OOO...OOO.........................................O...OO........................O...................OO................O.O.....................................................................................................................................................................................
...........................................O.O................O...................OO...........................................O..OO..O....O...................................................................................................OO........................O...........OO......................................................................................................................................................................................
............................................OO...............O...........................................................OO......O..O......OO.OO.......................................................................................................................OOOO..................................................................................................................................................................................................
........................................OO...................OOO........................................................OO............................................................................................................................................OO...OO................................................................................................................................................................................................
.......................................O.O................................................................................O..........................................................................................O..........O........................................O...O...............................................................................................................................................................................................
.......................................O.....OO....................................................................................................................................................................O.OO.........O...............OO.......................O...O.........OO....................................................................................................................................................................................
......................................OO.....OO...................................................................................................................................................OO..............OO.O..........O..............O.O.......................O..OO.........OO....................................................................................................................................................................................
................................................................................................................................................O.O.......OO...OO.........................OO.OO..O..O...............O................O.........O..O..O.................O...O...........OO....................................................................................................................................................................................
............................................................O...................................................................................OO..........O.O...........................OO.O....O.O...............................OOO.........OOO...O............O...................O.....................................................................................................................................................................................
................................................O...........O......................................................................OOO...........O.......O.......O...........................O.....O...............................O...O........O..O..OO.........OO...................O.O....................................................................................................................................................................................
...............................................O..O........O.O............................................................................................OO...OO.........................OO.O.OO.........O.......................O..OO...........OO.OO...........OO...................O.O.OOO...............................................................................................................................................................................
...............................................O..O.........O..........O..OO............................................O........O.....O..................................................OO.O..O.........O........................OOO............OOOO..................................O.OOOO...............................................................................................................................................................................
.................................................O..........O..........OO..O...........................................O..O......O.....O......................................................O....O.....OO.O............................................................................O...................................................................................................................................................................................
......................................................................OOOOO............................................O..O......O.....O.......................................................OOOOO....O...OO...............................................................................................................................................................................................................................................................
.................................................O..........O............................................................O.........OOO.................................................................O.O.........OO............................................O...OO......................................................................................................................................................................................................
...............................................O..O.........O....................................................................................................................................O.....O..O.......O.O...........OO......O.......................O.O...O......................................................................................................................................................................................................
...............................................O..O........O.O........OOOOO..............................................O.........OOO..........................................................O.O.....OO........O.............OO......OOO....................O.O...O.......................................................................................................................................................................................................
................................................O...........O..........OO..O...........................................O..O......O.....O.........................................................O...............OO........................O...................O....O........................................................................................................................................................................................................
............................................................O..........O..OO...........................................O..O......O.....O..................................................................................................OO..................OO.....OOO....OO...............................................................................................................................................................................................
........................................................................................................................O........O.....O...............................................................................................................................O.....O...............................................................................................................................................................................................
..................................................................................................................................O...O...................................................................................................................................OOO..........O.....................................................................................................................................................................................
..........................................................................................................................................................................................................................................................................O..........O.O.....................................................................................................................................................................................
..................................................................................................................................O...O...............................................................................................................................................OO.....................................................................................................................................................................................
.......................................................O...O.....................................................................OO...OO.....................................................................................................................................................................................................................................................................................................................................
......................................................OO...OO....................................................................OO...OO.........O...........................................................................................................................................................................................................................................................................................................................
......................................................OO...OO...........O........................................................O.....O.......O.O...........................................................................................................................................................................................................................................................................................................................
......................................................O.....O.........O.O.......................................................................OO...........................................................................................................................................................................................................................................................................................................................
.......................................................................OO....................................................................................................................................................................................................................................................................................................................................................................................................
.....................................................................................................................................................................................................................................................................................................OO......................................................................................................................................................................
.....................................................................................................................................................................................................................................................................................................O.O.....................................................................................................................................................................
.......................................................................................................................................................................................................................................................................................................O.....................................................................................................................................................................
.......................................................................................................................................................................................................................................................................................................OO....................................................................................................................................................................
...............................................................................................................................................................OO............................................................................................................................................................................................................................................................................................................
......................................................................................OO.......................................................................O.O...........................................................................................................................................................................................................................................................................................................
......................................................................................O.O........................................................................O...........................................................................................................................................................................................................................................................................................................
........................................................................................O........................................................................OO..........................................................................................................................................................................................................................................................................................................
........................................................................................OO...................................................................................................................................................................................................................................................................................................................................................................................
...............................................................................................................................................................................................................................OO............................................................................................................................................................................................................................................
...............................................................................................................................................................................................................................OO............................................................................................................................................................................................................................................
................................................................................................................................................................................................................................O............................................................................................................................................................................................................................................
...............................................................................................................................................................................................................................OOO............................................................................................O.O............................................................................................................................................
..............................................................................................................................................................................................................................OOOOO...........................................................................................O...O..........................................................................................................................................
......................................................................OO.....................................................................................................................................................O.O.O.O................................................................................OO............O.......O..................................................................................................................................
......................................................................OO...................................................OO................................................................................................OO...OO................................................................................OO........O....O....OOOO.................................................................................................................................
...........................................................................................................................OO.....................................................................................................................................................................................................O....O.O.OO.........OO.....................................................................................................................
..............................................................................................................................................................................................................................................................................................................................O...O...O..O.OOO........OO.....................................................................................................................
...........................................................................................................................................OO...................................................................................O.............................................................................................O.O......O.O.OO................................................................................................................................
...........................................................................................................................................OO..................................................................................O.O......................................................................................................OOOO.................................................................................................................................
..............................................................................................................................................................................................................................OO.O........................................................................................................O..................................................................................................................................
..............................................................................................................................................................................................................................OOO............................................................................................................................................................................................................................................
.............................................................................................................................................................................................................................O..O.............................................................................................OO.............................................................................................................................................
.............................................................................................................................................................................................................................OOO..............................................................................................OO.............................................................................................................................................
...........................................................................................................................O................................................................................................O...O............................................................................................................................................................................................................................................
......................................................................OOO.................................................OOO..............................................................................................O.....O...........................................................................................................................................................................................................................................
....................................................OO...............O...O...............................................OOOOO..............................................................................................O...O.....O......................................................................................................................................................................................................................................
....................................................OO..............O.....O.............................................OO...OO..............................................................................................OOO.......O............................................................................................OO.......................................................................................................................................
.....................................................................O...O...........................................................................................................................................................OOO................................................................................O...........O.O.........OO.....O.....................................................................................................................
......................................................................OOO..............................................................................................................................................................................................................................................O............O..........OOO...O...O...................................................................................................................
......................................................................OOO...............................................................OO...OO........................................................................................................................................................................OOO......O...........O.OO.....O.......................................................................................................................
..........................................................................................................................OOO.............OOO........O.O........................................................................................................................................................................OO..........O..O....O.....O..................................................................................................................
..........................................................................................................................OOO............O...O......O..O....O..............................................................................OO..............................................................................OO....OO.........O.OO.........OO..................................................................................................................
..........................................................................................................................................O.O......OO.....OO...............................................................................OO..............................................................................OO....OOO...........OOO...........................................................................................................................
.........................O.O.............................................................................................O.................O.....OO...O........OO..........................................................................................................................................................OO....OO.............OO...........................................................................................................................
........................................................................OOO.............................................O.O........................OO..........OO.......................................................................................................................................................OO......OO...........................................................................................................................................
........................O...O......................................O...OO.OO...........................................O...O........................O..O...............................................................................................................................................................O.O......O............................................................................................................................................
.................................................................OO....OO.OO............................................OOO..........................O.O.....................................................................OO........................................................................................O.....................................................................................................................................................
........................O.........................OOOOO...........OO...OOOOO..........................................OO...OO....O...OO......................................................................................OO.........OO............................................................................OO.....................................................................................................................................................
.................................................O.OOO.O..............OO...OO..................................................O.O..O.O..................................................................................................OO..................................................................................................................................................................................................................................
........................O...O.....................O...O.........................................................................OO....O.................................................................................................O....................................................................................................................................................................................................................................
...................................................OOO.......................................................................................................................................................................................................................................................................................................................................................................................................................
.........................O.O........................O....................................................................................................................................................................................................................................O..O.OO.O..O........................................................................................................................................................................
........................................................................................................................................................................................................................................................................................OO..O....O..OO...O...................................................................................................................................................................
..........................................................O.O........................................................................................................................OO..................................................................................................O..O.OO.O..O...O....................................................................................................................................................................
..........................................................OO.........................................................................................................................OO.................................................................................................................OOO..................................................................................................................................................................
..................................................O........O...O.............................................................OOO.............................................................................................................................................................................................................................................................................................................................................
..................................................O...........OO......................................................OO.......O...........................................................................................OOO...............................................................................................................................................................................................................................................
.................................................O.O.....O....O.O......................................................O......O.....................................................OOO.................OO...................O...............................................................................................................................................................................................................................................
................................................OO.OO..O.O..........................................................OOO.............................................................OOO................O..O.................O................................................................................................................................................................................................................................................
...............................................O.....O..OO..........................................................O..................................................................................O........................................................................................OO...........................................................................................................................................................................
..................................................O......................OO...OO.......................................................................................................................O........................................................................................O....OO......................................................................................................................................................................
...............................................OO...OO...................O.....O.......................................................................................................................O.O........................OO....................................................O.....O.O.....OO.....................................................................................................................................................................
......................................................................................................................OO..........................................................OO...OO..............O.O...............OO.......OO...................................................O.O....OO.....O.......................................................................................................................................................................
......................................................................OO..O...O.....................O.....OO.........O.O...........................................................OOOOO................O.................OO..........................................OO..............O...OO.................................................................................................................................................................................
.................................................O...................OO....OOO....................O...O...OOO..........O............................................................OOO..................................O............................................O.O.............O...OO.................................................................................................................................................................................
.................................................O.....................O..............................O.....OO.O...........O.........................................................O....................................................O.O................OOO.OO....OOO............O...OO.................................................................................................................................................................................
................................................O................................................O.....O....O..O..........OO.........................................................................OO...OO.................................O...............OOOO..O....OOO............O.O...................................................................................................................................................................................
..........................................................O.O.....OO.............................OO.........OO.O.........OO....OO..OO..O.O...........................................................O.....O.................................O...................OO....OOO.......O......O....................................................................................................................................................................................
.........................................................O........O.O.....................................OOO...........OOO....OO..OO.....O...............................................................................................O..O........................O.O.........OO.........................................................................................................................................................................................
..................................................OO.....O.....OO.O.O.....................................OO.............OO....OO.........O...........................................................O...O................................OOO........................OO.........OO..........................................................................................................................................................................................
..................................................OO.....O..O..O.O.O......................................................OO...........O..O............................................................OOO...................................................................................................................................................................................................................................................................
.........................................................OOO.....O........O................................................O............OOO.................................................................OOO..............................................................................................................................................................................................................................................................
.................................................................OO.....OO.OO.........................................................................................................O.......................O..............................................................................................................................................................................................................................................................
.................................................................OOO...................................................................................................................OO....................O..................OOOOO........................................................................................................................................................................................................................................
.................................................................OOO...O.....O........................................................................................................OO.......................................O.OOO.O.......................................................................................................................................................................................................................................
.................................................................OOO............................................................................................................................................................O...O.................................................OO.....................................................................................................................................................................................
.................................................................OO....OO.O.OO.......................................................................................................................OO..............OO....OO....OOO...................................................OO....................................................................................................................................................................................
.................................................................O....................................................................................................................................O...OO.........O.O..O.O.....O.........................................O.........O......................................................................................................................................................................................
...............................................................O.O.O...............................................................................................................................OOO.....OO..........O..O.................................................O.O..............................................................................................................................................................................................
...............................................................OO.O.O...........................................................................................................OO...OO............O......O...........O....O.................................................O.O.........OO.....O............................................................................................................................................................................
..................................................................O.O.............................................................................................................OOO........O.O......................O....O....................................OO...........O..O.......OOO...O...O..........................................................................................................................................................................
..................................................................OO.............................................................................................................O...O........OO......................O....O........O...........................OO...........O.O.....O.OO.....O.......O.O....................................................................................................................................................................
........................................................O.O.......................................................................................................................O.O.........O.........................OO..........O.......................................O.O......O..O....O.....O.....O...................................................................................................................................................................
...........................................................O.......................................................................................................................O.........................................O.....O.O......................................O........O.OO.........OO.....O...................................................................................................................................................................
...........................................................O.................................................................................................................................................................O.O..OO.OO.................................................OOO...........O..O...................................................................................................................................................................
........................................................O..O.............OO.....................................................................................................OO.................OO........................OO..O.....O.................................................OO............OOO...................................................................................................................................................................
.........................................................OOO.............OO......................................................................................................O.................OO...............................O........................................................................................................................................................................................................................................
..............................................................................................................................................................................OOO.............................O.O.....OO.........OO...OO.....................................................................................................................................................................................................................................
..............................................................................................................................................................................O.............................O...O....OO......................................................................................................................................................................................................................................................
.....................................................................................................................................................................................OO.....................O..........O.....................................................................................................................................................................................................................................................
....................................................................................................................................................................................OOO...OO.O.............O....O..................O.........................................................................................................................................................................................................................................
..........................................................................................................................................................................OO.....O.OO.....O...O..O..........O......................O.........................................................................................................................................................................................................................................
..........................................................................................................................................................................OO.....O..O....O....O..OO.........O...O.................O..........................................................................................................................................................................................................................................
.................................................................................................................................................................................O.OO....OOOO.....OO..........O.O...........OOO..............................................................................................................................................................................................................................................
....................................................................................................................................................................................OOO...O.......OOO.....................O.OOO..............................................................................................................................................................................................................................................
.....................................................................................................................................................................................OO...........OO.....................O.O.O......OO....O.O................................................................................................................................................................................................................................
.................................................................................................................................................................................................OO.......OO.............O..O.......OO.......O...............................................................................................................................................................................................................................
.......................................................................................................................................O.O.......................................................O........O.O.............OO.................O...............................................................................................................................................................................................................................
..........................................................................................................................................O.................................................................O.............................O..O...............................................................................................................................................................................................................................
..........................................................................................................................................O.................................................................OO.............................OOO...............................................................................................................................................................................................................................
.......................................................................................................................................O..O..................................................................................................................................................................................................................................................................................................................................
........................................................................................................................................OOO..................................................................................................................................................................................................................................................................................................................................
...........................................................................................................................................OO................................................................................................................................................................................................................................................................................................................................
...........................................................................................................................................O.................................................................................................................................................................................................................................................................................................................................
............................................................................................................................................OOO..............................................................................................................................................................................................................................................................................................................................
..............................................................................................................................................O..............................................................................................................................................................................................................................................................................................................................
......................................................................................................................................................................................................................................................................................................O.O....................................................................................................................................................................
........................................................O.O..............................................................................................................................................................................................................................................O...................................................................................................................................................................
...........................................................O.............................................................................................................................................................................................................................................O...................................................................................................................................................................
...........................................................O..........................................................................................................................................................................................................................................O..O...................................................................................................................................................................
........................................................O..O...........................................................................................................................................................................................................................................OOO...................................................................................................................................................................
.........................................................OOO.................................................................................................................................................................................................................................................................................................................................................................................................................
..........................................................................................................................................................................................................................................................................................................OO.................................................................................................................................................................
............................................................OO............................................................................................................................................................................................................................................O..................................................................................................................................................................
............................................................O..............................................................................................................................................................................................................................................OOO...............................................................................................................................................................
.............................................................OOO.............................................................................................................................................................................................................................................O...............................................................................................................................................................
...............................................................O.............................................................................................................................................................................................................................................................................................................................................................................................................
..........................................................................................................................................................................................................................................O.O................................................................................................................................................................................................................................
.............................................................................................................................................................................................................................................O...............................................................................................................................................................................................................................
.............................................................................................................................................................................................................................................O...............................................................................................................................................................................................................................
..........................................................................................................................................................................................................................................O..O...............................................................................................................................................................................................................................
...........................................................................................................................................................................................................................................OOO...............................................................................................................................................................................................................................
..............................................................................................................................................................................................................................................OO.............................................................................................................................................................................................................................
..............................................................................................................................................................................................................................................O..............................................................................................................................................................................................................................
...............................................................................................................................................................................................................................................OOO...........................................................................................................................................................................................................................
.................................................................................................................................................................................................................................................O...........................................................................................................................................................................................................................
