!Name: o0106
!CMinimum period oscillator possible with this stable
!Creflector (found by calcyman, 3/2009).
!
...................................................................................................O........
..................................................................................................O.O.......
...................................................................................................O........
.................................................................................................OOOOO......
...........................................................................OO....................O....O.....
............................................................................O.......................O..O....
............................................................................O.O.....................OO.O..O.
.............................................................................OO..................O.....O.O.O
................................................................................................O.O....O..O.
................................................................................................O..O..OO....
.......................................................................................OO.O......OO.........
..................................................................OO.................O.O....................
...................................................................O.......O.O......O..O...O................
...................................................................O.O.....O.OO.....OOO....O................
....................................................................OO......OOO........O...O................
........................................................................................O.O.................
.........................................................................O...............O..................
.OO.....OO.O......OO.O......................................................................................
..O.....O.OO......O.OO......................................................................................
.O....OO....OO..OO..........................................................................................
.OO...O.....O...O...........................................................................................
.......O.....O...O..............................................................OO..........................
.OO...OO....OO..OO..............................................................OO..........................
..O...O.....O.....OO.O......................................................OOOOOO..........................
.O.....O.....O....O.OO.........................................................OOO..........................
.OO...OO....OO..OO....OO.......................................................OO...........................
......O.....O...O.....O.....................................................................................
.OO....O.....O...O.....O....................................................................................
..O...OO....OO..OO....OO...........................................................O........................
.O......OO.O......OO.O...............................................OO.........O....O......................
.OO.....O.OO......O.OO..............................................O.O....O..OOO...O.......................
......................................................................O.......OOO.O.........................
...........................................................................OO...............................
..................................................O.O.......................................................
..................................................OO........................................................
...................................................O........................................................
..............................O.............................................................................
.............................O.O............................................................................
.............................O.O............................................................................
..............................O.............................................................................
..........................................OOO...............................................................
............................................O...............................................................
...........................................O................................................................
.........................O..................................................................................
....................OO.OO...................................................................................
....................OO..OO..................................................................................
......................................OO....................................................................
......................................O.O...................................................................
........................................O...................................................................
........................................OO..................................................................
.........OO.......O.O.......................................................................................
....OO..O..O......O.O.......................................................................................
.O..O....O.O.......O........................................................................................
O.O.O.....O..................OO.............................................................................
.O..O.OO.....................O.O............................................................................
....O..O.......................O............................................................................
.....O....O....................OO...........................................................................
......OOOOO.................................................................................................
........O...................................................................................................
.......O.O..................................................................................................
........O...................................................................................................
