!Name: o0230
!C011A7000
!
....................................................O............................O................
...................................................O.O..........................O.O...............
..............................................O....O.O..........................O.O....O..........
.............................................O.O..OO.OO...O................O...OO.OO..O.O.........
..OO.O....OO.O......OO.O......................O...O...O..O.O..............O.O..O...O...O..........
..O.OO....O.OO......O.OO...........................OOO.OO.O..O..........O..O.OO.OOO...............
......OO......OO..OO....OO..................OOOOO....O..O.O.OO..........OO.O.O..O....OOOOO........
......O.......O...O.....O..................O....O.........O................O.........O....O.......
.......O.......O...O.....O................O..O........O...O................O...O........O..O......
......OO......OO..OO....OO.............O..O.OO..........OO..................OO..........OO.O..O...
..OO.O....OO.O....O.....O.............O.O.O.....O....................................O.....O.O.O..
..O.OO....O.OO.....O.....O.............O..O....O.O..................................O.O....O..O...
OO............OO..OO....OO................OO..O..O..................................O..O..OO......
O.............O...O.....O......................OO....................................OO...........
.O.............O...O.....O.............OO....................................................OO...
OO............OO..OO....OO...........OOO.O..................................................O.OOO.
..OO.O....OO.O......OO.O............O....O........................OO........................O....O
..O.OO....O.OO......O.OO.............OOO.OO.......................OO.......................OO.OOO.
.......................................OO...O............................................O...OO...
.........................................O..................................................O.....
.........................................OO..O..........................................O..OO.....
........................................O....O..........................................O....O....
.......................................O.OOOO..................O.O..O.O..................OOOO.O...
........................................O.......................OO..OO.......................O....
..........................................O.....................O....O.....................O......
.........................................OO................................................OO.....
.............................................OO........................................OO.........
..............................................O...........O.......OO.......O...........O..........
............................................O..............OO.....OO.....OO..............O........
...........................................O.OOOO.........OO..............OO.........OOOO.O.......
............................................O....O..................................O....O........
.............................................OO..O..................................O..OO.........
.............................................O..........................................O.........
...........................................OO...O....................................O...OO.......
.........................................OOO.OO........................................OO.OOO.....
........................................O....O..........................................O....O....
.........................................OOO.O..........................................O.OOO.....
...........................................OO............................................OO.......
...................................................OO.............OO.............OO...............
..............................................OO..O..O............OO............O..O..OO..........
...........................................O..O....O.O..........................O.O....O..O.......
..........................................O.O.O.....O............................O.....O.O.O......
...........................................O..O.OO..........OO..........OO..........OO.O..O.......
..............................................O..O........O...O........O...O........O..O..........
...............................................O....O.........O........O.........O....O...........
................................................OOOOO....O..O.O.OO..OO.O.O..O....OOOOO............
.......................................................OOO.OO.O..O..O..O.OO.OOO...................
..................................................O...O...O..O.O......O.O..O...O...O..............
.................................................O.O..OO.OO...O........O...OO.OO..O.O.............
..................................................O....O.O..................O.O....O..............
.......................................................O.O..................O.O...................
........................................................O....................O....................
