!Name: puf-qb-c3
!Cc/3 puffers build a row of queen bee shuttles that
!Csupport each other.
!CBy Calcyman, 4 Dec '08,
!Cwith optimizations by Jason Summers.
!
.....................................................................................................................................................................................................OOO.....................................................................................
......................................................................................................................................................................................................OO.....................................................................................
.....................................................................................................................................................................................................O.......................................................................................
....................................................................................................................................................................................................O..OO....................................................................................
.......................................................................................................................................................................................................OO....................................................................................
....................................................................................................................................................................................................OOO......................................................................................
....................................................................................................................................................................................................O........................................................................................
....................................................................................................................................................................................................O........................................................................................
....................................................................................................................................................................................................OO.O.....................................................................................
.......................................................................................................................................................................................................OO....................................................................................
......................................................................................................................................................................................................OOO....................................................................................
......................................................................................................................................................................................................O.O....................................................................................
.....................................................................................................................................................................................................OO.O....................................................................................
.....................................................................................................................................................................................................OOOO.................O..................................................................
.............................................................................................................................................................................O........................O..OO..O...........O.O.................................................................
......................................................................................................................................................................O.....O.O..........................O..O.O............OO................................................................
.....................................................................................................................................................................O.O....O.O.......................O..O....OO..........O..................................................................
.......................................................................................................................................................................OO.....O.............................O.O............OO................................................................
......................................................................................................................................................................O.......OO......................OOO....OO...........OOO................................................................
.......................................................................................................................................................................OO....O.O.........................O.O.................................................................................
......................................................................................................................................................................OOO..............................OO...O..O.........O..O................................................................
..............................................................................................................................................................................OOO...O...........................O.........O.O................................................................
.....................................................................................................................................................................O.O......OOO..O.O................O.O.......O...........O................................................................
.....................................................................................................................................................................OOO......O....O.O................O.O.....O.OOO........O.................................................................
..........................................................................................................................................................................O....OO....O.................OO.....O..OOO.....O.O.................................................................
..................................................................................................................................................................OOO....O..OO..O....OO............OO..O....O.OOO..O......O......................O...........................................
.............................................................................................................................................O....................OOO......O.OOO....O.O..........O..OO..OO..O...OOO.......OO............O.........OO.........................................
............................................................................................................................................O.O...........................OOOO.O................OO.O....O..............OO.O..............O........OO.........................................
..............................................................................................................................................OO....................OO.....OO.O......OOO........OO.O...OO....OOO....O.OOOO...............OO......O...........................................
.............................................................................................................................................O......................OO.....OO.O......OOO.........O..OO.....O.OOO....O.O...................O........O.........................................
..............................................................................................................................................OO...................O..........O......O............O.OO...O.....OO.......................OOOO.....O.O.........................................
....................................................................O........................................................................OOO...........................OO....O....OO..................OOOO......O..O....................O......O.........................................
.....................................................................O....................................................................................................O..O..O..OO..O.............O.O.O.O...O...O...O..................OOO...O.O..........................................
.....................................................................OO.....................................................................O.O...................OOO..OO..OOO....O.OOO.............O..O...O...O.....O..O....................OO.O.O..........................................
......................................................................O.....................................................................OOO..................O..O.....O..O...OOOO.O......................O.O....O.OOO...................O.O..............................................
...................................................................OO.OO...................................................................................................OO.....OO.O...............O.OOOO...O.........O.................OO..O.OOO..........................................
..................................................................O...O..................................................................OOO.....................OOOO.O...........OO.O................OOO...........OOO.....................O....OO..........................................
....................................................................OO...................................................................OOO.......................O..O..............O................................O.....................OOO..............................................
....................................................................O.......................................................................................O.....................OO................................OO.......................OOOO............................................
....................................................................OO.....................................................................OO..............O.....OOO.............O..O....................O........O............OO............O..O............................................
.................................................................O..OO.....................................................................OO.............OOO.....O.O.........OO..OOO................OO.O...........O..........OO...OO..OO.....O.............................................
..................................................................O...O...................................................................O................OO............O.......O..O................O....O.......OO....O....O.......O.O..O..OOO.............................................
......................................................................OO...........................................................................................OO.............OO..............O...OOO.OO.O....O..O..OO....OOOOOOO.OOOOO.O................................................
.....................................................................O..O....................................................................O.....................O.O...O...O....................O...............O..O...O.O...........O.....................................................
.....................................................................O.......................................................................O......................OO.O....O.O..................OO.........OOO...O....OOO...OOOOOO...O..OOO....OO...........................................
.....................................................................OO.O................O..................................................O.OOO..........................O...O.............................O.O..O....OO....O....OO.OO.O...O.O.O..O.........................................
...........................................O.........................O..O...O...........O.O..................................................OOOO................OOO.O.....O...O...............OO...........O.OO..O....OO.O..OO...O....OOO.O.O......OO.......................................
.....................................O......OO........................OOO..O.O..........O.O..................................................OO.O.................O........O...O..............OOO............O..OOO...O...O..OOOO..OO....OO.....O...OO.......................................
....................................O.O.....OO.......................OOO....OO............O..................................................OO.............................O.O................OO...........O.OO..O....OO.O..OO...O....OOO.O.O......OO.......................................
....................................O.O....O..........................O......O...............................................................O..O.....................OOO....O............OO.................O.O..O....OO....O....OO.OO.O...O.O.O..O.........................................
......................................O......O......................O.OO..O.O.............OO.................................................O.O............OO.......O...O................OO.....OO.........OOO...O....OOO...OOOOOO...O..OOO....OO...........................................
............................................OOO........................O..O.O...........O.O..................................................O..O...........OO......O.....O...........O...........O...............O..O...O.O...........O.....................................................
......................................OO......O......................OOO...OOO...........O.O..................................................O.O..................O...O...O.........O.O..........O...OOO.OO.O....O..O..OO....OOOOOOO.OOOOO.O................................................
....................................O.O.......OO..O..........................OO..........OOO.......................................................................O..O.O..O........O..O.............O....O.......OO....O....O.......O.O..O..OOO.............................................
.....................................OO....OO......OO................OOO......OO..............................................................OOO..................O...O...O.........OO..............OO.O...........O..........OO...OO..OO.....O.............................................
.....................................O........O....OO.................OO.....O..........O.O.........................................................................O.....O..............................O........O............OO............O..O............................................
.................................O..O....O....O...O...............O..........O..OOO......OO..........................................................................O...O..........................................OO.......................OOOO............................................
................................O........OOO...O....O.............O....O...OOO.O.O.......O......................O.....................................................OOO.............................................O.....................OOO..............................................
............O.....................OO....O.O.OOO....OOO..........OO.O.O.O...O....O......O.O.............O.......O.O.............................................................................O....................OOO.....................O....OO..........................................
...........O.O...................O.O.................O..........O.O.O..O........O......O.O............O.O........OO....................................O........................................O.......................O.................OO..O.OOO..........................................
...........O.O.....................OO....O.O..O......OO.........O.O.OOO......O.....OO..OO...............O.......O......................................OO......................................O....................O.OOO...................O.O..............................................
.............O...................O.O.......OOO....OO............OO.OO.O...OO.OO....OOO................O..O.......OO...............................OOO.OOOOO.............O............................................O..O....................OO.O.O..........................................
..................................O.........O........O...........O....OO.O....O........................OOO......OOO........................O....O.O........O...........O.O.........................................O...O..................OOO...O.O..........................................
.............OO..........................OOO....O....O...........O..O.OO...OO.O....OOO....................O...............................O...O.O....OO..O.O............OO..........................................O..O....................O......O.........................................
...........O.O.........................O........OOO...O.............O.O.O.O.O.....O.OOO..................OOO....OO...........................O..OOO..O.....O.............O..............................................................OOOO.....O.O.........................................
............OO.........................O.O.OO..O.O.OOO.............OO.O.OO..OOO...O.........................O..OOO........................OO.O......O.....O....O......O.O...........................................O.O...................O........O.........................................
............O..........................O...OO.......................OO..OO..OOO.....O.OO.................OO.O.O....................O....................O.O...O.O.....O.O...........................................O.OOOO...............OO......O...........................................
........O..O.............................OO.....O.O..O..............OOOOO.........O...OO........................OO...............O.O..........OO.........O......O......OOOO............................................OO.O..............O........OO.........................................
.......O..........................................OOO..............................OOO....................O.O...O.................OO............O........OO...O..O.......O.O..............................................OO............O.........OO.........................................
.........OO........................................O.................................O.....................O...........................OOO....O..O.....O.O.....OOO.......O.O..............................................O......................O...........................................
........O.O.....................................OOO................................OO........................OO.........................OO....O.O.......O....O...O..........O............................................O.O.................................................................
..........OO....................O....OOO......O..................................OOO........O.O....O........O.OO.......................O.......O.............OOOO.........O.O..............................................O.................................................................
........O.O.............O......O.O..O..O......O.O.OO.....................O......O..O........O.OO...O...OO..O..O.........................OOO.................OO..............O...............................................O................................................................
.........O..............OO..............O.....O...OO....................O.OO......O...O.O.......O...O.O..O....O........................O.O..OO..............OO............O...............................................O.O................................................................
........................O........O.......O......OO.........................OO.....OO....O...OOOOOOOO...O.O.O.O...........................O..O.O..............OOOOO.........OO............................................O..O................................................................
........................O..O....O...OO.OO...............................OO....O...OOO....OO...........O...O.OOO........................OOO..O.O...............O............OO................................................................................................................
.................OO...OOO.O.....OO...O.O.................................O..O.O...OO..O..OO.OOOOOO...O.OOOO.OO.O.....................OOO......O................O..O.......O...............................................OOO................................................................
.O..............O..O...OOO.......O.......................................OOO..O...OOO.OO..O.O....O....OO...O...OO.O...........O.......OO......OO.................OO........................................................OO................................................................
.O.............OO..O..............O.............OOO.....................O.O...O...OOO.....OO..O....O.O...O.O.O..OO.O...........OO............O.O.................OO.......................................................O..................................................................
OOO.............OO.OO..................................................OOO....O...OOO..O..OO..O..OO.....O.......OO.OO.........OO.....O..O........................O.................O.......................................OO................................................................
................OO.O............................OO......................O.O...O...OOO.....OO..O....O.O...O.O.O..OO.O.....................O....OOO.............OO..OO..O.............OO...................................O.O.................................................................
..............................................O..O...........OO..........OOO..O...OOO.OO..O.O....O....OO...O...OO.O..................O...OO.....O................OO....OO...........OO....................................O..................................................................
OOO.............OO.............OO.............OO.............OO..........O..O.O...OO..O..OO.OOOOOO...O.OOOO.OO.O....................O..OO......O.......................OO..........O.........................................................................................................
.O.............................OO.........O....OOOO.....................OO....O...OOO....OO...........O...O.OOO........................OOOOOO..O...............O.O...................O.......................................................................................................
.O.......................................O.O.....OO......OO................OO.....OO....O...OOOOOOOO...O.O.O.O......................O..O........................OO...OOO...........O.O.......................................................................................................
........................................O..O............OO..............O.OO......O...O.O.......O...O.O..O....O.......................O.OOO..OO................O..O..OOO...........O.O.......................................................................................................
.........................................OO.............O.....OO.........O......O..O........O.OO...O...OO..O..O......................OO...O.OO...................O..................O........................................................................................................
.............................................................O..OO...............OOO........O.O....O........O.OO.....................OOO.OOOO....................O......OO...........OO......................................................................................................
.OO.........................................................O......................OO........................OO............O.........OOO...O.............................O...........O.......................................................................................................
.OO.........................................................O.....O..................O.....................O................O..................................O.OO......O..O......OOO.......................................................................................................
.O.................................................................................OOO....................O.O...O.........OOO...........OO..OOO................O.O.....O....O.......O........................................................................................................
............................................................OO.OOO................O...OO........................OO.......................O..OOO.............OOOOO.O....O....O.....O........................O.................................................................................
.................O...OOO............................................................O.OO.................OO.O.O........................O.....OO..........OO...O.OOO...O..OOO.......OO.....................O.O................................................................................
...............O..O.....O.............O...........................................O.........................O..OOO......................OO..................O.........OOOOO....O...OO............OOO......O.O................................................................................
..............O...O.O....OO............OO.........................................O.OOO..................OOO....OO..........................O..OO...........O...OO...OO.O......O..O...............OO........O................................................................................
.O.O.....OOO....O...O...OOO............OO..........................................OOO....................O.............................OOO....O.........OO...OO.O...OO........O.O...............O...........................................................................................
..OO.....OOOOO..O.O.O..................................................................................OOO......OOO....................O.OOO...O............OOO.........OO....O...................OOO.......OO...............................................................................
..O.......O....O...O...O.O...........OOO...........................................OOO................O..O.......OO....................O...O.................OOO.OO.OO.OOO...........................O....O.O................................................................................
........................OO...........OOO...........................................OO..OO...............O.......O........................O...OO................O.O.....O.....O.OOO..................OO..O..OO................................................................................
............OO..........O..............................................................O.O............O.O........OO....................O...O..O................O.O.O.O..OO...OO..O.....................O.....................................................................................
..............OO......O.O...............OOO............................................O.O.............O.......O.O....O.O...............OOO.O.OO...............OO.OO....O.....OO.OO.................OO.O.O.O.................................................................................
..............OO......O.O...............O.O..............................................O......................O......OO............OOO......O...................O....O.....O...O..................OO..OO.O.................................................................................
..............OO.......O.................................................................OO............................O.............O.OO.OOOO.................O..............OOO....................O.OOO.O.................................................................................
.............O...........................OOO............................................O.O.............................................O..OO...................O..............O.....................O...OO..................................................................................
..........................................OO..........................................................................................O.....O.................................O..........................O...................................................................................
.........................................O...............................................OOO.............................................O..................O.O.............OOO.........OO............O..O...................................................................................
..........................................OO.............................................O.O............................................OOOO...............................O...........OOO...OOO.OO...O.OO...................................................................................
........................................O.O.............................................O.O.................................................................O.O............OOO...OO........O.......OO.OOO....................................................................................
.........................................O................................................OO..............................................................................OO.O...OOO...OOOOOOOO...OOO.OO.....................................................................................
........................................................................................................................................................................O..OO..OO.....O.......O..............................................................................................
..........................................................................................O............................................................................O.O.OO..OO.OO.OOOOOOOO.OO.OOOO...OOO..................................................................................
........................................................................................O.O.........................................OO................................O....OO..O.....O...O..O.OO.....OO.OOO..O...............................................................................
........................................................................................O.O.........................................OO........OO......................O....OO..O.O...O....OO..OOO...OOO.O...O.O..............................................................................
.........................................................................................O......................................OO.............O......................O....OO..O...OOO....OOO.......O.......O..O.............................................................................
.................................................................................................................O.O.........OO.OOO...................................O....OO..O.O...O....OO..OOO...OOO.O...O.O..............................................................................
.....................................................................................................................O......OOO.OOO........................OO.........O....OO..O.....O...O..O.OO.....OO.OOO..O...............................................................................
.OO.......OO.............OO.............OO.............OO.............OO.............OO.............OO...........OO..O.......OO.OO..........O.....O.......O.O..........O.O.OO..OO.OO.OOOOOOOO.OO.OOOO...OOO..................................................................................
.OO......O.O............O.O............O.O............O.O............O.O............O.O............O.O............O...........OOO.......O...O..OOOOO.....OOO............O..OO..OO.....O.......O..............................................................................................
.........OO.............OO.............OO.............OO.............OO.............OO.............OO.............O.O..........O.......O.O...O.O...O.....OO...............OO.O...OOO...OOOOOOOO...OOO.OO.....................................................................................
.................................................................................................................O..O.................O..O......OO.....OO.O................OOO...OO........O.......OO.OOO....................................................................................
..................................................................................................................OO...................OO..............OO.O................O...........OOO...OOO.OO...O.OO...................................................................................
....................OO.................................................................................................................................OO..O..OO............OOO.........OO............O..O...................................................................................
....................O.O..................................................................................................................................OOO.OO...............O..........................O...................................................................................
....................O..........................................................................................................................................................O.....................O...OO..................................................................................
..............................................................................................................................................................................OOO....................O.OOO.O.................................................................................
.............................................................................................................................................................................O...O..................OO..OO.O.................................................................................
..............................................................................................................................................................................OO.OO.................OO.O.O.O.................................................................................
.............................................................................................................................OOOOO...........................................OO..O.....................O.....................................................................................
.............................................................................................................................OO..OO..OOO.....................................O.OOO..................OO..O..OO................................................................................
............................................................................................................................OO.O.OO..OOO.............................................................O....O.O................................................................................
........O....................................................................................................................O.O.O.O.O........................................O...................OOO.......OO...............................................................................
........OO................................................................................................................O..O.OO...OO.O.......................................O.O...............O...........................................................................................
.......O.O.....................................O..........................................................................O....OO.O....O.......................................O..O...............OO........O................................................................................
..............................................OO.........................................................................OO.OO.O...OO.OO.......................................O...OO............OOO......O.O................................................................................
..............................................O.O........................................................................O.O.OOO......O............................................OO.....................O.O................................................................................
.........................................................................................................................O.O.O..O........O........................................O........................O.................................................................................
.........................................................................................................................OO.O.O.O...O....O..........................................O........................................................................................................
...........................................................................................................................O....O...OOO.O.O........................................OOO.....................O.................................................................................
...........................................................................................................................O..........O..OOO.........................................O....................O.O................................................................................
...............................................................................................................................OO.....O..............................................OO.....................O................................................................................
..............................................................................................................................OOO......OO...........................................O.....................O..O...............................................................................
......................................................................................................................................OO...........................................O.O.....................OOO...............................................................................
...........OOO................................................................................................................OOO...OOO............................................O.O...................O...O...............................................................................
.............O..................................................................................................................O..O.O...............................................O...................OOOO................................................................................
............O...........................................................OOO..................................................O.OO..O.O.............................................O....................OO...................................................................................
........................................................................O......................................................O......O.............................................OO..................OO...................................................................................
.........................................................................O....................................................OOO....OO.............................................OO...................OOOOO...............................................................................
...............................................................................................................................OOO..O.O............................................O......................O..................................................................................
..............................................................................................................................O..O...O.....................................................................O..O..............................................................................
..............................................................................................................................OO.O...........................................................................OO..............................................................................
..............................................................................................................................O..............................................................................OO..............................................................................
..............................................................................................................................O..O...........................................................................O...............................................................................
...............................................................................................................................OO.........................................................................OO..OO..O..........................................................................
...............OO..........................................................................................................O...O.............................................................................OO....OO............................................O...........................
................OO........................................................................................................O..OO....................................................................................OO...........................................O.O..........................
...............O...................................................................................OO........................OO............................................................................O.O....................................................OO.........................
..................................................................................................OO.........................O..............................................................................OO...OOO.............................................O...........................
....................................................................................................O........................OO............................................................................O..O..OOO..............................................OO.........................
...........................................................................................................................O...O.............................................................................O...................................................OOO.........................
............................................................................................................................OO.OO............................................................................O......OO.......................................................................
...............................................................................................................................O.....................................................................................O..........................................O..O.........................
..............................................................................................................................OO...........................................................................O.OO......O..O........................................O.O.........................
..............................................................................................................................O............................................................................O.O.....O....O..........................................O.........................
.............................................................................................................................O..........................................................................OOOOO.O....O....O.........................................O..........................
...................OO........................................................................................................................................................................O.......OO...O.OOO...O..OOO........................................O.O..........................
..................O.O...........................................................................................O...........................................................................O.O.........O.........OOOOO..........................................O......................O....
....................O..........................................................................................O.O...........OO...............................................................OO........O...OO...OO.O............................................OO............O.........OO..
...............................................................................................................O.O...........O.O..............................................................O......OO...OO.O...OO...........................................OO.O..............O........OO..
.................................................................................................................O...........O...............................................................O.O........OOO.........OO.....................................O.OOOO...............OO......O....
...............................................................................................................................................................................................O.........OOO.OO.OO.OOO.....................................O.O...................O........O..
................................................................O................................................OO.............................................................................O..........O.O.....O...........................................................OOOO.....O.O..
...............................................................O.O.............................................O.O............................................................................O.O..........O.O.O.O..OO.....................................O..O....................O......O..
.................................................................OO.............................................O.O...........................................................................O.O..........OO.OO....O.....................................O...O..................OOO...O.O...
................................................................O...............................................OOO.........................................................................OOOO..............O....O........................................O..O....................OO.O.O...
.................................................................OO........................................................................................................................O.O.............O...............................................O.OOO...................O.O.......
.......................O............O...........................OOO............................................O.O.........................................................................O.O..............O..................................................O.................OO..O.OOO...
.......................OO............OO.......O.................................................................OO............................................................................O............................................................OOO.....................O....OO...
......................O.O............OO......O.O...............O.O..............................................O......................O................O....................................OO..............................................................O.....................OOO.......
.....................................OO......O.O...............OOO............................................O.O.............O.......O.O..............OO...................................O.O............OO..............................................OO.......................OOOO.....
...................................OO..........O..............................................................O.O............O.O........OO.............O.O...................................O...............O..........................O...OOO..........O............OO............O..O.....
...............................................OO...........OOO...........................................OO..OO...............O.......O...................................................................OO.........OO...............OOO..OO.............O..........OO...OO..OO.....O......
.................................O....O...O...O.O...........OOO...........................................OOO................O..O.......OO.......................................................O...................O..O...................OO...........OO....O....O.......O.O..O..OOO......
................................OOOOO..O.O.O..................................................................................OOO......OOO.....................................................OO.OO..................O.O...O.OOO......OOO..O............O..O..OO....OOOOOOO.OOOOO.O.........
................................OOO....O...O...OOO............OO..........................................OOO....................O.....................................................................................O...O.....O.....O.OOO.............O..O...O.O...........O..............
.....................................O...O.O....OO............OO.........................................O.OOO..................OOO....OO.........................................................O.O........OOO...........O......O.......O..............O....OOO...OOOOOO...O..OOO....OO....
......................................O..O.....O.............O...........................................O.........................O..OOO.......................................................O...O.........O.............O............................O....OO....O....OO.OO.O...O.O.O..O..
........................................O...OOO............................................................O.OO.................OO.O.O..........................................................O..OO.........O.............O..O.OO......................O....OO.O..OO...O....OOO.O.O......OO
........................................................O................................................O...OO........................OO........................................................OOO.........OO.O............OO..........................O...O...O..OOOO..OO....OO.....O...OO
................................OOO....................OOOO...............................................OOO....................O.O...O..........................................................O.........O......OO........OO..........................O....OO.O..OO...O....OOO.O.O......OO
................................O..O...................O...O................................................O.....................O..............................................OOO........................OOOO...OO....................................O....OO....O....OO.OO.O...O.O.O..O..
...............................O...O....................O..O..............................................OO........................OO...........................................O......................O..OOO............................O..............O....OOO...OOOOOO...O..OOO....OO....
...............................O.O.OO...................OOO................................OO...........OOO........O.O....O........O.OO...........................................O......................O.............................O.OOO.............O..O...O.O...........O..............
...............................OOO.OO...............OO........OOO......OO.........O...OO..OOO..........O..O........O.OO...O...OO..O..O.................................................................................................O....O............O..O..OO....OOOOOOO.OOOOO.O.........
...............................O...O...............O..O.......OOO.....O..O........O......O....O..........O...O.O.......O...O.O..O....O...............................................................................O.O.................O...O...........OO....O....O.......O.O..O..OOO......
...............................OO.O.................OO...........O.....O.O..............O.....O.......O..OO....O...OOOOOOOO...O.O.O.O....................................................OO.............................O..............OO.OOO..............O..........OO...OO..OO.....O......
................................OO............OO..................O.....O...........................OO...OOO....OO...........O...O.OOO................................................OOOOOO.........................O..OO.............O.................O............OO............O..O.....
.................................O.O..........OO.............OO...O.........OO.OOO...OO............O.....OO..O..OO.OOOOOO...O.OOOO.OO.O...............................................OO..OO........................O...OO.................................OO.......................OOOO.....
..........................OOO.....OOO.........................O.OOOOO.......OO...O.OOO..............O....OOO.OO..O.O....O....OO...O...OO.O................................................OO.....OO.................OO...O...................................O.....................OOO.......
..........................O...O..O..O....................O.....O..O................OOO................O..OOO.....OO..O....O.O...O.O.O..OO.O...........................................O...OOO..O...OO.............OOOO.O...O.................OOO...........OOO.....................O....OO...
..........................OO....OOO..O.............OO..OOO...........O................................O..OOO..O..OO..O..OO.....O.......OO.OO.........................................O..OOOO...O.O.OO...................O.O.O...............O.OOOO...O.........O.................OO..O.OOO...
...........................O.....O..O.............OO..OOO.........O.OO.............OOO................O..OOO.....OO..O....O.O...O.O.O..OO.O.........................................OOOOOO.....O......................OOOOOOO.......................O.O....O.OOO...................O.O.......
............................OO.........................OO........O.O.............O.OOO..............O....OOO.OO..O.O....O....OO...O...OO.O...........................................O...........OOO.................O......O..............O..O...O...O.....O..O....................OO.O.O...
...........................OO.........................OO........O..............OOO...OO............O.....OO..O..OO.OOOOOO...O.OOOO.OO.O...............................................OOO...........O.................OO...O................O.O.O.O...O...O...O..................OOO...O.O...
............................O..................................OO...................................OO...OOO....OO...........O...O.OOO.................................................O...........OOO...............OO....O.....................OOOO......O..O....................O......O..
.............................O.................................O.......OO...............O.....O.......O..OO....O...OOOOOOOO...O.O.O.O............................................................O.O..O..............O.OOOOOO............O.OO...O.....OO.......................OOOO.....O.O..
..............................................................O......O...OO.......O......O....O..........O...O.O.......O...O.O..O....O.....................................................................................OOO..........O..OO.....O.OOO....O.O...................O........O..
...............................O.O.............................O.O...O.O.OO.......O...OO..OOO..........O..O........O.OO...O...OO..O..O..........................................................O.O.OOO...............O...O..O.........OO.O...OO....OOO....O.OOOO...............OO......O....
.................................OO.............................O....O.....................OO...........OOO........O.O....O........O.OO..........................................................OOO...O..............O...O..O.........OO.O....O..............OO.O..............O........OO..
...............................O.O.....................................OOO................................OO........................OO...........................................................O....O..............OO.................O..OO..OO..O...OOO.......OO............O.........OO..
................................OO........................................O.................................O.....................O...................................................................O...............OO...OO.............OO..O....O.OOO..O......O......................O....
..............................O..........................................OOO..............................OOO....................O.O...O...........................................................OO.................O..O.O..................OO.....O..OOO.....O.O..........................
...............................O..O..............O.O............OO.....O.O..O..............OOOOO.........O...OO........................OO.............................................................OO...........O.........................O.O.....O.OOO........O..........................
...................................O.............O.OO.........O...OO.......................OO..OO..OOO.....O.OO.................OO.O.O................................................................O...........O.....O....................O.O.......O...........O.........................
...................................OO.............OO..........O.O.OO..O.O.OOO.............OO.O.OO..OOO...O.........................O..OOO...........................................................OOO.............OOO..OO............................O.........O.O.........................
..................................O.O.........................O........OOO...O.............O.O.O.O.O.....O.OOO..................OOO....OO............................................................O..............O...O..O..................OO...O..O.........O..O.........................
....................................OO..........................OOO....O....O...........O..O.OO...OO.O....OOO....................O.................................................................O................O.OOO...O...................O.O..........................................
.........................................................O.........O........O...........O....OO.O....O........................OOO......OOO..........................................................OO............OO.O.....O.................OOO....OO...........OOO.........................
....................................O...................O.O.......OOO....OO............OO.OO.O...OO.OO....OOO................O..O.......OO..........................................................OO............OO...OOOOOO......................O.O............OO.........................
..................................O.O.....................OO....O.O..O......OO.........O.O.OOO......O.....OO..OO...............O.......O...........................................................O...............OOO..O...OO...............O..O....OO..........O...........................
..................................O.O...................O.O.................O..........O.O.O..O........O......O.O............O.O........OO..........................................................................O..O...O..O.................O..O.O............OO.........................
...................................O.....................OO....O.O.OOO....OOO..........OO.O.O.O...O....O......O.O.............O.......O.O............................................................................O.O.....OO..............O..OO..O...........O.O..........................
.......................................................O........OOO...O....O.............O....O...OOO.O.O.......O......................O............................................................................OOO......O..............OOOO.................O...........................
........................................................O..O....O....O...O...............O..........O..OOO......OO.................................................................................................OO......OOO..............OO.O.............................................
............................................................O........O....OO.................OO.....O..........O.O................................................................................................O.O.......O................O.O.............................................
............................................................OO....OO......OO................OOO......OO..............................................................................................................O....O..................OOO.............................................
...........................................................O.O.......OO..O..........................OO..........OOO................................................................................................O..O.O..OO.................OO.............................................
.............................................................OO......O......................OOO...OOO...........O.O...................................................................................................O....OO..............OO.O..............................................
...................................................................OOO........................O..O.O...........O.O........................................................................................................O................O.................................................
.............................................................O......O......................O.OO..O.O.............OO..................................................................................................OOO.O.................O.................................................
...........................................................O.O....O..........................O......O..................................................................................................................O...................OOO...............................................
...........................................................O.O.....OO.......................OOO....OO............O....................................................................................................OO......................OO.............................................
............................................................O......OO........................OOO..O.O..........O.O....................................................................................................O....................O..OO.............................................
..................................................................O.........................O..O...O...........O.O...................................................................................................O......................O................................................
............................................................................................OO.O................O............................................................................................................................OO..............................................
............................................................................................O...............................................................................................................................................OOO..............................................
............................................................................................O..O.............................................................................................................................................................................................
.............................................................................................OO..............................................................................................................................................................................................
.........................................................................................O...O...............................................................................................................................................................................................
........................................................................................O..OO................................................................................................................................................................................................
...........................................................................................OO................................................................................................................................................................................................
...........................................................................................O.................................................................................................................................................................................................
...........................................................................................OO................................................................................................................................................................................................
.........................................................................................O...O...............................................................................................................................................................................................
..........................................................................................OO.OO..............................................................................................................................................................................................
.............................................................................................O...............................................................................................................................................................................................
............................................................................................OO...............................................................................................................................................................................................
............................................................................................O................................................................................................................................................................................................
...........................................................................................O.................................................................................................................................................................................................
