!Name: ships-c7d
!CBy Matthias Merzenich, 19 Aug 2011
!
.................................................................OOO..............................
.................................................................O................................
......................................................OO..O.O.....O..OO...........................
......................................................O.O.OO.........OO...........................
............OOO.......................................O....O..O..OO...............................
............O...............................................O.....OO..............................
.............O..OO......................................OO.......O..O.............................
................OO......................................OO........................................
............OO.....................................................O................OOO...........
.............OO...........................................................OOO.......O.............
............O..O..........................................................O..........O..OO........
...............................................................OO..O.O.....O..OO........OO........
..............O..O.............................................O.O.OO.........OO....OO............
..............O...O............................................O....O..O..OO.........OO...........
...............OOO.O.................................................O.....OO.......O..O..........
....................O............................................OO.......O..O....................
OO..O.O.............O............................................OO...................O..O........
O.O.OO.............O........................................................O.........O...O.......
O....O..OO.............OO..............................................................OOO.O......
......O...O......OO..OO..O..................................................................O.....
..OO......O......O..O...................................................OO..O.O.............O.....
..OO....O.O....OO.......................................................O.O.OO.............O......
.........O.....O...O...O................................................O....O..OO.............OO.
..........O..O....OO..........................................................O...O......OO..OO..O
...........OO...O.....O.O.................................................OO......O......O..O.....
...............O........OO................................................OO....O.O....OO.........
...............O....O............................................................O.....O...O...O..
..............O...O...............................................................O..O....OO......
..............O.....OO.............................................................OO...O.....O.O.
...............O.....O.................................................................O........OO
.......................................................................................O....O.....
......................................................................................O...O.......
......................................................................................O.....OO....
.......................................................................................O.....O....
