!Name: slide-o-02f-060
!CJason Summers, 20 Aug 1999
!
........................O..................................................................
......................O.O..................................................................
............OO......OO.....................................................................
...........O...O....OO............OO.......................................................
..........O.....O...OO............OO.......................................................
OO........O...O.OO....O.O..................O...............................................
OO........O.....O.......O.................O.O..............................................
...........O...O..........................O.O..............................................
............OO.............................O...............................................
.......................O...................................................................
........................OO.................OOO.............................................
.......................OO.................O..O.............................................
.............................................O.............................................
.........................................O...O.............................................
.............................................O.............................................
..........................................O.O..............................................
..........O.......O........................................................................
........O.O.....OOOO.......................................................................
OO....OO........OO..O..OO..................................................................
OO....OO...........OO..OO..................................................................
......OO.......O..........OO.................OOO...........................................
........O.O....O..........OOO.........O.....O..O...........................................
..........O....O..........OO...........OO......O...........................................
.......................OO........OO...OO...O...O...........................................
.......................OO........O.O...........O...........................................
...................................O........O.O............................................
...................................OO......................................................
................................O....O.....................................................
..............................OO.OOOO.OO........O..........................................
................................O....O.........OO.....OO...................................
...............................................O.O.....O...................................
.......................................................O.O......OO.........................
........................................................OO......O..O.......................
....................................................................O.........O.O..........
.............................................................O......O.......O...O..........
...........................................................OO.......O.......O..............
................................................................O..O.......O....O........OO
................................................................OO..........O............OO
............................................................................O...O..........
...................................................................O.O........O.O..........
...................................................................OO......................
....................................................................O......................
...............................................................O...........................
.............................................OOO..............OO...........................
............................................O..O..............O.O..........................
...............................................O...........................................
...........................................O...O...OO......................OO..............
...............................................O....O......................O.O.............
............................................O.O.....O.O..........O....OO......O.......OO...
....................OO...............................OO.........O.O..O..O..O..O.......OO...
....................OO..........................................OO.O.OOO......O............
................................................................OO.OO......O.O.............
................................................................OO.O.......OO..............
................................................................O.O........................
.................................................................O.........................
......................................................OO...................................
....................OOO...............................OO...................................
...................OO.OO...................................................................
...................OO.OO...................................................................
...................OOOOO...................................................................
..................OO...OO...............................OO.................................
....................OO.....................................................................
...................OOOOO...................................................................
...................O................................OO...OO................................
.....................OOO.............................OOOOO.................................
.......................O.............................OO.OO.................................
.....................OO..............................OO.OO.................................
.....................OO...............................OOO..................................
................OO...OO....................................................................
................O.O.O.O......................OOO...........................................
.................OOOOO.....O.O..............O..O...........................................
..................OOO.......OO.................O...........................................
...................O........O..............O...O..O........................................
...............................................O..O..O...O.................................
.........................OO.................O.O.....O...OOO................................
.........................OO............................OOOOO...............................
......................................................O.O.O.O..............................
...................................O..................OO...OO..............................
....................................OO.....................................................
..................OO...............OOO..O..................................................
..................OO................OOOOO..................................................
.....................................O.....................................................
.....................................OO......OOOOOO........................................
............................................O......O.......OO..............................
.................................OO........O........O......O...............................
................................O.O.........O......O........OOO............................
.......................OO...OO....O..........OOOOOO...........O............................
.........................OOO...............................................................
........................O...O..............................................................
.........................O.O...............................................................
..........................O................................................................
...........................OOO.............................................................
...........................OOO.............................................................
.........................OO...OO...........................................................
..........................OOOOO............................................................
...........................OOO.............................................................
............................O..............................................................
............................OO.............................................................
............................OO.............................................................
