!Name: ss-eaters
!CSpaceship eaters.
!CEater+tub MWSS eater by Dean Hickerson, 4 May '97.
!CHWSS eater(2) by Brice Due, 7 Jan '07.
!CHWSS eater(3) by Dean Hickerson, 24 Apr '99.
!
...............OO..............................OO........................................
...............O...............................O.........................................
.............O.O.............................O.O.................................OOO.....
.............OO..............................OO.................................OOO......
.OOOO...........................OOOOO.............................OOOOOO.................
O...O..........................O....O............................O.....O.................
....O...............................O..................................O.................
O..O...........................O...O.............................O....O.........OOO......
.................................O.................................OO............OOO.....
............OO...........................................................................
............OO...........................................................................
..............................................O..........................................
.............................................O.O..................................OO.....
.OOOO........OO.................OOOOO.........O...................OOOOOO.........O..O....
O...O........OO................O....O............................O.....O.........O..O....
....O...............................O..................................O..........OO.....
O..O...........................O...O.............................O....O..................
.................................O..........OO.....................OO....................
............................................O....................................OO......
.............................................OOO.................................OO......
...............................................O.........................................
................................................................................O........
...............................................................................O.O.......
................................................................................O........
..............................................................................OOOOO......
..............................................................................O....O.....
................................................................................OO.O.....
.................................................................................O.O.OO.O
................................................................................O..O.O.OO
..................................................................OOOOOO.........OOO.....
.................................................................O.....O............O....
.......................................................................O...........O.O...
.................................................................O....O...........O..O...
...................................................................OO............O...OO..
..................................................................................OOO....
....................................................................................O....
