!Name: swimmerlane
!CDavid Bell, 7 Mar 2010
!
...............................................................................................................................OO..................................................................................................................................................
...........................................................................................................................OO...O..................................................................................................................................................
................................................................................................................OOO.......O......O.................................................................................................................................................
...................................................................................................................OOO.....O...OOOOO...............................................................................................................................................
...................................................................................................................OOO......O...O..................................................................................................................................................
....................................................................................................................O...........O..O...............................................................................................................................................
.................................................................................................................................OO.......OO.......................................................................................................................................
..........................................................................................................................................OO.......................................................................................................................................
...........................................................................................................................................O.......................................................................................................................................
...........................................................................................................................................OO......................................................................................................................................
.........................................................................................................................................OO..O....OO...............................................................................................................................
.......................................................................................................................................O....OO....OO..................................O.O..........................................................................................
........................................................................................................................................OO..............................O.O.......O..O..O..........................................................................................
........................................................................................................................................O..............................OO.OO.....O.O.OO.O..........................................................................................
......................................................................................................................OO......O..OO.O...................................O.OO......O................................................................................................
......................................................................................................................OO.....O...O...OO.....................................O...........OOO........................................................................................
.................................................................................................................................OOO.O.....................................O.............OO........................................................................................
...........................................................................................................................O.......OO......................................O............OO.......OO................................................................................
..........................................................................................................................O..O...................................................................OO................................................................................
.........................................................................................................................O..O......................................................................................................................................................
..........................................................................................................O..............O.........................................................................................................................................................
..........................................................................................................OOOO......O....OOO.......................................................................................................................................................
..........................................................................................................O...O.....O..............................................................................................................................................................
..................................................................................................................................................................................................OO...............................................................................
............................................................................................................OOO..................................................................................O..O..............................................................................
.................................................................................................................................................................................................O..O....OO........................................................................
.................................................................................................OO............................................................................................O.OOOO....OO........................................................................
.............................................................................................OO...O...........................................................................................O..O.................................................................................
..................................................................................OOO.......O......O..........................................................................................O.O..................................................................................
.....................................................................................OOO.....O...OOOOO.......................................................................OO.........O...OO.....................................................................................
.....................................................................................OOO......O...O..........................................................................OO........O...........................................................................................
......................................................................................O...........O..O...................................................................................OO..O.....................................................................................
...................................................................................................OO.............................................................................O......OOOO......................................................................................
................................................................................................................................................................................OOO................................................................................................
...............................................................................................................................................................................O...O...............................................................................................
................................................................................................................................................................OO.OO..........O..O................................................................................................
................................................................................................................................................................OO.............O..O................................................................................................
........................................................................................................OO......................................................OO.O.O..........OO.................................................................................................
...........................................................................................................O..........................................O............O.O.............................................................................................................
..........................................................O.............................................O...O.......................................OO.OO...........OO.............................................................................................................
..........................................................O..............................................O..O.......................................OO.OO..........................................................................................................................
..........................................................O.OOO..........................................O.OO.......................................OO.............................................................................................................................
............................................................OOO...................................OO....OOOO..........................................OO.O.........................................................................................................................
.............................................................O.............OOO....................OO....O.O............................................O..O........................................................................................................................
.............................................................OO.........................OO......OOOO.........O.........................................O..O........................................................................................................................
..............................................................O.........................OO.....O.O..........O...........................................OO.........................................................................................................................
..............................................................OO.............O.................O.O..........OOO....................................................................................................................................................................
............................................................................OO.....................................................................................................................................................................................................
...........................................................OO.OO...........OOO......OO.........................................................................OO..................................................................................................................
............................................................OOO............O........OO........................................................................O..O.................................................................................................................
............................................................O............O............................................................................OOO......OO..................................................................................................................
.........................................................................O...OO........................................................................................................................................................OO..........................................
.............................................................................OO.................OO....................................................O.O..............................................................................OO.....OO...................................
..........................................................................O.....................OO.....................................................O......................................................................................OO...................................
...........................................................................O..O.........................................................................O..........................................................................................................................
...........................................................................OOO...O...O..................................................................OO.........................................................................................................................
.................................................................................O...................................................................O.OO.O............OO......................................OO...........................OO.....................................
......................................................................................O..............................................................OOOO.OO..........O..O.....................................OO.....O.OO.OO...............OO.....................................
.....................................................................OOO............OOOO.O............................................................OOOOO............OO.............................................OO.O.O.O....................OO...............................
.....................................................................OOO.................OO..............O..............................................OO..................................................................O.....................OO...............................
................................................................OO..OO..O...............OO..............O.O..............................................................................................OO........................................................................
................................................................OO..............OO.....................O...O..................................O..........................................................OO........................................................................
.......................................................................OOO.......OO....................O..O...................................O..............................................................OO....................................................................
..................................................OO..O.................OO......OO....................OO.OO.....................................O.....O......................................................OO....................................................................
.....................................................O.O.............OO.OO....OOO......................O.O....O................................O......O.O..........................................................................................................................
....................................................O.................O.O.....O.........................O....OOO..............................O...O..O...........................................................................................OO................................
.......................................................................O......O.............................O..O...............................O..O.O.OO.........................................................................................O.................................
......................................................OO..................................................OO.OO.....................................O.OO................................................OO........................................O................................
.............................................................................................................O..........................................................................................OO.......................................OO................................
............................OOO........................OO..........O.O................................................OOO..........................................................................................................................................................
............................OOO..............OO.......O............O.O....................................O..O.................O...................................................................................................................................................
...........................O...O.......O.O....OO....OO.OO...........O......................................OOO..........OO.....OOO....................................................................................O............................................................
............................OO.OOO.....O..O..OOO.......OO...............................................................OOOO....O..................................................................................OOOOOO.....................OO...................................
............................OO....O....O.O.OOOOOO....O..................................................................OO.OOO.OO..................................................................................OO..OO....................O.O...................................
...............................O..O.........O..OO............................................................................O.O...............................................................................................................O...................................
................................OO...........OOO...........................................................................................OO.......................................................................O..............................................................
..............................................O............................................................................................OO.......................................................................O..OO..........................................................
................................................................................OOO......O.........................................................................................................................O...OO..........................................................
..................................................................................O.....OO..........................................................OO..............................................................O..............................................................
......................................O..........................................O.....O.OO................................................O..........O.............................................................O.O............................................................
.....................................O.O...............................................O..OO.............................................OOO...O....OO...............................................................O.............................................................
........................OOO..........O.O.............................................OOOO.OOO............................................OO....OO..................................................................................................................................
........................OOO...........O.............................................O..O.O..OO...........................................OO..O...O.....................................................................................................OO..........................
.....................................................................................O.O.O.OOO.............................................O.OOOO......................................................................................................OO..........................
........................O.OO..........................................................OO.OOO.O................O..................OO..........OOO...................................................................................................................................
........................O...O.........................................................OOOO..O.O..............O.O....................O..............................................................................................................................................
..........................OOO............................................................O...O...............OO...........O....OO....OO............................................................................................................................................
..............................................O..........................................O...O............................O...OO......O...........................................................................................................OO...............................
..O..........................................O.O.........................................O..O............OO...............O..OOO..OO..O...................................O.......................................................................OO...............................
.OOO.........................................O.O.........................................................OO.......................OO.O.........OOO....................................................................................................OO...........................
..............................................O................................................................................................O........................O.OOO.........................................................................OO...........................
.OOO........................................................................................................................................O.OO............O.............OO.O........O......................OO....................................................................
..OO.OO...............................................................................................................O...............OO....OOO.............O.O...........O.OO......OOO......................OO........................O.OO........................................
....O.....................................................................................OO.........................O.O.....................O..............OO.............OOO.O...O...............................OO..................OO.O.....OO.................................
..................OO.................................................................................................OO............................................................OO..............................OO...........................OO.................................
..................OO...........................................................................................................OO........O...................................O.....................................................................................................
.......................OOO.......................................................................................OO............OO.....O..O.......................................O.................................................................................................
......................O...O......................................................................................OO.....................OO......................................O.O.......................OO.....OO................................................................
..O...................O...O....................................................................OO........................................O..............OO.......................OO..OO............OO.....OO.....OO.....OO.........................................................
.O.O.................OO.OO....................................................................O..O.........................................O.............OO..........................OO............OO...................OO.........................................................
..O....................O.........................................................OO....OOO....O..OO...........................O..........OOO............O..........................................................................................................................
.............................................................................................O..OO...........................O.O..........O........................................................................................................................................
.OO.............................................................................O...O........OOOO............................OO......................................................................OO...........................OO...............................................
O.O..................................................................................O.............................................................................OO................................OO...............OO.OO.O.....OO...............................................
...................O..........................................................O.......O..................................................................OOO......O.O..........................OO....................O.O.O.OO......................................................
OOO.O.O...........O..........................................................O....O.....................................................................O..O.......O...........................OO.....................O............................................................
....OOO.............OO........................................................O.O.O....O...............................................................O....O...........................................................................OO.........................................
....OO..............OO........................................................O........O...............................................................O..OOO...........................................................................OO.........................................
.....................O.........................................................O....OO.O..............................................O................O.....O...................O..................................................OO.............................................
..................O..O..........................................................O.OO.OOO.............................................O.O................OOOOOOO..................O.O................................................OO.............................................
..................O.O.....................................OOO....................OOO.OO..............................................OO.......................O..................OO................................................................................................
................OO.........................................O..................................................................................................O...............................................OO...................................................................
...............O...........................................O..O.............................................................................................OO.................................................OO..................................................................
.................O.........................................O..O...............................................................................................................................................O..........................OO........................................
......OO.....OOOO...........................................O.O.........................................................OO...............................................................................................................OO........................................
......OO....O..O.........................................................................................................OO........................................................................................................................................................
............O..O........................................................................................................O.....................O............O.......................................................................................................................
.............OOO.............................................................................................................................O.O..........O.O......................................................................................................................
.............................................................................................................................................OO..........OO.O......................................................................................................................
...........................................................O..........................O..................................................................OO........................OO..............................................................................................
..........................................................O.O...............O.OOOO...O.O..................................................................OOO.....................O.O..............................................................................................
...........................................................O................O.......O...O..................................................................O.......................O............OO.................................................................................
..............OO...........................................O.................O...O...OOOO.O.................................................................O..O................................OO.................................................................................
..............OO..............................................................OOO..........O....................................................................O...............................OO.................................................................................
..........................................................................................O...........................................................O...O.....O...............................OO.................................................................................
...................................................................................OO..OO............................................................O.O..OO..OOO..............................O..O................................................................................
....................................................................................O.O.O............................................................OO....O..................................O..O.................................................................................
...................................................................O.................OOO.....................................................................................................O.....................................................................................
..................................................................O.O.................O...................................................................................................OOOO.....................................OO..............................................
..................................................................O.O.....................................................................................................................OOOOOO......O...OOO.......................O..............................................
.............................................OO.......OO...........O.................................................................................................................................O.O..OOOOO....................O...............................................
.............................................OOO......OOO..OO........................................................................................................................................O........OO...................OO..............................................
.............................................OO.O.O..........................O........................................................................................................................OOO....OO....................................................................
................................................OO..........................OO...................................................................................................................OOO....OO...O.....................................................................
...........................O................................................O.O.................................................................................................................OO.O...............................................................................
............................................................................OO...........................................................................OOO...............................OO..O...................................................................................
.......................O.......O............................................OO.............................................................................O...............................OO...OO.................................................................................
.......................O........O..OOO.............................................................................................O......................O......................................O..................................OO...........................OO................
......................O....OO...O..OOO.....................................O......................................................OO....................................................................OO.O........................OO...........................OO.....OO.........
.......................O.O......O..OO..O..................................OOO....................................................O.OO....................................................OO......OO.....O.OO..................OO........................................OO.........
.......................O.OO..........O.O.................................O.OO...................................................OOO..O..................................................OO.......OO...........................OO...................................................
.....................................OOO..........................................................................................O.O.O...................................................O........................................................................................
............................O............................................OO........................................................O.O.O...................OOO...........................................................................OO...........................OO...........
....................................................................................................................................O..OOO...................O..................................................................OO.......OO.....O.OO..................OO...........
.....................................................................................................................................OO.O...................O............................................................OO.....OO..............OO.O........................OO.....
......................................................................................................................................OO.................................................................................OO.................................................OO.....
......................................................................................................................................O...O........................................................................................OO..............................................
.........................................................................................................................................O.O.......................................................................................OO..............................................
...........................................OOO............................................................................................OO...........................................................................................OO..........................................
..........................................OO..OO........................................................................OO............OO...............................................................................................OO..........................................
..........................................OO..OO........................................................................OO.....OO....O.O...........................................................................................................................................
...........................................O.OO................................................................................OO....O.....OO..............................................................................................................................OO......
...........................................OO.......................................................................................OO.....OO..............................................................................................................................O.......
...................................OO......OO.............................................................................O.......................................................................................................OO........................................O......
...........................OO........OOO........O.O.............................................OO........................O..OO...................................................................................................OO.......................................OO......
...........................OO.....OOO.OO........OO..............................................OO.....O.OO.OO...............OO............................................................................................................OOO.....................................
.................................................O.....................................................OO.O.O.O....................OO....................................OO...............................................................O..O.....................................
.............................................................................................................O.....................OO....................................OO.....OO........................................................O...O....................................
..........................................................................................OO....................................................................................OO.......................................................O..OOO....................................
..........................................................................................OO...............................O..............................................................................................................OOOO.....................................
..............................................................................................OO..........................OO.......................................................................................................................................................
..............................................................................................OO..........................OO.....................OO...........................OO...................................................................................................
...................................OO............................................................................................................OO...........................OO..............................................................O.O..................................
...................................OO...............................................................................................................................................OO.........................................................OO..................................
....................................................................................................................................................................................OO.........................................................O...................................
.........................................................................................OO................................................OO......................................................................................................................................
.........................................................................................OO................................................OO......................................................................................................................................
.........................................................................................................................OO.O..................OO...............OO.................................................................................................................
.........................................................................................................................OOOOO.................OO...............OOO..............................................................................................................OO
..........................................................................................................................OOOO.................................O.OOO.............................................................................................................OO
......................................................................................................O.........................................................O.OOO..............OO..............................................................................................
.....................................................................................................O....................OOO...................................OOOO...............O...............................................................................................
.....................................................................................................OOO..................OOO.............OO.....................OO.................O..............................................................................................
...........................................................................................................................O..............OO.......................................OO...................OO..................................................................OO.....
........................................................................................................................................................................................................O.O.................................................................OO.....
........................................................................................................................................................................................................O.......................................................................OO.
................................................................................................O...............................................................................................................................................................................OO.
...............................................................................................O.O.....................................................................................................................................OO.....................O....................
...............................................................................................OO......................................................................................................................................OO....................O.O.O.OO..............
.............................................................................................................................................................................................................................................OO...............OO.OO.O.....OO.......
...............................................................................................OO.......................................OO...................................................................................................OO...........................OO.......
...............................................................................................O........................................OO.........................................................................................................................................
................................................................................................O..................................................................................................................................................................................
...............................................................................................OO................................................O.........................................................................................OO......................................
................................................................................................................................................O.O........................................................................................OO.....OO...............................
...................................................................................................................................OO...........OO................................................................................................OO...............................
...................................................................................................................................OO.....................................................................................................................OO.......................
.......................................................................................................................................OO.......OO.......................................OO...............................................................OO.....OO................
.......................................................................................................................................OO.......O........................................OO.............................OO.......................................OO................
..............................................................................................OO.................................................O..................................................................OO..OO.........................................................
..............................................................................................OO........................O.OO....................OO.................................................................O.O.............................................................
....................................................................................................OO..................OO.O.....OO.............................................................................O...O.............OO...........................OO..................
....................................................................................................OO...........................OO..............................O.O................OO..........................OO................OO...........................OO..................
..................................................................................................................................................................OO................OO.........................OO.O...OO.............................................OO............
..................................................................................................................................................................O.....................OO....................O..OOO..O..............................................OO............
..................................................................................................OO....................................................................................OO...................O.O.O.....OOO..OO.....................................................
..................................................................................................OO.....OO....................................OO.....................O.....................................O.O.O........O..OO.....................................................
.........................................................................................................OO....................................OO....................O.O.O.OO.............................OOO..O................OO.................................................
.....................................................................................................................................................OO...............OO.OO.O.....OO.......................O.OO.................OO.................................................
.....................................................................................................................................................OO...........................OO........................OO.....................................................................
.............................................................................................................................................................................................................O......................................................OO.............
....................................................................................................................................................................................................................................................................O..............
...................................................................................................................................................OO......................................................................OO........................................O.............
...................................................................................................................................................OO.....OO...............................................................OO............................OO.........OO.............
..........................................................................................................................................................OO............................................................................................OO.........................
..........................................................................................................................................................................................................................................................O.........OO.............
...................................................................................................................................................................................................................................................................O.O.............
....................................................................................................................................................................................................................................................................O..............
....................................................................................................................................................................................................................................................................OO.............
....................................................................................................................................................................................................................................................................OO.............
..................................................................................................................................................................................................................................O................................................
.................................................................................................................................................................................................................................O.O...............................................
.................................................................................................................................................................................................................................OO...............................OOO..............
.................................................................................................................................................................................................................................................................O.................
.................................................................................................................................................................................................................................OO.......................................OO.......
.................................................................................................................................................................................................................................O.................................OO.....OO.......
..................................................................................................................................................................................................................................O..........................OO...OO...............
.................................................................................................................................................................................................................................OO.........................OO....OO...............
.............................................................................................................................................................................................................................................................OOOOO..O..............
..............................................................................................................................................................................................................................................................OOOOOOO..............
...................................................................................................................................................................................................................................................................O...............
..................................................................................................................................................................................................................................................................O......OO........
.........................................................................................................................................................................................................................................................................OO........
................................................................................................................................................................................................................................OO.....................O...........................
................................................................................................................................................................................................................................OO....................O.O.O.OO.....................
......................................................................................................................................................................................................................................OO...............OO.OO.O.....OO..............
......................................................................................................................................................................................................................................OO...........................OO..............
....................................................................................................................................................................................................................................OO.............................................
....................................................................................................................................................................................................................................OO.....OO......................................
...........................................................................................................................................................................................................................................OO......................................
