!Name: w00049
!
.......................................................OO.
..OO...OO....OO.O......................................OO.
..OO...OO....O.OO.........................................
...........OO....OO.......................................
..OO...OO..O.....O........................................
..O.O.O.O...O.....O.......................................
....O.O....OO....OO....................................OOO
...OO.O......OO.O......................................O.O
.......OO....O.OO.....................................O..O
........O........OO...........................OO......O.O.
.......O.........O............................OO......OOO.
.......OO.........O.......................................
........O........OO.......................................
.......O.....OO.O.........................................
.......OO....O.OO.........................................
..............................................OOO.........
..............................................O.O.........
.............................................O..O.........
.....................................OO......O.O..........
.....................................OO......OOO..........
.......................................................OOO
.......................................................O.O
.....................................OOO..............O..O
.....................................O.O..............O.O.
....................................O..O..............OOO.
............................OO......O.O...................
............................OO......OOO...................
..............................................OOO......OO.
..............................................O.O......OO.
............................OOO..............O..O.........
............................O.O..............O.O..........
...........................O..O..............OOO..........
...................OO......O.O............................
...................OO......OOO............................
.....................................OOO......OO..........
.....................................O.O......OO..........
...................OOO..............O..O..................
...................O.O..............O.O...................
..................O..O..............OOO...................
..........OO......O.O.....................................
..........OO......OOO.....................................
............................OOO......OO...................
............................O.O......OO...................
..........OOO..............O..O...........................
..........O.O..............O.O............................
.........O..O..............OOO............................
.OO......O.O..............................................
.OO......OOO..............................................
...................OOO......OO............................
...................O.O......OO............................
.OOO..............O..O....................................
.O.O..............O.O.....................................
O..O..............OOO.....................................
O.O.......................................................
OOO.......................................................
..........OOO......OO.....................................
..........O.O......OO.....................................
.........O..O.............................................
.........O.O..............................................
.........OOO..............................................
.OOO......OO..............................................
.O.O......OO..............................................
O..O......................................................
O.O.......................................................
OOO.......................................................
.OO.......................................................
.OO.......................................................
