!Name: x-oscs-new-p020-035
!CSee comments in oscs-new-p001-019.
!C
!C20.1 David Buckingham 21 Jan 96
!C20.2 JS Dec 02
!C21.1 NDE 2 Aug 99
!C21.2 NDE 5 Aug 99
!C21.3 NDE 7 Sep 99
!C21.4 JS, ??
!C22.1 NDE 17 Apr 97
!C22.2 JS 27 Aug 00
!C22.3 NDE 1 Apr 96/27 Aug 00
!C22.4 JS, 8 Sep 05
!C22.5 NB 4 Mar 09
!C24.1 Bill Gosper 21 Mar 96 [*]
!C24.2 NDE 15 Apr 02
!C24.3 KS / GN 17 Oct 02
!C24.4-6 JS '04
!C24.7 JS, 19 Jun 05
!C24.8 JS, 8 May 07
!C25.1 Mark Niemiec 9 Jan 96
!C25.2 David Buckingham Oct 96 (left half) /
!C     NDE 13 Dec 97 (right)
!C25.3 JS / GN 17 Oct 02
!C25.4 JS, 14 May 07
!C27.1 NDE 12 Nov 02
!C27.2 JS, 7 Jan 06
!C27.3 NB, 11 May 10
!C28.1 NDE 22 Apr 97 [*]
!C28.2 JS Jan 04
!C28.3 JS 8 Sep 05
!C28.4 KS 12 Jun 07
!C29.1 JS Sep 03
!C29.2 JS Sep 03
!C30.1 NDE 11 Apr 96
!C30.2 NDE 14 Apr 96
!C30.3 RTW 21 Aug 95
!C30.4 NDE 14 Dec 97
!C30.5 NDE 14 Dec 97/19 Dec 97
!C30.6 NDE 1 Sep 95
!C30.7 David Bell 1 Jun 02
!C30.8 JS Jun 03
!C32.1 Matthias Merzenich, 31 Dec 09
!C33.1 JS 31 Aug 00
!C35.1 JS 20 Mar 02
!
......................................................................................................................................................................................OO..........O...............................................................................................................................................................................................................................................................................................
.......................................................................................................................................................................................O.........O.O..............................................................................................................................................................................................................................................................................................
......................................................................................................................................................................................O....OO....O.O..............................................................................................................................................................................................................................................................................................
............................................................................OO.O....OO...OO................OO...OO................................................................OO.O.OOO..O..O.O.OO.OO........................O..........OO.....................................................................................................................................................................................................................................................
..OO.O......OO.O............OO......O.............O......OO.................O.OO....OO...OO...............O.......O............................................OO.O......O.OO......O.O....OO...OO.O....O.......................O.O.........O...................OO.O......OO.O.....................O...O....................................................OO.O......OO.O...............................................................OO.O......OO.O............................................
..O.OO......O.OO.............O..OO.O.O...........O.O.OO..O......................OO...........................O.O...............................................O.OO......OO.O......O.OO..O..OOO...O.OO.........................O.O....OO....O..................O.OO......O.OO...............OO....O...O....OO..............................................O.OO......O.OO.........................................O.....................O.OO......O.OO............................................
......OO..OO....OO...........O.O.O.O.O...........O.O.O.O.O......................O...OO...OO................OO...OO.................................................OO..OO...........O.O..OOO...O.O.O.OO....................OO.OO.O.O..O..OOO.O.OO..................OO..OO....OO.............O.....O...O.....O..................................................OO..OO....OO......................................O.O........................OO........OO..........................................
......O...O.....O...........OO.O...O.OO.........OO.O.O.O.OO......................O..O.O.O.O........................................................................O....O............OO....O.OO..O.........................O....O.OO...OO....O.O...................O...O.....O...........OO.O...............O.OO...............................................O...O.....O...........................OO.........O...OO...OO.................O.........O.................OO...OO...................
.......O...O.....O.........O..OO.O.OO..O.......O...OOOOO...O....................OO....O.O...........................................................................O..O...............OOOO.....OOOO.OO.O....................OO.O...OOO..O..OO.O....................O...O.....O........O..O.OO.............OO.O..O..............................................O...O.....O.........................O..O........O...OO...OO..................O.........O...........O..O...O.O...O..O..............
......OO..OO....OO........OOO...OOO...OOO......O...........O................OO.O.....OO.O..................OO...OO.................................................OO..OO..............O..O.OO......OO......................OO.O.O.O...OOO..O.O....................OO..OO....OO........OO.O.....OOO...OOO.....O.OO.............................................OO..OO....OO..........................OO.........O...OO......................OO........OO..........O.OO....O.O....OO.O.............
..OO.O....O.....O.........OOO...OOO...OOO..O...O...........O................O.OO.........OO...............OOO...OOO............................................OO.O......O.OO...............O.......O.O...O.........O............O..OO.O....OO.................OO.O......OO.O.............O.....O.O...O.O.....O............................................OO.O....O.....O....................O..................O.O....................OO.O......OO.O............O.O.OO.O...O.OO.O.O.............
..O.OO.....O.....O.........O..OO.O.OO..O...O...O...OOOOO...O..............OO..............O....................................................................O.OO......OO.O...............O.......O.O...O..OO....O.O....O.OO.OOOO.....OOOO...................O.OO......O.OO.............OO....OOO...OOO....OO............................................O.OO.....O.....O..................O.O..................O.....................O.OO......O.OO.............OO...O.....O...OO..............
OO........OO....OO..........OO.O...O.OO....O....OO.O.O.O.OO...............O..............O....................O..............................................OO..............OO........O..O.OO......OO......O..O...O..O......OO......OO.O..O.................OO........OO....OO................................................................................OO..OO....OO.................O...OO..........................................OO..OO................................................
O.........O.....O............O.O.O.O.O...........O.O.O.O.O.................O.............OO...................O..............................................O................O........OOOO.....OOOO.OO.O....O.O....OO..O...O.O.......O......................O.........O.....O............OO.................OO................................................O...O.....O.......OO.........O...OO...OO.....................................O...O.................................................
.O.........O.....O........OOO...OO.O.O...........O.O.OO...OOO.............OO..............O...................O...............................................O..............O.......OO....O.OO..O............O.........O...O.O.......O.......................O.........O.....O..........O..O...............O..O................................................O...O.....O......OO.........O...OO...OO......................................O...O................................................
OO........OO....OO.......O.........O.OO..OO.....OO.O.........O..............OO.O.........O...................................................................OO..............OO.....O.O..OOO...O.O.O.OO......................OO......OO.O..O.................OO........OO....OO..........O.O..O...........O..O.O...............................................OO..OO....OO..................O.O............................................OO..OO................................................
..OO.O......OO.O..........OOO...OO.O.O...O.O.....O.O.OO...OOO...............O.OO.........OO...................OOO..............................................OO.O......O.OO......O.OO..O..OOO...O.OO....................O.OO.OOOO.....OOOO...................OO.O......OO.O.............O...................O............................................OO.O......OO.O.....................O.........................................OO.O......OO.O............................................
..O.OO......O.OO.............O.O.O.O.O....OO.....O.O.O.O.O...............................................OO.OOOOOOO.OO.........................................O.OO......OO.O......O.O....OO...OO.O....O.........................O..OO.O....OO.................O.OO......O.OO..............OO.O...........O.OO.............................................O.OO......O.OO...............................................................O.OO......O.OO............................................
............................OO.O...O.OO....O....OO.O.O.O.OO..............................................O...O.O.O...O............................................................OO.O.OOO..O..O.O.OO.OO....................OO.O.O.O...OOO..O.O..............................................O.............O......................................................................................................................................................................................
...........................O..OO.O.OO..O.......O...OOOOO...O..............................................OOOO...OOOO.................................................................O....OO....O.O.........................OO.O...OOO..O..OO.O..................................................................................................................................................................................................................................................
..........................OOO...OOO...OOO......O...........O................................................O.....O....................................................................O.........O.O.......................O....O.OO...OO....O.O..................................................................................................................................................................................................................................................
..........................OOO...OOO...OOO......O...........O................................................O.....O...................................................................OO..........O........................OO.OO.O.O..O..OOO.O.OO..................................................................................................................................................................................................................OO...O.....O...OO..............
...........................O..OO.O.OO..O.......O...OOOOO...O..........................................OO...OO.....OO...OO......................................................................................................O.O....OO....O.....................................................................................................................................................................................................................O.O.OO.O...O.OO.O.O.............
............................OO.O...O.OO.........OO.O.O.O.OO...........................................O..OOOOO.O.OOOOO..O......................................................................................................O.O.........O...........................................................................OO.........................................................................................................................................O.OO....O.O....OO.O.............
.............................O.O.O.O.O...........O.O.O.O.O.............................................OOO....OOO....OOO........................................................................................................O..........OO.........................................................................O.O..........................................................................................................................................O..O...O.O...O..O..............
.............................O..OO.O.O...........O.O.OO..O...........................................................................................................................................................................................................................................................O..................................................................................................................................................OO...OO...................
............................OO......O.............O......OO..............................................OO.........OO...............................................................................................................................................................................................OOOOOO.......................................................................................................................................................................
.........................................................................................................O...........O..................................................................................................................................................................................................O..O......................................................................O...............................................................................................
...........................................................................................................O.......O.................................................................................................................................................................................................OO...OO.....................................................................O.O..............................................................................................
..........................................................................................................OO.......OO..........................................................................................OO.O..O.OO...........................................................................................O.O........................................................................OO...O.............................................................................................
............................................................................................................................................................................................OO................O..OO..OO..O..........................................................................................O...................................................................OO.OO..OO...O.........OO..................................................................................
.............................................................................................................................................................................................O..OO...........O.O...OO...O.O........................................................................................OO.OO................................................................OO.OO..OO...O.........OO..................................................................................
.............................................................................................................................................................................................O.O..O...........O.OO....OO.O......................................................................................OO..O.OO.........................................................................O.O..............................................................................................
............................................................................................................................................................................................OO.O.O.O.OO.........O.OOOO.O.........................................................................................OO..O..O.OO......................................................................O...............................................................................................
.............................................................................................................OO..............................................................................O.O.O.OO.O........O........O......................................................................................O.......OOO.O......................................................................................................................................................................
............................................................................................................O.O............................................................................O...OOO.............OO.O..O.OO......................................................................................OOOO.....O..O.OO................................................................O..................................................................................................
..............................OO..O......OO..........O..OO..................................................O.............................................................................O.OOO.O.OOOO.............................................................................................................O......OO..O............................................................OOOO.O.................................................................................................
..............................O..O.O.....OO.........O.O..O............................................OO..OO.OOOO.........................................................................O...........O........OOOO..OOOO......................................................................................OOO.O..OO....OO.............................................................OOO.O.O................................................................................................
...............................O.O.O................O.O.O.............................................O..O...O..O..........................................................................OOO.O.O.OOO........O...O..O...O....................................................................................O..O.OO....OO.....................................................................O.O...............................................................................................
..............................OO.O.OO..............OO.O.OO..............................................OO.O.....OO..........................................................................OO.O.OO...........OOO.OO.OOO.....................................................................................OO...O....O..OOO...................................................................O................................................................................................
.............................O...O..O.............O..OO...O..............................................O....OOO..O.............................................................................................O....O............................................................................................OO.O...O..O..................................................................OO................................................................................................
............................O.OOO..O........OOO..OOO...OO..O.............................................O.OO....OO.O................................................................OO..O.........................................................................................................................O..O....OO...................................................................OO................................................................................................
............................O...OO..O.......O.O..OOO..OO.O.O..............................................O...O.O...O................................................................O..O.O.......................O..O...OO......................................................................................O.O..OO........................................................................OO................................................................................................
.............................OOOO..O........OOO..OOO...OO.O................................................OOO...OOO..................................................................O.O.O..............................O........................................................................................................................................................................................................................................................................
.................................O..O.............O..OO......................................................O.O.O...................................................................OO.O.OO...........................O.O.......................................................................................OO...............................................................................................................................................................................
...........................OOOOO.O.OO..............OO.O.OOOOO.........................................O.......OOO...................................................................O...OO...O.........................OO..........................................................................................OOOO...........................................................................................................................................................................
...........................O..O..O.O................O.O..O..O........................................OO........O...................................................................O.OO..OO......O....OOO...OOO....O..............................................................................................O..O............................................................................................................................................................................
................................O..O.....OO.........O..O............................................O.OO........................O..................................................O.O..O.O...O..O....O.O...O.O....O..................................................................................................O..................OO.......................................................................................................................................................
.................................OO......OO..........OO............................................OOO..O...........................................................................OOO..OO......O....OOO...OOO....O...............................................................................................O.O...............OO.O.O.......................................................................................................................................................
.....................................................................................................O.O.O.....OOO......OOO.O.O.OOO.....................................................OO...O.........................OO...........................................................................................................O.O.O.........................................................................................................................................................
......................................................................................................O.O.O....O.O......O.O.....OO.O..............................................OOOOO.O.OO...........................O.O..........................................................................................................O.O..OOOO....OO...............................................................................................................................................
.......................................................................................................O..OOO..OOO......OOO.....O.OO..............................................O..O..O.O..............................O...........................................................................................................O.O.O..O....O.O..............................................................................................................................................
........................................................................................................OO.O.....................OOO.O.................................................O..O.......................O..O...OO....................................................................................OOO.....................O...O.......O.........................................................O....................................................................................
.........................................................................................................OO.............................................................................OO.....................................................................................................................OOO....................O...OOO.....OO.OO.....................................................O.O...................................................................................
.........................................................................................................O.....O...................O.............................................................................O....O........................................................................................O.O.................O....O..O.OO....O..O..............................................OO...OO...O.........OO.......................................................................
..............................................................................................................OOO..........OOO...............................................................OO.O.OO...........OOO.OO.OOO.....................................................................................................O.O..OOO..O....OO.OO.O.O...............................................OO...OO...O.........OO.......................................................................
.............................................................................................................O.O.O.......O.OOO.............................................................OOO.O.O.OOO........O...O..O...O...................................................................................................O.OO...........O....O.OO.....................................................OO...O..................................................................................
...........................................................................................................OOO...OOO....O.O.O.............................................................O...........O........OOOO..OOOO..................................................................OO...................................O....O.O.....OOOO...........................................................O.O...................................................................................
..........................................................................................................O...O.O...O...O..O..............................................................O.OOO.O.OOOO.................................................................................OO.O.O............OOO.................O..O..OOOOOOO....O...........................................O..................O....................................................................................
.........................................................................................................O.OO....OO.O....OO................................................................O...OOO.............OO.O..O.OO............................................................O..O.O..............OO....................O.O........O.O............................................O.O......................................................................................................
..OO.O.....OO...........OO......................OO.......................................................O....OOO..O.........................................................................O.O.O.OO.O........O........O............................................................OO.O.OO...O.O.......OOO...........OOO.......O.O...OO.O.OO....................................OO....O.OO..........OO................................OO.O....OO.O.........................O......O.............
..O.OO......O...........O.O....................O.O......................................................OO.O.....OO.........................................................................OO.O.O.O.OO.........O.OOOO.O..............................................................O.O........O.O....................OO..............O.O..O....................................OO...OO.OO..........OO.....O..........................O.OO....O.OO........................O..O..O..O............
......OO...O..............O....................O......................................................O..O...O..O............................................................................O.O..O...........O.OO....OO.O..........................................................O....OOOOOOO..O..O.................OOO............O.O.OO............................................O.OO................O.O.............................OO......OO...............OO...............O...........
......O....OO........O..O.OO....OO......OO....OO.O..O.................................................OO..OO.OOOO............................................................................O..OO...........O.O...OO...O.O.......................................................OOOO.....O.O....O...................................OO.................................................O.O...............O.OO.............................O.......O.............O.OOOO.OO.OO.OOOO.OO............
.......O.............OOOO....O.O..O....O..O.O....OOOO.......................................................O...............................................................................OO................O..OO..OO..O....................................................OO.O....O...........OO.O....................................................................................O...........OO..OO.OO..........OO..................O.......O...........O..............OO................
......OO...OO............OOO.O..OO......OO..O.OOO...........................................................O.O................................................................................................OO.O..O.OO....................................................O.O.OO.OO....O..OOO..O.O.................................................................................................OO...O.OO..........OO.................OO......OO..........O...O..O..O.......................
..OO.O......O........OOO.....O..............O.....OOO........................................................OO.............................................................................................................................................................O..O....OO.O..O....O.................O.O........................................................................................O.O.........................OO.O....OO.O.............OO.......O.......................
..O.OO.....O........O...O.OO..................OO.O...O......................................................................................................................................................................................................................OO.OO.....OOO...O....................OOO......................................................................O..................O..........................O.OO....O.OO..............................................
OO.........OO.....O..OO.O.O.....O........O.....O.O.OO..O.......................................................................................................................................................................................................................O.......O...O.....................OOO.....................................................................O.O................................................OO......OO............................................
O.................OO.O.OO.O....O.O......O.O....O.OO.O.OO.......................................................................................................................................................................................................................O.O....O..O.O.O.........................................................................................OO...O...............................................O.......O.............................................
.O.........OO........O.O.O.OO..OO........OO..OO.O.O.O...........................................................................................................................................................................................................................OO....OOOO..O.O...................................................................................OO...OO...O.........OO.....................................O.......O............................................
OO..........O........OO..O.O..................O.O..OO.........................................................OO..........................................................................................................................................................................O.O.O...................................................................................OO...OO...O.........OO....................................OO......OO............................................
..OO.O.....O.......OO..O.O.O..................O.O.O..OO.......................................................OO........................................................................................................................................................................O.O.OO...............O.O.........................................................................O.O............................................OO.O....OO.O..................O...........................
..O.OO.....OO.......O.OOOO..OO..............OO..OOOO.O..................................................................................................................................................................................................................................OO..................O.............................................................................O.............................................O.OO....O.OO.........................OO...................
....................O.....O.O................O.O.....O.......................................................................................................................................................................................................................................................O..O.....................................................................................................................................................OOOO.OO.OO..................
...................OO.O.OOO.O................O.OOO.O.OO........................................................O.....................................................................................OO....OO...............................................................................................OOOO.......................................................................................................................................................OO....O...........O........
....................O.O....O..................O....O.O........................................................OOO....................................................................................O.O..O.O...................................................................................................OO......................................................................................................................................................O...........O....OO.......
....................O.O.OOO....................OOO.O.O.......................................................O..O......................................................................................O..O...............O.......................................................................................................................................................................................................................................................OO.OO.OOOO......
.....................OOOO........................OOOO..................................................OO.....OO......................................................................................OO..OO.......O.....O.O...............................................................................OO..O.O.................................................................................................................................................................OO.............
..........................OOO................OOO.......................................................OO............................................................................................OOO..OOO.....O.O.OO..O.O.........................................................................OO....O..O...........................................................................................................................................................................O......
...................OOOOOOO..O................O..OOOOOOO................................................................................................................................................O..O.......O.O.O.OO..O........................................................................O..O...O.OO..................................................................................................................................................................................
...................O..O..O......................O..O..O.............................................................OO...........................................................................................OO.O.O..O.O.........................................................................OOO..O....O...OO.............................................................................................................................................................................
............................................................................................................OO.....O.OO..OO.....................................................................................O...OOOOO..OO...........................................................................OO....OO.O..O.............................................................................................................................................................................
.............................................................................................................O.....O.O...OO.................................................................OO..O...............O.......O.O..........................................................................OO....OO..O.OOO..............................................................................................................................................................................
..............................................................................................................OO....O.......................................................................O..OO.......O.......O.......O.O.........................................................................O..OO......O..................................................................................................................................................................................
...............................................................................................................O.............................................................................OOOOO.....O.O......O...OOOOO..OO.......................................................................OO.O..O.....OOOO....................................................................................O..........OO..................................................................O.......OO.
........................OO.....................OO.....................................................................................................................................................O...O......OO.O.O..O.O...........................................................................O.OOO.......O...................................................................................O.O.........O...................................................................O..O..O...O
........................O.O...................O.O.....................................................................................................................................................O...O.......O.O.O.OO..O..........................................................................OO.O..O..OO..................................................................O..................O.O....OO....O...........................................................OO..............O.
..........................O...................O..............................................................................................................................................OOOOO....O...O.......O.O.OO..O.O..............................................................................OO.O..OO................................................................O.O.............OO.OO.O.O..O..OOO.O.OO...................................................OO.OOOO.OO.OO.OOOO.O..
.....................O..O.OO....OO.....OO....OO.O..O..............................................................OO........................................................................O..OO......O.O.........O.....O.O...............................................................................OO.OO....................................................................O..............O....O.OO...OO....O.O...................................................O...............OO.....
.....................OOOO....O.O..O...O..O.O....OOOO..............................................................OO........................................................................OO..O.......O.................O...................................................................................O......................................................................................OO.O...OOO..O...O.O....................................................O..O..O..O............
.........................OOO.O..OO.....OO..O.OOO............................................................................................................................................................................................................................................................O.O.....................................................................................OO.O.O.O...OO.O...O......................................................O......O.............
.....................OOO.....O.............O.....OOO...................................................................................................................................................................................................................................................OO...OO.....................................................................................O...O.OO.OOOO....OO............................................................................
....................O...O.OO.................OO.O...O..................................................................................................................................................................................................................................................O..O.........................................................................OOO...OOO.....OOO.OO....O...OOOO..............................................................................
..................O..OO.O.O.....O.......O.....O.O.OO..O...................................................................................................................................................OO............................................................................................OOOOOO......................................................................O.O...O.O.....O...OO...O.OO.O..O..............................................................................
..................OO.O.OO.O....O.O.....O.O....O.OO.O.OO...................................................................................................................................................O..................................................................................................O......................................................................OOO...OOO.....O...........O...................................................................................
.....................O.O.O.OO..OO.......OO..OO.O.O.O.......................................................................................................................................................OOO............................................................................................O.O.....................................................................................O...........O...................................................................................
.....................OO..O.O.................O.O..OO.........................................................................................................................................................O............................................................................................OO......................................................................................O...OO...O.OO.O..O..............................................................................
...................OO..O.O.O.................O.O.O..OO.....................................................OO.............OO.............OO.......................................................................................................................................................................................................................................................OOO.OO....O...OOOO..............................................................................
....................O.OOOO..OO.............OO..OOOO.O......................................................OO.......O...O....O...O.......OO........................................................................................................................................................................................................................................................O...O.OO.OOOO....OO............................................................................
....................O.....O.O...............O.O.....O.............................................................OO.OO.O....O.OO.OO.......................................................................................................................................................................................................................................................OOO......OO.O.O.O...OO.O...O...........................................................................
...................OO.O.OOO.O...............O.OOO.O.OO..............................................................O...O....O...O..........................................................................................................................................................................................................................................................OO.......OO.O...OOO..O...O.O..........................................................................
....................O.O....O.................O....O.O.....................................................O.OO............OO............OO.O........................................................................................................................................................................................................................................O......O.......O....O.OO...OO....O.O.......................................OO.................................
....................O.O.OOO...................OOO.O.O.....................................................O.O............................O.O.......................................................................................................................................................................................................................................O.O.............OO.OO.O.O..O..OOO.O.OO...............OO.O......O.OO..........O.................................
.....................OOOO.......................OOOO.......................................................O..............................O.........................................................................................................................................................................................................................................O..................O.O....OO....O...................O.OO......OO.O..........O.O...............................
..........................OOO...............OOO............................................................OO............................OO............................................................................................................................................................................................................................................................O.O.........O........................OO..OO...............OO...............................
...................OOOOOOO..O...............O..OOOOOOO.....................................................OO............................OO.............................................................................................................................................................................................................................................................O..........OO.......................O....O........................OOO.....................
...................O..O..O.....................O..O..O.....................................................OO............................OO..................................................................................................................................................................................................................................................................................................O..O...................OOO...O.O.....................
.................................................................................................................................................................................................OO......OO.................................................................................................................................................................................................................................OO..OO........................OOO.....................
.................................................................................................................................................................................................O......O.O.........OO.......................................................................OO...............................OO........................................................................................................OO.O......O.OO...........OO...............................
..................................................................................................................................................................................................O.O...............O..................................................................OO.....OOO...........................OOO.....OO..................................................................................................O.OO......OO.O..........O.O...............................
......................................................................................................................................................................................................O.O.............O...............................................................O..O..O....O.........................O....O..O..O.....................................................................................................OO........OO........O............O...O................
................................................................................................................OO................OO...............................................................O..O.O.........OOOOO...............................................................O.O..O.OOOO.O.OO.................OO.O.OOOO.O..O.O.....................................................................................................O..........O.......OO............O...O............OO..
................................OO.............................................................................O.O................O.O..............................................................O.O.O.OO.OO....O..................................................................OO.OOOO....O.O.O...................O.O.O....OOOO.OO.....................................................................................................O........O......................O...O............O...
....................OO....O..O..O..............................................................................O....................O...................................................................O....O.......OOOO.............................................................O.O....OO...O.O...................O.O...OO....O.O.....................................................................................................OO........OO....................................O.O...
.....................O..OOOOOO....O......................................................................OO..OO.OOOO............OOOO.OO..OO....................................................O..O......O...........O..O.............................................................O.OOOO....OOO.OO.OO...........OO.OO.OOO....OOOO.O.................................................................................................OO.O......O.OO......................................OO....
.....................O.O......OOOO.O.....................................................................O..O.O.O..O............O..O.O.O..O...................................................O.OO.O.....O..O.......................................................................O.OO.....OO....O....O...........O....O....OO.....OO.O...............................................................................................O.OO......OO.O............................OOO.............
....................OO.OO.O.O.O....O.......................................................................OO.O.OO..OO........OO..OO.O.OO......................................................O..O................................................................................O.O...O.OO..OOO.O.OOO.............OOO.O.OOO..OO.O...O.O........................................................................................................................................O.O...OOO.......
.....................O.O..O..O..O..O.O.OO...................................................................O.OO..OO..O......O..OO..OO.O.......................................................O..O...............OOO....O.........................................................O..O.OO.O..O..O...O.................O...O..O..O.OO.O..O.........................................OO.............................................................................................OOO.............
.....................O.O..O.....O.OO.OO.O...................................................................O.O.OO..OO.O....O.OO..OO.O.O......................................................O.OO.O.......OO.....O.O...O.O.........................................................OO.......OO...............................OO.......OO..........................................O..OO....................................................................................................OO....
....................OO..O.O.OOOO....O........................................................................O....OO...O....O...OO....O........................................................O..O........OO.....OOO...O.O........................................................................O.....................O..........................................................OO.OO...................................................................................................O.O...
......................O.O.OO....OOO.O.OO......................................................................OOO.O.OOO......OOO.O.OOO...................................................................................O.........................................................................O.....................O.............................................................OO.....................................................................................................O...
......................O..O...OOO..OO.OO.O.......................................................................O...O..........O...O...................................................................................................................................................................................................................................................OO.....OOO...OOO.......................................................................................OO..
.......................O.O.OO...O........O............................................................OO....................................OO...........................................................................O..........................................................................................................................................................OO.OO.....O.O...O.O....O.O....................................................................................
........................O.O.O..O..........O..OO......................................................O..O.........O..............O.........O..O................................................O..O........OO.....OOO...O.O........................................................................O.....................O.........................................................O..OO......OOO...OOO....O..O...................................................................................
.........................O..O.O............O..O.................................................OO...OO.O..OO.....O..............O.....OO..O.OO...OO..........................................O.OO.O.......OO.....O.O...O.O.......................................................................O.O...................O.O........................................................OO.........................O...................................................................................
............................O.OO..........OO.O..................................................O..O.O..O.O.O..........................O.O.O..O.O..O...........................................O..O...............OOO....O.................................................................................................................................................................................O..OO..................................................................................
...........................OO................OO..............................................OO.O.OO.O.OO.O..............................O.OO.O.OO.O.OO........................................O..O...............................................................................................OOO...................OOO.....................................................................................OO................................................................................
.............................OO..OO.OO.OO..OO.................................................O.O....OO.O..O............................O..O.OO....O.O........................................O.OO.O.....O..O.............................................................................................OO.....OO........................................................................................O...OO.O...............................................................................
.........................OOOO.......OO.......OOOO............................................O..OO.O.....O..O.....O..............O.....O..O.....O.OO..O........................................O..O......O...........O..O..................................................................................OO...OO................................................................................................OOO.............................................................................
........................O...O.OO..........OO.O...O...........................................O.O............O....O.O............O.O....O............O.O.................................................O....O.......OOOO.........................................................................OOO......O.....O......OOO.................................................................................OOOOO....O............................................................................
......................O..OO.O.O............O.O.OO..O........................................OO.O...OO....O..O...OO.OO..........OO.OO...O..O....OO...O.OO...........................................O.O.O.OO.OO....O...........................................................................................................................................................................O.......O.....O..O.OOOO.............................................................................
......................OO.O....O............O....O.OO.........................................O.O............O....O.O............O.O....O............O.O............................................O..O.O.........OOOOO...........................................................................O.O...................O.O..................................................................O.O.....O.O........O.................................................................................
.........................O.O.O.OO........OO.O.O.O............................................O..OO.O.....O..O.....O..............O.....O..O.....O.OO..O...............................................O.O.............O............................................................................O.....................O....................................................................O.......O..........O.OO.............................................................................
.........................O.O.O.O..........O.O.O.O.............................................O.O....OO.O..O............................O..O.OO....O.O............................................O.O...............O.........................................................................................................................................................................................OO.O.OO.............................................................................
.......................OO....O.O..........O.O....OO..........................................OO.O.OO.O.OO.O..............................O.OO.O.OO.O.OO..........................................O......O.O.........OO........................................................................................................................................................................................O..O................................................................................
........................O.OO.O..OO......OO..O.OO.O..............................................O..O.O..O.O.O..........................O.O.O..O.O..O.............................................OO......OO........................................................................................O.....................O....................................................................................OO.O................................................................................
........................O.O...O.O........O.O...O.O..............................................OO...OO.O..OO.....O..............O.....OO..O.OO...OO...............................................................................................................................................O.....................O......................................................................................O.................................................................................
.......................OO..O.OO.O........O.OO.O..OO..................................................O..O.........O..............O.........O..O.....................................................................................................................................OO.......OO...............................OO.......OO...................................................................OO....................................................................................
........................O.O....O..........O....O.O....................................................OO....................................OO.....................................................................................................................................O..O.OO.O..O..O...O.................O...O..O..O.OO.O..O...................................................................O...O.....O..........................................................................
........................O...OOO............OOO...O..............................................................O...O..........O...O...............................................................................................................................................O.O...O.OO..OOO.O.OOO.............OOO.O.OOO..OO.O...O.O................................................................OOO...OOO...O.O.........................................................................
.........................OO.O................O.OO.............................................................OOO.O.OOO......OOO.O.OOO..............................................................................................................................................O.OO.....OO....O....O...........O....O....OO.....OO.O.................................................................O....O.O.O..OO..........................................................................
..............................OOO........OOO.................................................................O....OO...O....O...OO....O...............................................................................................................................................O.OOOO....OOO.OO.OO...........OO.OO.OOO....OOOO.O....................................................................OOOOO...OOO............................................................................
.......................OOOOOOO..O........O..OOOOOOO.........................................................O.O.OO..OO.O....O.OO..OO.O.O..............................................................................................................................................O.O....OO...O.O...................O.O...OO....O.O.........................................................................O.O...OO..........................................................................
.......................O..O..O..............O..O..O.........................................................O.OO..OO..O......O..OO..OO.O.............................................................................................................................................OO.OOOO....O.O.O...................O.O.O....OOOO.OO.....................................................................OOO....OO..O.........................................................................
...........................................................................................................OO.O.OO..OO........OO..OO.O.OO.............................................................................................................................................O.O..O.OOOO.O.OO.................OO.O.OOOO.O..O.O......................................................................O..OOO....OO.........................................................................
.........................................................................................................O..O.O.O..O............O..O.O.O..O...........................................................................................................................................O..O..O....O.........................O....O..O..O.......................................................................OO.....O.O..........................................................................
.........................................................................................................OO..OO.OOOO............OOOO.OO..OO............................................................................................................................................OO.....OOO...........................OOO.....OO..........................................................................O..O...O..........................................................................
...............................................................................................................O....................O........................................................................................................................................................OO...............................OO................................................................................OOOO.OO...........................................................................
...............................................................................................................O.O................O.O...............................................................................................................................................................................................................................................................................O.............................................................................
................................................................................................................OO................OO..............................................................................................................................................................................................................................................................................O.O.............................................................................
..................................................................................................................................................................................................................................................................................................................................................................................................................OO..............................................................................
........................................................................................................................................................................OO.O....O.OO..............OO.OO...........................................................................................................................................................................................................................................................................................
..................................................................................................................O.OO.OO...............................................O.OO....OO.O...............O.O.O.OO.......................................................................................................................................................................................................................................................................................
.................................................................................................................OO.OO..OO..................................................OO......OO............O..O.O.O...................................................................................................................................................................................OO...................................................................................................
........................................OO.....O.................................................................O..........................................................O........O...........O.OO..O.O.O.........................................................................................OO............OO.......................................................................O.....................................................................................................
........................................O.....O.O.......................................................................OO...................................................O......O............O.........OOO.O.....................................................................................OO............OO..........................................................................O..................................................................................................
.........................................OOO.O..O................................................................OO.....OO..................................................OO......OO............OOO.........OO...........................................................................................................................................................................O...O..OOO.............................................................................................
..................................OO.......O.O.O.OO..............................................................OO.....................................................OO.O......OO................O.O.O..OO...OO......................................................................................................................................................................OOOO...O..................................................................................................
..................................OO.........O.O.O.O.....................................................................O..............................................O.OO.......O..................O.O.O..OO...O..........................................................................................................................................................................O....................................................................................................
..........................O.....................O..O.............................................................OO..OO.OO............................................OO..........O..................OO.O..OO..OO.O...............................................................................................................................................................................................................................................................................
.........................O.O.....................O.OO.............................................................OO.OO.O.............................................O...........OO................O...O.O..O.O.O.....................................................................................OO........OO...............................................................................................................................................................................
.........................O.O......OO....OO..O..OOO.O..................................................O.O.......................O..OO..................................O........OO...................OOO..O..O......O.................................................................................O..O......O..O..............................................................................................................................................................................
......................OO.O.OO....O..O..O..O..O....O..O...................................................O.....................O...OO..OO.............................OO.........O......................OO...O..OOOOO.................................................................................O............O.........................................................................O..O.OO.O..O.........................................................................................
......................O..O....O..O..O..O..O....OO.O.OO...............................................O....O..OO................O.......OO...............................OO.O....O......................O..OOOO.O......................................................................................O............O.........................................................................OOOO.OO.OOOO.........................................................................................
........................O.OOO..O..OO....OO......O.O..................................................OO.O..O.OO.................OOOO....................................O.OO....OO....................O.OO...O.O..OOO......................................................................OO..........O..........O..........OO..............................................................O..O.OO.O..O.........................................................................................
.......................OO.O.....................O.O......................................................OO............................................................................................O..OOO..O....O......................................................................OO.....OOO................OOO.....OO...................................................................................................................................................................
........................O..O.....................O......................................................................................................................................................OO.....O.OO..............................................................................O...O..............O...O.........................................................................................................................................................................
........................O.O.O.O.........OO.........................................................................OOO....................................................................................OOO..O.O...............................................................................O......................O.........................................................................................................................................................................
.........................OO.O.O.O.......OO.........................................................................OO.OO.OOO..............................................................................O..O.O.O................................................................................O....................O..........................................................................................................................................................................
...........................O..O.OOO..................................................................................OOO.OO.OO.............................................................................OOOOO.OO...............................................................................................................................................................................................................................................................................
...........................O.O.....O.......................................................................................OOO..................................................................................O..O..............................................................................................................................................................................................................................................................................
............................O.....OO......................................................................................................................................................................O.OOOO..OO..............................................................................................................................................................................................................................................................................
......................................................................................................................................OO..................................................................OO.O.......................................................................................................................................................................................OO...........................................................................................
.............................................................................................................OOOO.................OO.O..O.OO..........................................................................................................................................................................................................................................................O..OO.......................................................................................
........................................................................................................OO.......O................OO..O....O..........................................................................................................................................................................................................................................................O.O..O......................................................................................
........................................................................................................OO..OO...O.....................O..........................................................................................................................................................O....................O.............................................................................OO.O.O.O.OO..................................................................................
............................................................................................................OO..O.......................O.O......................................................................................................................................................O......................O.............................................................................O.O.O.OO.O..................................................................................
........................................................................................................................O.OO.OO..................................................................................................................................................................O...O..............O...O...........................................................................O...OOO.......................................................................................
.......................................................................................................................OO.OO..OO...........................................................................................................................................................OO.....OOO................OOO.....OO....................................................................O.OOO.O.OOOO...................................................................................
.......................................................................................................................O...................................................................................................................................................................OO..........O..........O..........OO....................................................................O...........O..................................................................................
..............................................................................................................................OO......................................................................................................................................................................O............O................................................................................OOO.O.O.OOO...................................................................................
.......................................................................................................................OO.....OO......................................................................................................................................................................O............O..................................................................................OO.O.OO.....................................................................................
.......................................................................................................................OO..............................................................................................OO.............................................................................O..O......O..O..................................................................OO......OO..................................................................................................
...............................................................................................................................O........................................................................................O..............................................................................OO........OO.................................................................O....O..O....O................................................................................................
.......................................................................................................................OO..OO.OO........................................................................OO............O.............................................................................................................................................................O....O..O....O................................................................................................
........................................................................................................................OO.OO.O..........................................................................O...........O.OOOO.O..O....................................................................................................................................................O....O..O....O................................................................................................
.........................................................................................................................................................................................................O.O.........O....O.OOOO......................................................................................................................................................OO......OO......O...........................................................................................
..........................................................................................................................................................................................................OO..........OOO.O.....OO..................................................................................................................................................................O.O...........................................................................................
........................................................................................................................................................................................................................O...OO..O....................................................................OO............OO................................................................................OO......OO......OO...........................................................................
..OO.O......OO.O....................OO.....OO............................................................................................................................................................................OO.O.O.O..OO................................................................OO............OO......................................................................................O....O..O....O.........................................................................
..O.OO......O.OO...............OO...O.......O...OO................................................................................................................................................O...........OOO............OO.OO..O......................................................................................................................................................................O....O..O....O.........................................................................
......OO........OO............O.O....O.....O....O.O..............................................................................................................................................O.O..........O.O.............O..O.O.......................................................................................................................................................................O....O..O....O.........................................................................
......O.........O...............O.OOO.O...O.OOO.O................................................................................................................................................O.O..........OOO..............OO..OO........................................................................................................................................................................OO......OO...........................................................................
.......O.........O...........OO.O.O...O...O...O.O.OO...........................................................................................................................................OO..OO..............OOO..........O.O.............................................................................................................................................................OO.O.OO...........................................................................................
......OO........OO..............O.....O.O.O.....O.............................................................OO............OO..................................................................O.O..O.............O.O..........O.O...........................................................................................................................................................OOO.O.O.OOO.........................................................................................
..OO.O......OO.O...............O.O..OO.O.O.OO..O.O...........................................................O..O..........O..O................................................................O..OO.OO............OOO...........O...........................................................................................................................................................O...........O........................................................................................
..O.OO......O.OO................O...O..O.O..O...O............................................................O................O................................................................OO..O.O.O.OO...................................................................................................................................................................................OOOO.O.OOO.O........................................................................................
OO........OO................OO........OO.OO........OO........................................................O................O....................................................................O..OO...O......................................................................................................................................................................................OOO...O.........................................................................................
O.........O.............OO..O.......................O..OO....................................................O.O...O....O...O.O...................................................................OO.....O.OOO..........OO...................................................................................................................................................................O.OO.O.O.O...........................................................................................
.O.........O............O.O.O.....OOO.......OOO.....O.O.O.....................................................O.O...O..O...O.O......................................................................OOOO.O....O.........O.O..................................................................................................................................................................OO.O.O.O.OO..........................................................................................
OO........OO..............O.OO....O.O.......O.O....OO.O................................................OO......O....O..O....O......OO...............................................................O..O.OOOO.O...........O......................................................................................................................................................................O..O.O...........................................................................................
..OO.O......OO.O........O.O.O.....OOO.......OOO.....O.O.O.............................................O.O.......OOOO....OOOO.......O.O.......................................................................O............OO..................................OO.O......OO.O......................................................................................................................OO..O...........................................................................................
..O.OO......O.OO........OO..O.......................O..OO.............................................O.O.OO....................OO.O.O.....................................................................O..................................................O.OO......O.OO..........................................................................................................................OO..........................................................................................
............................OO........OO.OO........OO..................................................O.O.O....................O.O.O......................................................................OO.....................................................OO..OO....OO..............OO....................................................................................................................................................................................................
................................O...O..O.O..O...O........................................................O........................O...............................................................................................................................O...O.....O................O....................................................................................................................................................................................................
...............................O.O..OO.O.O.OO..O.O.....................................................O..O......OO..............O..O..............................................................................................................................O...O.....O.............O.............................OO...OO..................................................................................................................................................................
................................O.....O.O.O.....O.........................................................O......OO.......O......O................................................................................................................................OO..OO....OO.............OOOOO........................O..O.O..O.................................................................................................................................................................
.............................OO.O.O...O...O...O.O.OO..................................................O...O.....O.........OO.....O...O........................................................................................................................OO.O......OO.O...................O....................OO...OO...OO...OO.......................................................................OO....................................................................................
................................O.OOO.O...O.OOO.O.....................................................O...O.....OO.........O.....O...O........................................................................................................................O.OO......O.OO.............OOOO.......................O...............O.......................................................................OO....................................................................................
..............................O.O....O.....O....O.O.......................................................O......O.......OO......O.................................................................................OO.......................................OO..............OO...........O..O....................OO.O...............O.OO....................................................................OO....................................................................................
...............................OO...O.......O...OO.....................................................O..O..............OO......O..O..............................................................................OO.......................................O...............O..................................O..O.OO.............OO.O..O...................................................................O....................................................................................
....................................OO.....OO............................................................O........................O..........................................................................................................................O...............O.........................O.......OO.O.....OOO...OOO.....O.OO..................................................................O.O...................................................................................
.......................................................................................................O.O.O....................O.O.O.......................................................................................................................OO..............OO..........O....OOO......O.O.........O.....O.O...O.O.....O................................................................OOO.O.O....................................................................................
......................................................................................................O.O.OO....................OO.O.O........................................................................................................................OO.O......OO.O...........O.O...O.O.......O..........OO....OOO...OOO....OO................................................................OOOO.O.....................................................................................
......................................................................................................O.O.......OOOO....OOOO.......O.O........................................................................................................................O.OO......O.OO...........O.O...OOO.........................................................................................OO..O.............O......................................................................................
.......................................................................................................OO......O....O..O....O......OO............................................................................OO.....................................................................O................................................................................................O..O.O...................OO..............................................................................
..............................................................................................................O.O...O..O...O.O....................................................................................OO......................................................................................................................................................................O.O.O...................O...............................................................................
.............................................................................................................O.O...O....O...O.O...............................................................................O....O....................................................................O................................................................................................OO.O.OO................O.O...............................................................................
.............................................................................................................O................O...............................................................................O...O....................................................................O.O...OOO........................................................................................O...O...O...............OO................................................................................
.............................................................................................................O................O...............................................................................OO.......OOO.............................................................O.O...O.O.......................................................................................O.O.O....O.................................................................................................
.............................................................................................................O..O..........O..O........................................................................................O................................................................O....OOO..........O.....................O......................................................O...OO...O.......OOO.......................................................................................
...........................OO.................................................................................OO............OO...........................................................................................................................................................................OOOO..................O.O......................................................OO.O....O.......O..O......................................................................................
............................O.......................................................................................................................................................................OO.....................O............................................................................O..OO......OOOO.........O...........................................................O...O........OO.......................................................................................
............................O.O.............OOO.....................................................................................................................................................OO.....OO...........O.OO.............................................................O..O...........OO..OO....OOOO.O..............................................................OOOOO.O.OO..................................................................................................
.............................OO...O........O...O..........................................................................................................................................................OO.O...........OO.....OO.......................................................OOOO...........OOO......OO.O..OO.............................................................O..O..O.O..................OO...............................................................................
.................................O.OO......O....O.........................................................................................................................................................O.....................OO.............................................................O........OO.OO.....OO..OO...................................................................O..O.................O..O..............................................................................
................................O....O......OO.O...........................................................................................................................................................................................................................................OOOOO.........OOO.......O.OOO....................................................................OO..................O.O..O..O.........................................................................
.................................O...O........O...OO..........................................................................................................................................................O............................................................................O..............O..........O.........................................................................................OO.O.OOOOO.........................................................................
..................................OOO.............O.O.......................................................................................................................................................OOO.......OO.....................................................................O......................................................................................................OO........O...O...............................................................................
....................................................O.......................................................O..O.................O..O..............................................................................O...O....................................................................OO...................................OO................................................................O..O.......O....O.OO...........................................................................
....................................................OO.........................................................O.................O................................................................................O....O.........................................................................................................O..................................................................OOO.......O...OO...O..........................................................................
...........................................................................................................O....O...............O....O............................................................................OO.....................................................................................O..........O..............O..........................................................................O....O.O.O..........................................................................
...........................................................................................................OO..O.O.............O.O..OO.............................................................................OO..................................................................................OOO.O.......OOO.........OOOOO.........................................................OO...............O...O...O...........................................................................
................................................................................................................O.OO.........OO.O......................................................................................................................................................................OO..OO.....OO.OO........O............................................................O.O................OO.O.OO............................................................................
......................................................................................................................................................................................................................................................................................................OO..O.OO......OOO...........OOOO......................................................O...................O.O.O.............................................................................
.......................................................................................................................................................................................................................................................................................................O.OOOO....OO..OO...........O..O.....................................................OO...................O.O..O............................................................................
................................................................................................................O..O.OOO.....O..O.............................................................................................................................................................O.........OOOO......OO..O............................................................................O.............O..OO............................................................................
................................................................................................................OO...O.........OO................................................................................OO..........................................................................O.O..................OOOO............................................................................O.OOOO..........................................................................................
.....................................................................................................................O.O.........................................................................................OO...........................................................................O.....................O..........OOO....O..........................................................O.O.OOO..........................................................................................
......................................................................................................................OO.......................................................................................................................................................................................................O.O...O.O........................................................O.O...............................................................................................
...............................................................................................................................................................................................................................................................................................................................OOO...O.O.........................................................O................................................................................................
......................................................................................................................OO..............................................................................................................................................................................................................O..........................................................OO...............................................................................................
.....................................................................................................................O.O.........................................................................................................................................................................................................................................................................OO...............................................................................................
........................................................OO......................................................OO...O.........OO.....................................................................................................................................................................................................O..........................................................OO...............................................................................................
.....................................OO................O..O.....................................................O..O.OOO.....O..O..............................................................................................................................................................................................OOO...O.O..........................................................................................................................................................
......................................O................OO.O.............................................................................................................................................................................................................................OO....OOO...OOO....OO..........O.......O.O...O.O..........................................................................................................................................................
......................................O.O....OOO.....O..OO..............................................................................................................................................................................................................................O.....O.O...O.O.....O.........O.O......OOO....O...........................................................................................................................................................
.......................................OO....O.O....O...........................................................O.OO.........OO.O....................................................................................................................................................OO.O.....OOO...OOO.....O.OO.......O..........................................................................................................................................................................
............................................O...O...O...O..................................................OO..O.O.............O.O..OO...............................................................................................................................................O..O.OO.............OO.O..O..................................................................................................................................................................................
............................................O...O...O...O..................................................O....O...............O....O.................................................................................................................................................OO.O...............O.OO....................O..O............................................................................................................................................................
................................................O....O.O....OO.................................................O.................O........................................................................................................................................................O...............O.......................OOOO............................................................................................................................................................
.................................O.........OO..O.....OOO....O.O.............................................O..O.................O..O.....................................................................................................................................................OO...OO...OO...OO....................O..................................................................................................................................................................
................................O.O.......O.OO................O...............................................................................................................................................................................................................................O..O.O..O........................OOOOO..............................................................................................................................................................
................................O.O.......O..O................OO...............................................................................................................................................................................................................................OO...OO.............................O..............................................................................................................................................................
..............................OOO.OO.......OO....................................................................................................................................................................................................................................................................................O................................................................................................................................................................
.............................O....O..............................................................................................................................................................................................................................................................................................OO...............................................................................................................................................................
..............................OOO..O..............................................................................................................................................................................................................................................................................................................................................................................................................................................................
................................O..O..............................................................................................................................................................................................................................................................................................................................................................................................................................................................
..........................................OO......................................................................................................................................................................................................................................................................................................................................................................................................................................................
..........................................O.O.....................................................................................................................................................................................................................................................................................................................................................................................................................................................
............................................O.....................................................................................................................................................................................................................................................................................................................................................................................................................................................
..........................................OOO.....................................................................................................................................................................................................................................................................................................................................................................................................................................................
......................................OO.......OO.O...............................................................................................................................................................................................................................................................................................................................................................................................................................................
...............................................OO.OOO.............................................................................................................................................................................................................................................................................................................................................................................................................................................
.....................................................O............................................................................................................................................................................................................................................................................................................................................................................................................................................
...............................................OO.OOO...........................................................................................................................................................................................................................................OO...OO...................OO...OO.................................................................................................................................................................
...................OO.......O...................O.O............................................................................................................................................................................................................................................O..O.O..O.................O..O.O..O................................................................................................................................................................
....................O........O..O...............O.O........................................................................................................................................................................................................................................OO...OO...OO...OO.........OO...OO...OO...OO............................................................................................................................................................
....................O.O....O....O....OO..........O.........................................................................................................................................................................................................................................O...............O.........O...............O............................................................................................................................................................
.....................OO.............O..O................................................................................................................................................................................................................................................OO.O...............O.OO...OO.O...............O.OO.........................................................................................................................................................
..........................O........OO.OO..............................................................................................................................................................................................................................................O..O.OO.............OO.O.....O.OO.............OO.O..O.......................................................................................................................................................
.........................OO.OO........O...............................................................................................................................................................................................................................................OO.O.....OOO...OOO.....O..O..O.....OOO...OOO.....O.OO.......................................................................................................................................................
.........................O..O.............OO.............................................................................................................................................................................................................................................O.....O.O...O.O.....O.O.O.O.....O.O...O.O.....O..........................................................................................................................................................
..........................OO....O....O....O.O............................................................................................................................................................................................................................................OO....OOO...OOO....OO.O.O.OO....OOO...OOO....OO..........................................................................................................................................................
................................O..O........O...................................................................................................................................................................................................................................................................O.................................................................................................................................................................................
....................................O.......OO....................................................................................................................................................................................................................................................................................................................................................................................................................................................
............................................................................................................................................................................................................................................................................................................O.......O.............................................................................................................................................................................
...........................................................................................................................................................................................................................................................................................................O.O.....O.O............................................................................................................................................................................
............................................................................................................................................................................................................................................................................................................O.......O.............................................................................................................................................................................
...............................................................................................................................................................................................................................................................................................O.................................O................................................................................................................................................................
..............................................................................................................................................................................................................................................................................................O.O...............................O.O...............................................................................................................................................................
...............................................................................................................................................................................................................................................................................................O.................................O................................................................................................................................................................
.......................................................................................................................................................................................................................................................................................................O....OO.....OO....O........................................................................................................................................................................
......................................................................................................................................................................................................................................................................................................O.O...OOO...OOO...O.O.......................................................................................................................................................................
.......................................................................................................................................................................................................................................................................................................O....OO.....OO....O........................................................................................................................................................................
.............................................................................................................................................................................................................................................................................................OO..OO...........................OO..OO..............................................................................................................................................................
................................OO.............OO............................................................................................................................................................................................................................................O..O.O...........................O.O..O..............................................................................................................................................................
................................O...............O..............................................................................................................................................................................................................................................OO...............................OO................................................................................................................................................................
.................................OOO.........OOO................................................................................................................................................................................................................................................O...............................O.................................................................................................................................................................
...................................O.........O..................................................................................................................................................................................................................................................O.O...........................O.O.................................................................................................................................................................
.................................................................................................................................................................................................................................................................................................OO...........................OO..................................................................................................................................................................
......................................O...O............................................................................................................................................................................................................................................................O....OO.....OO....O........................................................................................................................................................................
.....................................O.O.O.O..........................................................................................................................................................................................................................................................O.O...OOO...OOO...O.O.......................................................................................................................................................................
.................................OOO.O.O.O.O.OOO.......................................................................................................................................................................................................................................................O....OO.....OO....O........................................................................................................................................................................
......................................O...O....................................................................................................................................................................................................................................................O.................................O................................................................................................................................................................
..............................................................................................................................................................................................................................................................................................O.O...............................O.O...............................................................................................................................................................
...............................................................................................................................................................................................................................................................................................O.................................O................................................................................................................................................................
............................................................................................................................................................................................................................................................................................................O.......O.............................................................................................................................................................................
...................................O.........O.............................................................................................................................................................................................................................................................O.O.....O.O............................................................................................................................................................................
.................................OOO.........OOO............................................................................................................................................................................................................................................................O.......O.............................................................................................................................................................................
................................O...............O.................................................................................................................................................................................................................................................................................................................................................................................................................................................
................................OO.............OO.................................................................................................................................................................................................................................................................................................................................................................................................................................................
................................................................................................................................................................................................................................................................................................................O.................................................................................................................................................................................
.........................................................................................................................................................................................................................................................................................OO....OOO...OOO....OO.O.O.OO....OOO...OOO....OO..........................................................................................................................................................
.........................................................................................................................................................................................................................................................................................O.....O.O...O.O.....O.O.O.O.....O.O...O.O.....O..........................................................................................................................................................
......................................................................................................................................................................................................................................................................................OO.O.....OOO...OOO.....O..O..O.....OOO...OOO.....O.OO.......................................................................................................................................................
......................................................................................................................................................................................................................................................................................O..O.OO.............OO.O.....O.OO.............OO.O..O.......................................................................................................................................................
........................................................................................................................................................................................................................................................................................OO.O...............O.OO...OO.O...............O.OO.........................................................................................................................................................
...........................................................................................................................................................................................................................................................................................O...............O.........O...............O............................................................................................................................................................
...........................................................................................................................................................................................................................................................................................OO...OO...OO...OO.........OO...OO...OO...OO............................................................................................................................................................
..........................................OO...................................................................................................................................................................................................................................................O..O.O..O.................O..O.O..O................................................................................................................................................................
.........................................O.O....................................................................................................................................................................................................................................................OO...OO...................OO...OO.................................................................................................................................................................
.................................O.....O....O.....................................................................................................................................................................................................................................................................................................................................................................................................................................................
...............................OO.OO..OO.O.O......................................................................................................................................................................................................................................................................................................................................................................................................................................................
...............................O.......O...O......................................................................................................................................................................................................................................................................................................................................................................................................................................................
................................O.O...............................................................................................................................................................................................................................................................................................................................................................................................................................................................
.................................OOO.......O......................................................................................................................................................................................................................................................................................................................................................................................................................................................
..................................O.......OOO.....................................................................................................................................................................................................................................................................................................................................................................................................................................................
...........................................O.O....................................................................................................................................................................................................................................................................................................................................................................................................................................................
..................................O...O.......O...................................................................................................................................................................................................................................................................................................................................................................................................................................................
..................................O.O.OO..OO.OO...................................................................................................................................................................................................................................................................................................................................................................................................................................................
.................................O....O.....O.....................................................................................................................................................................................................................................................................................................................................................................................................................................................
..................................O.O.............................................................................................................................................................................................................................................................................................................................................................................................................................................................
..................................OO..............................................................................................................................................................................................................................................................................................................................................................................................................................................................
