!Name: 128P10.2
!Author: Nicolay Beluchenko, 26 March 2009
!http://conwaylife.com/wiki/128P10.2
!http://conwaylife.com/patterns/128p102.rle
!
.............OO.....OO.............
.............O.O...O.O.............
............O..O...O..O............
.............O.O...O.O.............
..............O.O.O.O..............
..............O.O.O.O..............
..............OO...OO..............
.....O......OO.......OO......O.....
OO....O.....OO.......OO.....O....OO
O......OOO...............OOO......O
.O...OO..O...............O..OO...O.
.......OO.................OO.......
.......OO.................OO.......
.O...OO..O...............O..OO...O.
O......OOO...............OOO......O
OO....O.....OO.......OO.....O....OO
.....O......OO.......OO......O.....
..............OO...OO..............
..............O.O.O.O..............
..............O.O.O.O..............
.............O.O...O.O.............
............O..O...O..O............
.............O.O...O.O.............
.............OO.....OO.............
