!Name: 21P2_synth
!Author: Tanner Jacobi
!Glider synthesis of 21P2
!http://conwaylife.com/wiki/21P2
!
..........................................O.O...................................................................
...........................................OO...................................................................
...........................................O......O.............................................................
................................................OO..............................................................
.................................................OO.............................................................
...................................................................OO..................OO..................OO...
...................................................................OO..................OO..................OO...
.....................................................................OO..................OO..................OO.
.........................OO..................OO....O.O...........OOOOO.O.............OOOOO.O.............OOOOO.O
.....OO..................O.O.................O.O...OO............O.....O.............O.....O.............O.....O
OOO.OO....................OO..................OO....O.............O.OOO...............O.OOO.................OOO.
..O...O............................................................OO..................OO...................O...
.O..................................................OOO.............................OO..........................
......................................................O............................O.O..........................
..OO.................................................O...............................O..........................
..O.O...........................................................................................................
..O.............................................................................................................
