!Name: 22p2_synth.rle
!Author: Bob Shemyakin, 18 May 2016
!5-glider synthesis of 22P2
!http://conwaylife.com/wiki/22P2
!http://conwaylife.com/forums/viewtopic.php?p=31110#p31110
!
..O..........................................................
O.O..........................................................
.OO..........................................................
..............O..............................................
............OO...............................................
.............OO..............................................
......................................................OO.O...
.....................................................O.O.OOO.
.O...................................................O......O
..OO..................................................OOOOO.O
.OO........................................................O.
........................................................O....
........................................................OO...
.OO..........................................................
..OO.....OO..................................................
.O......OO...................................................
..........O..................................................
