!Name: 88p25.rle
!http://conwaylife.com/wiki/98P25
!http://conwaylife.com/patterns/88p25.rle
!
....OO....OO.........OO.........
....O.O..O.O.........OO.........
......O..O......................
.....O....O.....................
.....OO..OO.....................
.......OO.....................OO
..............................O.
OO..........................O.O.
.O..........................OO..
.O.O..................OOO.......
..OO................OO.OO.......
.........O............O.........
.......OO.OO................OO..
.......OOO..................O.O.
..OO..........................O.
.O.O..........................OO
.O..............................
OO.....................OO.......
.....................OO..OO.....
.....................O....O.....
......................O..O......
.........OO.........O.O..O.O....
.........OO.........OO....OO....
