!Name: beluchenkosp37.rle
!Author: Nicolay Beluchenko, April 2009
!The first period 37 oscillator to be found.  Also called 124P37.
!http://conwaylife.com/wiki/Beluchenko%27s_p37
!http://www.conwaylife.com/patterns/beluchenkosp37.rle
!
...........OO...........OO...........
...........OO...........OO...........
......O.......................O......
.....O.O.....O.........O.....O.O.....
....O..O.....O.OO...OO.O.....O..O....
.....OO..........O.O..........OO.....
...............O.O.O.O...............
................O...O................
OO.................................OO
OO.................................OO
.....OO.......................OO.....
......O.O...................O.O......
......O..O.................O..O......
.......OO...................OO.......
.......OO...................OO.......
......O..O.................O..O......
......O.O...................O.O......
.....OO.......................OO.....
OO.................................OO
OO.................................OO
................O...O................
...............O.O.O.O...............
.....OO..........O.O..........OO.....
....O..O.....O.OO...OO.O.....O..O....
.....O.O.....O.........O.....O.O.....
......O.......................O......
...........OO...........OO...........
...........OO...........OO...........
