!Name: failed-rake-c3-p30
!C This pattern is very close to functioning as a period-30 rake.
!C Perhaps an alternative sparker can be found to allow the glider
!C to escape.
!C Matthias Merzenich, 22 Aug 2017
!Source: jslife-moving
!
...........................O..........OOO...................
.......................OOO.OOO......OO.O..O...OO.O..........
......................O......OO......O.O.OO.OO.O..O.........
.......................O.O.O...O..OO.OO..O.O...O..OO..OO.O..
.............................O.O..O.O...O...O.O.OOO.O.OO.OO.
..................OO....OO.....OO.O.O.O...O.........O.O.O..O
.................O.OO..OO....OO.O.O...O.OOOO.......O......O.
.................O.OO..OOO.OO...........O...................
.................OO.O.O.O.O....O..OOO.O...O.O...............
.................O............O......O..OO...OO.OO.OOO......
.............OOO............OO.O..O.......O...O..OO.OO......
............O..................OOOO....O...O..O....OOO......
.............O..OO........OO...OO......OO.....OOOO....OO.OO.
...............O.O........O.O..O.............OOO.....O...OO.
.................O..OOOO..O........................OOO.O...O
.................O........O.......................OO.O......
.....................OO..........................O...O......
................OOOOOOOOOOOO................................
...............OO..........OO...............................
.....................OO.....................................
.............................O...........O..................
.OOO.........OOO...OOOOOO...OOO.........OOO.................
.O.O.........O.O............O..O.......O..O.................
O...OO.....OO...O...........OO.OO.....OO.OO.................
O...............O...........OO.OO..O..OO.OO.................
O.....O...O.....O...........O...O..O..O...O.................
.O.OOO.OOO.OOO.O.............O.....O.....O..................
.OO...........OO.............O...........O..................
..OO.........OO...............O.O.....O.O...................
...O.O.....O.O................OOO.....OOO...................
...O.O.....O.O................OOO..O..OOO...................
...O....O....O..................O.O.O.O.....................
.....O.O.O.O....................O.O.O.O.....................
....OO.O.O.OO..................O..O.O..O....................
....O..O.O..O.................O.OO...OO.O...................
...O.OO...OO.O................O.........O...................
....OOO...OOO....................O...O......................
...OO.......OO................OO.......OO...................
...OO.O...O.OO...............O.OOO...OOO.O..................
.O....OO.OO....O............OOO..OO.OO..OOO.................
.O....OO.OO....O.............O.O.......O.O..................
.O..O.......O..O..............O.OOO.OOO.O...................
...OOOOO.OOOOO...................O...O......................
....O.......O...................OOO.OOO.....................
..OOO..O.O..OOO.............OOOO.O...O.OOOO.................
.O.....O.O.....O............OOOOO.....OOOOO.................
.O.............O...............O.......O....................
..O.OO.....OO.O.............................................
..OO.........OO.............OOO.........OOO.................
..O...........O.............................................
.O.O.........O.O.............O...........O..................
............................O.............O.................
.OO...........OO............O.............O.................
