!Name: Fly on 60P3H1V0.3
!Author: Dean Hickerson and David Bell
!The fly tagalong attached to the back of a 60P3H1V0.3.
!www.conwaylife.com/wiki/index.php?title=Fly
!
...O..............................
..O.O.............................
..O.O.............................
..O...............................
.OO...............................
..O.O.............................
.O.O..............................
.OOO..............................
..O.O.............................
..OO..............................
...O..............................
...O.O............................
...OO.............................
.OOO......................O.O...O.
O.O......................OO.O.O..O
O..O.......OOO........O.........O.
O.OO.......OO..O.OO...O..OOOO.....
...O.........OOOO..O.O..OO....OO..
O..O.......O..O...OOO.....OOO.....
.OO.......O....O..OO..OO..O..O....
..O...O...O....O..OOO.O.O....OO...
...OO..O.OO....O..OOOO.....O......
...OO....OO....O..OOOO.....O......
....O.....O....O..OOO.O.O....OO...
...OO.....O....O..OO..OO..O..O....
..O...O....O..O...OOO.....OOO.....
.OO.OO.......OOOO..O.O..OO....OO..
..O........OO..O.OO...O..OOOO.....
..OO.......OOO........O.........O.
...O.....................OO.O.O..O
....O.....................O.O...O.
