!Name: Jason's p36
!Author: Jason Summers
!http://conwaylife.com/wiki/Jason%27s_p36
!http://conwaylife.com/patterns/jsp36.rle
!
..........................OO...........
OO.......................O..O..........
.O.....................O..O.O..........
.O.O..................O....O...........
..OO..................O................
.............OOO........OOO............
.............O.........................
.............O.O.......................
..............OO.......................
.......................OO..............
.......................O.O.............
.........................O.............
............OOO........OOO.............
................O..................OO..
...........O....O..................O.O.
..........O.O..O.....................O.
..........O..O.......................OO
...........OO..........................
