!Name: longshillelagh_synth.rle
!Author: Bob Shemyakin, 28 June 2014
!4-glider synthesis of long shillelagh
!http://conwaylife.com/wiki/Long_shillelagh
!http://conwaylife.com/forums/viewtopic.php?p=12406#p12406
!
........O.................
......OO..................
.......OO.................
..O...O...................
O.O..O....................
.OO..OOO............OO..OO
....................O..O.O
.....................OO...
............OO............
...........OO.............
.............O............
