!Name: make-p33
!CSynthesis of p33 oscillator from 68 gliders.
!Cby Jason Summers and Mark Niemiec, 2/2001
!C
!
................................O....................................................................................................................
.................................OO...............................................................................O..................................
................................OO..............................................................................OO...................................
.................................................................................................................OO..................................
.........................................O...........................................................................................................
..........................................O..........................................................................................................
........................................OOO..........................................................................................................
..............................O.O............................................................O.O.....................................................
...............................OO...........O.O..............................................OO...................O.O................................
...............................O.............OO...............................................O.............O.....OO.................................
.............................................O............................................................OO.......O.................................
...........................................................................................................OO........................................
.............................O.......................................................................................................................
..............................OO.....................................................................................O...............................
.............................OO....................................................................................OO................................
....................................................................................................................OO...............................
..............................O......................................................................................................................
...............................O....................................................................................O................................
.............................OOO...................................................................................O.................................
...................................................................................................................OOO...............................
...........................................................................................................................O.....O.O.................
..................................O........................................................................................O.O...OO........O.........
..................O.O.....O........OO......................................................................................OO.....O......OO..........
..........O........OO...O.O.......OO......................................................................................................OO......O.O
...........OO......O.....OO.......................................................................................................................OO.
.O.O......OO........................................................................................................O.O............................O.
..OO................................................................................................................OO...............................
..O..................................................................................................................O...............................
...........O.O...............................................................................................................................O.......
............OO...............................................................................................................................O.O.....
............O................................................................................................................................OO......
................................................................O.........................................................................O..........
.................................................................OO........................O............................................OO...........
................................................................OO.........................O.O...........................................OO..........
...........................................................................................OO........................................................
.............................................................................O.......................................................................
..............................................................................OO.....................................................................
.............................................................................OO......................................................................
.........O...........................................................................................................................................
..........OO.........................................................................................................................................
.........OO...................................O....................................O.................................................................
...............................................O..................................O..................................................................
.............................................OOO..................................OOO................................................................
.........................................................O............................................O.O............................................
.......................................................O.O............................................OO.............................................
........................................................OO.............................................O.............................................
...................................................O.................................................................................................
...................................................OO................................................................................................
..................................................O.O................................................................................................
................................................................................................O.O..................................................
................................................................................................OO...................................................
.................................................................................................O...................................................
.............................................O.............................................OO........................................................
.............................................OO............................................O.O.......................................................
............................................O.O............................................O.........................................................
................................................................OOO..................................OOO.............................................
..................................................................O..................................O...............................................
.................................................................O....................................O...................................OO.........
.........................................................................................................................................OO..........
...........................................................................................................................................O.........
......................................................................OO.............................................................................
.....................................................................OO..............................................................................
.......................................................................O.............................................................................
........................................................OO...........................................................................................
..........OO...........................................O.O.........................OO................................................................
...........OO............................................O........................OO.................................................................
..........O.........................................................................O................................................................
......OO................................................................................................................................O............
.....O.O...............................................................................................................................OO............
.......O...............................................................................................................................O.O...........
...............................O..................................................................................................................O..
...............................OO................................................................................................................OO..
.O............................O.O........................................................................................................OO......O.O.
.OO.......................................................................................................................OO.....O......OO...........
O.O......OO......................................................................................................OO.......O.O...OO........O..........
..........OO......O.....OO......................................................................................OO........O.....O.O..................
.........O........OO...O.O........................................................................................O..................................
.................O.O.....O...........................................................................................................................
...............................OOO...................................................................................................................
.................................O...................................................................................OOO.............................
................................O....................................................................................O...............................
......................................................................................................................O..............................
...............................OO....................................................................................................................
................................OO....................................................................................OO.............................
...............................O.....................................................................................OO..............................
.......................................................................................................................O.............................
........................................OO...........................................................................................................
.................................O.......OO............................................................O.............................................
.................................OO.....O.............O...............................................OO.............O...............................
................................O.O...................OO..............................................O.O...........OO...............................
.....................................................O.O............................................................O.O..............................
..........................................................................................................OOO........................................
..........................................................................................................O..........................................
...........................................................................................................O.........................................
..................................OO.................................................................................................................
...................................OO..............................................................................OO................................
..................................O...............................................................................OO.................................
....................................................................................................................O................................
