!Name: p110
!Source: 2c5puff
!
...........................................................................O................O................................................................
..........................................................................OOO..............OOO...............................................................
..........................................................................O..O............O..O...............................................................
...........................................................................OOO............OOO................................................................
..........................................................................O..................O...............................................................
.........................................................................OO.OOOOO......OOOOO.OO..............................................................
.........................................................................OO.OO...O....O...OO.OO..............................................................
...............................................................................O..O..O..O....................................................................
..............................................................................O..O....O..O...................................................................
............................................................................O.O.OO....OO.O.O.................................................................
............................................................................O..............O.................................................................
.................................................................................O....O......................................................................
.................................................................................O....O......................................................................
.............................................................................O.OO......OO.O..................................................................
............................................................................OO.O........O.OO.................................................................
.............................................................................OO..........OO..................................................................
.............................................................................OO..........OO..................................................................
.............................................................................OOO.O....O.OOO..................................................................
.............................................................................O...OOOOOO...O..................................................................
.............................................................................OOO.O....O.OOO..................................................................
..............................................................................O.O.OOOO.O.O...................................................................
...............................................................................O........O....................................................................
...............................................................................OOOOOOOOOO....................................................................
...............................................................................O........O....................................................................
................................................................................O.O..O.O.....................................................................
..................................................................................O..O.......................................................................
...............................................................................OO......OO....................................................................
.................................................................................O....O......................................................................
..............................................................................O..........O...................................................................
...............................................................................OOO.OO.OOO....................................................................
...............................................................................OOO....OOO....................................................................
...............................................................................O........O....................................................................
...............................................................................OO......OO....................................................................
.............................................................................OO..........OO..................................................................
.............................................................................OO...O..O...OO..................................................................
..............................................................................O..........O...................................................................
............................................................................O.O.OO....OO.O.O.................................................................
...........................................................................OO.OO........OO.OO................................................................
...........................................................................O..OOO......OOO..O................................................................
..........................................................................O.OO.OO......OO.OO.O...............................................................
..........................................................................O.O.O.O......O.O.O.O...............................................................
.........................................................................OO.O.O..........O.O.OO..............................................................
................................................................................OO....OO.....................................................................
...........................................................................O......O..O......O................................................................
.........................................................................OO...OO.OO..OO.OO...OO..............................................................
..............................................................................OOO......OOO...................................................................
..............................................................OOO............................................................................................
..............................................................O.O..............OOO...........................................................................
.........................................................O....O..O..............O........O...................................................................
........................................................O.O...O......OOO.................O...................................................................
.......................................................OO.OO..O..O..O...O........O....O.O....................................................................
.......................................................O..O...O.OOOO....OO.......OO....O.....................................................................
.....................................................OO.OO....O...O....OO.......O.O..........................................................................
......................................................OO.......O...O...OO....................................................................................
.......................................................OO............O......OO...O...........................................................................
........................................................O.............O....O.OO..OOO.........................................................................
.....................................................OO.....O..............O.O....O..........................................................................
......................................................OOO.....................OOOO...........................................................................
.........................................................O.O..................OOO............................................................................
...........................................................................O.O...............................................................................
...........................................................................OOO.OO............................................................................
..............................................................................OOO............................................................................
.............................................................................O..O............................................................................
...........................................................................OOO...............................................................................
............................................................................O.O..............................................................................
............................................................................O..O.............................................................................
...............................................................................O.............................................................................
............................................................................OOO..................O...........................................................
....................................................................................O...........O.O..........................................................
....................................................................................OO..........O..O.........................................................
...................................................................................O.O...........OO..........................................................
............................................................................................O................................................................
...........................................................................................O...O.............................................................
............................................................................................O...O............................................................
....................................................................................OOO.O....OO.O............................................................
....................................................................................O............O...........................................................
..................................................................................O..O....OO....O............................................................
....................................................................................O...O....................................................................
......................................................................................OO...O.................................................................
...........................................................................O............OO.OO................................................................
...........................................................................O........O.O...OOO................................................................
...........................................................................O.....OOOO.....O..................................................................
......................................................................................O...O..................................................................
.............................................................................OOO...OOOOO.O...................................................................
........................................................................................O....................................................................
............................................................................................OO...............................................................
...........................................................................................O.O...............................................................
............................................................................................O................................................................
.................................................................................OO....OOO...................................................................
.................................................................................O....OO.OOO.................................................................
...........................................................................................O.................................................................
.......................................................................................OO.OO.................................................................
.......................................................................................OOO...................................................................
...................................................................................O.........................................................................
...................................................................................O...............OOO.......................................................
........................................................OO...........................................O.......................................................
.......................................................OO...........................................O........................................................
.........................................................O...................................................................................................
............................................................................OOO..............................................................................
.................................................................................................OOO.........................................................
................................................................................O............................................................................
...............................................................................OOOO............................................OO............................
.............................O................................................O..OOO..........................................O.O............................
............................OO.................................................OOO.OO...........................................O............................
............................O.O.................................................OO.O...O.....................................................................
.................................................................................OO.O...OOOO.................................................................
...................................................................................OOO.OO...O................................................................
....................................................................................OO...OOO.................................................................
..........................................................................................O..................................................................
.................................................................................OO..........................................................................
................................................................................O.O..........................................................................
................................................................................OO...........................................................................
............................................................................................OO...............................................................
...........................................................................................O.O...............................................................
............................................................................................O................................................................
..........................................................................................................................................................OOO
.OO.............................................................................O...........................................................................O
OO..............................................................................O..........................................................................O.
..O.............................................................................O............................................................................
...........................................................................................OO................................................................
..........................................................................................O..O...............................................................
..........................................................................................O..O...............................................................
...........................................................................................OO................................................................
............................................................................OOO..............................................................................
..........................................................................O..................................................................................
..........................................................................O..................................................................................
..........................................................................O..................................................................................
.....................................................................................OOO.........OOO.........................................................
............................................................................................OO...............................................................
...........................................................................................O.O...............................................................
............................................................................................O................................................................
................................................................................O............................................................................
................................................................................O............................................................................
................................................................................O............................................................................
...........................................................................................OO................................................................
..........................................................................................O..O...............................................................
..........................................................................................O..O...............................................................
...........................................................................................OO................................................................
............................................................................OOO..............................................................................
..........................................................................O..................................................................................
..........................................................................O..................................................................................
..........................................................................O..................................................................................
.....................................................................................OOO.........OOO.........................................................
