!Name: p140
!Source: 2c5puff
!
.....................................................O.O.......................................................................................................
..................................................O....O.......................................................................................................
.................................................OOO....O......................................................................................................
................................................O.O............................................................................................................
...............................................OO..OO....O.....................................................................................................
................................................OO..OOOOO......................................................................................................
................................................OO..OOOOO......................................................................................................
...............................................OO..OO....O.....................................................................................................
................................................O.O............................................................................................................
.................................................OOO....O......................................................................................................
..................................................O....O...............................OOO.....................................................OOO.............
.....OO...................................O..O.......O.O......................OO.O..............O.......................................................O......
.OO.OOO.................................OOO..O............................OO..OO...O.......O....O..................................................O....O......
OO.O..................................OO....O.............................OOO..O...O.......O....O..................................O...............O....O......
.O.O.OO..OO...O......................OO.OOO...............................OOO....OO........O......................................O.O..............O...........
..OO.OO......OOOOOOO..............OO....O.............OOO........O................................................................O.O..........................
.....O..OO.....OOO.OO.......O.....OOOOOO.OO..OO...O....OO........O.....................OOO.........................................O...........OOO.............
.....O.O.....OO..O.O.OOO..O..O.OOO....OOO....OO......O...O......O..............................................................................................
.....O...O...O......O.O.O.O..O.O.O...O.OOO.O..O.....O.OO.O.....................................................................................................
......O.OO.OO....OOO..O....O.O.O.....O.....O.O.....OO.OOO.................OO...................................................................................
.......O..........O.O.O.OO.........O........OO............................OO...................................................................................
..................O.O.O......O..............................OO.......................................OO......................................................OO
..................O.O.O......O..............................OO.......................................OO......................................................OO
.......O..........O.O.O.OO.........O........OO............................OO...................................................................................
......O.OO.OO....OOO..O....O.O.O.....O.....O.O.....OO.OOO.................OO...................................................................................
.....O...O...O......O.O.O.O..O.O.O...O.OOO.O..O.....O.OO.O.....................................................................................................
.....O.O.....OO..O.O.OOO..O..O.OOO....OOO....OO......O...O......O..............................................................................................
.....O..OO.....OOO.OO.......O.....OOOOOO.OO..OO...O....OO........O.....................OOO.........................................O...........OOO.............
..OO.OO......OOOOOOO..............OO....O.............OOO........O................................................................O.O..........................
.O.O.OO..OO...O......................OO.OOO...............................OOO....OO........O......................................O.O..............O...........
OO.O..................................OO....O.............................OOO..O...O.......O....O..................................O...............O....O......
.OO.OOO.................................OOO..O............................OO..OO...O.......O....O..................................................O....O......
.....OO...................................O..O.......O.O......................OO.O..............O.......................................................O......
..................................................O....O...............................OOO.....................................................OOO.............
.................................................OOO....O......................................................................................................
................................................O.O............................................................................................................
...............................................OO..OO....O.....................................................................................................
................................................OO..OOOOO......................................................................................................
................................................OO..OOOOO......................................................................................................
...............................................OO..OO....O.....................................................................................................
................................................O.O............................................................................................................
.................................................OOO....O......................................................................................................
..................................................O....O.......................................................................................................
.....................................................O.O.......................................................................................................
