!Name: p15-3
!C A period 15 c/3 ship.
!Source: jslife-moving
!
........O......................................................................................O........
.OO.OOO.OOO......O....OOO.O..................................................O.OOO....O......OOO.OOO.OO.
.OO....O..OO.OO..OO...OO.OO.OOO..........................................OOO.OO.OO...OO..OO.OO..O....OO.
O..O.OO...O..OO..O.O.O.OO......O........................................O......OO.O.O.O..OO..O...OO.O..O
............O..O..O..O....O.O.O..........................................O.O.O....O..O..O..O............
..................O..OOOO.O..................................................O.OOOO..O..................
....................OOO.OO.O................................................O.OO.OOO....................
............................OO.......OO..........................OO.......OO............................
........................O..OOOO...OO.O.OO...O..............O...OO.O.OO...OOOO..O........................
........................O..O...O..OO.O....OOOO............OOOO....O.OO..O...O..O........................
.................................O.O......O...O..........O...O......O.O.................................
............................O.O...OO...OO..O.O............O.O..OO...OO...O.O............................
..............................O....O...OOO....................OOO...O....O..............................
.............................OO.O.O....OOOOO................OOOOO....O.O.OO.............................
........................OOO..O..O...OO..O...OO............OO...O..OO...O..O..OOO........................
.......................O....OO.O..O......OO..................OO......O..O.OO....O.......................
........................O..O........O..OOO....OO........OO....OOO..O........O..O........................
..........................O..........O.OO.OO.O.O........O.O.OO.OO.O..........O..........................
......................................O........O..OOOO..O........O......................................
...............................................O........O...............................................
...................................................OO...................................................
..............................................OOOOOOOOOOOO..............................................
.............................................OO..........OO.............................................
...................................................OO...................................................
.................................................OOOOOO.................................................
