!Name: p15beehive
!C A period 15 c/3 beehive puffer.
!C The beehives are close enough together to be ignited and can burn
!C without destroying the puffer.
!C Paul Tooke, October 2002
!Source: jslife-moving
!
........OO...OO........
.....OO.OO...OO.OO.....
..OOOO..O.O.O.O..OOOO..
.O....O..OO.OO..O....O.
..OO......O.O......OO..
.......O.O...O.O.......
.....OOO.OOOOO.OOO.....
....OO.O.......O.OO....
...O..O..O.O.O..O..O...
.........O.O.O.........
...O.OO.OO.O.OO.OO.O...
..OOOOOO...O...OOOOOO..
..OO.OO.O.....O.OO.OO..
......OOO.O.O.OOO......
.....O....O.O....O.....
.....O...OO.OO...O.....
...O...............O...
...O....O.....O....O...
.....OO.OOOOOOO.OO.....
.......O.O.O.O.O.......
....O.............O....
..OOO..OO.OOO.OO..OOO..
.O..O.OO..OOO..OO.O..O.
O...O.OOOOO.OOOOO.O...O
O.O.O.............O.O.O
.OO.O.OOO.....OOO.O.OO.
..OO.O.O.......O.O.OO..
....OOO.O.OOO.O.OOO....
.O.....O..OOO..O.....O.
......O..O...O..O......
......OO.......OO......
.....O.OOO...OOO.O.....
.....O...........O.....
.....O.O..OOO..O.O.....
..OO.O.O.......O.O.OO..
..OO.O.O..O.O..O.O.OO..
.....O.O.OO.OO.O.O.....
....O.O.OO.O.OO.O.O....
..OOO.............OOO..
.........OOOOO.........
..OO.......O.......OO..
...O...............O...
...O......OOO......O...
...O.OO..OOOOO..OO.O...
.......O.OOOOO.O.......
........O.....O........
.OO.OOOO.......OOOO.OO.
.OO.................OO.
.OOOO...OOOOOOO...OOOO.
...O...............O...
....OO...........OO....
...........O...........
..........O.O..........
..........O.O..........
...........O...........
...........O...........
..........O.O..........
..........O.O..........
...........O...........
...........O...........
..........O.O..........
..........O.O..........
...........O...........
...........O...........
..........O.O..........
..........O.O..........
...........O...........
