!Name: p160-2
!Source: jslife-moving
!
....................................................................................................................................OOO.OOO....................................................................................................................................
...................................................................................................................................O..O.O..O...................................................................................................................................
..................................................................................................................................O...O.O...O..................................................................................................................................
..................................................................................................................................O.........O..................................................................................................................................
....................................................................................................................................O.....O....................................................................................................................................
.................................................................................................................................O.O.......O.O.................................................................................................................................
................................................................................................................................OO.O.OO.OO.O.OO................................................................................................................................
..............................................................................................................................OO.O.O..O.O..O.O.OO..............................................................................................................................
...............................................................................................................................O.O....O.O....O.O...............................................................................................................................
............................................................................................................................OO.O.O.OO.O.O.OO.O.O.OO............................................................................................................................
............................................................................................................................OO.O.O.OOO...OOO.O.O.OO............................................................................................................................
............................................................................................................................O.O...O..OO.OO..O...O.O............................................................................................................................
...........................................................................................................................OO.OO.OO.........OO.OO.OO...........................................................................................................................
...........................................................................................................................O.......................O...........................................................................................................................
..........................................................................................................................O.O.OOO.OOO.....OOO.OOO.O.O..........................................................................................................................
....................................................................................................................................OO...OO....................................................................................................................................
.....................................................................................................................................O...O.....................................................................................................................................
...............................................................................................................................OO....OO.OO....OO...............................................................................................................................
................................................................................................................................O.............O................................................................................................................................
.............................................................................................................................OOOO....OO.OO....OOOO.............................................................................................................................
............................................................................................................................OO..OOO.O.....O.OOO..OO............................................................................................................................
............................................................................................................................O.......O.....O.......O............................................................................................................................
...........................................................................................................................OO...OOO....O....OOO...OO...........................................................................................................................
......................................................................................................................................OOO......................................................................................................................................
..............................................................................................................................OO.OO..OOOOO..OO.OO..............................................................................................................................
...............................................................................................................................O.O..OO...OO..O.O...............................................................................................................................
............................................................................................................................OO.O....O..O..O....O.OO............................................................................................................................
............................................................................................................................OO....O.O.O.O.O.O....OO............................................................................................................................
............................................................................................................................O..OO..OO.O.O.OO..OO..O............................................................................................................................
...........................................................................................................................OO.......O.O.O.O.......OO...........................................................................................................................
...........................................................................................................................O..........O.O..........O...........................................................................................................................
..........................................................................................................................O.O......O..O.O..O......O.O..........................................................................................................................
...................................................................................................................................OO.O.O.OO...................................................................................................................................
...................................................................................................................................O..O.O..O...................................................................................................................................
..................................................................................................................................O...O.O...O..................................................................................................................................
...................................................................................................................................O.O...O.O...................................................................................................................................
.....................................................................................................................................O...O.....................................................................................................................................
....................................................................................................................................OOO.OOO....................................................................................................................................
....................................................................................................................................O.....O....................................................................................................................................
....................................................................................................................................O.....O....................................................................................................................................
....................................................................................................................................OO...OO....................................................................................................................................
................................................................................................................................OOO..OO.OO..OOO................................................................................................................................
.................................................................................................................................OO..O...O..OO.................................................................................................................................
................................................................................................................................OOOO.......OOOO................................................................................................................................
...............................................................................................................................OO.OO.......OO.OO...............................................................................................................................
...............................................................................................................................O.O...........O.O...............................................................................................................................
................................................................................................................................O.............O................................................................................................................................
..................................................................................................................................OO.......OO..................................................................................................................................
...........................................................................................................................OO...O..OO.....OO..O...OO...........................................................................................................................
...........................................................................................................................OO.....................OO...........................................................................................................................
...................................................................................................................................OO.....OO...................................................................................................................................
..................................................................................................................................OOOO...OOOO..................................................................................................................................
................................................................................................................................OO...OO.OO...OO................................................................................................................................
.................................................................................................................................O.O.OO.OO.O.O.................................................................................................................................
.................................................................................................................................O...........O.................................................................................................................................
....................................................................................................................................OOO.OOO....................................................................................................................................
.....................................................................................................................................OO.OO.....................................................................................................................................
..................................................................................................................................OO.O...O.OO..................................................................................................................................
...................................................................................................................................OOO...OOO...................................................................................................................................
....................................................................................................................................O.....O....................................................................................................................................
....................................................................................................................................OO...OO....................................................................................................................................
...............................................................................................................................OO...OO...OO...OO...............................................................................................................................
..............................................................................................................................O..O...........O..O..............................................................................................................................
...............................................................................................................................OO.............OO...............................................................................................................................
......................................................................................................................OO.......OO.............OO.......OO......................................................................................................................
.....................................................................................................................O.O.......OO.............OO.......O.O.....................................................................................................................
......................................................................................................................O....OO.......OO...OO.......OO....O......................................................................................................................
...........................................................................................................................OO......O..O.O..O......OO...........................................................................................................................
....................................................................................................................................OO...OO....................................................................................................................................
.....................................................................................................................................OO.OO.....................................................................................................................................
.....................................................................................................................O...............OO.OO...............O.....................................................................................................................
....................................................................................................................OOO.................................OOO....................................................................................................................
....................................................................................................................O.O.................................O.O....................................................................................................................
.......................................................................................................................O...............................O.......................................................................................................................
.................................................................................................................................O...........O.................................................................................................................................
..................................................................................................................................OO.......OO..................................................................................................................................
................................................................................................................................O.OO.......OO.O................................................................................................................................
.........................................................................................................................O.....O...O.......O...O.....O.........................................................................................................................
.........................................................................................................................O.........O.......O.........O.........................................................................................................................
........................................................................................................................O.O..O.....O.......O.....O..O.O........................................................................................................................
............................................................................................................................O.....................O............................................................................................................................
............................................................................................................................OO.....O.......O.....OO............................................................................................................................
...........................................................................................................................O....O.OO.......OO.O....O...........................................................................................................................
...........................................................................................................................OOO...O...........O...OOO...........................................................................................................................
..............................................................................................................................O.................O..............................................................................................................................
.........................................................................................................................O...O.O...............O.O...O.........................................................................................................................
........................................................................................................................OOO...O.................O...OOO........................................................................................................................
.......................................................................................................................O...O.......................O...O.......................................................................................................................
.......................................................................................................................O...OO.....................OO...O.......................................................................................................................
......................................................................................................................O......OO.................OO......O......................................................................................................................
...................................................................................................................O.OO....O.OO.................OO.O....OO.O...................................................................................................................
...................................................................................................................O...O.....O...................O.....O...O...................................................................................................................
...................................................................................................................O.......OOO...................OOO.......O...................................................................................................................
...............................................................................................................OO.......O....OOO...............OOO....O.......OO...............................................................................................................
...............................................................................................................OO....OO..OOOOOO.O.............O.OOOOOO..OO....OO...............................................................................................................
..............................................................................................................O...........OOO.O.O.............O.O.OOO...........O..............................................................................................................
...............................................................................................................OO...................OO...OO...................OO...............................................................................................................
.............................................................................................................O.OO..................O..O.O..O..................OO.O.............................................................................................................
..............................................................................................................O....O................OO...OO................O....O..............................................................................................................
....................................................................................................................O.....................................O....................................................................................................................
...................................................................................................................OOO...................................OOO...................................................................................................................
....................................................................................................................OO...................................OO....................................................................................................................
...................................................................................................................O..O.................................O..O...................................................................................................................
..................................................................................................................O.........................................O..................................................................................................................
..................................................................................................................O...O......OOO...............OOO......O...O..................................................................................................................
..................................................................................................................O..O...................................O..O..................................................................................................................
...................................................................................................................OO.....................................OO...................................................................................................................
..................................................................................................................................OO.......OO..................................................................................................................................
....................................................................................................................................O.....O....................................................................................................................................
..................................................................................................................................OO.......OO..................................................................................................................................
......................................................................................................................OOO.......O.............O.......OOO......................................................................................................................
.....................................................................................................................O...O......O...O.....O...O......O...O.....................................................................................................................
....................................................................................................................O.....O.....O.............O.....O.....O....................................................................................................................
....................................................................................................................O.....O......O...........O......O.....O....................................................................................................................
.....................................................................................................OO.............O.....O........OO.....OO........O.....O.............OO.....................................................................................................
....................................................................................................O..O.............O...O.OO....O..O.....O..O....OO.O...O.............O..O....................................................................................................
....................................................................................................O.O...............OOO.O.O....OO..O...O..OO....O.O.OOO...............O.O....................................................................................................
.....................................................................................................O....................O.......O.O.....O.O.......O....................O.....................................................................................................
..........................................................................................................OO...............O.......O.......O.......O...............OO..........................................................................................................
..................................................................................................OOO.OO..OO.......................................................OO..OO.OOO..................................................................................................
.................................................................................................OOOOOOO...............................................................OOOOOOO.................................................................................................
................................................................................................OO......O........O...........................................O........O......OO................................................................................................
........................................................................................................O........O...........................................O........O........................................................................................................
.....................................................................................................O.O.........O...........................................O.........O.O.....................................................................................................
......................................................................................................O..............O...O...........................O...O..............O......................................................................................................
.............................................................................................................OOO....OO...................................OO....OOO.............................................................................................................
....................................................................................................OO...............O.....O.......................O.....O...............OO....................................................................................................
.....................................................................................................OO...............OO.....O...................O.....OO...............OO.....................................................................................................
..................................................................................................................O....OO....OO.................OO....OO....O..................................................................................................................
..................................................................................................................O....OOO...OOO...............OOO...OOO....O..................................................................................................................
..................................................................................................................O......OO....O...............O....OO......O..................................................................................................................
....................................................................................................................O.O...O.OO.OO.............OO.OO.O...O.O....................................................................................................................
....................................................................................................................OO.....OOO.O...............O.OOO.....OO....................................................................................................................
............................................................................................................OO..............OOO.................OOO..............OO............................................................................................................
.................................................................................O.........................O..O.................................................O..O.........................O.................................................................................
................................................................................OO.........................O.O..................O.............O..................O.O.........................OO................................................................................
................................................................................O.O.........................O................O...................O................O.........................O.O................................................................................
.............................................................................................................................O..O.............O..O.............................................................................................................................
.......................................................................................................................OO...OOO.................OOO...OO.......................................................................................................................
...........................................................................................................OO..........OO...OOO.................OOO...OO..........OO...........................................................................................................
...........................................................................................................OO...............O..O...............O..O...............OO...........................................................................................................
.............................................................................................................................O.O...............O.O.............................................................................................................................
.............................................................................................................................OOO...............OOO.............................................................................................................................
.................................................................................................................................OO.........OO.................................................................................................................................
....................................................................................................................OO...........OO.........OO...........OO....................................................................................................................
....................................................................................................................OO...................................OO....................................................................................................................
......................................................................................................................OO...............................OO......................................................................................................................
......................................................................................................................OO...............................OO......................................................................................................................
............................................................................................................................O.....................O............................................................................................................................
............................................................................................................................O.....................O............................................................................................................................
............................................................................................................................O.....................O............................................................................................................................
......................................................................................................................OO...............................OO......................................................................................................................
......................................................................................................................OO...............................OO......................................................................................................................
.........................................O...........................................................................................................................................................................................O.........................................
........................................OO...........................................................................................................................................................................................OO........................................
........................................O.O.........................................................................................................................................................................................O.O........................................
..............................................................................................................................OO...............OO..............................................................................................................................
.............................................................................................................................O..O.............O..O.............................................................................................................................
.............................................................................................................OO...............OO...............OO...............OO.............................................................................................................
............................................................................................................O..O.........OO.........................OO.........O..O............................................................................................................
.............................................................................................................O.O........O.O.........................O.O........O.O.............................................................................................................
..............................................................................................................O..........O...........................O..........O..............................................................................................................
................................................................................................................................OO...........OO................................................................................................................................
...................................................................................................................OO..........O..O.........O..O..........OO...................................................................................................................
...................................................................................................................OO...........O.O.........O.O...........OO...................................................................................................................
.................................................................................................................................O...........O.................................................................................................................................
...................................................................................................................................O.......O...................................................................................................................................
..................................................................................................................................O.O.....O.O..................................................................................................................................
..................................................................................................OO.OO..........................O..O.....O..O..........................OO.OO..................................................................................................
..................................................................................................OO.OO...........................OO.......OO...........................OO.OO..................................................................................................
................................................................................................OO...........................................................................OO................................................................................................
................................................................................................OO....OO...............................................................OO....OO................................................................................................
......................................................................................................OO...........OOO......O.....................O......OOO...........OO......................................................................................................
..............................................................................................................O.............O.....................O.............O..............................................................................................................
.............................................................................................................O.O............O.....................O............O.O.............................................................................................................
.............................................................................................................OO.................................................OO.............................................................................................................
.....................................................................................................................................OO.OO.....................................................................................................................................
.....................................................................................................................OO..............OO.OO..............OO.....................................................................................................................
.....................................................................................................................OO.................................OO.....................................................................................................................
............................................................................................................OO...................................................OO............................................................................................................
.O.........................................................................................................O..O.................................................O..O.........................................................................................................O.
OO.........................................................................................................O.O...................................................O.O.........................................................................................................OO
O.O.........................................................................................................O.....................................................O.........................................................................................................O.O
.......................................................................................................................OO.............................OO.......................................................................................................................
...........................................................................................................OO..........OO.............................OO..........OO...........................................................................................................
...........................................................................................................OO.....................................................OO...........................................................................................................
....................................................................................................................OO...................................OO....................................................................................................................
....................................................................................................................OO...................................OO....................................................................................................................
......................................................................................................................OO...............................OO......................................................................................................................
......................................................................................................................OO...............................OO......................................................................................................................
............................................................................................................................O.....................O............................................................................................................................
............................................................................................................................O.....................O............................................................................................................................
............................................................................................................................O.....................O............................................................................................................................
......................................................................................................................OO...............................OO......................................................................................................................
......................................................................................................................OO...............................OO......................................................................................................................
..............................................................................................................................OO...............OO..............................................................................................................................
.............................................................................................................................O..O.............O..O.............................................................................................................................
.............................................................................................................OO...............OO...............OO...............OO.............................................................................................................
............................................................................................................O..O.........OO.........................OO.........O..O............................................................................................................
.............................................................................................................O.O........O.O.........................O.O........O.O.............................................................................................................
..............................................................................................................O..........O...........................O..........O..............................................................................................................
................................................................................................................................OO...........OO................................................................................................................................
...................................................................................................................OO..........O..O.........O..O..........OO...................................................................................................................
...................................................................................................................OO...........O.O.........O.O...........OO...................................................................................................................
.................................................................................................................................O...........O.................................................................................................................................
...................................................................................................................................O.......O...................................................................................................................................
..................................................................................................................................O.O.....O.O..................................................................................................................................
..................................................................................................OO.OO..........................O..O.....O..O..........................OO.OO..................................................................................................
..................................................................................................OO.OO...........................OO.......OO...........................OO.OO..................................................................................................
................................................................................................OO...........................................................................OO................................................................................................
................................................................................................OO....OO...............................................................OO....OO................................................................................................
......................................................................................................OO...........OOO......O.....................O......OOO...........OO......................................................................................................
..............................................................................................................O.............O.....................O.............O..............................................................................................................
.............................................................................................................O.O............O.....................O............O.O.............................................................................................................
.............................................................................................................OO.................................................OO.............................................................................................................
.....................................................................................................................................OO.OO.....................................................................................................................................
.....................................................................................................................OO..............OO.OO..............OO.....................................................................................................................
.....................................................................................................................OO.................................OO.....................................................................................................................
............................................................................................................OO...................................................OO............................................................................................................
...........................................................................................................O..O.................................................O..O...........................................................................................................
...........................................................................................................O.O...................................................O.O...........................................................................................................
............................................................................................................O.....................................................O............................................................................................................
.......................................................................................................................OO.............................OO.......................................................................................................................
...........................................................................................................OO..........OO.............................OO..........OO...........................................................................................................
...........................................................................................................OO.....................................................OO...........................................................................................................
....................................................................................................................OO...................................OO....................................................................................................................
....................................................................................................................OO...................................OO....................................................................................................................
......................................................................................................................OO...............................OO......................................................................................................................
......................................................................................................................OO...............................OO......................................................................................................................
............................................................................................................................O.....................O............................................................................................................................
............................................................................................................................O.....................O............................................................................................................................
............................................................................................................................O.....................O............................................................................................................................
......................................................................................................................OO...............................OO......................................................................................................................
......................................................................................................................OO...............................OO......................................................................................................................
