!Name: p21-2
!C A period 21 c/3 spaceship.
!C The engine was found from a truncated spaceship search, and was the
!C first success of such a search other than period 2 spaceships.
!C Paul Tooke, January 2002
!Source: jslife-moving
!
...........O................O...............................OO......
..........O.O..............O.O.....O.O.OOO.............OO..O...O....
....O.O...O...OO..........O......O..O........O.OOO...OO...OO.O.OO...
....O.....O.O.O.O........O..OO.O.O..OO.O....OO...O.OO...OOO.....O...
.OOO..........O........OOOOO............OO......O...OO.OO.OOOOO.O...
.OO.O....OO......O....O......O...........O...O....OO....O.......O...
O..OO...O.OO.OOO.....OO...OO.........OO..O...OOO...OO....OOO....OOO.
O..OO..O.OOO....OO.O...O..OO......O..OOOO...O.OO.O.O.O....O........O
O..O.O...O......O...OO...........O.O...O.......O.O.....O...O.OOOOOO.
.....OO............OO...........O..O...OO.OO..OO.OOO..OOO.OOO.......
O..O.O...O......O...OO...........O.O...O.......O.O.....O...O.OOOOOO.
O..OO..O.OOO....OO.O...O..OO......O..OOOO...O.OO.O.O.O....O........O
O..OO...O.OO.OOO.....OO...OO.........OO..O...OOO...OO....OOO....OOO.
.OO.O....OO......O....O......O...........O...O....OO....O.......O...
.OOO..........O........OOOOO............OO......O...OO.OO.OOOOO.O...
....O.....O.O.O.O........O..OO.O.O..OO.O....OO...O.OO...OOO.....O...
....O.O...O...OO..........O......O..O........O.OOO...OO...OO.O.OO...
..........O.O..............O.O.....O.O.OOO.............OO..O...O....
...........O................O...............................OO......
