!Name: p27turners
!C Glider turning reactions for gliders produced by period 27 c/3 rakes.
!C This use a period 27 c/3 smoking spaceship found by Paul Tooke.
!C David I. Bell, November 2002
!Source: jslife-moving
!
......................................................................................................................................................................................................................................................................OO.............OO...........
......................................................................................................................................................................................................................................................................OO.O.........O.OO...........
.......................................................................OOO...........OOO..............................................................................................................................................................................OOO..O..O..O..OOO...........
......................................................................O.................O...............................................................................................................................................................................O..OOO.OOO..O.............
.......................................................................O..OOO.OOO.OOO..O.....................................................................................................................................................................................O.O..................
...OO.............OO.....................................................O..O.O.O.O..O...............................................OOO...........OOO..............................................O.............O......................................................O.O.O.O.O.O..............
...OO.O.........O.OO.......................................................OO.O.O.OO................................................O.................O............................................OO.............OO.....................................................O...O.O...O..............
...OOO..O..O..O..OOO.......................................................O..O.O..O.................................................O..OOO.OOO.OOO..O............................................O..OOO...O...OOO..O......................................................O.O.O.O................
.....O..OOO.OOO..O............................................................O.O......................................................O..O.O.O.O..O..................................................OOO.O.O.OOO..........................................................O.O.O.O................
..........O.O..............................................................O..O.O..O.....................................................OO.O.O.OO........................................................O.O.............................................................OO.O.O.OO...............
......O.O.O.O.O.O...........................................................O.O.O.O......................................................O..O.O..O....................................................OOO.O.O.OOO........................................................O.O.O.O.O.O..............
......O...O.O...O...........................................................O.O.O.O.........................................................O.O........................................................OO.O.O.OO........................................................OO.O.O.O.O.OO.............
........O.O.O.O..........................................................OO.O.O.O.O.OO...................................................O..O.O..O.......................................................OO.OO.......................................................OO....O.O.O.O....OO..........
........O.O.O.O..........................................................OO.O.O.O.O.OO....................................................O.O.O.O.........................................................O.O........................................................OO....O.O.O.O....OO..........
.......OO.O.O.OO......................................................OOO...O.O.O.O...OOO.................................................O.O.O.O......................................................OO.O.O.OO.....................................................O.....O.O.O.O.....O..........
......O.O.O.O.O.O....................................................O.....OO.O.O.OO.....O.............................................OO.O.O.O.O.OO....................................................O.O.O.O........................................................OOO.O.O.O.O.OOO............
.....OO.O.O.O.O.OO....................................................O.OO..O.O.O.O..OO.O..............................................OO.O.O.O.O.OO.................................................OO.O.O.O.O.OO........................................................OO.O.O.OO...............
..OO....O.O.O.O....OO....................................................OO.O.O.O.O.OO..............................................OOO...O.O.O.O...OOO............................................O..O.O.O.O.O.O..O.......................................................O.O.O.O................
..OO....O.O.O.O....OO....................................................OO.O.O.O.O.OO.............................................O.....OO.O.O.OO.....O..........................................OOOOO.O.O.O.O.OOOOO...................................................OO.O.O.O.O.OO.............
..O.....O.O.O.O.....O.....................................................O.O.O.O.O.O...............................................O.OO..O.O.O.O..OO.O..........................................O...O.OO.O.O.OO.O...O.....................................................O.O.O.O................
....OOO.O.O.O.O.OOO.........................................................O.O.O.O....................................................OO.O.O.O.O.OO................................................OO..O.O.O.O..OO....................................................OO..O.O.O.O..OO............
.......OO.O.O.OO........................................................O.O.O.O.O.O.O.O................................................OO.O.O.O.O.OO....................................................O.O.O.O.......................................................OO..O..O.O..O..OO...........
........O.O.O.O........................................................OOO.OO.O.O.OO.OOO................................................O.O.O.O.O.O.....................................................O.O.O.O...........................................................OO.O.O.OO...............
.....OO.O.O.O.O.OO.....................................................OOOOO..O.O..OOOOO..................................................O.O.O.O....................................................OO.O.O.O.O.OO....................................................OO.....O.O.....OO...........
........O.O.O.O............................................................OO.O.O.OO..................................................O.O.O.O.O.O.O.O................................................O..O.O.O.O..O....................................................OO.....O.O.....OO...........
....OO..O.O.O.O..OO....................................................OO.....O.O.....OO.............................................OOO.OO.O.O.OO.OOO.............................................OO.O.O.O.O.O.O.OO.................................................O..O...OO.OO...O..O..........
...OO..O..O.O..O..OO..................................................O..O....O.O....O..O............................................OOOOO..O.O..OOOOO..................................................O.O.O.O.........................................................O..OO...OO..O.............
.......OO.O.O.OO.......................................................O.O..O.O.O.O..O.O.................................................OO.O.O.OO.................................................O......O.O......O.................................................OO.O..OOOOOOO..O.OO..........
...OO.....O.O.....OO..................................................OO.OO.........OO.OO............................................OO.....O.O.....OO.................................................OO.O.O.OO......................................................O.O.O.......O.O.O...........
...OO.....O.O.....OO..................................................OO.O.O..OOO..O.O.OO...........................................O..O....O.O....O..O............................................OO.....O.O.....OO.................................................O.OOOOOOOOOOOOOOO.O..........
..O..O...OO.OO...O..O................................................................................................................O.O..O.O.O.O..O.O............................................O..O....O.O....O..O...............................................O...O....OOO....O...O.........
.....O..OO...OO..O....................................................OO...OOO...OOO...OO...........................................OO.OO.........OO.OO............................................O.O...O...O...O.O...............................................O....OO.O.....O.OO....O........
..OO.O..OOOOOOO..O.OO................................................O...................O..........................................OO.O.O..OOO..O.O.OO..............................................O.O.OO.OO.O.O.................................................O..OO.............OO..O........
...O.O.O.......O.O.O................................................OO...OO....O....OO...OO.......................................................................................................OO.O.....O.....O.OO.................................................O...............O...........
..O.OOOOOOOOOOOOOOO.O..................................................OOO...........OOO............................................OO...OOO...OOO...OO.............................................O.OO.OOOOO.OO.O.................................................O.O.O...........O.O.O.........
.O...O....OOO....O...O.................................................O...............O...........................................O...................O..........................................O.....O.....O.....O..............................................OO.O.OOO.......OOO.O.OO........
O....OO.O.....O.OO....O.............................................OO.O.O...........O.O.OO.......................................OO...OO....O....OO...OO.......................................OO....OOO.....OOO....OO...............................................O.O.OO.....OO.O.O...........
O..OO.............OO..O.............................................OO.O.O.OO.....OO.O.O.OO..........................................OOO...........OOO..........................................OOO..OO.........OO..OOO............................................OO.O.....O...O.....O.OO........
...O...............O...................................................O.O.OO.....OO.O.O.............................................O...............O............................................OO.OO.........OO.OO....................................................O.........O..............
.O.O.O...........O.O.O................................................O.O.OOO.....OOO.O.O.........................................OO.O.O...........O.O.OO..........................................O.O...........O.O..............................................................................
OO.O.OOO.......OOO.O.OO...........................................................................................................OO.O.O.OO.....OO.O.O.OO.......................................OO.O..O.........O..O.OO...............................................OOO.O...O...O.OOO...........
...O.O.OO.....OO.O.O....................................................OOO.........OOO..............................................O.O.OO.....OO.O.O..........................................OO.O.O.OO.....OO.O.O.OO.................................................O..OO.O.OO..O.............
OO.O.....O...O.....O.OO.................................................OOO.O.O.O.O.OOO.............................................O.O.OOO.....OOO.O.O..........................................O.O.O...O...O...O.O.O.....................................................O..O..O................
......O.........O........................................................OOOOO.O.OOOOO.............................................................................................................OOOO.O.....O.OOOO......................................................OO.....OO...............
..............................................................................O.O.....................................................OOO.........OOO..............................................OO.............OO......................................................OOOO.OOOO...............
...OOO.O...O...O.OOO..........................................................OOO.....................................................OOO.O.O.O.O.OOO...............................................O.OO.......OO.O...............................................................................
.....O..OO.O.OO..O.........................................................O.O...O.O...................................................OOOOO.O.OOOOO....................................................O.OOO.O.........................................................OOO.OO.OO.OOO.............
........O..O..O.............................................................................................................................O.O.....................................................O...O.....O...O....................................................O....OO.OO....O............
.......OO.....OO.........................................................OO.OOO.OOO.OO......................................................OOO.......................................................OOO.....OOO.........................................................OOO...OOO...............
.......OOOO.OOOO.........................................................O...........O...................................................O.O...O.O.......................................................OO.OO.........................................................OOOO.O...O.OOOO............
........................................................................O..O.......O..O...................................................................................................................OOO..........................................................OOOOO.....OOOOO............
.....OOO.OO.OO.OOO......................................................O....O...O....O................................................OO.OOO.OOO.OO..................................................OO..O.O..OO....................................................OO.....O...O.....OO..........
....O....OO.OO....O..........................................................O...O.....................................................O...........O.................................................OO..O...O..OO................................................................................
.......OOO...OOO.......................................................OOOOOO.....OOOOOO..............................................O..O.......O..O...............................................OO.OOO...OOO.OO..................................................O.....O..O..O.....O..........
....OOOO.O...O.OOOO...................................................OO...............OO.............................................O....O...O....O...............................................OO...........OO......................................................O..OO.OO..O..............
....OOOOO.....OOOOO............................................................O...........................................................O...O........................................................O.....O...................................................................................
..OO.....O...O.....OO........................................................OO.OO...................................................OOOOOO.....OOOOOO.............................................O..OO.O...O.OO..O........................................................O...O.................
...........O..................................................................O.O...................................................OO.......O.......OO...........................................OOOOOOO.....OOOOOOO........................................................OOO.........OOO......
..O.......OOO.......O..........................................................O...........O................................................O.O...................................................OO.OOOOOOOOOOOOO.OO...................................................................O...OO.O..
......O....O....O.........................................................................OOOO..............................................OOO..........................................................O...O.....................................................................OOO..OOO...OOO.
.....................................................................................O...O...OO.OO......................................................................................................O.....O...................................................................O.O.OOO....O...O
...............................................................................O....OOOO.....O..OO.......................................................O.........................................................................................................................O....O.......O.
......................OOO......................................................O...O...O.......O..O.....................................................OOOO..........................................................OO..............................................................OO..........
...........O.........O...OO.O..................................................O....O.O..O.........................................................O...O...OO.OO..........................................O.O.........OO.OO...................................O...................................
...........O....OOO..OOO...OOO..........................................................O.........................................................OOOO.....O..OO..........................................O.....OO....OO..OOOO.................................O..........O.......................
...............O...OOO....O...O..................................................................................................................O...O.......O..O...............................................OO.OO....O....O..............................OOO.........OO.......................
................OO...O.......O....................................................................................................................O.O..O........................................................O..OO.......OO..........................................OO.O...OO.................
OOO.......OO.......OO.....................................................O.................................................................OOO.......O...................................................O........OO....................................................O.O..O..O................
..O......O.OO...........................................................O....................................................OOO..........OO......................................................O......O.OO.............................................................OO...OO.................
.O......OO.O.O........................................................OO...O...O.O.............................................O..........O....O...................................................O.....O...O....................................................................................
.........OOOOO........................................................O....O...O..O...........................................O...........O....O.................................................OOO.....O..O.....................................................................................
..........O.O.........................................................O..OO.....OO.........................................................O...O..........................................................O.O.....................................................................................
...........O...........................................................O.O...................................................................O.............................................................O......................................................................................
.............................................................................................................................................................................................................................................................................OO...................
...........................................................OOO...............................................................................................................................................................................................................OO.OO................
.............................................................O.........................................................................................................................................................................................................OO....OO..OOOO.............
............................................................O..........................................................................................................................................................................................................OO.OO....O....O............
......................................................................................................................................................................................................................................................................O...OO.......OO.............
..........................................................................................................................................................................................................................................................................OO......................
