!Name: p3bigsmoke
!C A period 3 c/3 convoy which turns a glider into a big cloud of smoke.
!C The smoke reaches out 15 cells beyond the edge of the convoy and so
!C can be used to perturb many objects as the convoy passes by.
!C David I. Bell
!Source: jslife-moving
!
..............OO.........................................
.........OOO.O.OOO.......................................
.....OO.OO...O...OO.....O................................
.OO.O..OOO.O...O...O...OO.OOO............................
.OO.....O.O.OO..OO.OO........O...........................
O..O...O.....OOOOO.O.OOO...OO............................
.....O.OOO..OO..OO...OOOO................................
.....OO...OO.............O...............................
..........OO....O.....O.O................................
......O..........O....O...........OOO....................
.....O.O..........................O......................
.OOO...O...........................O.....................
O.O.O....................................................
O.O.O....................................................
.O.O.....................................................
..O......................................................
..O......................................................
.....................OOO.................................
....................O....................................
...................OO....................................
.............O.OO..OO..OOO...............................
............OO.OO.OO.....O....OO.........................
...........O..OO...O.OO....OO.OO.........................
.................OOOO......OO...O........................
.............O.O.OO........OO............................
...............O.........................................
............OO..................O........................
...........OO..O....OO.O...O...OO.OOO....................
.............OOO.OO.O.OO.OO.OO.O.OOO..O...OOO............
.........O..O.....O.OO......O.........O..O.O.OO..........
..........O.OOOO.O...OOO...O.O..O...O.O..O.O...O.........
...............OOO..OO..........O....OO..O..O.O..........
...............OO....O................OOOOO..............
................O.OO.O.................OO................
.................O..O..........O............OO...........
.................O..O....O...OOO..........OO.O.OO........
........................OOOO.....OOO....O....O..OOOO.....
.......................O...O.....OOO...OO......O....O....
.....................OOO.O.....O..OO..OO..O.......OOO....
...................O..OO..O.OO.......OO...O..............
...................O...O.O...OO.......OOO.O.O........O...
...................OO....O.O.OO.O.OO..O.O.O.OO....OOOO.OO
...................O..OO.O....O.O..O....O.OO..O...O..O.OO
.......................OO.O.OO...O...OO..OOO....OOO.O.O.O
.....................O..O............OOOO.......OO.......
.......................OO............OOO....O.O..O.......
.........................................O.O.............
...........................OO.O..........................
........................OO.OO.OO.........................
........................O..O.O..O........................
..................OO....OO.....O.........................
..................OO.OO..................................
.................O...OO..................................
.....................OO..................................
