!Name: p3dup-6
!C A period 3 c/3 convoy which duplicates a foward glider.
!C This produces one forward and one backward glider which travel in
!C the same sideways direction as the incoming glider.
!C This is an improvement on a previous version of this convoy.
!C David I. Bell, October 2002
!Source: jslife-moving
!
....................OO.OO............................................
.................OO.OO.O.OO..........................................
..............OOOO..OOO..O.OOO.......................................
.............O....O.....OOO....OOO...................................
..............OO........O.OOO.O.O.O..................................
.........................OOOO.O.O.O..................................
.......................O..O....O.O...................................
........................O............................................
................................O....................................
................................O....................................
.................................OO..................................
.................................O.O.................................
.................................O...................................
...........OO.OO.....................................................
........OO.OO.O.OO...................................................
.....OOOO..OOO..O.OOO................................................
....O....O.....OOO....OOO............................................
.....OO........O.OOO.O.O.O...........................................
................OOOO.O.O.O...........................................
..............O..O....O.O............................................
...............O.....................................................
.......................O.............................................
.......................O.............................................
...............OOO...................................................
...........O.OO...O..................................................
..........OOO...O.O..................................................
.........O...O....OO.................................................
..........O.......OOO................................................
................O.O..................................................
...............OO....................................................
..............O...O..................................................
..................O..................................................
...............O.OO..................................................
...............O.....................................................
...............OOO.........................O.........................
.......................................OO.O.O........................
................O......................OO....O.......................
......................................O..O...OO.O....................
................OO.........................O.OO.OO...................
..........................................OOOOOO..O..................
..................O.....................O..O.........OO..............
................OO......................O...O...O...O.OO....OOO.OO...
................O.O.....................OO..O..OO.OOO.OO..OO....OO...
........................................O..O...OO.....OO.O...O.O..O..
............................................O.....OO.....OOO.........
......OOO............................................O.OOO...........
..O.OO...O..............................................OO...........
.OOO...OOO..OOO......................................................
O...O....OOO.O.O.....................................................
.O.......O....O......................................................
..........OO.........................................................
...........................................O.........................
.......................................OO.O.O........................
.......................................OO....O.......................
......................................O..O...OO.O....................
...........................................O.OO.OO...................
..........................................OOOOOO..O..................
........................................O..O.........OO..............
........................................O...O...O...O.OO....OOO.OO...
........................................OO..O..OO.OOO.OO..OO....OO...
........................................O..O...OO.....OO.O...O.O..O..
............................................O.....OO.....OOO.........
.....................................................O.OOO...........
........................................................OO...........
.....................................................OO.OO...........
...................................................OO.O.OO.OO........
................................................OOO.O..OOO..OOOO.....
............................................OOO....OOO.....O....O....
...........................................O.O.O.OOO.O........OO.....
...........................................O.O.O.OOOO................
............................................O.O....O..O..............
.....................................................O...............
.............................................O.......................
.............................................O.......................
...................................................OOO...............
..................................................O...OO.O...........
..................................................O.O...OOO..........
.................................................OO....O...O.........
................................................OOO.......O..........
..................................................O.O................
....................................................OO...............
..................................................O...O..............
..................................................O..................
..................................................OO.O...............
.....................................................O...............
...................................................OOO...............
....................................................O................
...................................................OO................
..................................................O..................
...................................................OO................
..................................................O.O................
............................................................OOO......
...........................................................O...OO.O..
......................................................OOO..OOO...OOO.
.....................................................O.O.OOO....O...O
......................................................O....O.......O.
.........................................................OO..........
