!Name: p3glidertolwss-2
!C A period 3 c/3 convoy which converts a forward glider into a backward LWSS.
!C Removing one of the spaceships at the back allows a glider to escape so
!C this can also act as a glider duplicator.
!C David I. Bell, October 2002
!Source: jslife-moving
!
...................................................OO.OO..............................................................
................................................OO.OO.O.OO............................................................
.............................................OOOO..OOO..O.OOO.........................................................
............................................O....O.....OOO....OOO.....................................................
.............................................OO........O.OOO.O.O.O....................................................
........................................................OOOO.O.O.O....................................................
......................................................O..O....O.O...............OOO...................................
.......................................................O........................O.....................................
...............................................................O.................O....................................
...............................................................O......................................................
..................................................................................OOO.................................
.................................................................................O....................................
................................................................................OO....................................
..........................................................................O.OO..OO..OOO...............................
.........................................................................OO.OO.OO.....O....OO.........................
........................................................................O..OO...O.OO....OO.OO.........................
..............................................................................OOOO......OO...O........................
..........................................................................O.O.OO........OO............................
............................................................................O.........................................
.........................................................................OO..................O........................
........................................................................OO..O....OO.O...O...OO.OOO....................
..........................................................................OOO.OO.O.OO.OO.OO.O.OOO..O...OOO............
......................................................................O..O.....O.OO......O.........O..O.O.OO..........
.......................................................................O.OOOO.O...OOO...O.O..O...O.O..O.O...O.........
............................................................................OOO..OO..........O....OO..O..O.O..........
............................................................................OO....O................OOOOO..............
.............................................................................O.OO.O.................OO................
..............................................................................O..O..........O............OO...........
..............................................................................O..O....O...OOO..........OO.O.OO........
.....................................................................................OOOO.....OOO....O....O..OOOO.....
....................................................................................O...O.....OOO...OO......O....O....
..................................................................................OOO.O.....O..OO..OO..O.......OOO....
................................................................................O..OO..O.OO.......OO...O..............
................................................................................O...O.O...OO.......OOO.O.O........O...
................................................................................OO....O.O.OO.O.OO..O.O.O.OO....OOOO.OO
................................................................................O..OO.O....O.O..O....O.OO..O...O..O.OO
....................................................................................OO.O.OO...O...OO..OOO....OOO.O.O.O
..................................................................................O..O............OOOO.......OO.......
....................................................................................OO............OOO....O.O..O.......
......................................................................................................O.O.............
........................................................................................OO.O..........................
.....................................................................................OO.OO.OO.........................
.....................................................................................O..O.O..O........................
...............................................................................OO....OO.....O.........................
...............................................................................OO.OO..................................
.......................................OOO....................................O...OO..................................
.....................................OO...O.......................................OO..................................
....................................O...O..O..........................................................................
....................................O......OO.O.......................................................................
.......................................OOO.OO.OO......................................................................
....................................OOO...O.OO..O.....................................................................
...................................OO.................................................................................
...............................................O......................................................................
.......................................OOO....OO......................................................................
........................................OO...OOO......................................................................
........................................OO..OO........................................................................
...........................................OOO........................................................................
.........................................O..O.........................................................................
...........................................O..........................................................................
.........................O............................................................................................
.........................OO...........................................................................................
.........................O.OO.........................................................................................
.......................O..O...........................................................................................
......................OO......OOO.OO..................................................................................
................OOO..OO.OOO..OO...OO..................................................................................
...............O.O.OOO....O.....OOOO..................................................................................
................O....O....OO..O.O.....................................................................................
...................OO.........O..O....................................................................................
...............................O..OO............................O.....................................................
............O.OOO................OOOO.......................OO.O.O....................................................
....O......O....OO.OOO.OO.OOO..OO...O.......................OO....O...................................................
..OOOO....OO..O.OOOO.O.OO....OOOOOO.O......................O..O...OO.O................................................
.OO...O.OO..OOOO.O...O.O...O.O.....OO...........................O.OO.OO...............................................
O...O.OOOO.........O........OOO.OOOOO..........................OOOOOO..O..............................................
....O......................O..O...O..........................O..O.........OO..........................................
.....O....O..............OO.OO...............................O...O...O...O.OO....OOO.OO...............................
.........O.................O..OOO............................OO..O..OO.OOO.OO..OO....OO...............................
...........................OOOO..............................O..O...OO.....OO.O...O.O..O..............................
.................................................................O.....OO.....OOO.....................................
..........................................................................O.OOO.......................................
.............................................................................OO.......................................
..........................................................................OOO.........................................
.........................................................................O............................................
........................................................................OO............................................
..................................................................O.OO..OO..OOO.......................................
.................................................................OO.OO.OO.....O....OO.................................
................................................................O..OO...O.OO....OO.OO.................................
......................................................................OOOO......OO...O................................
..................................................................O.O.OO........OO....................................
....................................................................O.................................................
.................................................................OO..................O................................
................................................................OO..O....OO.O...O...OO.OOO............................
..................................................................OOO.OO.O.OO.OO.OO.O.OOO..O...OOO....................
..............................................................O..O.....O.OO......O.........O..O.O.OO..................
...............................................................O.OOOO.O...OOO...O.O..O...O.O..O.O...O.................
....................................................................OOO..OO..........O....OO..O..O.O..................
....................................................................OO....O................OOOOO......................
.....................................................................O.OO.O.................OO........................
......................................................................O..O............................................
......................................................................O..O............................................
............................................................................OO.OOO....................................
............................................................................OO....OO..................................
...........................................................................O..O.O...O.................................
............OO.........OOO.....OO.................................................OOO..OOO............................
.......O.OO.OO.......OO.O.O.OO.OO...................................................OOO.O.O...........................
......OOO.O...OO....O...O.O.O..O.O..................................................O....O............................
.....O...OO.O.O.O....O.O.OO...O..O.......................................O...........OO...............................
......O...OOO.O.OOO.....O.O.OOOO..O.....................................OOOO..........................................
..........O...O..OO.OO..O.O.OO.O...................................O...O...OO.OO.....OO...............................
...........OO..O..OO......OOOO....O...............................OOOO.....O..OO....O..O..............................
..........OOO.....O....O.........OOO.............................O...O.......O..O...O..O..............................
.........OO..OO...O......O......O...OO............................O.O..O.............O.OO.............................
............OO...OO........O..OO...OOO................................O...........OO.O.O..............................
.........OO.OO....O............O...OO................................................O.O.OO...........................
..................O................................................................O.O.O.OO...........................
..................................................................................O..O.O.O............................
................................................................................OO...O..O.............................
................................................................................OOO..OOOOO............................
.................................................................................OO.O.OOO.............................
....................................................................................O.................................
....................................................................................O.................................
