!Name: p3shift-1
!C A period 3 c/3 convoy which shifts a forward glider.
!C This is an improved version of a previous version of this convoy.
!C David I. Bell, November 2002
!Source: jslife-moving
!
..............O.........O...................
............OOO.OOO....O.O..................
...........OO......O..O...O.................
......O...O..O...OO....OOO..................
.....OOOO...................................
....O...O............OO...OO................
.....O.O..O..........OO...OO................
.........O..........OO.OOO..O...............
..................OO...O.OO.OO..............
........OO.......O...O......................
.......O..O......O....O...O.................
.......O.OO.........OOO..O..................
......OO.O.O.....OOO....O...................
.....O.O.O......OO............OOO...........
....OO.O.O.OO.................O.............
.......O.O.....................O............
....OO.O.O..OO..............................
.........OO...O.............................
.....O....OO................................
.....O....O.O.O.............................
.......O..O.................................
...................................O........
.................................OOO.OOO....
................................OO......O...
...........................O...O..O...OO....
..........................OOOO..............
.........................O...O..............
..........................O.O..O............
..............................O.............
.....................................OOO.OO.
...................................OO....OO.
..................................O...O.O..O
.............................OOO..OOO.......
............................O.O.OOO.........
.............................O....O.........
................................OO..........
.OO.OOO....................OOO.OO...........
.OO....OO................OO....OO...........
O..O.O...O..............O...O.O..O..........
.......OOO..OOO....OOO..OOO.................
.........OOO.O.O..O.O.OOO...................
.........O....O....O....O...................
..........OO..........OO....................
