!Name: p3turn-6
!C A period 3 c/3 convoy which turns a foward glider into a forward glider.
!C The output glider travels back through the same columns.
!C David I. Bell, December 2001
!Source: jslife-moving
!
...........................OO.OO........................
........................OO.OO.O.OO......................
.....................OOOO..OOO..O.OOO...................
....................O....O.....OOO....OOO...............
.....................OO........O.OOO.O.O.O..............
................................OOOO.O.O.O..............
..............................O..O....O.O...............
...............................O........................
.......................................O................
.......................................O................
............................................OOO.........
............................................O...........
.............................................O..........
..................OO.OO.................................
...............OO.OO.O.OO...............................
............OOOO..OOO..O.OOO............................
...........O....O.....OOO....OOO........................
............OO........O.OOO.O.O.O.......................
.......................OOOO.O.O.O.......................
.....................O..O....O.O........................
......................O.................................
..............................O.........................
..............................O.........................
................OO.OOO..................................
................OO....OO................................
...............O..O.O...O...............................
......................OOO..OOO..........................
........................OOO.O.O.........................
........................O....O..........................
.........................OO.............................
.........O..............................................
.....OOO.OOO............................................
....O......OO...........................................
.....OO...O..O...O......................................
...............OOOO.....................................
...............O...O....................................
.............O..O.O.....................................
..............O.........................................
.......................OO.OOO....................OOO.OO.
.......................OO....OO................OO....OO.
......................O..O.O...O..............O...O.O..O
.............................OOO..OOO....OOO..OOO.......
...............................OOO.O.O..O.O.OOO.........
...............................O....O....O....O.........
................................OO..........OO..........
.....O......................O...........................
.OOO.OOO..................OOO.OOO.......................
O......OO................OO......O......................
.OO...O..O...O......O...O..O...OO.......................
...........OOOO....OOOO.................................
...........O...O..O...O.................................
.........O..O.O....O.O..O...............................
..........O............O................................
