!Name: p3w14l20
!C The period 3 c/3 ships which fit in an area of width 14 and length 20.
!C The first one shown is the turtle, found by Dean Hickerson.  The one
!C at the end was found by Tim Coe.  The rest are by Stephen Silver.
!C Stephen Silver, November 2002
!Source: jslife-moving
!
.........................................OOO.......O...........OOO.......O.................OOO.......O...........................................................
.........................................OO..O.OO.OO...........OO..O.OO.OO.................OO..O.OO.OO...........................................................
...........................................OOO....O..............OOO....O....................OOO....O............................................................
.........................................O..O.O...O............O..O.O...O...O..............O..O.O...O..OO........................................................
........................................O....O....O...........O....O....O..O..O...........O....O....O...O........................................................
........................................O....O....O...........O....O....O...O.O...........O....O....O....O..O....................................................
.........................................O..O.O...O............O..O.O...O....OOOO..........O..O.O...O........O...................................................
...........................................OOO....O..............OOO....O......O.O...........OOO....O.....OO.....................................................
.........................................OO..O.OO.OO...........OO..O.OO.OO.....O.O.........OO..O.OO.OO....O.O....................................................
.........................................OOO.......O...........OOO.......O....O............OOO.......O...OO......................................................
..............................................................................OO..........................O.O....................................................
..............................................................................O.O..........................O.....................................................
...............................................................................O.................................................................................
..............................................................O........................O.........................................................................
.............................................................OO.......................OO.........................................................................
...........................................................OO.......................OO...........................................................................
........................................................O..OO.O.O................O..OO.O.O.......................................................................
.......................................................O.O...OO..O..............O.O...OO..O......................................................................
......................................................O..O...O....O............O..O...O....O.....................................................................
.......................................................O.O...OO.................O.O...OO.........................................................................
........................................................O..OO...OO...............O..OO...OO...O..................................................................
...........................................................OOO.O.O..................OOO.O.O...O.O................................................................
.............................................................O...O....................O...O..O.O.................................................................
..............................................................O...O....................O...O.....................................................................
..............................................................O...O....................O...O.....................................................................
...............................................................OO.OO....................OO.OO....................................................................
...................................................................O........................O....................................................................
...........................................................OO............................OO......................................................................
.......................................................OO.O..O.......................OO.O..O.....................................................................
......................................................O...OO........................O...OO.......................................................................
.....................................................O........OOO..................O........OOO.....O............................................................
......................................................O...OOOOO...O...OO............O...OOOOO...O.OO.............................................................
........................................................O.O....O..O.OO................O.O....O..O...OO...........................................................
......................................................OOO...O.........O.............OOO...O......................................................................
......................................................OOO...O..O....................OOO...O..O...................................................................
.............................................................O.............................O.....................................................................
..............................................................O.............................O....................................................................
............................................................O..O..........................O..O...................................................................
............................................................O.............................O......................................................................
............................................................O.O...........................O.O....................................................................
.............................................................O.............................O.....................................................................
.......O.O...................O.O......................O.O.....................O.O.....OO................O.O.....OO...............O.O.................O.O.........
.......O.....................O........................O.......................O......OOO................O......OOO...............O...................O...........
..OO.OO...O.O...........OO.OO...O.O.O............OO.OO...O.O..OO.O.......OO.OO...O.O..O............OO.OO...O.O..O...........OO.OO...O.O.........OO.OO...O.O..OO.O
.O...OO....OO..........O...OO....OO.OO..........O...OO....OO.O...O......O...OO....OO..OO..........O...OO....OO..O..........O...OO....OO........O...OO....OO.O...O
O...OO.O...O..........O...OO.O...O..OO.........O...OO.O...O...O........O...OO.O...O..OO..........O...OO.O...O..OOO........O...OO.O...O........O...OO.O...O...O...
.O..OO.O...O...........O..OO.O...O..O...........O..OO.O...O.....O.......O..OO.O...O....O..........O..OO.O...O..OO..........O..OO.O...O.........O..OO.O...O.....O.
....O.O....O..............O.O....O..OOO............O.O....O...OO...........O.O....O...O.O............O.O....O.................O.O....O............O.O....O...OO..
.OOO.OOOOOOO...........OOO.OOOOOOO..OO..........OOO.OOOOOOO...OO........OOO.OOOOOOO...O.O.........OOO.OOOOOOO..O.O.........OOO.OOOOOOO.........OOO.OOOOOOO...OO..
.OO.......O............OO.......O.....O.........OO.......O......O.......OO.......O....O...........OO.......O...O...........OO.......O..........OO.......O......O.
...OOOOOO................OOOOOO......O............OOOOOO..................OOOOOO........O...........OOOOOO......OOOO.........OOOOOO..............OOOOOO..........
.........OO....................OO....O.O................OO......................OO....OO..................OO.....O.................OO...OO.............OO...OO...
......OO..O.................OO..O....O.O.............OO..O...................OO..O....OO...............OO..O.....OO.............OO..O.OOOO..........OO..O.OOOO...
......OO..O.................OO..O.....O..............OO..O...................OO..O......O..............OO..O......O.............OO..O.O.O...........OO..O.O.O....
...................................................................................................................O.............................................
.......................................................................................................O.........................................................
.....................................................................................................OO..........................................................
...............................................OO....................OO.......................OO.....OO..........................................................
..........................................................................O............................O.........................................................
.............................................OO..O.................OO..O..OOO...............OO..O....O...........................................................
............................................O.....................O......O.O..O............O.........O.O.........................................................
...........................................OO....OOO.............OO....OO..O.O............OO....OOO..OO..........................................................
............................................O....OOO..............O....OOO..OOOOOOOO.......O....OOO..............................................................
............................................OOO...................OOO.......O....O.........OOO.....O.O...........................................................
.............................................O......OOO............O...........O............O......O.OOO.OO......................................................
...............................................O....OOO..............O........O...............O....O.O...OO......................................................
.............................................OO....................OO........O.O............OO...OO...O.OO.......................................................
.............................................OO....OO..............OO.......OO..............OO....O....OO.OO.O...................................................
...............................................O...OO................O.......O.O..............O....O........O....................................................
.....................................................O........................O..................................................................................
..............................................O....O....................OO.......................................................................................
.............................................O.O..O.O................O.OOO.....................OO...........OO...................................................
.............................................O.O..OO................O...O.....................O.O..........OOO...................................................
.............................................O....O................OO..OO.....................OO.OO......O..O....................................................
..............................................O....O.O.............O..OOO..O..................OO.OO.....OO..OO...................................................
............................................OO.....O.O............OO...OO.O..OO.................OO.OO.......OO...................................................
.........................................OOO.OO...OOO..............O..OOO..O.OO.............OO.........OOOO..OO..................................................
..........................................O...O..OO.................OO..O...OOOO.............O..OOOOO....OO..O...................................................
...........................................OOO...OO..................O.......OO..............O...O.OO.O.....OOO..................................................
..............................................O.O....................O..O...O......................O.O.......OO..................................................
............................................OOO..OO.....................O..O...O..............OO.O.O.............................................................
.............................................OO..OO...................OOO.O...................OO...O.............................................................
..................................................OOOO................OOO.O.O...................OO...............................................................
...................................................O.O.....................O.....................................................................................
