!Name: p81forwrake-1
!C A period 81 c/3 forward rake.
!C This uses two period 27 smoking spaceships whose smoke react to
!C form a forward glider with a period multiplication.
!C David I. Bell, November 2002
!Source: jslife-moving
!
.................OO.............OO....................................
.................OO.O.........O.OO....................................
.................OOO..O..O..O..OOO....................................
...................O..OOO.OOO..O..........OO.............OO...........
........................O.O...............OO.O.........O.OO...........
....................O.O.O.O.O.O...........OOO..O..O..O..OOO...........
....................O...O.O...O.............O..OOO.OOO..O.............
......................O.O.O.O....................O.O..................
......................O.O.O.O................O.O.O.O.O.O..............
.....................OO.O.O.OO...............O...O.O...O..............
....................O.O.O.O.O.O................O.O.O.O................
...................OO.O.O.O.O.OO...............O.O.O.O................
................OO....O.O.O.O....OO...........OO.O.O.OO...............
................OO....O.O.O.O....OO..........O.O.O.O.O.O..............
................O.....O.O.O.O.....O.........OO.O.O.O.O.OO.............
..................OOO.O.O.O.O.OOO........OO....O.O.O.O....OO..........
.....................OO.O.O.OO...........OO....O.O.O.O....OO..........
......................O.O.O.O............O.....O.O.O.O.....O..........
...................OO.O.O.O.O.OO...........OOO.O.O.O.O.OOO............
......................O.O.O.O.................OO.O.O.OO...............
..................OO..O.O.O.O..OO..............O.O.O.O................
.................OO..O..O.O..O..OO..........OO.O.O.O.O.OO.............
.....................OO.O.O.OO.................O.O.O.O................
.................OO.....O.O.....OO.........OO..O.O.O.O..OO............
.................OO.....O.O.....OO........OO..O..O.O..O..OO...........
................O..O...OO.OO...O..O...........OO.O.O.OO...............
...................O..OO...OO..O..........OO.....O.O.....OO...........
................OO.O..OOOOOOO..O.OO.......OO.....O.O.....OO...........
.................O.O.O.......O.O.O.......O..O...OO.OO...O..O..........
................O.OOOOOOOOOOOOOOO.O.........O..OO...OO..O.............
...............O...O....OOO....O...O.....OO.O..OOOOOOO..O.OO..........
..............O....OO.O.....O.OO....O.....O.O.O.......O.O.O...........
..............O..OO.............OO..O....O.OOOOOOOOOOOOOOO.O..........
.................O...............O......O...O....OOO....O...O.........
...............O.O.O...........O.O.O...O....OO.O.....O.OO....O........
..............OO.O.OOO.......OOO.O.OO..O..OO.............OO..O........
.................O.O.OO.....OO.O.O........O...............O...........
..............OO.O.....O...O.....O.OO...O.O.O...........O.O.O.........
....................O.........O........OO.O.OOO.......OOO.O.OO........
..........................................O.O.OO.....OO.O.O...........
.................OOO.O...O...O.OOO.....OO.O.....O...O.....O.OO........
...................O..OO.O.OO..O.............O.........O..............
......................O..O..O.........................................
.....................OO.....OO............OOO.O...O...O.OOO...........
.....................OOOO.OOOO..............O..OO.O.OO..O.............
...............................................O..O..O................
...................OOO.OO.OO.OOO..............OO.....OO...............
..................O....OO.OO....O.............OOOO.OOOO...............
.....................OOO...OOO........................................
..................OOOO.O...O.OOOO...........OOO.OO.OO.OOO.............
..................OOOOO.....OOOOO..........O....OO.OO....O............
................OO.....O...O.....OO...........OOO...OOO...............
.........................O.................OOOO.O...O.OOOO............
................O.......OOO.......O........OOOOO.....OOOOO............
....................O....O....O..........OO.....O...O.....OO..........
.........................................O.....O..O..O.....O..........
............OOO..............................O...O.O...O..............
........O.OO...O.........O.......................O.O..................
.......OOO...OOO..OOO....O........................O...................
......O...O....OOO...O.......................................OOO......
.......O.......O...OO.......................................O...OO.O..
................OO.......OO............................OOO..OOO...OOO.
........................OO.O..........................O.O.OOO....O...O
.......................O.O.OO..........................O....O.......O.
.......................OOOOO......................O.......OO..........
........................O.O....................O......................
.........................O....................O....O..................
..............................................O.......................
..............................................OOO..OO.................
...................................................O..................
........................................OO................OOO.........
.........................................OO..............O...OO.O.....
.....................................OOOOO..........OOO..OOO...OOO....
.......................................OO..........O.O.OOO....O...O...
.......................................O............O....O.......O....
.......................................................OO.............
.....................OO...............................................
....................OO................................................
......................O...............................................
OOO...................................................................
O.........................OOO.........................................
.O....................O.OO...O........................................
.....................OOO...OOO..OOO...................................
....................O...O....OOO.O.O..................................
.....................O.......O....O...................................
..............................OO......................................
