!Name: p9-4
!C A period 9 c/3 ship.
!C David I. Bell, November 2002
!Source: jslife-moving
!
.....O...................O.....
.OOO.OOO...............OOO.OOO.
O......OO.............OO......O
.OO...O..O...........O..O...OO.
...........OOO...OOO...........
.......O..O...O.O...O..O.......
.......O..O.O.O.O.O.O..O.......
......O.O.O..O...O..O.O.O......
........O.OO.......OO.O........
..........O..OO.OO..O..........
.........OOO.......OOO.........
.........O.OOO.O.OOO.O.........
.......OO.OOO.O.O.OOO.OO.......
.............O...O.............
.......O.......O.......O.......
..........O.........O..........
...........O.......O...........
..........O.OOOOOOO.O..........
