!Name: puffer-c10o-p1800
!C A period-1800 c/10 orthogonal puffer
!C constructed using only five fireships
!C By Christoph Reinthaler, 7 Jun 2020
!Source: jslife-moving
!
....................O..O..........................O..O....................
....................O..O..........................O..O....................
...................O....O........................O....O...................
...................O....O...........OO...........O....O...................
...................O....O..........O..O..........O....O...................
...OOOO............O....O..........O..O..........O....O............OOOO...
...O..O...........OOO..OOO........O....O........OOO..OOO...........O..O...
..OOOOOO..........O.OOOO.O........O....O........O.OOOO.O..........OOOOOO..
...................O....O..........OOOO..........O....O...................
..................................OO..OO..................................
.O..OO..O.........................O....O.........................O..OO..O.
.O.OOOO.O............OO...........O....O...........OO............O.OOOO.O.
.O.O..O.O............OO............................OO............O.O..O.O.
.....................OO............................OO.....................
...................O....O..........OOOO..........O....O...................
....OO...........OOO....OOO.........OO.........OOO....OOO...........OO....
....OO..........OOO......OOO..................OOO......OOO..........OO....
................OO........OO.....OO....OO.....OO........OO................
.OO....OO........OOOOOOOOOO.....O..O..O..O.....OOOOOOOOOO........OO....OO.
.OOO..OOO.........OOOOOOOO.......OOO..OOO.......OOOOOOOO.........OOO..OOO.
O..O..O..O..........OOOO.........OO....OO.........OOOO..........O..O..O..O
OO.OOOO.OO......................................................OO.OOOO.OO
.OOOOOOOO........................................................OOOOOOOO.
......................OOO.................................................
......................O...................................................
.......................O..................................................
