!Name: rake-k6-p60
!C A period-60 (2,1)c/6 rake
!C Dmitry Maitak, 12 May 2021
!Source: jslife-moving
!
..........OOO...O..O.O.......................................................................................................................................................................................................................................................................................................................................
..........O..O.O.O.O..O......................................................................................................................................................................................................................................................................................................................................
..........O..O...O.O..O......................................................................................................................................................................................................................................................................................................................................
...........O..........O......................................................................................................................................................................................................................................................................................................................................
..........O...OOOOO...O......................................................................................................................................................................................................................................................................................................................................
..........O.OO.OO.O...O......................................................................................................................................................................................................................................................................................................................................
......O..OO........O..O......................................................................................................................................................................................................................................................................................................................................
....OO.O.OOO.......O.O.......................................................................................................................................................................................................................................................................................................................................
...O.....O..OOO..............................................................................................................................................................................................................................................................................................................................................
..OO...O.....O...............................................................................................................................................................................................................................................................................................................................................
.O......OOOOOO.O.............................................................................................................................................................................................................................................................................................................................................
OOOOOOOO......O..............................................................................................................................................................................................................................................................................................................................................
.......OOOO..OOO.............................................................................................................................................................................................................................................................................................................................................
....O....O...................................................................................................................................................................................................................................................................................................................................................
.O..O.......OOO.O............................................................................................................................................................................................................................................................................................................................................
..O....OO...OOOOO............................................................................................................................................................................................................................................................................................................................................
.......OO.......OO...........................................................................................................................................................................................................................................................................................................................................
.......O.....................................................................................................................................................................................................................................................................................................................................................
.................OO..........................................................................................................................................................................................................................................................................................................................................
...............OOOO..........................................................................................................................................................................................................................................................................................................................................
..............OO.O...........................................................................................................................................................................................................................................................................................................................................
.............OOO.............................................................................................................................................................................................................................................................................................................................................
............O..O.............................................................................................................................................................................................................................................................................................................................................
............O................................................................................................................................................................................................................................................................................................................................................
............O...OOO..........................................................................................................................................................................................................................................................................................................................................
...................OO........................................................................................................................................................................................................................................................................................................................................
.............OO..O..O........................................................................................................................................................................................................................................................................................................................................
.................O.O.O.......................................................................................................................................................................................................................................................................................................................................
..................O...O......................................................................................................................................................................................................................................................................................................................................
................O...OO.O.....................................................................................................................................................................................................................................................................................................................................
...............OOOO.OO...O...................................................................................................................................................................................................................................................................................................................................
..............O..O.O.....O...................................................................................................................................................................................................................................................................................................................................
.................O.......OO..................................................................................................................................................................................................................................................................................................................................
..................OO.....OO..................................................................................................................................................................................................................................................................................................................................
.............OOOO........O...................................................................................................................................................................................................................................................................................................................................
................OO...O...O...................................................................................................................................................................................................................................................................................................................................
.................O..O..O.....................................................................................................................................................................................................................................................................................................................................
.............O.O.OOOOO.......................................................................................................................................................................................................................................................................................................................................
..............OO..O..........................................................................................................................................................................................................................................................................................................................................
.................OO.OO.......................................................................................................................................................................................................................................................................................................................................
....................O........................................................................................................................................................................................................................................................................................................................................
...................O.........................................................................................................................................................................................................................................................................................................................................
..................OOOOO......................................................................................................................................................................................................................................................................................................................................
.................OOO.OO......................................................................................................................................................................................................................................................................................................................................
.................OO..........................................................................................................................................................................................................................................................................................................................................
..................OOO........................................................................................................................................................................................................................................................................................................................................
.....................O.......................................................................................................................................................................................................................................................................................................................................
.....................O.......................................................................................................................................................................................................................................................................................................................................
................OOO..O.O.....................................................................................................................................................................................................................................................................................................................................
.................O...O.......................................................................................................................................................................................................................................................................................................................................
...............OOO...OO......................................................................................................................................................................................................................................................................................................................................
................O.O..OO......................................................................................................................................................................................................................................................................................................................................
.............OO......OO......................................................................................................................................................................................................................................................................................................................................
..............O..OO..........................................................................................................................................................................................................................................................................................................................................
...............OOO....OO.....................................................................................................................................................................................................................................................................................................................................
.................O......O..OO................................................................................................................................................................................................................................................................................................................................
.................O....OO..OO.................................................................................................................................................................................................................................................................................................................................
..................O..O..O..O..O..............................................................................................................................................................................................................................................................................................................................
..................O.OO..O..O..O..............................................................................................................................................................................................................................................................................................................................
....................O...OO...................................................................................................................................................................................................................................................................................................................................
.........................O.O.O...............................................................................................................................................................................................................................................................................................................................
....................O....O.O..O..............................................................................................................................................................................................................................................................................................................................
....................O..........O.............................................................................................................................................................................................................................................................................................................................
..........................O....O.O...........................................................................................................................................................................................................................................................................................................................
......................O....OO....O...........................................................................................................................................................................................................................................................................................................................
..............................O.O............................................................................................................................................................................................................................................................................................................................
..........................O...OOO............................................................................................................................................................................................................................................................................................................................
.........................O.O.................................................................................................................................................................................................................................................................................................................................
..........................O.....O.O..........................................................................................................................................................................................................................................................................................................................
........................OOO..................................................................................................................................................................................................................................................................................................................................
........................O.OO.OOOO............................................................................................................................................................................................................................................................................................................................
......................OO..OOO.OO.............................................................................................................................................................................................................................................................................................................................
.......................O....O.O..............................................................................................................................................................................................................................................................................................................................
........................OO....O..O...........................................................................................................................................................................................................................................................................................................................
.........................OOO..O.O.OO.........................................................................................................................................................................................................................................................................................................................
..........................O.O.O.O..O.........................................................................................................................................................................................................................................................................................................................
.......................OO.O..OO..............................................................................................................................................................................................................................................................................................................................
.......................OO.OO...OOO...........................................................................................................................................................................................................................................................................................................................
..........................OOO..O.............................................................................................................................................................................................................................................................................................................................
.................................O.....................OOO...................................................................................................................................................................................................................................................................................................
................................O.O....................O..O..................................................................................................................................................................................................................................................................................................
..............................O...OO...................O.OO.OO...............................................................................................................................................................................................................................................................................................
.............................OOOO..O..................OO.......OO............................................................................................................................................................................................................................................................................................
............................O..O.O...................O.....O....O............................................................................................................................................................................................................................................................................................
.............................O...OO..O...............O.....O.OO...O..........................................................................................................................................................................................................................................................................................
..................................OOOO..............O.....O...O.O.O..........................................................................................................................................................................................................................................................................................
...................................O...OO...........O....OO...O.O.O..........................................................................................................................................................................................................................................................................................
....................................O....O...........O...O...O...............................................................................................................................................................................................................................................................................................
.......................................O.O...........O.O.O.O..O.O............................................................................................................................................................................................................................................................................................
....................................OO.OO...................O.O.OO...........................................................................................................................................................................................................................................................................................
......................................OO..................OO.....O..OO.......................................................................................................................................................................................................................................................................................
.....................................OO.OO.......................OOOOO.......................................................................................................................................................................................................................................................................................
....................................O...O.....................O..O....O......................................................................................................................................................................................................................................................................................
...................................OO.O..O....................O.O.OO.........................................................................................................................................................................................................................................................................................
...................................O....OO...................OO.OO...OO......................................................................................................................................................................................................................................................................................
...................................O..O.........................O..OO........................................................................................................................................................................................................................................................................................
................................................................OO.O.O.......................................................................................................................................................................................................................................................................................
.....................................OO..........................O..OO.O.....................................................................................................................................................................................................................................................................................
....................................O....O....................OO.O.....O.....................................................................................................................................................................................................................................................................................
.......................................OOO.....................OOOO.OOO......................................................................................................................................................................................................................................................................................
....................................O...O..........................O..O.O....................................................................................................................................................................................................................................................................................
....................................OO.O.O............................O.O....................................................................................................................................................................................................................................................................................
....................................O..O...............................OO....................................................................................................................................................................................................................................................................................
..................................OO.O.O.OO....................OOO.....O..O..................................................................................................................................................................................................................................................................................
.................................O...O.O..................................O..................................................................................................................................................................................................................................................................................
..................................O....O..O.........................OO....O..................................................................................................................................................................................................................................................................................
....................................O.O...OOOOO................O....O...O....................................................................................................................................................................................................................................................................................
......................................OOOOOO..O................OOO..O.O......................................................................................................................................................................................................................................................................................
.....................................OO..OOO......................O..OOO.....................................................................................................................................................................................................................................................................................
.....................................OOO......O................O..O..O..O....................................................................................................................................................................................................................................................................................
..........................................O............................OO..O.................................................................................................................................................................................................................................................................................
....................................O.....OO....................OOO...O.OOO.O................................................................................................................................................................................................................................................................................
....................................O...OO...O..................OO......O.O.O................................................................................................................................................................................................................................................................................
.....................................O.OO....O.......................O.......................................................................................................................................................................................................................................................................................
.........................................O...O.......................O...O...................................................................................................................................................................................................................................................................................
.........................................O.................................O.OO..............................................................................................................................................................................................................................................................................
..........................................OO............................OOOO.................................................................................................................................................................................................................................................................................
..........................................O..OO........................O...O...O.............................................................................................................................................................................................................................................................................
.........................................O....O.........................OOO.OOOO.............................................................................................................................................................................................................................................................................
......................................O.OOO..O............................O.OOOO.............................................................................................................................................................................................................................................................................
.....................................OOO.OO..OO.......................OOOOO.OOOOO............................................................................................................................................................................................................................................................................
....................................O..O..............................O..O.....O.......OO....................................................................................................................................................................................................................................................................
.......................................OO.............................O.OO.....OO......O..O..................................................................................................................................................................................................................................................................
.......................................OOOO...........................O...O....O.OO....O...O.................................................................................................................................................................................................................................................................
.........................................O.O..............................O...O..........OOO.................................................................................................................................................................................................................................................................
.......................................O....O..........................OOO...........OO......OOOO............................................................................................................................................................................................................................................................
........................................OO...........................................O.OO....OOOO............................................................................................................................................................................................................................................................
........................................OO...OOO........................OOO.........O....O......OOO..........................................................................................................................................................................................................................................................
..............................................OO.......................O...O.........OOOO....OO...O..........................................................................................................................................................................................................................................................
...........................................OO...........................O.OO.......O.........OO..............................................................................................................................................................................................................................................................
.................................................O.OO.....................OOO.......O...O....................................................................................................................................................................................................................................................................
................................................OOOO.O...............OOO....OO...........OOO..OO..O..........................................................................................................................................................................................................................................................
................................................O.....O..............OO..O.OO........OO.......O....O.........................................................................................................................................................................................................................................................
................................................O.OO..O................OO...O...................O.OO.........................................................................................................................................................................................................................................................
................................................OOOOOOO..................O...................OO......O.......................................................................................................................................................................................................................................................
.................................................O....O...............OOOOOOOO................OO.OOO.O.......................................................................................................................................................................................................................................................
.................................................OO....OOOOO.........O.....O..O..............OO...O..O.......................................................................................................................................................................................................................................................
.............................O.........................OOOOO.............O..O.O..............O.O..OO.........................................................................................................................................................................................................................................................
............................OOOO....OOO...............................O.OO..OOO..............O..O.O.O........................................................................................................................................................................................................................................................
...........................O..OO..O...O.....................................OOO..............OOO......O......................................................................................................................................................................................................................................................
..............................O..OO.............................................OO............O.O.O...O......................................................................................................................................................................................................................................................
.................................OO.OO.....................OO.............OO....O................OO.O.O......................................................................................................................................................................................................................................................
...........................OOO.......O...................O.O...............O..O.O.............O......OOO.....................................................................................................................................................................................................................................................
..........................OOO.......OO....................OOOO..........OO...OO.OO...........................................................................................................................................................................................................................................................................
..........................OOO......O.O....................OO.OOO.........OO...O.O.............O.........O....................................................................................................................................................................................................................................................
.....................OOO...................................O.O.OOOOO.....OOO..O.O.............O...O......O...................................................................................................................................................................................................................................................
.....................OO.OO..OO..............................O..O.OO.O.....O.OO..O..............O.....OOOOO...................................................................................................................................................................................................................................................
...................O...O...OOO.OOO.............................O.O..O.....O.O.O................OOO...........................................................................................................................................................................................................................................................
...................OOOO.OO....OO.............................O.O..O...........O...O................OO........................................................................................................................................................................................................................................................
..................O.......OOOO..............................O..............OO...O...............OOO..O.......................................................................................................................................................................................................................................................
.................OOO.O.........O.............................O....O........OOOO...............O.OOO.O........................................................................................................................................................................................................................................................
...................O......OOOOOOOO................................O...........OOO............O...O..O........................................................................................................................................................................................................................................................
.......................OO...O....O...........................OOOO.............OOO.............O....OO.OOO....................................................................................................................................................................................................................................................
.........................OOO..O..............................OO................OO...............OOOO.O....OO.................................................................................................................................................................................................................................................
........................O.O...O..O.O........................O...O...........OOO.................O.OOOO....OO.................................................................................................................................................................................................................................................
........................O.O.........O........................OO..O..........O.....O...................O......................................................................................................................................................................................................................................................
....................................O........................................OO..OOOO..................O..OO.................................................................................................................................................................................................................................................
................................OO..............................O.O.............O.OOO..................OO....................................................................................................................................................................................................................................................
................................O.OOO...........................OOO..............O......................OOOOO................................................................................................................................................................................................................................................
..............................O....................................OOOO....OOO...OOO........................OO...............................................................................................................................................................................................................................................
..............................O.OO..............................O...OOO....OOO.....OO.O...............OOO......O.............................................................................................................................................................................................................................................
.............................O..O.OO.....................................O.............................O.O...O.O.............................................................................................................................................................................................................................................
.............................O.OOOOO.............................OO.....O.O.........OO.OO.............O...O...O..............................................................................................................................................................................................................................................
...............................O..OO.OO..............................OOO.O..........OOO...............O...OO.................................................................................................................................................................................................................................................
.......................................O.............................OOOOO...OO.......O..............O......O.OOO............................................................................................................................................................................................................................................
...................................O...O..............................OOO...OO.O......................OO...O...OO............................................................................................................................................................................................................................................
...................................O...OO....................................O........OOOOOO...........OOOO..O..O............................................................................................................................................................................................................................................
........................................O..................................O..O........OOOOO.............OO...O..............................................................................................................................................................................................................................................
.....................................OO....................................O.OO.........................O....................................................................................................................................................................................................................................................
................................OOO.OO...O................................O...OOO....OO.....OO..........OO.O.................................................................................................................................................................................................................................................
................................O..OO..O.OOO..............................OO..OOO....OOO.......OO......O.....................................................................................................................................................................................................................................................
................................O.OO...OO................................OO.OOO.......O.....O..OO.....OOOOO..................................................................................................................................................................................................................................................
.................................O.....OO.................................O.OO........................O....O.................................................................................................................................................................................................................................................
...............................OO....OO.O..................................OO...............OO.......OOO.OOO.................................................................................................................................................................................................................................................
...............................OOO.OO...O......................................O..........OO.OO......O.OOOOO.................................................................................................................................................................................................................................................
.................................OOO....OO.O..................................O.O.........OO.........O.......................................................................................................................................................................................................................................................
................................O.......O.O...............................................OO...........O.....................................................................................................................................................................................................................................................
................................O...O.O..........................................OO.......OOO......O....OOOO.................................................................................................................................................................................................................................................
................................O....O.O..........................................OO......OO...........OOOO.OO...............................................................................................................................................................................................................................................
..................................O....O..........................................O.......OO........OOO....O.................................................................................................................................................................................................................................................
........................................O......................................OOO.........................O.O...............................................................................................................................................................................................................................................
...................................OOO.O........................................O.....O.O......................O.............................................................................................................................................................................................................................................
....................................O.OOO..............................................OO..................O..OO.............................................................................................................................................................................................................................................
.....................................O.OO..............................................O....................OOO..............................................................................................................................................................................................................................................
....................................O....................................................................OO..................................................................................................................................................................................................................................................
...................................O...OO...............................................................OOO.....O............................................................................................................................................................................................................................................
..................................OO..OOO..................................................................OO..O.O...........................................................................................................................................................................................................................................
.......................................OO...............................................................O..OOO.O.O...........................................................................................................................................................................................................................................
.................................O..O......................................................O.O...........OO.O..O.............................................................................................................................................................................................................................................
................................O...OO......................................................OO.............O.O..OO...........................................................................................................................................................................................................................................
................................O....O.O....................................................O................OO..............................................................................................................................................................................................................................................
................................O...O...O................................................................OOO....O............................................................................................................................................................................................................................................
.................................O.......O...............................................................OOO....O............................................................................................................................................................................................................................................
..................................O.O..O..................................................................OO...OOO...........................................................................................................................................................................................................................................
.......................................O..O.OO.............................................................OO.OO.............................................................................................................................................................................................................................................
..................................O.........OO..................................................O.O.........OO...............................................................................................................................................................................................................................................
..................................O.O..OO...OO...................................................OO.........O................................................................................................................................................................................................................................................
.......................................OO....O...................................................O...........................................................................................................................................................................................................................................................
.........................................O..O.O............................................................OO...OOO..........................................................................................................................................................................................................................................
......................................OOOO...................................................................O..OO.O.........................................................................................................................................................................................................................................
......................................OOOOOO..O................................................................O...OO........................................................................................................................................................................................................................................
.............................................O..OO..............................................................O..OO........................................................................................................................................................................................................................................
.............................................O.O.O...................................................O.O............O.O......................................................................................................................................................................................................................................
..................................................O...................................................OO.........OO..OO......................................................................................................................................................................................................................................
...........................................O.....OO...................................................O.............OO.......................................................................................................................................................................................................................................
...........................................O......O.................................................................O.O......................................................................................................................................................................................................................................
...........................................O.......O..................................................................OO.....................................................................................................................................................................................................................................
..........................................O....O.OO.................................................................O.OO.....................................................................................................................................................................................................................................
.........................................O......O...................................................................OOO...O..................................................................................................................................................................................................................................
.........................................O..O....O.O......................................................O.O......OO....OO..................................................................................................................................................................................................................................
.........................................OOOO...O..O.......................................................OO......OOO.......................................................................................................................................................................................................................................
..............................................O..O.........................................................O........O.O......................................................................................................................................................................................................................................
............................................O..O.O.O.................................................................O.O...OOO...............................................................................................................................................................................................................................
.........................................O..O...O..OO................................................................O......O.OO.............................................................................................................................................................................................................................
.........................................OOOO...O.O..O...................................................................O......O............................................................................................................................................................................................................................
.........................................OOOO.....OO.....................................................................O...OO..............................................................................................................................................................................................................................
.............................................OOO.O.OO..........................................................O.O....OO.....................................................................................................................................................................................................................................
..........................................O....OOO.OO.....................O.....................................OO........OOO................................................................................................................................................................................................................................
..........................................O...O.OO.OO....................OOOO...................................O.........OOO................................................................................................................................................................................................................................
..............................................O.O..OO...................O..OO.............................................O..................................................................................................................................................................................................................................
............................................................................O................................................................................................................................................................................................................................................................................
..............................................OO..O..OO.................O.....O...O.......................................OOO................................................................................................................................................................................................................................
..............................................OO..O....................OOOO....OOO.O......................................OO.................................................................................................................................................................................................................................
....................................................O..................O...O....O...................................O.OO.....................................................................................................................................................................................................................................
....................................................OOO.O.............O.OOO.....O..OO..................OO.......O....OO......................................................................................................................................................................................................................................
..................................................O.OOO..................O......OOOOO..................O..O.....OO...O.......................................................................................................................................................................................................................................
...................................................O.O...OO..........OOOO.O..OO..O.O...................O...OOOO..O...........................................................................................................................................................................................................................................
......................................................O..O.............OO..O.....OOOO....................OOO....O.......OO...................................................................................................................................................................................................................................
......................................................OOOO.............OO...O...O...O..................OO...OOOOO......O.O...................................................................................................................................................................................................................................
......................................................O.O.OO....................OOOOO................O..O.....O..O.....OO....................................................................................................................................................................................................................................
.......................................................O......................OOO...O..O........................OO...........................................................................................................................................................................................................................................
.....................................................OOO..OO......................OOO.O.O........O...O.O........O.........OO.................................................................................................................................................................................................................................
..........................................................OO....................O...............O.OOOO..O................O.O.................................................................................................................................................................................................................................
....................................................OOO...O....................OOO.O....O......OO..O..O.OO.O.............OO..................................................................................................................................................................................................................................
.....................................................O.O.O.O...................O....OOO.......O......OO...OO.................................................................................................................................................................................................................................................
.....................................................O...OO.....................OO...OO.O....OOOOOOOO.....O.................OO...............................................................................................................................................................................................................................
..........................................................O.....................O....OOOO...O....O..OOOOO.O................O.O...............................................................................................................................................................................................................................
......................................................O..O.......................O.O..O.....O.OO..........O................OO................................................................................................................................................................................................................................
......................................................OO.OO.....................OOO.O...O.....OO......OOOOO.O................................................................................................................................................................................................................................................
......................................................O.OOO......................OO.....OO.........O........O.................OO.............................................................................................................................................................................................................................
.....................................................OO...O......................OOO...OO.O.......O..OO.O....O...............O.O.............................................................................................................................................................................................................................
....................................................OO...OO......................OOO...OO..O.......O.........................OO..............................................................................................................................................................................................................................
....................................................O...OO.......................O..O...O.OO..................OO.............................................................................................................................................................................................................................................
....................................................OOO..O..O.....................O.............................................OO...........................................................................................................................................................................................................................
....................................................OO...O...O....................O...O....................OOO.O...............O.O...........................................................................................................................................................................................................................
.......................................................O......O......................OO...................OO.OO................OO............................................................................................................................................................................................................................
.......................................................O.O.OO.O.OO..............OOO.OOO....................O.OO..............................................................................................................................................................................................................................................
........................................................OO....O.................OO.O....................OO.OOO....................OO.........................................................................................................................................................................................................................
..............................................................OO................OO...O...O..............O.....O..................O.O.........................................................................................................................................................................................................................
.......................................................OO..OOOO...................OOOO.O.OO.O.............O......................OO..........................................................................................................................................................................................................................
......................................................OOOOO...OO..................O...OO.OOOOO...........OO...OO.O...........................................................................................................................................................................................................................................
............................................................O.OO..........................O..................OOO..O.................OO.......................................................................................................................................................................................................................
.......................................................O....O............................OO.OO...................OO................O.O.......................................................................................................................................................................................................................
........................................................O...O..O..........................OOO.....................OO...............OO........................................................................................................................................................................................................................
..........................................................O.OO.O.............................O...................O.O.........................................................................................................................................................................................................................................
.........................................................OOO..O..........................O....OO............O..OOO....................OO.....................................................................................................................................................................................................................
.........................................................OO.OO...........................O.....OOO.........OOO.....OO................O.O.....................................................................................................................................................................................................................
..........................................................O.....O........................O.....OOO........OO....OOO.OO...............OO......................................................................................................................................................................................................................
...........................................................OO...O.........................OOO..............O.OOO.O...O.......................................................................................................................................................................................................................................
......................................................OOO.....O.........................OOOOO.............O.OO......O...................OO...................................................................................................................................................................................................................
......................................................O........OO.......................O.....O.OO........O..O.OOO.OO..................O.O...................................................................................................................................................................................................................
......................................................O.O..............................O.OO.OOOO.OO.......O...OOO..O...................OO....................................................................................................................................................................................................................
...............................................................................................O..........O...OO..OO.O.......................................................................................................................................................................................................................................
........................................................OOOOO.............................O..O..OO.........O.OO...OO.O....................OO.................................................................................................................................................................................................................
.........................................................O.O...............................OO.............OOO...OOO......................O.O.................................................................................................................................................................................................................
............................................................O..............................OOO..............O...O.O......................OO..................................................................................................................................................................................................................
..........................................................OO..OOO........................O.......................OOO.........................................................................................................................................................................................................................................
..............................................................O..O.......................OOOOO................OO.OOO........................OO...............................................................................................................................................................................................................
...............................................................OOO......................O.....................OOO..........................O.O...............................................................................................................................................................................................................
.................................................................OO.OO..................OO.OO.................O............................OO................................................................................................................................................................................................................
..................................................................O...O................O....OO.................OO..O.........................................................................................................................................................................................................................................
..................................................................O....O...............O.O.....................O.O............................OO.............................................................................................................................................................................................................
...................................................................O..OO..............OO.....................OOO.O.O.........................O.O.............................................................................................................................................................................................................
...................................................................O..................OO.OOO.OO..............OO..O..O........................OO..............................................................................................................................................................................................................
..................................................................OOO.....OOO.........OO....O...O............OO..O.O.........................................................................................................................................................................................................................................
..................................................................O....OO..............OO.....O..O.............OO...............................OO...........................................................................................................................................................................................................
.......................................................................OO....O...............O.............OO..OOO.............................O.O...........................................................................................................................................................................................................
........................................................................O....O................OO..O.......OOO...OO.............................OO............................................................................................................................................................................................................
.........................................................................O...................OOOOO.........OO......O.........................................................................................................................................................................................................................................
..........................................................................OO...............O................O.O....O..............................OO.........................................................................................................................................................................................................
............................................................................OOO....................................O.............................O.O.........................................................................................................................................................................................................
...........................................................................................OO.................O.......OOO........................OO..........................................................................................................................................................................................................
............................................................................OO.O..........OO.....OOO..........O...OO.....O...................................................................................................................................................................................................................................
............................................................................O.O.O.........OO.OOO..OO..........O...OO.....O..........................OO.......................................................................................................................................................................................................
..............................................................................O.O..OOO......O.O...................O.O....O.........................O.O.......................................................................................................................................................................................................
............................................................................O...O...OO..........O.OO.............O..O...O..........................OO........................................................................................................................................................................................................
.............................................................................OO.O.OO........O...O.OO.............O....O.O....................................................................................................................................................................................................................................
................................................................................O.O.........O...O.O..............O...O................................OO.....................................................................................................................................................................................................
..................................................................................O.........O.....O...............OOOO.OO.OOO........................O.O.....................................................................................................................................................................................................
...............................................................................OOO..........O...O.OO.....................O..OO.......................OO......................................................................................................................................................................................................
...............................................................................OOO...........O.............................O.O...............................................................................................................................................................................................................................
..............................................................................OO..............OOO...........................OOO.........................OO...................................................................................................................................................................................................
..............................................................................O......................................OOO....OOO........................O.O...................................................................................................................................................................................................
.............................................................................O...OO...........O......................OO.....O.O........................OO....................................................................................................................................................................................................
..............................................................................O..O............O....O.................O.....OOO...............................................................................................................................................................................................................................
..............................................................................................O.OO.OO...............OO.....O..............................OO.................................................................................................................................................................................................
...................................................................................OO...............OO.............OO..O...OOO...........................O.O.................................................................................................................................................................................................
.................................................................................OO.OOO...........OO.O.O............OOOOO..OO............................OO..................................................................................................................................................................................................
.................................................................................OO.O.OO.....OO....OO...O............O.OO.O.O................................................................................................................................................................................................................................
..................................................................................O.O...O...OO.O...O...OO...............O.O.O.OO............................OO...............................................................................................................................................................................................
....................................................................................OOO.OO.OOO.O.......O............O..OO.OO..OO...........................O.O...............................................................................................................................................................................................
..........................................................................................OO.........O...O.........O....O....O.............................OO................................................................................................................................................................................................
.......................................................................................O.....OO......O...O..........O....OOO.................................................................................................................................................................................................................................
.......................................................................................O.......O.........OO.........O..OOOO.O.................................OO.............................................................................................................................................................................................
................................................................................................O.....OO..OOO...........O.......O............................O.O.............................................................................................................................................................................................
...........................................................................................OO...O.....O..O.O.............O......O............................OO..............................................................................................................................................................................................
..............................................................................................OOO.....O....................OOOOO.............................................................................................................................................................................................................................
.............................................................................................O..O.....O.......O..........O....OOO...............................OO...........................................................................................................................................................................................
............................................................................................O.OO.......OOO...O...........OO....................................O.O...........................................................................................................................................................................................
............................................................................................O.O.........OO....O.OO.......OO...O.O..............................OO............................................................................................................................................................................................
...........................................................................................O.O...........OOO...OO.O...........OO.............................................................................................................................................................................................................................
...........................................................................................O...........O..O.....O.O..............OO...............................OO.........................................................................................................................................................................................
...............................................................................................O........OO........................O.O............................O.O.........................................................................................................................................................................................
...........................................................................................O.................OO...............O.....OO...........................OO..........................................................................................................................................................................................
..............................................................................................O.OO.........O.O..................OO...........................................................................................................................................................................................................................
...............................................................................................OO.O.......O.....................OO..................................OO.......................................................................................................................................................................................
...............................................................................................O...O.........O...................O...O.............................O.O.......................................................................................................................................................................................
................................................................................................O.O..........O..................O..OO..............................OO........................................................................................................................................................................................
.................................................................................................O....O...O..O...................OO..OO......................................................................................................................................................................................................................
.......................................................................................................OO...O..................O..O.O.................................OO.....................................................................................................................................................................................
.....................................................................................................O.OO......................OOO..O................................O.O.....................................................................................................................................................................................
...................................................................................................O.O.............................OO.O..............................OO......................................................................................................................................................................................
...................................................................................................O.O...........................O.OO.O......................................................................................................................................................................................................................
.....................................................................................................................................O..................................OO...................................................................................................................................................................................
.................................................................................................................................OOOO..................................O.O...................................................................................................................................................................................
.............................................................................................................O..................OO.....................................OO....................................................................................................................................................................................
...........................................................................................................O.O.....................O..O......................................................................................................................................................................................................................
............................................................................................................OO.................O.OOO..O...................................OO.................................................................................................................................................................................
...............................................................................................................................O.O.O.O...................................O.O.................................................................................................................................................................................
..............................................................................................................................O..O.O.....................................OO..................................................................................................................................................................................
..............................................................................................................................O..O..OO.......................................................................................................................................................................................................................
...............................................................................................................................O...O....O...................................OO...............................................................................................................................................................................
..................................................................................................................O..............O...O.O.OO................................O.O...............................................................................................................................................................................
................................................................................................................O.O...............O.OO...O.................................OO................................................................................................................................................................................
.................................................................................................................OO................OOO...O.O.................................................................................................................................................................................................................
..................................................................................................................................O.O..O..O...................................OO.............................................................................................................................................................................
.................................................................................................................................O...OOO.....................................O.O.............................................................................................................................................................................
.................................................................................................................................O..OO.......................................OO..............................................................................................................................................................................
.................................................................................................................................O..O.O..OO..................................................................................................................................................................................................................
.......................................................................................................................O..............OO.OO.....................................OO...........................................................................................................................................................................
.....................................................................................................................O.O...............O.O.....................................O.O...........................................................................................................................................................................
......................................................................................................................OO.............O.OO.O....................................OO............................................................................................................................................................................
.........................................................................................................................................O...................................................................................................................................................................................................................
.......................................................................................................................................OO.........................................OO.........................................................................................................................................................................
....................................................................................................................................OO..O........................................O.O.........................................................................................................................................................................
..................................................................................................................................O...O...O......................................OO..........................................................................................................................................................................
............................................................................................................................O....OO........O.................................................................................................................................................................................................................
..........................................................................................................................O.O...OO.O......O.........................................OO.......................................................................................................................................................................
...........................................................................................................................OO.....O................................................O.O.......................................................................................................................................................................
..................................................................................................................................OO.OO............................................OO........................................................................................................................................................................
...................................................................................................................................OO.OO.....................................................................................................................................................................................................................
...................................................................................................................................OO.................................................OO.....................................................................................................................................................................
.......................................................................................................................................O..O..........................................O.O.....................................................................................................................................................................
.................................................................................................................................O....O.OOOO.........................................OO......................................................................................................................................................................
...............................................................................................................................O.O.......O..O................................................................................................................................................................................................................
................................................................................................................................OO........O.............................................OO...................................................................................................................................................................
.............................................................................................................................................OO.O......................................O.O...................................................................................................................................................................
.............................................................................................................................................O..OO.....................................OO....................................................................................................................................................................
.............................................................................................................................................OO...O..........................................................................................................................................................................................................
.............................................................................................................................................OO..OO.......................................OO.................................................................................................................................................................
......................................................................................................................................O...............O..................................O.O.................................................................................................................................................................
....................................................................................................................................O.O......O.O......O..................................OO..................................................................................................................................................................
.....................................................................................................................................OO......O....OOO.OO.....................................................................................................................................................................................................
....................................................................................................................................................O.......................................OO...............................................................................................................................................................
..................................................................................................................................................OOO......................................O.O...............................................................................................................................................................
....................................................................................................................................................OO.....................................OO................................................................................................................................................................
.....................................................................................................................................................OOOO....................................................................................................................................................................................................
...........................................................................................................................................O..........OOO.....................................OO.............................................................................................................................................................
.........................................................................................................................................O.O.................................................O.O.............................................................................................................................................................
..........................................................................................................................................OO...........OOOO..................................OO..............................................................................................................................................................
.......................................................................................................................................................O.O.O...O.............................................................................................................................................................................................
...........................................................................................................................................................OO.O.O...............................OO...........................................................................................................................................................
.........................................................................................................................................................O.O.O..O..............................O.O...........................................................................................................................................................
........................................................................................................................................................O..O.OOO...............................OO............................................................................................................................................................
................................................................................................................................................O.........O..O...............................................................................................................................................................................................
..............................................................................................................................................O.O.........O..O....................................OO.........................................................................................................................................................
...............................................................................................................................................OO.........O..O...................................O.O.........................................................................................................................................................
............................................................................................................................................................O....................................OO..........................................................................................................................................................
.........................................................................................................................................................O...................................................................................................................................................................................................
........................................................................................................................................................OOO.........................................OO.......................................................................................................................................................
........................................................................................................................................................OO..OO.....................................O.O.......................................................................................................................................................
.....................................................................................................................................................O......OO.....................................OO........................................................................................................................................................
...................................................................................................................................................O.O.......................................................................................................................................................................................................
....................................................................................................................................................OO.......OOO......................................OO.....................................................................................................................................................
............................................................................................................................................................O....OO..................................O.O.....................................................................................................................................................
...............................................................................................................................................................O.OO....OOO...........................OO......................................................................................................................................................
............................................................................................................................................................OO.O...OO.O...O..................................................................................................................................................................................
..............................................................................................................................................................OOO.OOO...O...............................OO...................................................................................................................................................
..........................................................................................................................................................O.....OOOOOOO................................O.O...................................................................................................................................................
........................................................................................................................................................O.O..............O.............................OO....................................................................................................................................................
.........................................................................................................................................................OO..............OO..................................................................................................................................................................................
..........................................................................................................................................................................OO..............................OO.................................................................................................................................................
...........................................................................................................................................................................OO............................O.O.................................................................................................................................................
.......................................................................................................................................................................OOO.OO............................OO..................................................................................................................................................
........................................................................................................................................................................O..O.................................................................................................................................................................................
...............................................................................................................................................................O.......O.OO.................................OO...............................................................................................................................................
.............................................................................................................................................................O.O......OO.OO................................O.O...............................................................................................................................................
..............................................................................................................................................................OO......O.O..................................OO................................................................................................................................................
.......................................................................................................................................................................O.....................................................................................................................................................................................
..............................................................................................................................................................................................................OO.............................................................................................................................................
.........................................................................................................................................................................OO..................................O.O.............................................................................................................................................
.............................................................................................................................................................................................................OO..............................................................................................................................................
....................................................................................................................................................................O........................................................................................................................................................................................
..................................................................................................................................................................O.O...........................................OO...........................................................................................................................................
...................................................................................................................................................................OO..........................................O.O...........................................................................................................................................
...............................................................................................................................................................................................................OO............................................................................................................................................
..................................................................................................................................................................................................................OO.........................................................................................................................................
.................................................................................................................................................................................................................O.O.........................................................................................................................................
.........................................................................................................................................................................O.......................................OO..........................................................................................................................................
.......................................................................................................................................................................O.O...................................................................................................................................................................................
........................................................................................................................................................................OO..........................................OO.......................................................................................................................................
...................................................................................................................................................................................................................O.O.......................................................................................................................................
...................................................................................................................................................................................................................OO........................................................................................................................................
......................................................................................................................................................................................................................OO.....................................................................................................................................
..............................................................................................................................................................................O......................................O.O.....................................................................................................................................
............................................................................................................................................................................O.O......................................OO......................................................................................................................................
.............................................................................................................................................................................OO..............................................................................................................................................................................
........................................................................................................................................................................................................................OO...................................................................................................................................
.......................................................................................................................................................................................................................O.O...................................................................................................................................
.......................................................................................................................................................................................................................OO....................................................................................................................................
...................................................................................................................................................................................O......................................OO.................................................................................................................................
.................................................................................................................................................................................O.O.....................................O.O.................................................................................................................................
..................................................................................................................................................................................OO.....................................OO..................................................................................................................................
............................................................................................................................................................................................................................OO...............................................................................................................................
...........................................................................................................................................................................................................................O.O...............................................................................................................................
...........................................................................................................................................................................................................................OO................................................................................................................................
........................................................................................................................................................................................O....................................................................................................................................................................
......................................................................................................................................................................................O.O.....................................OO.............................................................................................................................
.......................................................................................................................................................................................OO....................................O.O.............................................................................................................................
.............................................................................................................................................................................................................................OO..............................................................................................................................
................................................................................................................................................................................................................................OO...........................................................................................................................
...............................................................................................................................................................................................................................O.O...........................................................................................................................
.............................................................................................................................................................................................O.................................OO............................................................................................................................
...........................................................................................................................................................................................O.O...............................................................................................................................................................
............................................................................................................................................................................................OO....................................OO.........................................................................................................................
.................................................................................................................................................................................................................................O.O.........................................................................................................................
.................................................................................................................................................................................................................................OO..........................................................................................................................
....................................................................................................................................................................................................................................OO.......................................................................................................................
..................................................................................................................................................................................................O................................O.O.......................................................................................................................
................................................................................................................................................................................................O.O................................OO........................................................................................................................
.................................................................................................................................................................................................OO..........................................................................................................................................................
......................................................................................................................................................................................................................................OO.....................................................................................................................
.....................................................................................................................................................................................................................................O.O.....................................................................................................................
.....................................................................................................................................................................................................................................OO......................................................................................................................
.......................................................................................................................................................................................................O................................OO...................................................................................................................
.....................................................................................................................................................................................................O.O...............................O.O...................................................................................................................
......................................................................................................................................................................................................OO...............................OO....................................................................................................................
..........................................................................................................................................................................................................................................OO.................................................................................................................
.........................................................................................................................................................................................................................................O.O.................................................................................................................
.........................................................................................................................................................................................................................................OO..................................................................................................................
............................................................................................................................................................................................................O................................................................................................................................................
..........................................................................................................................................................................................................O.O...............................OO...............................................................................................................
...........................................................................................................................................................................................................OO..............................O.O...............................................................................................................
...........................................................................................................................................................................................................................................OO................................................................................................................
..............................................................................................................................................................................................................................................OO.............................................................................................................
.............................................................................................................................................................................................................................................O.O.............................................................................................................
.................................................................................................................................................................................................................O...........................OO..............................................................................................................
...............................................................................................................................................................................................................O.O...........................................................................................................................................
................................................................................................................................................................................................................OO..............................OO...........................................................................................................
...............................................................................................................................................................................................................................................O.O...........................................................................................................
...............................................................................................................................................................................................................................................OO............................................................................................................
..................................................................................................................................................................................................................................................OO.........................................................................................................
......................................................................................................................................................................................................................O..........................O.O.........................................................................................................
....................................................................................................................................................................................................................O.O..........................OO..........................................................................................................
.....................................................................................................................................................................................................................OO......................................................................................................................................
....................................................................................................................................................................................................................................................OO.......................................................................................................
...................................................................................................................................................................................................................................................O.O.......................................................................................................
...................................................................................................................................................................................................................................................OO........................................................................................................
...........................................................................................................................................................................................................................O..........................OO.....................................................................................................
.........................................................................................................................................................................................................................O.O.........................O.O.....................................................................................................
..........................................................................................................................................................................................................................OO.........................OO......................................................................................................
........................................................................................................................................................................................................................................................OO...................................................................................................
.......................................................................................................................................................................................................................................................O.O...................................................................................................
.......................................................................................................................................................................................................................................................OO....................................................................................................
................................................................................................................................................................................................................................O............................................................................................................................
..............................................................................................................................................................................................................................O.O.........................OO.................................................................................................
...............................................................................................................................................................................................................................OO........................O.O.................................................................................................
.........................................................................................................................................................................................................................................................OO..................................................................................................
............................................................................................................................................................................................................................................................OO...............................................................................................
...........................................................................................................................................................................................................................................................O.O...............................................................................................
.....................................................................................................................................................................................................................................O.....................OO................................................................................................
...................................................................................................................................................................................................................................O.O.......................................................................................................................
....................................................................................................................................................................................................................................OO........................OO.............................................................................................
.............................................................................................................................................................................................................................................................O.O.............................................................................................
.............................................................................................................................................................................................................................................................OO..............................................................................................
................................................................................................................................................................................................................................................................OO...........................................................................................
..........................................................................................................................................................................................................................................O....................O.O...........................................................................................
........................................................................................................................................................................................................................................O.O....................OO............................................................................................
.........................................................................................................................................................................................................................................OO..................................................................................................................
..................................................................................................................................................................................................................................................................OO.........................................................................................
.................................................................................................................................................................................................................................................................O.O.........................................................................................
.................................................................................................................................................................................................................................................................OO..........................................................................................
...............................................................................................................................................................................................................................................O....................OO.......................................................................................
.............................................................................................................................................................................................................................................O.O...................O.O.......................................................................................
..............................................................................................................................................................................................................................................OO...................OO........................................................................................
......................................................................................................................................................................................................................................................................OO.....................................................................................
.....................................................................................................................................................................................................................................................................O.O.....................................................................................
.....................................................................................................................................................................................................................................................................OO......................................................................................
....................................................................................................................................................................................................................................................O........................................................................................................
..................................................................................................................................................................................................................................................O.O...................OO...................................................................................
...................................................................................................................................................................................................................................................OO..................O.O...................................................................................
.......................................................................................................................................................................................................................................................................OO....................................................................................
..........................................................................................................................................................................................................................................................................OO.................................................................................
.........................................................................................................................................................................................................................................................................O.O.................................................................................
.........................................................................................................................................................................................................................................................O...............OO..................................................................................
.......................................................................................................................................................................................................................................................O.O...................................................................................................
........................................................................................................................................................................................................................................................OO..................OO...............................................................................
...........................................................................................................................................................................................................................................................................O.O...............................................................................
...........................................................................................................................................................................................................................................................................OO................................................................................
..............................................................................................................................................................................................................................................................................OO.............................................................................
..............................................................................................................................................................................................................................................................O..............O.O.............................................................................
............................................................................................................................................................................................................................................................O.O..............OO..............................................................................
.............................................................................................................................................................................................................................................................OO..............................................................................................
................................................................................................................................................................................................................................................................................OO...........................................................................
...............................................................................................................................................................................................................................................................................O.O...........................................................................
...............................................................................................................................................................................................................................................................................OO............................................................................
...................................................................................................................................................................................................................................................................O..............OO.........................................................................
.................................................................................................................................................................................................................................................................O.O.............O.O.........................................................................
..................................................................................................................................................................................................................................................................OO.............OO..........................................................................
....................................................................................................................................................................................................................................................................................OO.......................................................................
...................................................................................................................................................................................................................................................................................O.O.......................................................................
...................................................................................................................................................................................................................................................................................OO........................................................................
........................................................................................................................................................................................................................................................................O....................................................................................
......................................................................................................................................................................................................................................................................O.O.............OO.....................................................................
.......................................................................................................................................................................................................................................................................OO............O.O.....................................................................
.....................................................................................................................................................................................................................................................................................OO......................................................................
........................................................................................................................................................................................................................................................................................OO...................................................................
.......................................................................................................................................................................................................................................................................................O.O...................................................................
.............................................................................................................................................................................................................................................................................O.........OO....................................................................
...........................................................................................................................................................................................................................................................................O.O...............................................................................
............................................................................................................................................................................................................................................................................OO............OO.................................................................
.........................................................................................................................................................................................................................................................................................O.O.................................................................
.........................................................................................................................................................................................................................................................................................OO..................................................................
............................................................................................................................................................................................................................................................................................OO...............................................................
..................................................................................................................................................................................................................................................................................O........O.O...............................................................
................................................................................................................................................................................................................................................................................O.O........OO................................................................
.................................................................................................................................................................................................................................................................................OO..........................................................................
..............................................................................................................................................................................................................................................................................................OO.............................................................
.............................................................................................................................................................................................................................................................................................O.O.............................................................
.............................................................................................................................................................................................................................................................................................OO..............................................................
.......................................................................................................................................................................................................................................................................................O........OO...........................................................
.....................................................................................................................................................................................................................................................................................O.O.......O.O...........................................................
......................................................................................................................................................................................................................................................................................OO.......OO............................................................
..................................................................................................................................................................................................................................................................................................OO.........................................................
.................................................................................................................................................................................................................................................................................................O.O.........................................................
.................................................................................................................................................................................................................................................................................................OO..........................................................
............................................................................................................................................................................................................................................................................................O................................................................
..........................................................................................................................................................................................................................................................................................O.O.......OO.......................................................
...........................................................................................................................................................................................................................................................................................OO......O.O.......................................................
...................................................................................................................................................................................................................................................................................................OO........................................................
......................................................................................................................................................................................................................................................................................................OO.....................................................
.....................................................................................................................................................................................................................................................................................................O.O.....................................................
.................................................................................................................................................................................................................................................................................................O...OO......................................................
...............................................................................................................................................................................................................................................................................................O.O...........................................................
................................................................................................................................................................................................................................................................................................OO......OO...................................................
.......................................................................................................................................................................................................................................................................................................O.O...................................................
.......................................................................................................................................................................................................................................................................................................OO....................................................
......................................................................................................................................................................................................................................................................................................O......................................................
....................................................................................................................................................................................................................................................................................................O.O......................................................
.....................................................................................................................................................................................................................................................................................................OO......................................................
..............................................................................................................................................................................................................................................................................................................OO.............................................
..............................................................................................................................................................................................................................................................................................................O.O............................................
.............................................................................................................................................................................................................................................................................................................OOO.............................................
............................................................................................................................................................................................................................................................................................................OO...............................................
............................................................................................................................................................................................................................................................................................................OO...............................................
.........................................................................................................................................................................................................................................................................................O...................................................................
........................................................................................................................................................................................................................................................................................OOOO....OOO..........................................................
.......................................................................................................................................................................................................................................................................................O..OO..O...O........OO....OO..........................................
..........................................................................................................................................................................................................................................................................................O..OO...........OO.O....OO.........................................
.............................................................................................................................................................................................................................................................................................OO.OO........OO.......O.........................................
.......................................................................................................................................................................................................................................................................................OOO.......O........O.......OOO........................................
......................................................................................................................................................................................................................................................................................OOO.......OO.....O......OO.O.OO........................................
......................................................................................................................................................................................................................................................................................OOO......O.O......OOO.OO..OOOO.........................................
.................................................................................................................................................................................................................................................................................OOO.....................OOOO....OO..........................................
.................................................................................................................................................................................................................................................................................OO.OO..OO................OO.................................................
...............................................................................................................................................................................................................................................................................O...O...OOO.OOO...............................................................
...............................................................................................................................................................................................................................................................................OOOO.OO....OO.................................................................
..............................................................................................................................................................................................................................................................................O.......OOOO...................................................................
.............................................................................................................................................................................................................................................................................OOO.O.........O.................................................................
...............................................................................................................................................................................................................................................................................O......OOOOOOOO...............................................................
...................................................................................................................................................................................................................................................................................OO...O....O...............................................................
.....................................................................................................................................................................................................................................................................................OOO..O..................................................................
....................................................................................................................................................................................................................................................................................O.O...O..O.O.............................................................
....................................................................................................................................................................................................................................................................................O.O.........O............................................................
................................................................................................................................................................................................................................................................................................O............................................................
............................................................................................................................................................................................................................................................................................OO...............................................................
............................................................................................................................................................................................................................................................................................O.OOO............................................................
..........................................................................................................................................................................................................................................................................................O..................................................................
..........................................................................................................................................................................................................................................................................................O.OO...............................................................
.........................................................................................................................................................................................................................................................................................O..O.OO.............................................................
.........................................................................................................................................................................................................................................................................................O.OOOOO...............................O.............................
...........................................................................................................................................................................................................................................................................................O..OO.OO..........................O.O.............................
...................................................................................................................................................................................................................................................................................................O..........................OO.............................
...............................................................................................................................................................................................................................................................................................O...O.........................................................
...............................................................................................................................................................................................................................................................................................O...OO........................................................
....................................................................................................................................................................................................................................................................................................O........................................................
.................................................................................................................................................................................................................................................................................................OO..........................................................
............................................................................................................................................................................................................................................................................................OOO.OO...O.......................................................
............................................................................................................................................................................................................................................................................................O..OO..O.OOO.....................................................
............................................................................................................................................................................................................................................................................................O.OO...OO........................................................
.............................................................................................................................................................................................................................................................................................O.....OO........................................................
...........................................................................................................................................................................................................................................................................................OO....OO.O........................................................
...........................................................................................................................................................................................................................................................................................OOO.OO...O........................................................
.............................................................................................................................................................................................................................................................................................OOO....OO.O.....................................................
............................................................................................................................................................................................................................................................................................O.......O.O......................................................
............................................................................................................................................................................................................................................................................................O...O.O..........................................................
............................................................................................................................................................................................................................................................................................O....O.O.........................................................
..............................................................................................................................................................................................................................................................................................O....O.........................................................
....................................................................................................................................................................................................................................................................................................O........................................................
...............................................................................................................................................................................................................................................................................................OOO.O.........................................................
................................................................................................................................................................................................................................................................................................O.OOO........................................................
.................................................................................................................................................................................................................................................................................................O.OO........................................................
................................................................................................................................................................................................................................................................................................O............................................................
...............................................................................................................................................................................................................................................................................................O...OO........................................................
..............................................................................................................................................................................................................................................................................................OO..OOO........................................................
...................................................................................................................................................................................................................................................................................................OO........................................................
.............................................................................................................................................................................................................................................................................................O..O............................................................
............................................................................................................................................................................................................................................................................................O...OO...........................................................
............................................................................................................................................................................................................................................................................................O....O.O.........................................................
............................................................................................................................................................................................................................................................................................O...O...O........................................................
.............................................................................................................................................................................................................................................................................................O.......O.......................................................
..............................................................................................................................................................................................................................................................................................O.O..O.........................................................
...................................................................................................................................................................................................................................................................................................O..O.OO...................................................
..............................................................................................................................................................................................................................................................................................O.........OO...................................................
..............................................................................................................................................................................................................................................................................................O.O..OO...OO...................................................
...................................................................................................................................................................................................................................................................................................OO....O..............................................O....
.....................................................................................................................................................................................................................................................................................................O..O.O...........................................O.O....
..................................................................................................................................................................................................................................................................................................OOOO.................................................OO....
..................................................................................................................................................................................................................................................................................................OOOOOO..O..................................................
.........................................................................................................................................................................................................................................................................................................O..OO...............................................
.........................................................................................................................................................................................................................................................................................................O.O.O...............................................
..............................................................................................................................................................................................................................................................................................................O..............................................
.......................................................................................................................................................................................................................................................................................................O.....OO..............................................
.......................................................................................................................................................................................................................................................................................................O......O..............................................
.......................................................................................................................................................................................................................................................................................................O.......O.............................................
......................................................................................................................................................................................................................................................................................................O....O.OO..............................................
.....................................................................................................................................................................................................................................................................................................O......O................................................
.....................................................................................................................................................................................................................................................................................................O..O....O.O.............................................
.....................................................................................................................................................................................................................................................................................................OOOO...O..O.............................................
..........................................................................................................................................................................................................................................................................................................O..O...............................................
........................................................................................................................................................................................................................................................................................................O..O.O.O.............................................
.....................................................................................................................................................................................................................................................................................................O..O...O..OO............................................
.....................................................................................................................................................................................................................................................................................................OOOO...O.O..O...........................................
.....................................................................................................................................................................................................................................................................................................OOOO.....OO.............................................
.........................................................................................................................................................................................................................................................................................................OOO.O.OO............................................
......................................................................................................................................................................................................................................................................................................O....OOO.OO............................................
......................................................................................................................................................................................................................................................................................................O...O.OO.OO............................................
..........................................................................................................................................................................................................................................................................................................O.O..OO............................................
..........................................................................................................................................................................................................................................................................................................OO..O..OO..........................................
..........................................................................................................................................................................................................................................................................................................OO..O..............................................
................................................................................................................................................................................................................................................................................................................O............................................
................................................................................................................................................................................................................................................................................................................OOO.O........................................
..............................................................................................................................................................................................................................................................................................................O.OOO..........................................
...............................................................................................................................................................................................................................................................................................................O.O...OO......................................
..................................................................................................................................................................................................................................................................................................................O..O.......................................
..................................................................................................................................................................................................................................................................................................................OOOO.......................................
..................................................................................................................................................................................................................................................................................................................O.O.OO.....................................
...................................................................................................................................................................................................................................................................................................................O.........................................
.................................................................................................................................................................................................................................................................................................................OOO..OO.....................................
......................................................................................................................................................................................................................................................................................................................OO.....................................
................................................................................................................................................................................................................................................................................................................OOO...O......................................
.................................................................................................................................................................................................................................................................................................................O.O.O.O.....................................
.................................................................................................................................................................................................................................................................................................................O...OO......................................
......................................................................................................................................................................................................................................................................................................................O......................................
..................................................................................................................................................................................................................................................................................................................O..O.......................................
..................................................................................................................................................................................................................................................................................................................OO.OO......................................
..................................................................................................................................................................................................................................................................................................................O.OOO......................................
.................................................................................................................................................................................................................................................................................................................OO...O......................................
................................................................................................................................................................................................................................................................................................................OO...OO......................................
................................................................................................................................................................................................................................................................................................................O...OO.......................................
................................................................................................................................................................................................................................................................................................................OOO..O..O....................................
................................................................................................................................................................................................................................................................................................................OO...O...O...................................
...................................................................................................................................................................................................................................................................................................................O......O..................................
...................................................................................................................................................................................................................................................................................................................O.O.OO.O.OO...............................
....................................................................................................................................................................................................................................................................................................................OO....O..................................
..........................................................................................................................................................................................................................................................................................................................OO.................................
...................................................................................................................................................................................................................................................................................................................OO..OOOO..................................
..................................................................................................................................................................................................................................................................................................................OOOOO...OO.................................
........................................................................................................................................................................................................................................................................................................................O.OO.................................
...................................................................................................................................................................................................................................................................................................................O....O....................................
....................................................................................................................................................................................................................................................................................................................O...O..O.................................
......................................................................................................................................................................................................................................................................................................................O.OO.O.................................
.....................................................................................................................................................................................................................................................................................................................OOO..O..................................
.....................................................................................................................................................................................................................................................................................................................OO.OO...................................
......................................................................................................................................................................................................................................................................................................................O.....O................................
.......................................................................................................................................................................................................................................................................................................................OO...O................................
..................................................................................................................................................................................................................................................................................................................OOO.....O..................................
..................................................................................................................................................................................................................................................................................................................O........OO................................
..................................................................................................................................................................................................................................................................................................................O.O........................................
....................................................................................................................................................................................................................................................................................................................OOOOO....................................
.....................................................................................................................................................................................................................................................................................................................O.O.....................................
........................................................................................................................................................................................................................................................................................................................O....................................
......................................................................................................................................................................................................................................................................................................................OO..OOO................................
..........................................................................................................................................................................................................................................................................................................................O..O...............................
...........................................................................................................................................................................................................................................................................................................................OOO...............................
.............................................................................................................................................................................................................................................................................................................................OO.OO...........................
..............................................................................................................................................................................................................................................................................................................................O...O..........................
..............................................................................................................................................................................................................................................................................................................................O....O.........................
...............................................................................................................................................................................................................................................................................................................................O..OO.........................
...............................................................................................................................................................................................................................................................................................................................O.............................
..............................................................................................................................................................................................................................................................................................................................OOO.....OOO....................
..............................................................................................................................................................................................................................................................................................................................O....OO........................
...................................................................................................................................................................................................................................................................................................................................OO....O...................
....................................................................................................................................................................................................................................................................................................................................O....O...................
.....................................................................................................................................................................................................................................................................................................................................O.......................
......................................................................................................................................................................................................................................................................................................................................OO.....................
........................................................................................................................................................................................................................................................................................................................................OOO..................
........................................................................................................................................................................................................................................................................................................................................OO.O.................
........................................................................................................................................................................................................................................................................................................................................O.O.O................
..........................................................................................................................................................................................................................................................................................................................................O.O..OOO...........
........................................................................................................................................................................................................................................................................................................................................O...O...OO...........
.........................................................................................................................................................................................................................................................................................................................................OO.O.OO.............
............................................................................................................................................................................................................................................................................................................................................O.O..............
..............................................................................................................................................................................................................................................................................................................................................O..............
...........................................................................................................................................................................................................................................................................................................................................OOO...............
...........................................................................................................................................................................................................................................................................................................................................OOO...............
..........................................................................................................................................................................................................................................................................................................................................OO.................
..........................................................................................................................................................................................................................................................................................................................................O..................
.........................................................................................................................................................................................................................................................................................................................................O...OO..............
..........................................................................................................................................................................................................................................................................................................................................O..O...............
...............................................................................................................................................................................................................................................................................................................................................OO............
.............................................................................................................................................................................................................................................................................................................................................OO.OOO..........
.............................................................................................................................................................................................................................................................................................................................................OO.O.OO.....OO..
..............................................................................................................................................................................................................................................................................................................................................O.O...O...OO.O.
................................................................................................................................................................................................................................................................................................................................................OOO.OO.OOO.O.
......................................................................................................................................................................................................................................................................................................................................................OO.....
...................................................................................................................................................................................................................................................................................................................................................O.....OO..
...................................................................................................................................................................................................................................................................................................................................................O.......O.
............................................................................................................................................................................................................................................................................................................................................................O
.......................................................................................................................................................................................................................................................................................................................................................OO...O
..........................................................................................................................................................................................................................................................................................................................................................OOO
.........................................................................................................................................................................................................................................................................................................................................................O..O
........................................................................................................................................................................................................................................................................................................................................................O.OO.
........................................................................................................................................................................................................................................................................................................................................................O.O..
.......................................................................................................................................................................................................................................................................................................................................................O.O...
.......................................................................................................................................................................................................................................................................................................................................................O.....
...........................................................................................................................................................................................................................................................................................................................................................O.
.......................................................................................................................................................................................................................................................................................................................................................O.....
..........................................................................................................................................................................................................................................................................................................................................................OO.
