!Name: rake-c10o-p540
!C A period-540 c/10 orthogonal rake with
!C both forward and backward output streams.
!C By Christoph Reinthaler, 11 Oct 2020
!Source: jslife-moving
!
................O..O...........................OO........................................................................................................................................................................................................................................................................................
................O..O...........................OO........................................................................................................................................................................................................................................................................................
...............O....O.........................O..O.......................................................................................................................................................................................................................................................................................
....OO.........O....O.........................OOOO.......................................................................................................................................................................................................................................................................................
...OOOO........O....O...........OO...........O.OO.O......................................................................................................................................................................................................................................................................................
...............O....O.........OO..OO..........O..O.......................................................................................................................................................................................................................................................................................
..OOOOOO......OOO..OOO..........OO.......................................................................................................................................................................................................................................................................................................
...OOOO.......O.OOOO.O.......O......O........OO..OO......................................................................................................................................................................................................................................................................................
...............O....O.........O....O........O......O.....................................................................................................................................................................................................................................................................................
..OO..OO........................OO.......................................................................................................................................................................................................................................................................................................
OO.O..O.OO...................OOO..OOO........O....O......................................................................................................................................................................................................................................................................................
...O..O..........OO..........OO....OO.........O..O.......................................................................................................................................................................................................................................................................................
.................OO............................OO................................................................................................................................................................................................................................................................OOOO....................
.................OO..............................................................................................................................................................................................................................................................................................O..O....................
....OO.........O....O...........OO..........OO....OO............................................................................................................................................................................................................................................................OOOOOO...................
....OO.......OOO....OOO........O..O........O..O..O..O....................................................................................................................................................................................................................................................................................
............OOO......OOO....................OO....OO.........O..O........................................................................................................................................................................................................................................................................
.O.O..O.O...OO........OO......O....O.........O....O..........O..O.................................................................................................................................................................................................................................OO...........O..OO..O..................
O..O..O..O...OOOOOOOOOO......OO....OO.......................O....O...............................................................................................................................................................................................................................O..O..........O.OOOO.O..................
O........O....OOOOOOOO......O..O..O..O......................O....O....................................................................................................................................................OOOO.......................................................................O..O..........O.O..O.O..................
O........O......OOOO........OO.OOOO.OO......................O....O....................................................................................................................................................O..O......................................................................O....O...................................
OO......OO....................O....O........................O....O...................................................................................................................................................OOOOOO.....................................................................O....O...................................
..OOOOOO...................................................OOO..OOO.....................................................................................................................................................................OO.......................................................OOOO.............OO.....................
...........................................................O.OOOO.O....................................................................................................................................................................OOOO.....................................................OO..OO............OO.....................
............................................................O....O..................................................................................................................................................O..OO..O....................................................................O....O...................................
........................................................................................................................................................................................................OO..OO......O.OOOO.O..........OOOOOO....................................................O....O.........OO....OO..................
..........................................................................................................................................................................................................OO........O.O..O.O...........OOOO....................................................................OOO..OOO..................
..............................................................OO..........................................................................................................................................OO..................................................................................................O..O..O..O.................
..............................................................OO..................................................................................OO...................................................O.O..O.O.......................OO..OO.....................................................OOOO.........OO.OOOO.OO.................
..........................OO..................................OO.................................................................................OOOO..................................................O......O........OO...........OO.O..O.OO....................................................OO...........OOOOOOOO..................
.........................OO.................................O....O.....................................................................................................................................................OO..............O..O..............................................................................................
...........................O..............................OOO....OOO............................................................................OOOOOO.................................................O......O................................................................................OO....OO..................................
.........................................................OOO......OOO............................................................................OOOO...................................................OO..OO......OO....OO..................................................................O..O..O..O.................................
.........................................................OO........OO....................................................................................................................................OOOO.......OOO..OOO............OO.....................................................OOO..OOO..................................
..........................................................OOOOOOOOOO............................................................................OO..OO.............................................................O..O..O..O...........OO.....................................................OO....OO.........................OO.......
...........................................................OOOOOOOO...........................................................................OO.O..O.OO..................................................OO.......OO.OOOO.OO..................................................................................................O..O......
.............................................................OOOO................................................................................O..O....................................................O..O.......OOOOOOOO.........O.O..O.O..................................................................................O..O......
....................................................................................................................................................................................................................................O..O..O..O................................................................................O....O.....
........................................................................................................................................................................................................O....O......................O........O................................................................................O....O.....
..................................................................................................................................................OO...................................................OO....OO.....................O........O.................................................................................OOOO......
..................................................................................................................................................OO....................................................O.OO.O......................OO......OO................................................................................OO..OO.....
.........................................................................................................................................................................................................OOOO.........................OOOOOO..................................................................................O....O.....
...............................................................................................................................................O.O..O.O...................................................OO..................................................................................................................O....O.....
..............................................................................................................................................O..O..O..O.................................................................................................................................................................................
...................................................................................................................................OO.........O........O.................................................................................................................................................................................
..................................................................................................................................O..O........O........O.......................................................................................................................................................................OOOO......
.................................................................................................................................OO..OO.......OO......OO........................................................................................................................................................................OO.......
.................................................................................................................................OO..OO.........OOOOOO...................................................................................................................................................................................
.................................................................................................................................O.OO.O......................................................................................................................................................................................OO....OO....
...................................................................................................................................OO.......................................................................................................................................................................................O..O..O..O...
.................................................................................................................................O....O......................................................................................................................................................................................OOO..OOO....
................................................................................................................................OO....OO.....................................................................................................................................................................................OO....OO....
...................................................................................................................................OO..........................................................................................................................................OOO.....................OO................................
..................................................................................................................................O..O...........................................................................................................................................O....................O..O...............................
..................................................................................................................................O..O..........................................................................................................................................O....................OO..OO..............................
.....................................................................................................................................................................................................................................................................................................OO..OO..............................
................................................................................................................................OO....OO.............................................................................................................................................................O.OO.O..............................
...............................................................................................................................O..O..O..O..............................................................................................................................................OO..OO..........OO................................
...............................................................................................................................O..O..O..O................................................................................................................................................OO..........O....O..............................
................................................................................................................................O.O..O.O.................................................................................................................................................OO.........OO....OO.............................
......................................................................................................................................................................................................................................................................................O.O..O.O...........................................
......................................................................................................................................................................................................................................................................................O......O...........................................
............................................................................................................................................................................................................................................................................OO.........................OO................................
...........................................................................................................................................................................................................................................................................O..O.......O......O........O..O...............................
..................................................................................................................................................O.......................................................................................................................OO..OO.......OO..OO.........O..O...............................
..........................................................................................................................................OO...O...O......................................................................................................................OO..OO........OOOO.............................................
..........................................................................................................................................OO...O...........OO.............................................................................................................O.OO.O....................OO....OO.............................
...............................................................................................................................................O..O..O....OOO...............................................................................................................OO...........OO........O..O..O..O....................O..O....
...............................................................................................................................................O..O..O....O.O..........O..O...............................................................................................O....O........O..O.......O..O..O..O....................O..O....
...............................................................................................................................................O..O..OO...O.O..........O..O..............................................................................................OO....OO...................O.O..O.O....................O....O...
..................................................................................................................................................O.......O.O.........O....O...........................................................................................................O....O...................................O....O...
..............................................................................................................................................OOO.....................O....O..........................................................................................................OO....OO..................OO..............O....O...
.............................................................................................................................................O..O.....................O....O................................................................................................OO.........O.OO.O...................OO..............O....O...
.....................................................................................................................................................O................O....O...............................................................................................O..O.........OOOO...................................OOO..OOO..
..............................................................................................................................................O....OOO...............OOO..OOO..............................................................................................O..O..........OO....................................O.OOOO.O..
.....................................................................................................................................................................O.OOOO.O...................................................................................................................................................O....O...
...............................................................................................................................................O..OO..................O....O.............................................................................................OO....OO........................................................
.........................................................................................................................................O......OOO.....................................................................................................................O..O..O..O.......................................................
........................................................................................................................................O........O......................................................................................................................O..O..O..O................................................OO.....
........................................................................................................................................OOO.............................OO...............................................................................................O.O..O.O.................................................OO.....
........................................................................................................................................................................OO........................................................................................................................................................OO.....
........................................................................................................................................................................OO......................................................................................................................................................O....O...
......................................................................................................................................................................O....O........................................................................................................................................OOO.......OOO....OOO.
....................................................................................................................................................................OOO....OOO...............................................................................................................................................OOO......OOO
...................................................................................................................................................................OOO......OOO..............................................................................................................................................OO........OO
...................................................................................................................................................................OO........OO...............................................................................................................................................OOOOOOOOOO.
....................................................................................................................................................................OOOOOOOOOO.................................................................................................................................................OOOOOOOO..
.....................................................................................................................................................................OOOOOOOO....................................................................................................................................................OOOO....
.......................................................................................................................................................................OOOO..............................................................................................................................................................
...............................................................................................................................................................................................................................................................................................OO........................................
................................................................................................................................................................................................................................................................................................OO.......................................
.....................................................................................................................................................................OO........................................................................................................................O...............................OO........
....................................................................................................................................................................O..O...........................................................................................................OO.........................................O..O.......
....................................................................................................................................................................O..O...........................................................................................................OO........................................OO..OO......
...................................................................................................................................................................O....O....................................................................................................................................................OO..OO......
...................................................................................................................................................................O....O....................................................................................................................................................O.OO.O......
....................................................................................................................................................................OOOO.......................................................................................................................................................OO........
...................................................................................................................................................................OO..OO....................................................................................................................................................O....O......
...................................................................................................................................................................O....O...................................................................................................................................................OO....OO.....
...................................................................................................................................................................O....O................................................................................................................................................................
.....................................................................................................................................OO..................................................................................................................................................................................................
.....................................................................................................................................OO...................................................................................................................................................OO...................................OO........
....................................................................................................................................O..O............................OOOO..................................................................................................................OO..................................O..O.......
....................................................................................................................................OOOO.............................OO................................................................................................................................................OO.....O..O.......
...................................................................................................................................O.OO.O..............................................................................................................................................................................OO................
....................................................................................................................................O..O..........................OO....OO.................................................................................................OO.............................OO................OO....OO.....
.................................................................................................................................................................O..O..O..O................................................................................................OO.............................OO...............O..O..O..O....
...................................................................................................................................OO..OO.........................OOO..OOO.................................................................................................................................................O..O..O..O....
..................................................................................................................................O......O........................OO....OO..................................................................................................................................................O.O..O.O.....
...................................................................................................................................O....O.................................................................................................................................................OOO............................................
....................................................................................................................................O..O..................................................................................................................................................O.OO...........................................
.....................................................................................................................................OO...............................................................................................................................................O...O..OO..........................................
.....................................................................................................................................................................................................................................................................................OO....OOOO..........................................
..................................................................................................................................OO....OO...................................................................................................................OOO.....O.......OO.....O.O...O.O............................................
.................................................................................................................................O..O..O..O..................................................................................................................O.....O.O......OOO....OO.....OO...........................OO................
..................................................................................................................................OO....OO....................................................................................................................O......OO.O......O....OO.....OO........................OO..OO..............
...................................................................................................................................O....O.........................................................................................................................O..O...O.O.O.O.....O....OOO..........................OO................
....................................................................................................................................................O.............................................................................................................O.......O...O.....................................O......O.............
....................................................................................................................................................O...............................................................................................................O....OO.O........................................O....O..............
....................................................................................................................................................O...............................................................................................................OO......O..O.......................................OO................
.............................................................................................................................................................................................................................................................................OO.....................................OOO..OOO.............
..............................................................................................................................................................................................................................................................................O.....................................OO....OO.............
.......................................................................................................................................OOOO.....OO.......OOO.............................................................................................................................................................................
.......................................................................................................................................O..O.....OO.......................................................................................................................................................................................
......................................................................................................................................OOOOOO...........................................................................................................................................................................OO................
.....................................................................................................................O................................................................................................................................................................................................O..O...............
......................................................................................................................O.............................................O..O.................................................................................................................................................................
....................................................................................................................OOO..............O..OO..O.......................O..O..........................................................................................................................OO.....................................
.....................................................................................................................................O.OOOO.O......................O....O.......................................................................................................................OO..OO...................................
.....................................................................................................................................O.O..O.O......................O....O.........................................................................................................................OO.....................................
...................................................................................................................................................................O....O......................................................................................................................O......O..................................
...................................................................................................................................................................O....O.......................................................................................................................O....O...................................
........................................................................................................................................OO........................OOO..OOO....................................................................................O..O................................OO.....................................
........................................................................................................................................OO........................O.OOOO.O....................................................................................O..O.............................OOO..OOO..................................
...................................................................................................................................................................O....O....................................................................................O....O............................OO....OO..................................
.....................................................................................................................................OO....OO................................................................................................................O....O......................................................................
.....................................................................................................................................OOO..OOO................................................................................................................O....O......................................................................
....................................................................................................................................O..O..O..O.......................OO......................................................................................O....O...............................OO.....................................
....................................................................................................................................OO.OOOO.OO.......................OO.....................................................................................OOO..OOO.............................O..O....................................
.....................................................................................................................................OOOOOOOO........................OO.....................................................................................O.OOOO.O.....................................................................
...................................................................................................................................................................O....O....................................................................................O....O.............................O....O...................................
.................................................................................................................................................................OOO....OOO....................................................................................................................OO....OO..................................
................................................................................................................................................................OOO......OOO..................................................................................................................O..O..O..O.................................
................................................................................................................................................................OO........OO...................................................................................OO.............................OO.OOOO.OO.................................
.................................................................................................................................................................OOOOOOOOOO....................................................................................OO...............................O....O...................................
..................................................................................................................................................................OOOOOOOO.....................................................................................OO..................OO....................................................
....................................................................................................................................................................OOOO.....................................................................................O....O................OO....................................................
...........................................................................................................................................................................................................................................................OOO....OOO....................................................................
........................................................................................................................................................OO................................................................................................OOO......OOO...................................................................
........................................................................................................................................................OO................................................................................................OO........OO.....................OO............................................
...........................................................................................................................................................................................................................................................OOOOOOOOOO....................OO..OO..........................................
.................................................................................................................................................................OOOO.......................................................................................OOOOOOOO.......................OO............................................
.................................................................................................................................................................O..O.........................................................................................OOOO......................O......O.........................................
................................................................................................................................................................OOOOOO...................................................................................................................O....O..........................................
...........................................................................................................................................................................................................................................................................................OO............................................
........................................................................................................................................................................................................................................................................................OOO..OOO.........................................
...............................................................................................................................................................O..OO..O.................................................................................................................OO....OO.........................................
...............................................................................................................................................................O.OOOO.O..........................................................................................OO..OO..................................................................
...............................................................................................................................................................O.O..O.O............................................................................................OO......OO............................................................
...................................................................................................................................................................................................................................................................OO......OO..............OO............................................
................................................................................................................................................................................................................................................................O.O..O.O..................O..O...........................................
..................................................................................................................................................................OO............................................................................................O......O.................................................................
..................................................................................................................................................................OO.....................................................................................................................O....O..........................................
................................................................................................................................................................................................................................................................O......O................OO....OO.........................................
...............................................................................................................................................................OO....OO..........................................................................................OO..OO................O..O..O..O........................................
...............................................................................................................................................................OOO..OOO...........................................................................................OOOO.................OO.OOOO.OO........................................
..............................................................................................................................................................O..O..O..O.................................................................................................................O....O..........................................
..............................................................................................................................................................OO.OOOO.OO...........................................................................................OO....................................................................
...............................................................................................................................................................OOOOOOOO...........................................................................................O..O...................................................................
.................................................................................................................................................................................................................................................................O....O..................................................................
....................................................................................................................................................O...........................................................................................................OO....OO.................................................................
....................................................................................................................................................O............................................................................................................O.OO.O..................................................................
....................................................................................................................................................O.............................................................................................................OOOO...................................................................
...................................................................................................................................................................................................................................................................OO....................................................................
.................................................................................................................................................................................................................................................................................OO......................................................
................................................................................................................................................................................................................................................................................O.O......................................................
................................................................................................................................................................................................................................................................................OO.......................................................
..........................................................................................................................................OOOO...........................................................................................................................................................................................
..........................................................................................................................................O..O...........................................................................................................................................................................................
.........................................................................................................................................O.OO.O..........................................................................................................................................................................................
.........................................................................................................................................O....O..........................................................................................................................................................................................
.........................................................................................................................................O....O..........................................................................................................................................................................................
.........................................................................................................................................OO..OO..........................................................................................................................................................................................
.........................................................................................................................................OOOOOO..........................................................................................................................................................................................
..........................................................................................................................................O..O...........................................................................................................................................................................................
...........................................................................................................................................OO............................................................................................................................................................................................
...........................................................................................................................................OO............................................................................................................................................................................................
........................................................................................................................................................OO...............................................................................................................................................................................
........................................................................................................................................OO....OO........OO....OO..OO.....................................................................................................................................................................
........................................................................................................................................OO....OO................OO.......................................................................................................................................................................
........................................................................................................................................OO....OO................OO.......................................................................................................................................................................
.............................................................................................................................................................O.O..O.O....................................................................................................................................................................
..........................................................................................................................................O..O...............O......O....................................................................................................................................................................
.............................................................................................................................................................O......O....................................................................................................................................................................
..............................................................................................................................................................OO..OO.....................................................................................................................................................................
...............................................................................................................................................................OOOO......................................................................................................................................................................
................................................................................................................................................................OO.......................................................................................................................................................................
...............................................................................................................................................................O..O......................................................................................................................................................................
..............................................................................................................................................................O....O.....................................................................................................................................................................
.............................................................................................................................................................OO....OO....................................................................................................................................................................
..............................................................................................................................................................O.OO.O.....................................................................................................................................................................
...............................................................................................................................................................OOOO......................................................................................................................................................................
................................................................................................................................................................OO.......................................................................................................................................................................
.................................................................................................................................................................................................................................................................................OO......................................................
................................................................................................................................................................................................................................................................................O.O......................................................
................................................................................................................................................................................................................................................................................OO.......................................................
.................................................................................................................................................................................................................................................................................OO......................................................
................................................................................................................................................................................................................................................................................O.O......................................................
................................................................................................................................................................................................................................................................................OO.......................................................
..........................................................................................................................................................................................O..............................................................................................................................................
.........................................................................................................................................................................................OO..............................................................................................................................................
.........................................................................................................................................................................................O.O.............................................................................................................................................
............................................................................................................................................................................................................................................................O............................................................................
.............................................................................................................................................................................................................................................................O...........................................................................
...........................................................................................................................................................................................................................................................OOO...........................................................................
.................................................................................................................................................................................................................................................................................OO......................................................
................................................................................................................................................................................................................................................................................O.O......................................................
................................................................................................................................................................................................................................................................................OO.......................................................
..........................................................................................................................................................................................................................................................................................OO..OO.........................................
..........................................................................................................................................................................................................................................................................................OO..OO.........................................
.........................................................................................................................................................................................................................................................................................OOO..OOO........................................
.........................................................................................................................................................................................................................................................................................OOO..OOO........................................
.........................................................................................................................................................................................................................................................................................O......O........................................
.........................................................................................................................................................................................................................................................................................O..OO..O........................................
..........................................................................................................................................................................................................................................................................................OOOOOO.........................................
............................................................................................................................................................................................................................................................................................OO...........................................
...........................................................................................................................................................................................................................................................................................O..O..........................................
...........................................................................................................................................................................................................................................................................................OOOO..........................................
..........................................................................................................................................................................................................................................................................................OO..OO.........................................
.......................................................................................................................................................................................................................................................................................O..O....O..O......................................
..........................................................................................................................................................................................................................................................................................O....O.........................................
...........................................................................................................................................................................................................................................................................................OOOO..........................................
.......................................................................................................................................................................................................................................................................................O..........O......................................
........................................................................................................................................................................................................................................................................................O........O.......................................
............................................................................................................................................................................................................................................................................................OO...........................................
