!Name: rake-c10o-p360
!C A period-360 c/10 orthogonal rake with two output glider streams
!C By Christoph Reinthaler, 7 Jul 2021
!Source: jslife-moving
!
...........................................................................OO......................................................................................................OO........................................................................................................................
..........................................................................O..O....................................................................................................O..O.......................................................................................................................
.........................................................................OO..OO..................................................................................................OO..OO......................................................................................................................
.........................................................................OO..OO..................................................................................................OO..OO......................................................................................................................
.........................................................................O.OO.O..................................................................................................O.OO.O......................................................................................................................
................................................................OO.........OO......................................................................................................OO.........OO.............................................................................................................
..............................................................OO..OO.....O....O..................................................................................................O....O.....OO..OO...........................................................................................................
................................................................OO......OO....OO................................................................................................OO....OO......OO.............................................................................................................
.............................................................O......O......................................................................................................................O......O..........................................................................................................
..............................................................O....O........................................................................................................................O....O...........................................................................................................
................................................................OO.........OO......................................................................................................OO.........OO.............................................................................................................
..................................................OO.........OOO..OOO.....O..O....................................................................................................O..O.....OOO..OOO.........OO...............................................................................................
................................................OO..OO.......OO....OO.....O..O....................................................................................................O..O.....OO....OO.......OO..OO.............................................................................................
..................................................OO........................................................................................................................................................OO...............................................................................................
...............................................O......O.................OO....OO................................................................................................OO....OO.................O......O............................................................................................
................................................O....O..........OO.....O..O..O..O..............................................................................................O..O..O..O.....OO..........O....O.............................................................................................
..................................................OO...........O..O....O..O..O..O..............................................................................................O..O..O..O....O..O...........OO...............................................................................................
...............................................OOO..OOO.................O.O..O.O................................................................................................O.O..O.O.................OOO..OOO............................................................................................
...............................................OO....OO.......O....O........................................................................................................................O....O.......OO....OO............................................................................................
.............................................................OO....OO......................................................................................................................OO....OO..........................................................................................................
............................................................O..O..O..O....................................................................................................................O..O..O..O.........................................................................................................
..................................................OO........OO.OOOO.OO....................................................................................................................OO.OOOO.OO........OO...............................................................................................
..................................OO.............O..O.........O....O........................................................................................................................O....O.........O..O.............OO...............................................................................
.................................O..O......................................................................................................................................................................................O..O..............................................................................
................................OO..OO..........O....O....................................................................................................................................................O....O..........OO..OO.............................................................................
................................OO..OO.........OO....OO..................................................................................................................................................OO....OO.........OO..OO.............................................................................
................................O.OO.O........O..O..O..O................................................................................................................................................O..O..O..O........O.OO.O.............................................................................
..................................OO..........OO.OOOO.OO................................................................................................................................................OO.OOOO.OO..........OO...............................................................................
................................O....O..........O....O....................................................................................................................................................O....O..........O....O.............................................................................
...............................OO....OO...............................O.O................................................................................................................................................OO....OO............................................................................
...........................................................OO.......OO.O.O..O................................................................................................................................................................................................................................
......................OO................................OO...O.....O.OO.O...OO..........................................................................................................................................................OO...................................................................
.....................O..O.........OO...................O...OO.....OOOO......O........OOO....................................................................................................................................OO.........O..O..................................................................
....................OO..OO.......O..O...................OOO......O..O......................................................................................................................................................O..O.......OO..OO.................................................................
....................OO..OO.......O..O...........................OO.O.......................................................................................................................................................O..O.......OO..OO.................................................................
....................O.OO.O.......................................OO...................................................................................................................................................................O.OO.O.................................................................
......................OO.......OO....OO...........................O......................................................................................................................................................OO....OO.......OO...................................................................
....................O....O....O..O..O..O................................................................................................................................................................................O..O..O..O....O....O.................................................................
...................OO....OO...O..O..O..O...................................................................................................................................................OO...........................O..O..O..O...OO....OO................................................................
...............................O.O..O.O..............................................................................................................OO....................................OO............................O.O..O.O............................................................................
......................................................................................................................................................OO.....................................................................................................................................................
......................OO.............................................................................................................................O..................................................................................OO.................................................................OO
.....................O..O..............................................................................................................................................................................................................O..O...............................................................O.O
.....................O..O..............................................................................................................................................................................................................O..O.................................................................O
...................OO....OO..........................................................................................................................................................................................................OO....OO................................................................
..........OO......O..O..O..O..................................................................................................................................................OO....................................................O..O..O..O......OO.......................................................
.........O..O.....O..O..O..O..................................................................................................................................................OO....................................................O..O..O..O.....O..O......................................................
.........O..O......O.O..O.O.............................................................OO............................................................................OO..................OO.........................................O.O..O.O......O..O......................................................
........O....O.........................................................................O..O..........................................................................O..O..........OO.....OO......................................................O....O.....................................................
........O....O.........................................................................O..O..........................................................................O..O..........OO.............................................................O....O.....................................................
.........OOOO.........................................................................O....O........................................................................O....O......................................................O..................OOOO......................................................
........OO..OO........................................................................O....O........................................................................O....O................................OOO..............OOOOOO.................OO..OO.....................................................
........O....O.........................................................................OOOO..........................................................................OOOO.................................................OOOOOO..................O....O.....................................................
........O....O........................................................................OO..OO........................................................................OO..OO...............................................O........................O....O.....................................................
......................................................................................O....O........................................................................O....O................................................O.O.OO.............................................................................
...................................................................OO.................O....O........................................................................O....O.................................................OO..O.OOOO........................................................................
.........OOOO......................................................OO...........................................................................................................................................................O..................OOOO......................................................
..........OO.................................................................................................................................................................................................................O.OOO..O...............OO.......................................................
.......................................................................................OOOO..........................................................................OOOO....................................................O...OOO.........................................................................
.......OO....OO.........................................................................OO............................................................................OO.....................................................O...................OO....OO....................................................
......O..O..O..O................................................................................................................................................................................................................................O..O..O..O...................................................
.......OOO..OOO......................................................................OO....OO......................................................................OO....OO......................................................................OOO..OOO....................................................
.......OO....OO.....................................................................O..O..O..O....................................................................O..O..O..O.....................................................................OO....OO....................................................
.....................................................................................OOO..OOO......................................................................OOO..OOO..................................................................................................................................
.....................................................................................OO....OO......................................................................OO....OO..................................................................................................................................
....................................................................OO................................................................................OO.....................................................................................................................................................
....................................................................OO.....OO........................................................................OO......................................................................................................................................................
OO.........................................................................OO..........................................................................O.....................................................................................................................................................
O.O..........................................................................................................................................................................................................................................................................................................
O..................................................OOO.......................................................................................................................................................................................................................................................
...........................................................................................................................................................................................OO................................................................................................................
...........................................................................................................................................................................................OO................................................................................................................
...........................................OO......................................................................................................................................................................OO........................................................................................
...........................................OO......................................................................................................................................................................OO........................................................................................
..........................................O..O....................................................................................................................................................................O..O.......................................................................................
..........................................OOOO....................................................................................................................................................................OOOO.......................................................................................
............................O............O.OO.O..................................................................................................................................................................O.OO.O......................................................................................
............................O.............O..O....................................................................................................................................................................O..O.......................................................................................
............................O................................................................................................................................................................................................................................................................................
.........................................OO..OO..................................................................................................................................................................OO..OO......................................................................................
.........................OO.............O......O..........................................................................................................................................OO....................O......O.....................................................................................
.........................OO........................................................................................................................................................OO.....OO.................................................................................................................
............OO..OO.......................O....O....................................OO......................................................................................OO......OO............................O....O.......................OO..OO.........................................................
............OO..OO........................O..O....................................O..O....................................................................................O..O....................................O..O........................OO..OO.........................................................
...........OOO..OOO........................OO.....................................O..O....................................................................................O..O............................OOO......OO........................OOO..OOO........................................................
...........OOO..OOO..............................................................O....O..................................................................................O....O..............................................................OOO..OOO........................................................
........................................OO....OO.................................O....O..................................................................................O....O.................................OO....OO.....................................................................................
...........O......O....................O..O..O..O.................................OOOO....................................................................................OOOO.................................O..O..O..O....................O......O........................................................
...........O..OO..O.....................OO....OO...................OO............OO..OO..................................................................................OO..OO.................................OO....OO.....................O..OO..O........................................................
............OOOOOO.......................O....O............OO......OO............O....O..................................................................................O....O..................................O....O.......................OOOOOO.........................................................
............................................................OO...................O....O..................................................................................O....O..............................................................................................................................
...........................................................O.................................................................................................................................................................................................................................................
..............OO................................................................................................................................................................................................................................OO...........................................................
.............O..O................OO...............................................OOOO....................................................................................OOOO.................................................................O..O..........................................................
.............OOOO................OO................................................OO......................................................................................OO......................................................O...........OOOO..........................................................
............OO..OO.........................................OO......................................................................................................................................OO..............................O..........OO..OO.........................................................
.........O..O....O..O.....................................OOOO..................OO....OO................................................................................OO....OO..................OOOO.............................O.......O..O....O..O......................................................
............O....O.............................................................O..O..O..O..............................................................................O..O..O..O.............................................................O....O.........................................................
.............OOOO........................................OOOOOO.....OO..........OOO..OOO................................................................................OOO..OOO.................OOOOOO..............................OO........OOOO..........................................................
.........O..........O.....................................OOOO......OO..........OO....OO................................................................................OO....OO..................OOOO...............................OO....O..........O......................................................
..........O........O........................................................................................................................................................................................................................O........O.......................................................
.........................................................OO..OO..................................................................................................................................OO..OO......................................................................................................
..............OO.........OO............................OO.O..O.OO..............................................................................................................................OO.O..O.OO.......................................OO...........................................................
.................OO......OO...............................O..O....................................................................................................................................O..O.......................................................................................................
................OOOO..................OO....................................OO....................................................................................................OO.........................................................OO..............................................................
......................................OO...................................O..O..................................................................................................O..O.......................................................O..O.............................................................
...............OOOOOO......................................OO..............O..O..................................................................................................O..O......OO......OO.......................................O..O.............................................................
................OOOO.......................................OO.............O....O................................................................................................O....O.....OO......OO......................................O....O............................................................
..........................................................................O....O................................................................................................O....O.....................................................O....O............................................................
...............OO..OO.........................OO........O.O..O.O...........OOOO..................................................................................................OOOO...........O.O..O.O........OO..........................OOOO.............................................................
.............OO.O..O.OO......................O..O......O..O..O..O.........OO..OO................................................................................................OO..OO.........O..O..O..O......O..O........................OO..OO............................................................
................O..O.........................O..O......O........O.........O....O................................................................................................O....O.........O........O......O..O..........OO............O....O............................................................
............................O...............O....O.....O........O.........O....O................................................................................................O....O.........O........O.....O....O.........OO............O....O............................................................
............................O...............O....O.....OO......OO..............................................................................................................................OO......OO.....O....O.........................................................................................
.................OO.........O................OOOO........OOOOOO..................................................................................................................................OOOOOO........OOOO..........................................................................................
.................OO.........................OO..OO.........................OOOO..................................................................................................OOOO.........................OO..OO........................OOOO.............................................................
.........................OO.................O....O..........................OO....................................................................................................OO......OO..................O....O.........................OO..............................................................
..............O.O..O.O...OO.................O....O........................................................................................................................................OO..................O....O.........................................................................................
.............O..O..O..O..................................................OO....OO..............................................................................................OO....OO...................................................OO....OO...........................................................
.............O........O.................................................O..O..O..O............................................................................................O..O..O..O.................................................O..O..O..O..........................................................
.............O........O......................OOOO........................OOO..OOO..............................................................................................OOO..OOO........................OOOO.......................OOO..OOO...........................................................
.............OO......OO.......................OO.........................OO....OO..............................................................................................OO....OO.........................OO........................OO....OO...........................................................
...............OOOOOO........................................................................................................................................................................................................................................................................................
.........................OO................OO....OO..........................................................................................................................................................OO....OO...O...........O..O.....................................................................
.........................OO...............O..O..O..O........................................................................................................................................................O..O..O..O..O...........O..O.....................................................................
........................O..O...............OOO..OOO..........................................................................................................................................................OOO..OOO..............O....O....................................................................
........................OOOO...............OO....OO..........................................................................................................................................................OO....OO..............O....O....................................................................
.......................O.OO.O......................................................................................................................................................................................................O....O....................................................................
........................O..O.......................................................................................................................................................................................................O....O....................................................................
.................................OO...............................................................................................................................................................................................OOO..OOO...................................................................
.......................OO..OO....OO...............................................................................................................................................................................................O.OOOO.O...................................................................
......................O......O.....................................................................................................................................................................................................O....O....................................................................
.......................O....O................................................................................................................................................................................................................................................................................
........................O..O.........................................................................................................................................................................................................OO......................................................................
.........................OO..........................................................................................................................................................................................................OO......................................................................
.....................................................................................................................................................................................................................................OO......................................................................
......................OO....OO.....................................................................................................................................................................................................O....O....................................................................
.....................O..O..O..O..................................................................................................................................................................................................OOO....OOO..................................................................
......................OO....OO..................................................................................................................................................................................................OOO......OOO.................................................................
.......................O....O...................................................................................................................................................................................................OO........OO.................................................................
.................................................................................................................................................................................................................................OOOOOOOOOO..................................................................
..................................................................................................................................................................................................................................OOOOOOOO...................................................................
....................................................................................................................................................................................................................................OOOO.....................................................................
