!Name: tnosedp6_synth.rle
!Author: Martin Grant, Michael Simkin, Mark Niemiec, 20 July 2016
!32-glider synthesis of T-nosed p6
!http://conwaylife.com/wiki/T-nosed_p6
!http://conwaylife.com/forums/viewtopic.php?p=33411#p33411
!
..................................................................................................................................................................................................................................................O............................................
.................................................................................................................................................................................................................................................O.............................................
.................................................................................................................................................................................................................................................OOO...........................................
.....................................................................................................................................................................................O.........................................................................................................
...................................................................................................................................................................................O.O.........................................................................................................
....................................................................................................................................................................................OO.........................................................................................................
.......................................................................................................................................................................O..............................................................O........................................................
........................................................................................................................................................................OO..........................................................OO.........................................................
.......................................................................................................................................................................OO............................................................OO...........O............................................
................................................................................................................................................................................................................................................OO.............................................
.................................................................................................................................................................................................................................................OO............................................
...............................................................................................................................................................................................................O...............................................................................
...................................................................................................................................................................................................O............OO.............................................................................
.................................................................................................................................................................................................O.O...........OO..............................................................................
..................................................................................................................................................................................................OO...........................................................................................
.......................................................................................................O.................................................................................O.....................................................................................................
.....................................................................................................O.O......................................OO..........................................O.........................OO.........................................................................
......................................................................................................OO.OOO.................................O..O.......................................OOO........................O..O........................................................................
.........................................................................................................O....................................O.O...................................OOO.............................O.O........................................................................
..........................................................................................................O....................................O......................................O..............................O.........................................................................
.O..........................................O.......................................O.......................................O........................................................O............O............................................................................................
..O........................................O.O.....................................O.O.....................................O.O...................................................................O.O...........................................................................................
OOO.OO.....................................O..O....................................O..O....................................O..O..................................................................O..O..........................................................................................
....O.O.....................................OO......................................OO......................................OO....................................................................OO...........................................................................................
....O..........................................................................................................................................................................................................................................................................................
........................................................................................................................................................................................OO..........................................................................................OO...OO....
.........................................................................................................................................................................................OO...................................................................O.....................O.O.O.O....
........................................................................................................................................................................................O....OO...............................................................O.O....................O...O.....
............................................................................................................................................................................................O.O...............................................................OO...............................
..............................................................................................................................................................................................O.................................................................................O...OO...OO...O
................................................................................................................................................................................................................................................................................O.O.OO...OO.O.O
....................................................................................................................................................................................................................................O...........................................O...OO...OO...O
...................................................................................................................................................................OO...............................................................O.O........................................................
..................................................................................................................................................................O.O...............................................................OO....O..........................................O...O.....
....................................................................................................................................................................O...................................................................OO..........................................O.O.O.O....
.........................................................................................................................................................................................................................................OO.........................................OO...OO....
..................................O............................................................................................................................................................................................................................................................
................................O.O......................................OO......................................OO......................................OO....................................................................OO..............................................................
.................................OO.OOO.................................O..O....................................O..O....................................O..O..................................................................O..O.............................................................
....................................O....................................O.O.....................................O.O.....................................O.O...................................................................O.O.............................................................
.....................................O....................................O.......................................O.......................................O.....................................................................O............O.................................................
............................................................................................O..........................................O.....................................................................O..............................O..................................................
.............................................................................................O........................................O.O...................................................................O.O.............................OOO................................................
...........................................................................................OOO.OO.....................................O..O..................................................................O..O........................OOO....................................................
...............................................................................................O.O.....................................OO....................................................................OO.........................O......................................................
...............................................................................................O.........................................................................................................................................O.....................................................
...............................................................................................................................................................................................................................OO..............................................................
..................................................................................................................................................................................................................OO...........O.O.............................................................
.................................................................................................................................................................................................................OO............O...............................................................
...................................................................................................................................................................................................................O...........................................................................
................................................................................................................................................................................OO.............................................................................................................
.................................................................................................................................................................................OO............................................................................................................
................................................................................................................................................................................O...........OO............................................................OO...................................
.............................................................................................................................................................................................OO..........................................................OO....................................
............................................................................................................................................................................................O..............................................................O...................................
.............................................................................................................................................................................................................................................OO................................................
.............................................................................................................................................................................................................................................O.O...............................................
.............................................................................................................................................................................................................................................O.................................................
...............................................................................................................................................................................OOO.............................................................................................................
.................................................................................................................................................................................O.............................................................................................................
................................................................................................................................................................................O..............................................................................................................
