!Name: x-oscs-new-p036-060
!CSee comments in oscs-new-p001-019.
!C
!C36.1 NDE 13 Jun 96 [*]
!C36.2 KS / GN 22 Oct 02
!C36.3 JS Jan 04
!C36.4 JS Feb 04
!C36.5 JS 23 Jul 04
!C37.1 NB 14 Apr 09
!C37.2 NB 21 Mar 10
!C39.1 NDE 24 Jul 00
!C40.1 DRH 22 Oct 96 [*]
!C40.2 NB 4 Mar 09
!C42.1 NDE 26 Oct 97/19 Oct 98
!C   (p7 sparker by DRH)
!C44.1 NDE 29 Apr 96 [*]
!C44.2 JS, 16 May 07
!C45.1,45.2 Mark Niemiec 6 Jan 96
!C46.1 RTW 24 Aug 95
!C46.2 Paul Callahan 24 Dec 98
!C46.3 Karel Suhajda 11 Dec 02
!C47.1 JS 12 May 03 (improved by NB)
!C48.1 NDE 9 Jul 96
!C48.2 NDE 12 Nov 02 (p16 part by DRH)
!C49.1 NDE 1 Aug 99
!C50.1 NDE 8 Jul 97 [*]
!C51.1 NB 17 Feb 09
!C52.1,52.2 NDE 19 Mar 96
!C56.1 JS Feb 04
!C60.1 RTW 24 Aug 95
!C60.2 NDE 30 May 98
!C60.3 NDE 14 Dec 97
!C60.4 NDE/KS 14 Dec 02
!C60.5 JS/NDE Jul 03
!C60.6 NB 28 May 10
!
..........................OO.....................................................................OO...OO..OO...OO.......................OO......OO..................OO......OO.............................................................................................................................................................................................O............................
.........................O..O....................................................................OO...OO..OO...OO.......................OO......OO..................OO......OO.................................OO...OO..O.OO..............................................................................................................................................O.O...........................
..OO.O......OO.O.........O.....................................................................................................................................................................................OO...OO..OO.O..............................................................................................O.OO......OO.O...................................O............................
..O.OO......O.OO.........O......................OO...............................................OO...OO..OO...OO...........................................................................................................OO..............O.......O.......................................O.......O.....................OO.O......O.OO................................................................
......OO..OO.............O.O...O...............O..O..............................................O.O.O.O..O.O.O.O..............................................................................................OO...OO.......O.............O.O.....O.O.....................................O.O.....O.O..................OO..............OO...............................OOOOO..........................
......O...O...............O.O...O..............O.O.O...............................................O.O......O.O................................................................................................O.O.O.O......O...............O.......O.........OO.................OO.........O.......O....................O..............O................................O....O.........................
.......O...O...............O....O...............O..O..............................................OO.O.....OO.O......................................................................OO.......OO.................O.O........OO................................O...................O.....................................O................O............OO....................O..O........................
......OO..OO................OOOO....................O.................................................OO.......OO.......OO...........................................................O..OO.OO..O................OO.O......OO................................O.O...................O.O...................................OO..............OO............O.O...........O.......OO.O..O.....................
..OO.O......OO.O.................................O.O...................................................O........O......O.O............................................................OO.O.O.OO.....................OO.....O................................OO.....................OO.....................................O.OO......OO.O................OOO........O.O...O.....O.O.O....................
..O.OO......O.OO......................................................................................O........O.......O.O.OO..........................................................O.O.O.O.......................O....O............O.................O.............................O.................O................OO.O......O.OO...............O...O.OO.....O...O.O....O..O.....................
......OO..OO....OO.................OOO................................................................OO.......OO.......O.O.O.............................OO...........................O.OOO.O......................O.....OO...........O.................O.............................O.................O....................OO..OO...................OO.O.....O.......O..O..OO........................
......O...O.....O..................O.O......OOO......OOO...............................................O........O.........O...............................OO............................OOOOO.......................OO..OO.............O.....O.....O.....O.............................O.....O.....O.....O.....................O..O.......................O.....O........OO.............................
.......O...O.....O.................OOO......O.O.......................................................O........O........O..O.........................................................................................O...O.........OO.......OOO...OOO.............OOO.......OOO.............OOO...OOO.......OO................O....O...................OO.O.....O.......................................
......OO..OO....OO..........................OOO.....O...O.............................................OO.......OO..........O.............OO....OO....................OO....OO.......................................O...O.........O.O......OO.OO.OO.OO............O.O.......O.O............OO.OO.OO.OO......O.O...............OO..OO...................O...O.OO.........................................
..OO.O......OO.O....................................O...O..............................................................O...O............O.O....O.O.......O..O.......O.O....O.O......................................OO..OO........O.........OOO...OOO.............OOO.......OOO.............OOO...OOO.........O...........O.OO......OO.O................OOO.............................................
..O.OO......O.OO.......................................................................................................O...O............O........O.....OOO..OOO.....O........O...........OOO.....................................OO..........O.....O.........................................O.....O..........OO..........OO.O......O.OO..............O.O...........OOO.................................
............................OO......................O...O..................................................................O............O.O....O.O.......O..O.......O.O....O.O............O...........................................................................................................................................................OO............O.O.................................
..............................O.OO.................O.OOO.O..............................................................O..O.............OO....OO....................OO....OO.............O.............................................OO.............OO...............................OO.............OO.............................................................O.................................
..........................O..O..OO.................O.....O................................................................O.............................................................................................................OO.............OO...............................OO.............OO...............................................................................................
..........................O.O.....................OO.O.O.OO.............................................................O.O.O.............................OO....................................................................................................................................................................................................................OO......................
...........................O.....................O..OO.OO..O...........................................................O.O.OO.............................OO..........................OOO........................................OO..........O.....O.........................................O.....O..........OO...............................................................O.O......................
.................................................OO.......OO...........................................................O.O..........................................................O.OOO.........................................O.........OOO...OOO.............OOO.......OOO.............OOO...OOO.........O..............................................................OOO........................
...........................OO...........................................................................................OO.........................................................O.O.O..........................................O.O......OO.OO.OO.OO............O.O.......O.O............OO.OO.OO.OO......O.O.............................................................O...O.......................
...........................OO......................................................................................................................................................O..O............................................OO.......OOO...OOO.............OOO.......OOO.............OOO...OOO.......OO..........................................................O..O..OOO.......................
....................................................................................................................................................................................OO.................................................O.....O.....O.....O.............................O.....O.....O.....O...................................................OO.........OO.O............................
.......................................................................................................................................................................................................................................O.................O.............................O.................O..............................................OO..O..O........O..O..OOO.......................
.......................................................................................................................................................................................................................................O.................O.............................O.................O...........................................O..O....O.O...O........O...O.......................
............................................................................................................................................................................................................................................................OO.....................OO...............................................................O.O.O.....O...O.O........OOO........................
............................................................................................................................................................................................................................................................O.O...................O.O................................................................O..O.OO.......O...........O.O......................
.................................OO........OO...........................................................................................OO......OO..................OO......OO................................................................................O...................O.....................................................................O..O....................OO......................
................................O.O........O.O..........................................................................................OO......OO..................OO......OO..............................................................O.......O.........OO.................OO.........O.......O....................................................O....O.........................................
................................OO..........OO.............................................................................................................................................................................................O.O.....O.O.....................................O.O.....O.O....................................................OOOOO.........................................
............................................................................................................................................................................................................................................O.......O.......................................O.......O...................................................................................................
....................................OOO.....................................................................................................................................................................................................................................................................................................................O...........................................
....................................O.O....................................................................................................................................................................................................................................................................................................................O.O..........................................
....................................OOO.....................................................................................................................................................................................................................................................................................................................O...........................................
......................................................................................................................................................................................................................................................................................................................................................................................O.................
........................OO..........................OO...............................................................................................................................................................................................................................................................................................................................O.O................
.......................O.O..........................O.O...............................................................................................................................................................................................................................................................................................................................O.................
.......................OO..........OOO...............OO.................................................................................................................................................................................................................................................................................................................................................
...................................O.O...OOO........................................................................................................................................................................................................................................................................................................................................OOOOO...............
...................................OOO...O.O....OOO.................................................................................................................................................................................................................................................................................................................................O....O..............
.........................................OOO....O.O.........................................................................................OO.........................................................................................................................................................................................................................................O..O.............
................................................OOO..................................................................................OO......O.........................................................................................................................................................................................................................................OO.O..O..........
...........................OOO........................................................................................................O......O.OO...................................................................................................................................................................................................................................O.....O.O.O.........
...........................O.O....OOO...........................................................................................OO..O.......OO..O..................................................................................................................................................................................................................................O.O....O..O..........
...........................OOO....O.O...OOO.....................................................................................O...OO.....O..OO...................................................................................................................................................................................................................................O..O..OO.............
..................................OOO...O.O......................................................................................OOO..O...O.O.O....................................................................................................................................................................................................................OO...............OO..................
.......................OO...............OOO..........OO............................................................................O.O.O..O.....O.................................................................................................................................................................................................................OOO...................................
.......................O.O..........................O.O............................................................................O..O.O.OOO.O..................................................................................................................................................................................................................O.OO........OOO........................
........................OO..........................OO..............................................................................O...O..OO.O.......OOO.......................................................................................................................................................................................................O.O............O......O.................
.........................................................................................................................................O...OO...O.............................................................................................................................................................................................................O..O..........OO.....O.O................
....................................................................................................................................OO..O.....O.....O.....O......................................................................................................................................................................................................OO...................O.................
.......................................OOO.........................................................................................OO........OO.....O.....O.......OO.........................................................................................................................................................................................OO.........................................
.......................................O.O........................................................................................O.O........O..O...O.....O.......OO........................................................................................................................................................................................O..O........................................
.......................................OOO........................................................................................OO.....O...OO.......OOO....................................................................................................................................................................................................O.O..................OOO...................
........................................................................................................................................O.O..OOO...........................................................................................................................................................................................................OO.O.....O...................................
................................OO..........OO....................................................................................OO.....O...OO.......OOO..................................................................................................................................................................................................OOO.....O.O...........O...O..................
................................O.O........O.O....................................................................................O.O........O..O...O.....O.......OO.......................................................................................................................................................................................OO......O..O..........O...O..................
.................................OO........OO......................................................................................OO........OO.....O.....O.......OO................................................................................................................................................................................................OO..................................
....................................................................................................................................OO..O.....O.....O.....O......................................................................................................................................................................................................................O...O..................
.........................................................................................................................................O...OO...O.............................................................................................................................................................................................................................O.OOO.O.................
....................................................................................................................................O...O..OO.O.......OOO.......................................................................................................................................................................................................................O.....O.................
...................................................................................................................................O..O.O.OOO.O................................................................................................................................................................................................................OOO.............OO.O.O.OO................
...................................................................................................................................O.O.O..O.....O..............................................................................................................................................................................................................O.O............O..OO.OO..O...............
.................................................................................................................................OOO..O...O.O.O..................................................................................................................................................................................................................O............OO.......OO...............
................................................................................................................................O...OO.....O..OO........................................................................................................................................................................................................................................................
......................OO..............OO.............OO..............OO.........................................................OO..O.......OO..O..........................................................................................................................................................................................................................OO...........................
.....................OOOO.............OO..OO.....OO..OO.............OOOO..............................................................O......O.OO.........................................................................................................................................................................................................................O.O...........................
....................O.O..O..........OO.O..OO.....OO..O.OO..........O..O.O............................................................OO......O..........................................................................................................................................................................................................................OOO.............................
....................OO..O.O.........OOO...............OOO.........O.O..OO...................................................................OO.........................................................................................................................................................................................................................O...O............................
.........................O.O.....................................O.O...............................................................................................................................................................................................................................................................................................O..O..OOO............................
...........................OO...................................OO......................................................................................................................................................................................................................................................................................OO.........OO.O.................................
..........................OOO........OO...............OO........OOO................................................................................................................................................................................................................................................................................OO..O..O........O..O..OOO............................
.........................O.O.........OO...............OO.........O.O............................................................................................................................................................................................................................................................................O..O....O.O...O........O...O............................
.........................OO.......................................OO...........................................................................................................................................................................................................................................................................O.O.O.....O...O.O........OOO.............................
................................................................................................................................................................................................................................................................................................................................................O..O.OO.......O...........O.O...........................
...............................OOO.........................OOO.....................................................................................................................................................................................................................................................................................O..O....................OO...........................
...............................OOO.........OOO.OOO.........OOO......................................................................................................................................................................................................................................................................................O....O..............................................
................................O..........O.O.O.O..........O.................................................................................................................................................OO...OO....OO.O................OO............O.........................................................................................OOOOO..............................................
..........................................O..O.O..O...........................................................................................................................................................OO...OO....O.OO...............O.O...........OO............................................................................................................................................
..........................................O.O...O.O..............................................................................................OOO...................................................................OO....OO.............O............O.OO..........................................................................................O................................................
..........................................OOO...OOO..............................................................................................OOO..........................................................OO...OO..O.....O.........O.OO.OO....OO....OOO..O........................................................................................O.O...............................................
....................................................................................................OO...OO....O.OO...............................O...........................................................O.O.O.O...O.....O........OO.O..O...O.O......O.O.O........................................................................................O................................................
....................................................................................................OO...OO....OO.O...............................O.............................................................O.O....OO....OO..............OO..O.........O.O.O........................................................................................................................................
.............................................................................................................OO...................................O............................................................OO.O......OO.O................OOOOO.O........O..OOO......................................................................................................................................
...............................O.............................O......................................OO...OO...O..................................O.O...............................................................OO....O.OO................O...OOO.........OO.O...OO..................................................................................................................................
..............................OOO...........................OOO.....................................O.O.O.O..O......................................................................................................O..OO....OO.............O......OO.........OO....O..O................................................................................................................................
..............................OOO...........................OOO.......................................O.O....OO....................................................................................................O...O.....O..............OO....OOO.....O...O.................................................................................................OO....................OO................
.....................................................................................................OO.O......O.OO..............................O.O...............................................................OO...O.....O.............O......OO...O.O...............................................................................................OO.....OOO................OOO.....OO..........
.....................................OO...............OO.................................................OO....OO.O...............................O.................................................................O..OO....OO..............O...OOO......O.........O.OO.................................................................................O..O..O....O..............O....O..O..O.........
.........................OO.........O.O...............O.O.........OO......................................O........OO.............................O................................................................O.....OO.O................OOOOO.O...........OO..O.O....................................................O.OO......OO.O.................O.O..O.OOOO.O.OO......OO.O.OOOO.O..O.O.........
.........................OO........OOO.................OOO........OO.....................................O..........O.............................O................................................................OO....O.OO................OO..O.............O....O.....................................................OO.O......O.OO................OO.OOOO.O..O.O.O......O.O.O.O..O.OOOO.OO........
...................................OO...................OO...............................................OO........O.............................OOO...................................................................................OO.O..O...O.O...............O....................................................OO........OO.....................O.O....OO.O.O.O.....O..O.O.O.OO....O.O.........
....................................O.O...............O.O.................................................O........OO............................OOO...................................................................................O.OO.OO....OO............O..O.....................................................O........O......................O.OO.OO..OOOO.OO.....OOO.OOOO..OO.OO.O.........
.........................OOO.........O.O..OO.....OO..O.O.........OOO.....................................O.....O.OO.........................................................................................................................O...........................................................................O..........O...................O.OO.O...OO....O..........O....OO...O.OO.O.......
....................OO..O.OO..........O..O.O.....O.O..O..........OO.O..OO................................OO....OO.O................OO......OO......OO.......................................................................................O.O...........OOO...........................................................OO........OO..................O.O...O.OO..OOO.O.OOO...OO.O.OOO..OO.O...O.O......
....................OO..OO.............OOOO.......OOOO.............OO..OO.........................................................O..O....O..O.....O.O.......................................................................................OO...........O.O.............................................................O.OO......OO.O..............O..O.OO.O..O..OOOOO..O.O.OOOOO..O..O.OO.O..O......
........................OO..............OO.........OO..............OO............................................................OOOOOO..OOOOOO....O......................................................................................................OOO.............................................................OO.O......O.OO...............OO.......OO.........OO.........OO.......OO.......
..................................................................................................................................O..O....O..O...............O....O...........................................................................................................................................................OO..OO....OO.........OO..............................................OO...
...................................................................................................................................OO......OO..............OO.OOOO.OO..........................................................................................................................................................O..O.....O..........O.O............................................O.O...
.............................................................................................................................................................O....O...........................................................................................................................................................O....O.....O...........OOO........................................OOO.....
..................................................................................................................................................................................................................................................................OOO.........................................................OO..OO....OO..........O...O......................................O...O....
..................................................................................................................................................................................................................................................................O.O...........OO........................................O.OO......OO.O............OOO..O..O..............................O..O..OOO....
..................................................................................................................................................................................................................................................................OOO...........O.O.......................................OO.O......O.OO.................O.OO..............................OO.O.........
..................................................................................................................................................................................................................................................................................O.................................................................OOO..O..O.........OOO......OOO.........O..O..OOO....
...................................OO...............OO..............................................................................................OOO....................................................................................................O..O............OO....OO.OO.O............................................................O...O.............O.O......O.O.............O...O....
..................................O.O...............O.O............................................................................................O...O...................................................................................................O...............O.O...O..O.OO.............................................................OOO.........OO...OOO......OOO...OO.........OOO.....
..................................O...................O...........................................................................................O.....O.................................................................................................O....O.............O..OO................................................................OOO..............................................OOO..
............................OO..OO.OOOO...........OOOO.OO..OO............................................................................................................................................................................................O.O..OO...........O.OOOOO................................................................O..O............................................O..O..
............................O..O.O.O..O...........O..O.O.O..O....................................................................................O.......O.............................................................................................OO.O.........O......OOO...O.................................................................OOO............................................OOO...
..............................OO.O.OO..OO.......OO..OO.O.OO......................................................................................O.......O..........................................................................................................O.O...OO......O.....................................................................................................................
...............................O.OO..OO..O.....O..OO..OO.O......................................................................................................................................................................................................O...O.....OOO....OO..................................................................OOO.........OO...OOO......OOO...OO.........OOO.....
...............................O.O.OO..OO.O...O.OO..OO.O.O........................................................................................O.....O..............................................................................................O..O....OO.........OO......O.................................................................O...O.............O.O......O.O.............O...O....
................................O....OO...O...O...OO....O..........................................................................................O...O.................................................................................................OO...O.OO.........OOO...O..................................................................OOO..O..O.........OOO......OOO.........O..O..OOO....
.................................OOO.O.OOO.....OOO.O.OOO............................................................................................OOO......................................................................................................OOO..O........O.OOOOO.......................................................................O.OO..............................OO.O.........
...................................O...O.........O...O.........................................................................................................................................................................................................O.O.O.........O..OO..................................................................OOO..O..O..............................O..O..OOO....
......................OO.O.....................................O.OO.............................................................................................................................................................................................O.O.O......O.O...O..O.OO............................................................O...O......................................O...O....
.......................O.OOO.........O.............O.........OOO.O...............................................................................................................................................................................................O..OOO....OO....OO.OO.O.............................................................OOO........................................OOO.....
.......................O....O........O.............O........O....O................................................................................................................................................................................................OO.O............O................................................................O.O............................................O.O...
........................OO..O...............................O..OO..................................................................................................................................................................................................OO...........O.O................................................................OO..............................................OO...
...................O..O.O.O.OO.............................OO.O.O.O..O.............................................................................................................................................................................................O............OO.....................................................................OO.......OO.........OO.........OO.......OO.......
...................OOOO...O...O.......OOO.......OOO.......O...O...OOOO............................................................................O...................................................................................................................................................................................................O..O.OO.O..O..OOOOO..O.O.OOOOO..O..O.OO.O..O......
........................O.....OOO.....O.O.......O.O.....OOO.....O................................................................................O.O..................................................................................................................................................................................................O.O...O.OO..OOO.O.OOO...OO.O.OOO..OO.O...O.O......
...................OOOOOO....O.O......OOO.......OOO......O.O....OOOOOO.................................................................................................................................................................................................................................................................................O.OO.O...OO....O..........O....OO...O.OO.O.......
..................O.....OO...OO...........................OO...OO.....O..................................................................................................................................................................................................................................................................................O.OO.OO..OOOO.OO.....OOO.OOOO..OO.OO.O.........
.................O.O...O.........................................O...O.O.........................................................................OOO.....................................................................................................................................................................................................O.O....OO.O.O.O.....O..O.O.O.OO....O.O.........
..................O.....OO...OO...........................OO...OO.....O..........................................................................OOO....................................................................................................................................................................................................OO.OOOO.O..O.O.O......O.O.O.O..O.OOOO.OO........
...................OOOOOO....O.O......OOO.......OOO......O.O....OOOOOO............................................................................O......................................................................................................................................................................................................O.O..O.OOOO.O.OO......OO.O.OOOO.O..O.O.........
........................O.....OOO.....O.O.......O.O.....OOO.....O.........................................................................................................................................................................OO...............OO............................................................................................O..O..O....O..............O....O..O..O.........
...................OOOO...O...O.......OOO.......OOO.......O...O...OOOO....................................................................................................................................................................O.O.............O.O.............................................................................................OO.....OOO................OOO.....OO..........
...................O..O.O.O.OO.............................OO.O.O.O..O...................................................................O........O.........................................................................................O.............O.....................................................................................................OO....................OO................
........................OO..O...............................O..OO.......................................................................OOO......OOO........................................................................................OO...........OO.............................................................................................................................................
.......................O....O........O.............O........O....O...............................................................................OOO..........................................................................................OO.......OO...............................................................................................................................................
.......................O.OOO.........O.............O.........OOO.O..........................................................................................................................................................................OO.O.......O.OO.............................................................................................................................................
......................OO.O.....................................O.OO.....................................................................OOO.................................................................................................O......O......O.............................................................................................................................................
...................................O...O.........O...O...........................................................................................O.O.........................................................................................OOOOOOOOOOOO...............................................................................................................................................
.................................OOO.O.OOO.....OOO.O.OOO................................................................................O.O.......O........................................................................................O.O..........OO................................................................OO.O......OO.O................................................................
................................O....OO...O...O...OO....O...............................................................................O.O............O..O.OO.O..O........................................................................OO...OOOOOO....................................................................O.OO......O.OO................................................................
...............................O.O.OO..OO.O...O.OO..OO.O.O.......................................................................................OO...OO..O....O..OO...........................................................................O......O.................................................................OO........OO....OO..............................................................
...............................O.OO..OO..O.....O..OO..OO.O..............................................................................OOO......O.O...O..O.OO.O..O............................................................................O..OOOO..................................................................O.........O.....O...............................................................
..............................OO.O.OO..OO.......OO..OO.O.OO......................................................................................O..........................................................................................OO.O...O.....................................................................O.........O.....O...................O...................O......................
............................O..O.O.O..O...........O..O.O.O..O...............................................................................................................................................................................O..O.O......................................................................OO........OO....OO..................O.O.................O.O.....................
............................OO..OO.OOOO...........OOOO.OO..OO...........................................................................OOO...................................................................................................OO.OO.......................................................................OO.O....O.....O..................O...OO.............OO...O....................
..................................O...................O..................................................................................O................................................................................................................................................................................O.OO.....O.....O......OO.........O...OO..OO.....OO..OO...O.........OO.........
..................................O.O...............O.O.................................................................................................................................................................................................................................................................OO....OO..OO....OO......OO.........O...OO.O..O...O..O.OO...O.........OO.........
...................................OO...............OO..................................................................................................................................................................................................................................................................O.....O...O.....O...................O.O....OO.....OO....O.O.....................
.........................................................................................................................O..OO....OO..O...O..............OOO..O..OO....OO..O.............................................................................................................................................O.....O...O.....O...................O...................O......................
........................................................................................................................O...OOO..OOO...O.O.................O.O...OOO..OOO...O...........................................................................................................................................OO....OO..OO....OO..............................................................
.........................................................................................................................O..OO....OO..O..OOO..............O...O..OO....OO..O..............................................................................................................................................OO.O......OO.O................................................................
..........................................................................................................................................................................................................................................................................................................................O.OO......O.OO................................................................
....................................OO..................................................................................................................................................................................................................................................................................................................................................................
...................................O..O.......................OO...........................................................................................O............................................................................................................................................................................................................................................
...................................O.O........................O...........................................................................................OOO..................................................OO...OO....OO.O..........................................................................................................................................................................
....................................O.OOOO..................O.O................................................................................................................................................OO...OO....O.OO..............................................O..O..O...........................................................................O...........O.............................
.....................................OO.OO..................OO.....................................................................................O....................................................................OO....OO.........................................O..OOOOOOO...........................................................................O...........O.............................
......................................O.........OO................................................................................O..O.OO.O..O...O.O......OOO..................................................OO...OO..O.....O..........................................OOO..................................................................................O...........O.............................
.................................................OO..............................................................................OO..O....O..OO...OO...........................................................O.O.O.O...O.....O.............................................O.OO............................................................................OO...........OO............................
................................................OO................................................................................O..O.OO.O..O............O.O....................................................O.O....OO....OO...........................................OOO...O.........................................................................O.................O..........................
................................................O.................................................................................................O.......O.O...................................................OO.O......OO.O............................................O....O.O........................................................................O....O.........O....O.........................
........................................O........................................................................................................O.O................................................................OO....O.OO...........................................O.OOOOO.OO.......................................................................O...................O.........................
.......................................OO.................................................................................................................OOO........................................................O........OO.........................................O.O.....O..........................................................................OOO...........OOO...........................
......................................OO............................................................................................................................................................................O.........O.........................................OO..OOO..O......................................................................................................................
.......................................OO.........O..............................................................................................OOO................................................................OO.........O..........................................O.O.OO.OO.....................................................................................................................
...........................OO..................OO.OO.............................................................................................OOO......OOO........................................................O........OO...............................O..........O.O.O.O...............................................................................OOO.....................................
..........................O.O..................OOOO.O.............................................................................................O........O........................................................O.....OO.O.................................OOO.......OO.O.O.O...............................................................................O.O.....................................
..........................O........................O.O..............................................................................................................................................................OO....O.OO....................................O........O....O.OO............................................................................OOO.....................................
.........................OO.......................O..O.............................................................................................................................................................................................OO............OO........O.O.OO..O....................................................................................................................
...................................................OO.............................................................................................O....................................................................................OO....O..O..O......................OO.....O......................................................................................................................
.................................................................................................................................................OOO....................................................................................O..OOOOOO....O..............O....O...OOOO.......................................................................................................................
.................................................................................................................................................OOO....................................................................................O.O......OOOO.O.OO.........O.O...OO.O...................................................................................OOO.....................................
.......................................................................................................................................................................................................................................OO.O.OO..O...O.O.O......OO..OO....O...OOOO...............................................................................O.O.....................................
........................................................................................................................................................................................................................................O....O.OOOO...O.O......OO.........OO.O..O...............................................................................OOO.....................................
..OO.O......OO.O.......................OO........................................................................................................O.O....................................................................................O.OO.O.O....O.O.OO.OO..............O............................................................................................................................
..O.OO......O.OO.......................OO.........................................................................................................O....................................................................................OO..O.O.OOOO....O....O..............O.O..........................................................................................................................
......OO..OO....OO.......................................................................................................................................................................................................................O.O.OO....OOO...OOO................OO..............................................................................OOO...........OOO...........................
......O...O.....O....................OOOO................................................................................................................................................................................................O..O...OOO..O.O.O.............O..................................................................................O...................O.........................
.......O...O.....O..................O....O....OO........................................................................................................................................................................................OO...OOO..O...OOO............O.O..................................................................................O....O.........O....O.........................
......OO..OO....OO...................O.OOO.....O...............................................................................................................................................................................................O......................OO...................................................................................O.................O..........................
..OO.O......OO.O..................OOO.OO.....O...............................................................................................................................................................................................................................................................................................................OO...........OO............................
..O.OO......O.OO.................O....OO....O.OOOO............................................................................................................................................................................................................................................................................................................O...........O.............................
......OO........OO...............OOO.O......O.O..O.....................................................................................................................................................................................................O......................................................................................................O...........O.............................
......O.........O....................O.OO..OO.........................................................................................................................................................................................................O.O..OO.................................................................................................O...........O.............................
.......O.........O...............OO.O..O..O..O.O.......................................................................................................................................................................................................OO.OO............................................................................................................................................
......OO........OO...............OO.O.O..O..O...O..................................................................................................................................................................................................OO.......O...........................................................................................................................................
..OO.O......OO.O...........OO........O.OOO....O..O................................................................................................................................................................................................O.O................................OO.....OO..........................................................................................................
..O.OO......O.OO...........O.O........O.....OO.OOO................................................................................................................................................................................................O.....OO...........................OO.....O...........................................................................................................
............................O..........OOO..O....................................................................................................................................................................................................OO.....OO................................O.O...........................................................................................................
..............................O.O........OOO..OO..................................................................................................................................................................................................................................O.......OO.........................................................................O..................................
..........................OOOOOO............O.O....................................................................................................................................................................................................................................OO.OO............................................................................O.O.................................
.........................O...............OO.O.O...................................................................................................................OOO.............................................................................................................OO..O.O............................................................................O..................................
..........................OOOOOO.........OO.OO..............................................................................................OO....................OO.OOO.........OO....................................................................................................O................................................................................................................
..............................O.O..........................................................................................OO...............O.O..................O.OOO.OO........O.O.......OO......................................................................................................................................................................OOOOO................................
............................O.......................................................................OO...OO....OO.O........OO.................O...................O...O..O.........O.......OO......................................................................................................................................................................O...O................................
...........................O.O......................................................................OO...OO....O.OO.........................OOO....................OOOOOO........OOO...................................................................................OO......................O................................................................O..OO.OO..O.............................
...........................OO................................................................................OO............................................O........OOOO...............................................................................................O.O............OOO...O..OOO...OO.........................................................OOOO.O.OOOO.............................
.................................OO.O...............................................................OO...OO..O...........................................OO............................................................................................................O.............O.O.O..OOO...O..O........................................................OO...........OO...........................
.................................OO.OOO.............................................................O.O.O.O...O............................................O........OOOO.........................................................................................OO................OOO...OOO....OO.O.O.......................................................O.O.OO..O..OO.O.O..........................
.......................................O..............................................................O.O....OO.............................OOO....................OOOOOO........OOO.............................................................................O.O..............O....O....OOOO.O.O..OO.....................................................O..O.O..OOOO.O..O..........................
.................................OO.OOO..............................................................OO.O......OO.O........OO.................O...................O...O..O.........O.......OO......................................................................O..............OO.OO.O.O....O.O.OO.O.......................................................O.O.....O...O.O...........................
...............................O..O.O....................................................................OO....O.OO........OO...............O.O..................O.OOO.OO........O.O.......OO.................................................................O..O.OO.........OO......O.O...OOOO.O....O......................................................OO..OOOO..OOO..OO..........................
...............................OO.........................................................................O..OO....OO.......................OO....................OO.OOO.........OO...........................................................................OOOO...O....OO..OO......O.O.O...O..OO.O.OO....................................................O..OO.....O...OO..O.........................
.........................................................................................................O...O.....O..............................................OOO.............................................................................................O.OO...O.O.........OO.O.OOOO......O.O...................................................O..OO...O.O.OOOO..OO..O.......................
.........................................................................................................OO...O.....O.........................................................................................................................................OOOO...O....O..............O....OOOOOO..O...................................................OOO..OO...O.O...O...OOO.......................
..........................................................................................................O..OO....OO........................................................................................................................................O.....OO......................O..O..O....OO.....................................................OO.O...O.O.....OO..........................
.........................................................................................................O.....OO.O........................................................................................................................................O..OO.O.O........OO............OO................................................................O....OOO.O.OOOOO..O.........................
.........................................................................................................OO....O.OO........................................................................................................................................OO.O....O........O..............................................................................O.OO......O....OO.O.O........................
..............................................................................................................................................................................................................................................................O.O.O.OO.......OOO..........................................................................O..O.O...OO.OO.....O..O.......................
..............................................................................................................................................................................................................................................................O.O.O.O..........O..........................................................................OOO..OOO..O.O...OO..OOO.......................
..OO.O....O.OO..............................................................................................................................................................................................................................................OO.OO.O.O........................................................................................OOO.OO.O.O..OO.OO..........................
..O.OO....OO.O...............................................................................................................................................................................................................................................O..OOO..OO...................................................................................OOO.....OO.O.OO..O..OOO.......................
......OO......OO....................OO...........OO..........................................................................................................................................................................................................O.....O.O....................................................................................O..O.......O.O.OOOOO..O.......................
......O........O....................OO...........OO.........................................................................................................................................................................................................OO.OOOOO.O.......................................................................................O.O....OO.OOO...O..........................
.......O......O..............................................................................................................................................................................................................................................O.O....O.........................................................................................OOO......O.O..............................
......OO......OO.............................................................................................................................................................................................................................................O...OOO.............................................................................................OO.OOO.OO.OO...........................
..OO.O......OO.................O........O.....O........O......................................................................................................................................................................................................OO.O...............................................................................................OOOO..O................................
..O.OO.......O................O.O......OO.....OO......O.O..........................................................................................................................................................................................................OOO.............................................................................................O....................................
......OO....O................O..O.....O..O...O..O.....O..O..................................................................................................................................................................................................OOOOOOO..O..................................................................................................................................
......O.....OO................OO......O.O.....O.O......OO......................................................................................O............................................................................................................O..O..O.....................................................................................................................................
.......O..OO...........................OO.....OO.............................................................................................O...OO.........OO..........................................................................................................................................................................................................................................
......OO...O.........................................................................................................................O......OO.O.OO.........O.O.......OO....................................................................................................................................................................................O...........OO....O.........................
..OO.O....O.........................................................................................................................O.O....OO......O..........O.......OO...................................................................................................................................................................................O.O...OOO....OO...O.O........................
..O.OO....OO.............OO.................................OO.................................................................OO...O.O.....OO.O.OO.........OOO.............................................................................................................................................................................................O....O.O....O.O...O.........................
.........................OO.................................OO................................................................O..O...O.......O...OO..............................................................................................................................................................................................................OOO....................................
...............................OO.....................OO.......................................................................OO..............O........................................................................................................................................................................................................................................................
..............................O..O...................O..O................................................................................................................................................................................................O..............................................................................................................................................
.............................OO.OO...................OO.OO..................................................................................................OOO..................................................O.OO......OO.O.........................O.O.............................................................................................................................................
...............................O.......................O...................................................................................OO.................O.......OO.........................................OO.O......O.OO....................O....O.O......................................................................................................OOO....................................
...........................................................................................................................................OO...............O.O.......OO.......................................OO........OO....OO.................O.O..OO.OO...O............................................................................................O....O.O....O.O...O.........................
............................................................................................................................................................OO..................................................O........O.....O...................O...O...O..O.O..........................................................................................O.O...OOO....OO...O.O........................
...............................................................................................................................................................................................................O..........O.....O.......................OOO.OO.O..O.........................................................................................O...........OO....O.........................
...............................O.......................O.......................................................................................................................................................OO........OO....OO................OOOOO....O..O.O.OO.....................................................................................................................................
.............................OO.OO...................OO.OO.......................................................................................................................................................O.OO....O.....O................O....O.........O...OO...................................................................................................................................
..............................O..O...................O..O........................................................................................................................................................OO.O.....O.....O..............O..O........O...O...O....................................................................................................................................
...............................OO.....................OO.............................................................................................................................................................OO..OO....OO...........O..O.OO..........OO......O.............................................................................................O....................................
.........................OO.................................OO........................................................................................................................................................O..O.....O...........O.O.O.....O...........OOOO.O..........................................................................................OOOO..O................................
.........................OO.................................OO.......................................................................................................................................................O....O.....O...........O..O....O.O.........O....O...........................................................................................OO.OOO.OO.OO...........................
.....................................................................................................................................................................................................................OO..OO....OO..............OO..O..O.........O..OO.........................................................................................OOO......O.O..............................
.................................................................................................................................................................................................................O.OO......OO.O.....................OO..............O........................................................................................O.O....OO.OOO...O..........................
.......................................OO.....OO.................................................................................................................................................................OO.O......O.OO.............OO...............O...O...OO...................................................................................O..O.......O.O.OOOOO..O.......................
..............................OO......O.O.....O.O......OO.................................................................................................................................................................................OOO.O...............OO...OO.OOO.................................................................................OOO.....OO.O.OO..O..OOO.......................
.............................O..O.....O..O...O..O.....O..O...............................................................................................................................................................................O....O..............OO.....O....O...................................................................................OOO.OO.O.O..OO.OO..........................
..............................O.O......OO.....OO......O.O.................................................................................................................................................................................OOO.OO....................O.OOO.................................................................................OOO..OOO..O.O...OO..OOO.......................
...............................O........O.....O........O..........................................................................................OO.....OO.................................................................................OO...O...................OO...................................................................................O..O.O...OO.OO.....O..O.......................
..................................................................................................................................................OO.....OO...................................................................................O..............OO............................................................................................O.OO......O....OO.O.O........................
..............................................................................................................................................................................................................................................OO..O....O.O..O..O..OO........................................................................................O....OOO.O.OOOOO..O.........................
....................................OO...........OO..........................................................................................................................................................................................O....O.....OO..O.O....O..O......................................................................................OO.O...O.O.....OO..........................
....................................OO...........OO.........................................................................................................................................................................................O.OOOO......O....O.....O.O.O..................................................................................OOO..OO...O.O...O...OOO.......................
.............................................................................................................................................................................................................................................O......OO..........OO.O..O...................................................................................O..OO...O.O.OOOO..OO..O.......................
...............................................................................................................................................................................................................................................O...O...O........O..O........................................................................................O..OO.....O...OO..O.........................
..............................................................................................................................................................................................................................................OO...O.........O....O..........................................................................................OO..OOOO..OOO..OO..........................
................................................................................................................................................................................................................................................OO.O.O..O....OOOOO............................................................................................O.O.....O...O.O...........................
................................................................................................................................................................................................................................................O..O.OO.OOO..................................................................................................O..O.O..OOOO.O..O..........................
..................................................................................................................................................................................................................................................O.O..O...O...O.............................................................................................O.O.OO..O..OO.O.O..........................
...................................................................................................................................................................................................................................................O...OO.OO..O.O.............................................................................................OO...........OO...........................
........................................................................................................................................................................................................................................................O.O....O................................................................................................OOOO.O.OOOO.............................
................................................O.......................................................................................................................................................................................................O.O.....................................................................................................O..OO.OO..O.............................
..............................................OOO........................................................................................................................................................................................................O.........................................................................................................O...O................................
.............................................O.....................................................................................................................................................................................................................................................................................................................OOOOO................................
.............................................OO.........................................................................................................................................................................................................................................................................................................................................................
.................................................................................................................................................OO.O...O.OO.........................................................................................................................................................................................................O..................................
.................................OO..............................................................................................................O..O...O..O........................................................................................................................................................................................................O.O.................................
.................................OO...............................................................................................................OOO...OOO..........................................................................................................................................................................................................O..................................
......................................O.O...............................................................................................................................................................................................................................................................................................................................................................
......................................O.................................................................................................................................................................................................................................................................................................................................................................
..........................................OOO........................................................................................OO...............................OO................................................................................................................................................................................................................................
.........................................O..O.....OO.......................................................................OO.......O.O...............................O.O.......OO.................................O.OO.....OO..........................................................................................................................................................................
........................................O...O.....OO.......................................................................OO.......O...................................O.......OO.................................OO.O......O............OO.....................OO.....................................................................................................................................
........................................O...................OO......................................................................OOO..........OO.......OO..........OOO........................................OO.........O.............OO.....................OO.....................................................................................................................................
........................................O...O...............OO...................................................................................OO.......OO......................................................O.........OO..................................................................................................................................OO....OO....OO..........................
...............................OO........O..O....................................................................................................................................................................O.....................OO...........................OO.........................................................................................O..O.O....O.O..O.........................
...............................OO.........OOO....................................................................................................OO.......OO.....................................................OO.........OO.........OO.....O..OOO.....OOO..O.....OO.........................................................................................OOO..........OOO.........................
....................................................................................................................................OOO..........OO.......OO..........OOO..........................................O.OO......O...............OOO.OOO.....OOO.OOO..................................................................................................OO......OO............................
....................OO....................................OO...............................................................OO.......O...................................O.......OO.................................OO.O.....O...............O..O.............O..O................................................................................................O..OOOOOO..O...........................
.....................O.....................................................................................................OO.......O.O...............................O.O.......OO.....................................OO...OO.............OO...................OO...............................................................................................OO........OO...........................
.....................O.O............................OOO....O.........................................................................OO...............................OO................................................O...................OO.................OO.......................................................................................................................................
......................OO...........................O...O...............................................................................................................................................................O....OO..........................................................................................................................................................................
..............................OOO.OOO.............O.....O..............................................................................................................................................................OO....O.............OO...................OO......................................................................................................................................
..............................O.....O.............O.....O..........................................................................................................................................................O.OO.....O..............OO...................OO......................................................................................................................................
..............................O.....O.............OOO.OOO.........................................................................................OOO...OOO........................................................OO.O.....OO.............OO...................OO......................................................................................................................................
...............................O...O...........................OO................................................................................O..O...O..O...........................................................................................................................................................................................OO....OO......OOO.......OO....OO.................
...........................O....OOO............................O.O...............................................................................OO.O...O.OO..........................................................................................................................................................................................O..O..O..O.....O.O......O..O..O..O................
.................................................................O....................................................................................................................................................................................................................................................................................OO.O..O.OO.....OOO......OO.O..O.OO................
...........................OO....................................OO......................................................................................................................................................................................................................................................................................O..O....................O..O...................
........................................................................................................................................................................................................................................................................................................................................................OO..OO..................OO..OO..................
..........................................OOO.........OO...................................................................................................................................................................................OO...................OO......................................................................................................................................
..........................................O..O........OO...................................................................................................................................................................................OO...................OO......................................................................................................................................
.........................OO...............O...O............................................................................................................................................................................................OO...................OO......................................................................................................................................
.........................OO...................O......................................................................................................................................................................................................................................................................................................O..O....O..O............O..O....O..O...............
...................................OO.....O...O.............................................................................................................................................................................................OO.................OO..................................................................................OOO..OOOOOO..OOO........OOO..OOOOOO..OOO.............
...................................OO.....O..O.............................................................................................................................................................................................OO...................OO...................................................................................O..O....O..O............O..O....O..O...............
..........................................OOO...............................................................................................................................................................................................O..O.............O..O.......................................................................................................................................
.............................................................................................................................................................................................................................................OOO.OOO.....OOO.OOO........................................................................................................................................
................................................O......................................................................................................................................................................................OO.....O..OOO.....OOO..O.....OO..................................................................................................................................
..............................................O.O......................................................................................................................................................................................OO...........................OO..................................................................................................................................
....................................................OO..................................................................................................................................................................................................................................................................................................................................................
....................................................OO....................................................................................................................................................................................OO.....................OO.....................................................................................................................................
..................................................................................................................................................OO.....OO...............................................................................OO.....................OO.....................................................................................................................................
........................................OO........................................................................................................OO.....OO.............................................................................................................................................................................................................................................
.........................................O..............................................................................................................................................................................................................................................................................................................................................................
......................................OOO...............................................................................................................................................................................................................................................................................................................................................................
......................................O...................................................................................................................................................................................................................................................................................................................OO............................................
......................................................................................................................................................................................................................................................................................................................................................OO..OO............................................
......................................................................................................................................................................................................................................................................................................................................................OO..O.OO..........................................
...........................................................................................................................................................................................................................................................................................................................................................OOO..........................................
...........................................................................................................................................................................................................................................................................................................................................................OO...........................................
.OO...OO....OO.O...........................................................................................................................................................................................................................................................................................................................................OO...................................O.......
.OO...OO....O.OO.................................................................................................................................................................................................................................................................................................................................................OOO...........................O.OOOO...
..........OO....OO.......................OO......................................................................................................................................................................................................................................................................................................................O............................O.O.OOO...
.OO...OO..O.....O....................OO..OO..OO............................................................................................................................................................................................................................................................................................................OO....O.O.........................O.O........
.O.O.O.O...O.....O...................OO..O..O.O.........................O..................................................................................................................................................................................................................................................................................OO.....OO..........................O.........
...O.O....OO....OO.........................OOO.............................................................................................................................................................................................................................................................................................................OO.................................OO........
..OO.O....O.....O.................OO.......OO...................OOO.O.O.OOO.................................................................................................................................................................................................................................................................................O..........................OO.....OO........
......OO...O.....O...............O..O............OOO............O.O.....OO.O...............................................................................................................................................................................................................................................................................O.O.........................O.O....OO........
.......O..OO....OO..............O.O.O............O.O............OOO.....O.OO..........................................................................................................................................................................................................................................................................OOO.O.O............................O..............
......O...O.....O..............OOO.O.............OOO.....................OOO.O........................................................................................................................................................................................................................................................................OOOO.O...........................OOO..............
......OO...O.....O.............OOO........................................................................................................................................................................................................................................................................................................................O...................................OO........
.......O..OO....OO.......O.................................................O..................................................................................................................................................................................................................................................................................................................OO........
......O.....OO.O...................................................OOO..................................................................................................................................................................................................................................................................................................................................
......OO....O.OO.......O.OOO.....................OOO.............O.OOO..................................................................................................................................................................................................................................................................................................................................
.........................OO.O.....OOO............O.O............O.O.O........................................................................................................................................................................................................................................................................................................................OOO........
.........................O.OO.....O.O............OOO............O..O.........................................................................................................................................................................................................................................................................................................................OO.O..OO...
..........................OOO.O.O.OOO...................OO.......OO............................................................................................................................................................................................................................................................................................................................OO..OO...
.......................................................OOO.....................................................................................................................................................................................................................................................................................................................................OO.......
............................O.........................O.O..O..OO........................................................................................................................................................................................................................................................................................................................................
......................................................OO..OO..OO........................................................................................................................................................................................................................................................................................................................................
..........................................................OO............................................................................................................................................................................................................................................................................................................................................
............................................................................................................................................................................................................................................................................................................................................................................OO..........................
........................................................................................................................................................................................................................................................................................................................................................................OO..O...........................
.......................................................................................................................................................................................................................................................................................................................................................................O..O.O...........................
...........................OO......................................................................................................................................................................................................................................................................................................................................OO.O..O..OO..........................
...........................OO......................................................................................................................................................................................................................................................................................................................................O.OO.O.O.O...........................
........................................................................................................................................................................................................................................................................................................................................................................OOO...O.........................
....................................................................................................................................................................................................................................................................................................................................................................OOOO.O.OOO.O........................
...................................................................................................................................................................................................................................................................................................................................................................O...O...O...O........................
...................................OOO..............................................................................................................................................................................................................................................................................................................................OOO.....OOO.........................
.................................O....O...............................................................................................................................................................................................................................................................................................................................O.OOO.O...........................
.............................OOO.......O...............................................................................................................................................................................................................................................................................................................................OOOOO............................
........................................................................................................................................................................................................................................................................................................................................................................OOO.............................
............................O.......OOO.................................................................................................................................................................................................................................................................................................................................................................
.............................O....O.....................................................................................................................................................................................................................................................................................................................................................................
..............................OOO..............................................................................................................................................................................................................................................................................................................................................O........................
................................................................................................................................................................................................................................................................................................................................................................................O.......................
...............................................................................................................................................................................................................................................................................................................................................................................OO.......................
...............................................................................................................................................................................................................................................................................................................................................................................OO.......................
.......................................OO.......................................................................................................................................................................................................................................................................................................................................O.......................
.......................................OO...................................................................................................................................................................................................................................................................................................................................OO..........................
............................................................................................................................................................................................................................................................................................................................................................................OO..........................
........................................................................................................................................................................................................................................................................................................................................................................O...............................
...........................................................................................................................................................................................................................................................................................................................................................OOOO.......O.O.......................O..OO...
..................................................................................................................................................................................................................................................................................................................................................OO......O.OO........OOO......................O.O..O...
.................................................................................................................................................................................................................................................................................................................................................O..O..........................................O.O.O....
............................................................................................................................................................................................................................................................................................................................................O..O..O.O..........OO..............OO.............OO.O.OO...
............................................................................................................................................................................................................................................................................................................................................OOOOO.O.OO.........OO..............O.............O..OO...O..
..................................................................................................................................................................................................................................................................................................................................................OO..O........................OOO..........OOO...OO..O.
.......................................................OO.....................................................................................................................................................................................................................................................................................O.OO...OOO....................................OOO..OO.O.O.
OO...OO....OO.O.................OO.....OO..............O..O..................................................................................................................................................................................................................................................................................O.O.OO..OOO....................................OOO...OO.O..
OO...OO....O.OO.............OO.O.O.....OO................OOOO................................................................................................................................................................................................................................................................................O..OO...OOO..........OOO........................O..OO......
...............OO..........O.O.O.....................OOOO....O................................................................................................................................................................................................................................................................................O...OO..O.............O..............OO.........OO.O.OOOOO
OO...OO........O...........O.O.OOOOO...OOOO.........O....OO.OO.................................................................................................................................................................................................................................................................................OO.O.OO.............OO..............OO..........O.O..O..O
O.O.O.O.........O.........OO........O.O....O.........OOO.O.O..OO................................................................................................................................................................................................................................................................................O.O.O..........................................O..O.....
..O.O..........OO...........O.O.OOO.O.OOO..O...........O.O..OO..O..............................................................................................................................................................................................................................................................................O..O.O......................OOO........OO.O......OO......
.OO.O......OO.O...........OOO..OO.O.O..O.......................O...............................................................................................................................................................................................................................................................................OO..O.......................O.O.......OOOO...............
.....OO....O.OO......................O..................O...OOO............................................................................................................................................................................................................................................................................................................O............................
......O..OO.............................OO...............O..............................................................................................................................................................................................................................................................................................................................................
.....O...O.......................................OO..........OO.......................................................................................................................................................................................................................................................................................................OO................................
.....OO...O......................................OO...........O..O....................................................................................................................................................................................................................................................................................................OO................................
......O..OO...................................................O.O.O................................................................................................................................................................................................................................................................................................O....................................
.....O.....OO.O................................................O.O.O...............................................................................................................................................................................................................................................................................................OO...................................
.....OO....O.OO..........................OOO............OOO......O.O...............................................................................................................................................................................................................................................................................................OO...................................
..................................OO.....O.O............O.O.....O.O................................................................................................................................................................................................................................................................................................O....................................
..................................O..O...OOO............OOO...O..O..................................................................................................................................................................................................................................................................................................O...................................
...................................OOO........................OOO.......................................................................................................................................................................................................................................................................................................................................
...................................OOO........................OOO........................................................................................................................................................................................................................................................................................................OOO............................
..................................O..O...OOO............OOO...O..O......................................................................................................................................................................................................................................................................................................OOOOO...........................
..................................OO.....O.O............O.O.....O.O....................................................................................................................................................................................................................................................................................................O.OOO.O..........................
.........................................OOO............OOO......O.O.................................................................................................................................................................................................................................................................................................OOO.....OOO........................
...............................................................O.O.O................................................................................................................................................................................................................................................................................................O...O...O...O.......................
..............................................................O.O.O.................................................................................................................................................................................................................................................................................................O.OOO.O.OOOO........................
.................................................OO...........O..O...................................................................................................................................................................................................................................................................................................O...OOO............................
.................................................OO..........OO........................................................................................................................................................................................................................................................................................................O.O.O.OO.O.......................
........................................OO...............O............................................................................................................................................................................................................................................................................................................OO..O..O.OO.......................
.....................................O..................O...OOO........................................................................................................................................................................................................................................................................................................O.O..O...........................
..........................OOO..OO.O.O..O.......................O.......................................................................................................................................................................................................................................................................................................O..OO............................
............................O.O.OOO.O.OOO..O...........O.O..OO..O.....................................................................................................................................................................................................................................................................................................OO................................
..........................OO........O.O....O.........OOO.O.O..OO........................................................................................................................................................................................................................................................................................................................................
...........................O.O.OOOOO...OOOO.........O....OO.OO..........................................................................................................................................................................................................................................................................................................................................
...........................O.O.O.....................OOOO....O..........................................................................................................................................................................................................................................................................................................................................
............................OO.O.O.....OO................OOOO...........................................................................................................................................................................................................................................................................................................................................
................................OO.....OO..............O..O.............................................................................................................................................................................................................................................................................................................................................
.......................................................OO...............................................................................................................................................................................................................................................................................................................................................
