!Name: r160
!C Inefficient p160 2c/5 rake
!Source: 2c5puff
!
...........................O.....O........................................................................................................................................................................................
.........................OO.OO.OO.OO......................................................................................................................................................................................
.........................OO.......OO......................................................................................................................................................................................
............................OO.OO.........................................................................................................................................................................................
.......................OOOOO.....OOOOO....................................................................................................................................................................................
......................O...O.......O...O...................................................................................................................................................................................
.....................OO.OOOOO...OOOOO.OO..................................................................................................................................................................................
.....................O....OO.....OO....O..................................................................................................................................................................................
.......................OO.OO.....OO.OO....................................................................................................................................................................................
......................O..OO.......OO..O...................................................................................................................................................................................
......................O...............O...................................................................................................................................................................................
.....................O.OO...........OO.O..................................................................................................................................................................................
.....................OO...............OO..................................................................................................................................................................................
.........................O.........O......................................................................................................................................................................................
........................OO.........OO.....................................................................................................................................................................................
.......................OO...........OO....................................................................................................................................................................................
.......................OO...........OO....................................................................................................................................................................................
.........................OOO.....OOO......................................................................................................................................................................................
.......................OO...........OO....................................................................................................................................................................................
.........................OOO.....OOO........................................................OOO...OOO.....................................................................................................................
.......................O.............O......................................................O.O...O.O.....................................................................................................................
.......................O.............O.....................................................O..O...O..O....................................................................................................................
......................O...............O....................................................OOOO...OOOO....................................................................................................................
........................O...........O....................................................O....OO.OO....O..................................................................................................................
........................O...........O...................................................OOO.O.......O.OOO.................................................................................................................
......................O.O...........O.O................................................O....O.OO.OO.O....O................................................................................................................
........................O...........O.................................................OOO.OO.........OO.OOO...............................................................................................................
.......................O.OOO.....OOO.O................................................OO..OO.........OO..OO...............................................................................................................
.........................O.........O...................................................OOO.............OOO................................................................................................................
..........................OO..O..OO....................................................OO..O.........O..OO................................................................................................................
.........................O...O.O...O......................................................................................................................................................................................
........................OO...O.O...OO.................................................OO.................OO...............................................................................................................
........................OO...O.O...OO.....................................................OOO.......OOO...................................................................................................................
..........................................................................................OOO.......OOO...................................................................................................................
........................OO..O...O..OO.....................................................OO.........OO.................................................................................O.....O...........................
........................O...........O.....................................................O.O.......O.O...............................................................................OO.OO.OO.OO.........................
...........................O.....O..........................................................O.......O.................................................................................OO.......OO.........................
........................O.O.......O.O.....................................................O.O.......O.O..................................................................................OO.OO............................
..........................O.......O......................................................OO.O.......O.OO............................................................................OOOOO.....OOOOO.......................
.........................................................................................OO...........OO...........................................................................O...O.......O...O......................
..........................OOO...OOO.....................................................O.O...........O.O.........................................................................OO.OOOOO...OOOOO.OO.....................
........................OO.........OO...................................................O...............O.........................................................................O....OO.....OO....O.....................
..........................OOO...OOO.................................................................................................................................................OO.OO.....OO.OO.......................
.........................OO.......OO....................................................OO.............OO..........................................................................O..OO.......OO..O......................
........................................................................................OO.............OO..........................................................................O...............O......................
......................OOO..OOO.OOO..OOO..................................................O..O.......O..O..........................................................................O.OO...........OO.O.....................
.......................O...OOO.OOO...O......................................................OO.....OO.............................................................................OO...............OO.....................
......................O..OOO.....OOO..O...............................................................................................................................................O.........O.........................
.......................O.O.........O.O.....................................................O....O....O...............................................................................OO.........OO........................
.......................O.O.O..O..O.O.O.....................................................O...OOO...O..............................................................................OO...........OO.......................
......................OO.....O.O.....OO....................................................OO.......OO..............................................................................OO...........OO.......................
............................OO.OO..........................................................OOOOO.OOOOO................................................................................OOO.....OOO.........................
......................OO.............OO.....................................................OOO...OOO...............................................................................OO...........OO.......................
............................OO.OO.........................................................OO.........OO...............................................................................OOO.....OOO.........................
.............................O.O...........................................................O.........O..............................................................................O.............O.......................
...........................................................................................O.........O..............................................................................O.............O.......................
.........................OOO.....OOO.......................................................O.........O.............................................................................O...............O......................
........................O.O.......O.O.....................................................OOO.......OOO..............................................................................O...........O........................
............................O...O.........................................................OO.........OO..............................................................................O...........O........................
...........................OO...OO...........................................................OO...OO...............................................................................O.O...........O.O......................
........................OO.OO...OO.OO.....................................................OO.OO...OO.OO..............................................................................O...........O........................
..........................................................................................OO.........OO.............................................................................O.OOO.....OOO.O.......................
............................OO.OO........................................................OOO.........OOO..............................................................................O.........O.........................
..........................OO.O.O.OO......................................................O.............O...............................................................................OO..O..OO..........................
..........................OO.O.O.OO.....................................................OO...OOO.OOO...OO.............................................................................O...O.O...O.........................
...........................O.O.O.O............................................................O...O..................................................................................OO...O.O...OO........................
............................OO.OO.......................................................OOO.O.O...O.O.OOO............................................................................OO...O.O...OO........................
..........................O..O.O..O........................................................O.........O....................................................................................................................
.........................O...O.O...O.......................................................O.O.....O.O...............................................................................OO..O...O..OO........................
.............................O.O.........................................................O.OOOOOOOOOOO.O.............................................................................O...........O........................
..........................OO.O.O.OO.....................................................OOOO.OO...OO.OOOO...............................................................................O.....O...........................
..........................OO.O.O.OO.....................................................OOO...OO.OO...OOO............................................................................O.O.......O.O........................
........................OOO.OO.OO.OOO..................................................................................................................................................O.......O..........................
............................OO.OO............................................................O.O.O.O......................................................................................................................
........................OO....O....OO.........O.............................................O.......O..................................................................................OOO...OOO..........................
.............................................OOO...........................................O...O.O...O...............................................................................OO.........OO........................
..............................O..............O.O..........................................O..O.....O..O................................................................................OOO...OOO..........................
.............................OOO......OO.....OO....OOO.....................................O.O.....O.O................................................................................OO.......OO.........................
.............................OOO.....O.OO...OOO....O.O.....................................O.O.....O.O....................................................................................................................
.....................................O.OO.O....O...O...O....................................OOO...OOO..............................................................................OOO..OOO.OOO..OOO......................
.....................................OO.OO.O...O....O..O......................................OO.OO.................................................................................O...OOO.OOO...O.......................
..........................OOO...OOO.....OOO..OO....OO.OO....................................OO.O.O.OO..............................................................................O..OOO.....OOO..O......................
...........................OO...OO....O.O..........OOO......................................OO.O.O.OO...............................................................................O.O.........O.O.......................
............................OOOOO.....O...........OO...........................................O.O..................................................................................O.O.O..O..O.O.O.......................
.............................OOO..................OOO..OO......................................O.O.................................................................................OO.....O.O.....OO......................
.........OOO..................O...................OOO..O...................................O...O.O...O...................................................................................OO.OO............................
.........O..O......................................OO..O....................................OO.O.O.OO..............................................................................OO.............OO......................
....O............O...........................................................................O.O.O.O.....................................................................................OO.OO............................
...OOO....OO.....OO...........................................................................OO.OO.......................................................................................O.O.............................
..O..O....OO.O...O.OO.......................................................................O..O.O..O.....................................................................................................................
.OOO......OO..OO..O........................................................................O...O.O...O................................................................................OOO.....OOO.........................
..O.O.....OO..OO...................OO.............O........................................O...O.O...O...............................................................................O.O.......O.O........................
....OO...........O......O.......O.OOO............OOO...OOO................................O.....O.....O..................................................................................O...O............................
O....O...........O.OO...O..O....O................O.O...O.O.................................O.........O..........O.......................................................................OO...OO...........................
.....O..................O...O...O.........OO.....OO....O...O..................................................OO.OO..................................................................OO.OO...OO.OO........................
OO...O...................OO.OO...........O.OO...OOO.....O..O..................................O.O.O...........OO..........................................................................................................
..O..O.......................O...........O.OO.O....O...OO.OO...................................O.O......OOO....O.....OOO.................................................................OO.OO............................
....O.........................O..........OO.OO.O...O...OOO.....................................OOO.....O.......O....O...O..............................................................OO.O.O.OO..........................
...............................OOOO.........OOO..OO...OO......................................OOOOO...OO....OOOO.......OO..............................................................OO.O.O.OO..........................
................................O...O.....O.O.........OOO..OO................................OO...OO..OO..O.OO.O....O...O...............................................................O.O.O.O...........................
............................O.....O.O.....O...........OOO..O..................................OOOOO....OO........OO...OO.................................................................OO.OO............................
...........................O.O.........................OO..O...................................OOO.....O.O............O.OOO............................................................O..O.O..O..........................
...........................O....................................................................O......O.O............OO.OO...........................................................O...O.O...O.........................
............................O...............................................O.........................................OO.O................................................................O.O.............................
......................................................................O....O.O........................................OO...............................................................OO.O.O.OO..........................
....................................................................OO.OO.OO.OO.......................................O...O............................................................OO.O.O.OO..........................
...............................O....................................OO.OO.OO.......O...........OO......................O.............................................................OOO.OO.OO.OOO........................
..........................O...O.O......................................OO.OOO.....OOO.........O..........................................................................................OO.OO............................
.........................O.O.....O................................O..OO...OO.OO.OOOO.OO......O..OO.........................................................................O.........OO....O....OO........................
.........................O...O....................................O...O...OO.O..O.....O.........OO...OO...................................................................OOO.............................................
..........................O..O.OO..................................O.O.....O.O..................O....OO.............O.....................................................O.O.............................................
...............................O...................................O.O.............OOO.......O....................OO.OO.............................................OOO....OO.....OO.......O..............................
............................OOO..O................................OO.O.............OO.............................OO................................................O.O....OOO...OO.O.....O.O.............................
.................................O................................OOOO...........................OO.........OOO....O.....OOO......................................O...O...O....O.OO.O....OO.OO............................
....................................................................OO........................OO.OO........O.......O....O...O.....................................O..O....O...O.OO.OO.....O.O.............................
.............................OO...............................................................OOO.........OO....OOOO.......OO.....................................OO.OO....OO..OOO.........O..............................
.............................OO........................O.....O....................................OO......OO..O.OO.O....O...O.......................................OOO..........O.O......................................
.....................................................OO.OO.OO.OO...............................OOO..O......OO........OO...OO..........................................OO...........O.......O..............................
.....................................................OO.......OO...............................O....O......O.O............O.OOO..................................OO..OOO..............OOOOO.OOOO..........................
...............................................OOO....O.......O....OOO........................O.....O......O.O............OO.OO...................................O..OOO......................................OOO.........
..............................................O.......O.......O.......O......................OOO....OO....................OO.O....................................O..OO......................................O..O.........
.............................................OO....OOOO.......OOOO....OO..........................O.......................OO............................................................................O............O....
.............................................OO..O.OO.O.......O.OO.O..OO..........................OOO.....................O...O........................................................................OO.....OO....OOO...
..............................................OO........OO.OO........OO...........................O.OO.....................O..............................................................OOO........OO.O...O.OO....O..O..
..............................................O.O...................O.O.....................................................................................................................O..........O..OO..OO......OOO.
..............................................O.O...................O.O................................................................................................O...................OOO............OO..OO.....O.O..
......................................................................................................................................................................OOO.................O...O.........O...........OO....
......................................................................................................................................................................O.O............OO..O...OO......OO.O...........O....O
................................................................................................................................................................OOO....OO.....OO.....OO......OO.....................O.....
................................................................................................................................................................O.O....OOO...OO.O.........OOOO......................O...OO
...............OOO............................................................................................................................................O...O...O....O.OO.O...........O.O.....................O..O..
...............O..O...........................................................................................................................................O..O....O...O.OO.OO............O.......................O....
..........O............O..........O...........................................................................................................................OO.OO....OO..OOO............................................
.........OOO....OO.....OO.........O...........................................................................................OOO...............................OOO..........O.O..........................................
........O..O....OO.O...O.OO...................................................................................................O.O.................................OO...........O..........................................
.......OOO......OO..OO..O.......OO......................................................................................OOO...O..O...........................OO..OOO......................................................
........O.O.....OO..OO..........OO......................................................................................O.O...O......OOO......................O..OOO......................O...............................
..........OO...........O...............................................................................................O..O...O..O..O...O.....................O..OO.....................OO.OO.............................
......O....O...........O.OO.........................................................................O............OOO......O...O.OOOO....OO..............................................OO.OO.............................
...........O.......................................................................................O.O.OO.......O...O..O..O...O...O....OO.................................................................................
......OO...O.......................................................................................O.....O.....OO....OOOO.O....O...O...OO.................................................O...............................
........O..O.....................OO.................................................................OO....O.....OO....O...O..........O..................................................O.O...............................
..........O....................................................................................O.....OOOOO.OO...OO...O...O............O..................................................O................................
..................................OOO..........................................................OO......O.O.OO......O.........................................................................OO...........................
...................................OO....OO......................................................OOOO.O..O.OO.....O..........O...............O...............................................OOO..........................
..........................................OO......................................................O...O...O.................OOO.............OOO.............................................O..O..........................
.........................................O..................................O..................O...O.O..OO..................O..O...........O..O..............................................OOO..........................
...........................................................................O.O.................O...OOOOO.....................OOO...........OOO.................................................O..........................
..........................................................................OO.OO...O................O.O......................O.................O...............................................O..O........................
.....................................................................O.......OO..O.O.......................................OO.OOOOO.....OOOOO.OO..............................................O...........................
....................................................................OOO.....OOO.OO.OO......................................OO.OO...O...O...OO.OO..................O...........................O..O........................
..................................................................OO.OOOO.OO.OO.OO.......O.......................................O..O.O..O.................OOO..OO.OO....................O...OO...........................
..................................................................O.....O..O.OO.OOO.....OOO.....................................O..O...O..O...............O...O....OO.....................O...OO..........................
...........................................................................O.O..OO.OO.OOOO.OO.................................O.O.OO...OO.O.O.............OO.......O....OOO...............................................
...................................................................OOO..........OO.O..O.....O.................................O.............O.............O...O....O.......O...............O..............................
....................................................................OO...........O.O...............................................O...O...................OO......OOOO....OO.............OO..............................
.............................................................OO..........................OOO....................................OO..O.O..OO.............OOO.O......O.OO.O..OO.............................................
..............................................................OO.........................OO.........................................O.O.................OO.OO...OO........OO..............................................
.............................................................O...................................................................OO.O.O.OO...............O.OO............O.O..............................................
................................................................................................................................O.O.O.O.O.O................OO............O.O..............................................
...............................................................................................................................OO.O.O.O.O.OO............O...O.............................................................
.............................................................................................................................OO.O.O.O.O.O.O.OO.............O..............................................................
............................................................................................................................O.O.O.O.O.O.O.O.O.O...........................................................................
............................................................................................................................O.O.O.O.O.O.O.O.O.O...........................................................................
...........................................................................................................................O.OO.O.O.O.O.O.O.OO.O........................................................OOO...............
.............................................................................................................................OOOO.O.O.O.O.OOOO.........................................................O..O...............
............................................................................................................................OO..O.O.O.O.O.O..OO........................................O..........O............O..........
..............................................................................................................................OO..O.O.O.O..OO.........................................OOO........OO.....OO....OOO.........
.................................................................................OO..................................O............O.O.O.O...........................................OOO.OO.....OO.O...O.OO....O..O........
..................................................................................OO.................................OO.............O.O..................................................OO......O..OO..OO......OOO.......
.................................................................................O..................................O.O......O...O..O.O..O...O..................................OOOO.OO..O..........OO..OO.....O.O........
..............................................................................................................................O....OO.OO....O..................................O...O..OOO.........O...........OO..........
....................................................................................................................................................................................O.O........OO.O...........O....O......
................................................................................................................................................................................O...O.........................O...........
....................................................................................................................................................................................O.OO......................O...OO......
.................................................................................................................................................................................OO...O.......................O..O........
...................................................................................................................................................................................OOO.........................O..........
....................................................................................................................................................................................O.....................................
.....................................................................................................OO...................................................................................................................
......................................................................................................OO..................................................................................................................
.....................................................................................................O....................................................................................................................
..............................................................................................................................................................OOO.........................................................
..............................................................................................................................................................O...........................................................
...............................................................................................................................................................O..........................................................
.........................................................................................................................OO...............................................................................................
..........................................................................................................................OO..............................................................................................
.........................................................................................................................O................................................................................................
...........................................................................................................................................OOO............................................................................
..........................................................................................................................................O..O............................................................................
.............................................................................................................................................O............................................................................
......................................................................................................................O........O.............O............................................................................
.....................................................................................................................O.O......O.O.........O.O.............................................................................
....................................................................................................................OO.OO....OO.OO........................................................................................
....................................................................................................................O..OO....OO..O........................................................................................
...................................................................................................................O.O..........O.O.......................................................................................
...................................................................................................................O.O..........O.O.......................................................................................
.................................................................................................................O...O.OO....OO.O...O.....................................................................................
................................................................................................................O....O.O......O.O....O....................................................................................
................................................................................................................O....OO........OO....O....................................................................................
................................................................................................................O.O....O......O....O.O....................................................................................
........................................................................................................................OO..OO............................................................................................
.........................................................................................................................O..O.............................................................................................
......................................................................................................................OO......OO..........................................................................................
.......................................................................................................................O......O...........................................................................................
........................................................................................................................OOOOOO............................................................................................
........................................................................................................................................O.................................................................................
........................................................................................................................................O.OO..............................................................................
........................................................................................................................................O..O..............................................................................
.......................................................................................................................................OO.OO..............................................................................
.......................................................................................................................................O..................................................................................
.......................................................................................................................................OOO................................................................................
..............................................................................................................................................OO..........................................................................
.....................................................................................................................................O.......O..O.........................................................................
.....................................................................................................................................O.OOO....OO..........................................................................
.....................................................................................................................................O....O...............................................................................
......................................................................................................................................O..O................................................................................
......................................................................................................................................OOO...OO............................................................................
..........................................................................................................................................O....O..........................................................................
..........................................................................................................................................O....O..........................................................................
.............................................................................................................................................O..O.........................................................................
....................................................................................................................................OOO...O...............................................................................
...................................................................................................................................O......................................................................................
....................................................................................................................................OOO.O.................................................................................
......................................................................................................................................O......OO...........................................................................
......................................................................................................................................O..O..O..O..........................................................................
......................................................................................................................................O.OO..O.O...........................................................................
.......................................................................................................................................OOOOO.O............................................................................
.........................................................................................................................................O..O.............................................................................
.........................................................................................................................................O.O..............................................................................
..........................................................................................................................................O...............................................................................
..............................................................................................................OO..........................................................................................................
..............................................................................................................O.O.........................................................................................................
..............................................................................................................O................................................O..........................................................
..............................................................................................................................................................OOO.........................................................
.............................................................................................................................................................OO.OO........................................................
.........................................................................................................................................................O..O.O.O.O.......................................................
........................................................................................................................................................OOO...O...OO......................................................
.......................................................................................................................................................O......O...OO......................................................
.......................................................................................................................................................O.O................................................................
.........................................................................................................................................................O.O..............................................................
.......................................................................................................................................................O..O...............................................................
.......................................................................................................................................................O..................................................................
....................................................................................................................O.......O.............................................................................................
...................................................................................................................OOO.....OOO............................................................................................
...................................................................................................................O..O...O..O............................................................................................
....................................................................................................................OO.O.O.OO.............................................................................................
....................................................................................................................OO.O.O.OO.............................................................................................
....................................................................................................................OO.....OO.............................................................................................
....................................................................................................................OO.O.O.OO.............................................................................................
....................................................................................................................O.O...O.O.............................................................................................
..................................................................................................................OO.........OO...........................................................................................
..................................................................................................................OO..O.O.O..OO...........................................................................................
.....................................................................................................................O.OOO.O..............................................................................................
.....................................................................................................................O.O.O.O..............................................................................................
......................................................................................................................O...O...............................................................................................
..................................................................................................................OOO.......OOO...........................................................................................
................................................................................................................OO.OO.......OO.OO.........................................................................................
.....................................................................................................................O.....O..............................................................................................
................................................................................................................O...OO.....OO...O.........................................................................................
...................................................................................................................OOO.....OOO......OO.............OOO....................................................................
....................................................................................................................OO.....OO.......O.O...........O..O....................................................................
.................................................................................................................O.OO.O...O.OO.O.....O.......O............O...............................................................
................................................................................................................OOO.O.......O.OOO...........OO.....OO....OOO..............................................................
......................................................................................................................OO.OO...............OO.O...O.OO....O..O.............................................................
.................................................................................................................OOO.........OOO............O..OO..OO......OOO............................................................
.................................................................................................................O..O.......O..O...............OO..OO.....O.O.............................................................
..................................................................................................................OOO.......OOO..............O...........OO...............................................................
.................................................................................................................O.....OOO.....O..........OO.O...........O....O...........................................................
.......................................................................................................................OOO...............................O................................................................
.......................................................................................................................O.O...............................O...OO...........................................................
.........................................................................................................................................................O..O.............................................................
.....................................................................................................................O.....O..............................O...............................................................
....................................................................................................................OO.OOO.OO.............................................................................................
.................................................................................................................OOO.........OOO..........................................................................................
................................................................................................................O..OOOOOOOOOOO..O.........................................................................................
................................................................................................................O......OOO......O.........................................................................................
..................................................................................................................O.O.......O.O...........................................................................................
