!Name: Simkin glider gun
!Author: Michael Simkin, 2015
!Period 120 glider gun, 29 cells (smallest known gun)
!www.conwaylife.com/wiki/Simkin_glider_gun
OO.....OO........................
OO.....OO........................
.................................
....OO...........................
....OO...........................
.................................
.................................
.................................
.................................
......................OO.OO......
.....................O.....O.....
.....................O......O..OO
.....................OOO...O...OO
..........................O......
.................................
.................................
.................................
....................OO...........
....................O............
.....................OOO.........
.......................O.........
