!Name: beehiveontable_synth.rle
!Glider syntheses of beehive on table
!http://conwaylife.com/wiki/Beehive_on_table
!http://conwaylife.com/patterns/beehiveontable_synth.rle
!
................................................................................O.........................
..........................................O...................................O.O.........................
..........................................O.O..................................OO.........................
..........................................OO........................................O.....................
....................................................................................O.O...................
.........................................O....................OO....................OO................OO..
.......................................O.O...................O..O....................................O..O.
........................................OO....................OO......................................OO..
.............................................................................O............................
..............................................................OOOO............OO......................OOOO
..............................................................O..O...........OO......OO...............O..O
............................................OOO......................................O.O..................
............................................O........................................O....................
.............................................O............................................................
...................................................................................OO.....................
..................................................................................O.O.....................
....................................OO..............................................O.....................
.....................................OO...................................................................
....................................O.....................................................................
....O.....................................................................................................
....O.O...................................................................................................
....OO....................................................................................................
..O.......................................................................................................
O.O...................OO..................OO..................OO..................OO..................OO..
.OO..................O..O................O..O................O..O................O..O................O..O.
......................OO..................OO..................OO..................OO..................OO..
...............................................O..............OO..................OO..................OOOO
.............................................OO...............O.O.................O.O......O..........O..O
..............................................OO...............O...................O.......O.O............
.........................................OO................................................OO.............
.......................................O.O.O............................................OO................
.....................................O.O.O.............................................OO.................
......................................OO.................................................O................
................................................................................OOO.......................
..................................................................................O.......................
.................................................................................O........................
