!Name: phoenix1_synth
!Author: Boris Shemyakin, Extrementhusiast
!Glider synthesis of phoenix 1
!http://conwaylife.com/wiki/phoenix_1
!
......O..........................
......O.O........................
......OO.........................
............................O....
................O...........O.O..
...........O...O..........O......
.....OO.....OO.OOO.............OO
OOO.OO.....OO............OO......
..O...O........................O.
.O.........................O.O...
.............................O...
..........OO.....................
.........O.O.....................
...........O.....................
