!Name: DS160'FK
!Source: Life-PR-98
!
.................................O.OOO..................................................................................................................................................................................................................................................................................................................................................................................................................................................................................................................
................................OO.OO..O................................................................................................................................................................................................................................................................................................................................................................................................................................................................................................................
................................OO.O....................................................................................................................................................................................................................................................................................................................................................................................................................................................................................................................
................................OO...O..O...OO...OO...OO...OO...OO...OO...OO...OO...OO...OO...OO...OO...OO...OO...OO...OO...OO...OO...OO...OO...OO...OO...OO...OO...OO...OO...OO...OO...OO...OO...OO...OO...OO...OO...OO...OO...OO...OO...OO...OO...OO...OO...OO...OO...OO...OO...OO...OO...OO...OO...OO...OO...OO...OO...OO...OO...OO...OO...OO...OO...OO...OO...OO...OO...OO...OO...OO...OO...OO...OO...OO...OO...OO...OO...OO...OO...OO...OO...OO...OO...OO...OO...OO...OO...OO...OO...OO...OO...OO...OO...OO...OO...OO...OO...OO...OO...OO...OO...OO
................................OO....O..O.O.O..O.O..O.O..O.O..O.O..O.O..O.O..O.O..O.O..O.O..O.O..O.O..O.O..O.O..O.O..O.O..O.O..O.O..O.O..O.O..O.O..O.O..O.O..O.O..O.O..O.O..O.O..O.O..O.O..O.O..O.O..O.O..O.O..O.O..O.O..O.O..O.O..O.O..O.O..O.O..O.O..O.O..O.O..O.O..O.O..O.O..O.O..O.O..O.O..O.O..O.O..O.O..O.O..O.O..O.O..O.O..O.O..O.O..O.O..O.O..O.O..O.O..O.O..O.O..O.O..O.O..O.O..O.O..O.O..O.O..O.O..O.O..O.O..O.O..O.O..O.O..O.O..O.O..O.O..O.O..O.O..O.O..O.O..O.O..O.O..O.O..O.O..O.O..O.O..O.O..O.O..O.O..O.O..O.O..O.O..O.O..O.O..O.O..O.O
.........................................O..O....O....O....O....O....O....O....O....O....O....O....O....O....O....O....O....O....O....O....O....O....O....O....O....O....O....O....O....O....O....O....O....O....O....O....O....O....O....O....O....O....O....O....O....O....O....O....O....O....O....O....O....O....O....O....O....O....O....O....O....O....O....O....O....O....O....O....O....O....O....O....O....O....O....O....O....O....O....O....O....O....O....O....O....O....O....O....O....O....O....O....O....O....O....O....O....O....O....O.
........................................OO..............................................................................................................................................................................................................................................................................................................................................................................................................................................................................................................
.......................................OOO..............................................................................................................................................................................................................................................................................................................................................................................................................................................................................................................
.......................................OOO..............................................................................................................................................................................................................................................................................................................................................................................................................................................................................................................
........................................OO..............................................................................................................................................................................................................................................................................................................................................................................................................................................................................................................
......................................O..O..............................................................................................................................................................................................................................................................................................................................................................................................................................................................................................................
.........................................O..............................................................................................................................................................................................................................................................................................................................................................................................................................................................................................................
........................................OO..............................................................................................................................................................................................................................................................................................................................................................................................................................................................................................................
.......................................OOO..............................................................................................................................................................................................................................................................................................................................................................................................................................................................................................................
............................O..OO......OOO..............................................................................................................................................................................................................................................................................................................................................................................................................................................................................................................
............................O..OO..OOO.OOO..............................................................................................................................................................................................................................................................................................................................................................................................................................................................................................................
...................................OOO.OOO..............................................................................................................................................................................................................................................................................................................................................................................................................................................................................................................
...................................OOO.OOO..............................................................................................................................................................................................................................................................................................................................................................................................................................................................................................................
...........................OO......OOO.OOO..............................................................................................................................................................................................................................................................................................................................................................................................................................................................................................................
.O....................OO....OO.........OOO..............................................................................................................................................................................................................................................................................................................................................................................................................................................................................................................
O.O...................OO....O..........OOO..............................................................................................................................................................................................................................................................................................................................................................................................................................................................................................................
O.O.....................O..OO..........OOO..............................................................................................................................................................................................................................................................................................................................................................................................................................................................................................................
.O...........OOO......OOO.OOO..OOO.....OOO..............................................................................................................................................................................................................................................................................................................................................................................................................................................................................................................
.............O..O...O......OO..OOO.....OOO..............................................................................................................................................................................................................................................................................................................................................................................................................................................................................................................
.................O..OOO.........OO.....OOO..............................................................................................................................................................................................................................................................................................................................................................................................................................................................................................................
.................O..O.O.....O..O.......OOO..............................................................................................................................................................................................................................................................................................................................................................................................................................................................................................................
.................O.OO......O...O..OO...OOO..............................................................................................................................................................................................................................................................................................................................................................................................................................................................................................................
...................OO.....O.......OO...OOO..............................................................................................................................................................................................................................................................................................................................................................................................................................................................................................................
.........O.........OO............O.OOO.OOO..............................................................................................................................................................................................................................................................................................................................................................................................................................................................................................................
........OOO.............OO.OO...O......OOO..............................................................................................................................................................................................................................................................................................................................................................................................................................................................................................................
.......OOOOO.........OOOOO.............OOO..............................................................................................................................................................................................................................................................................................................................................................................................................................................................................................................
......................O.................OO..............................................................................................................................................................................................................................................................................................................................................................................................................................................................................................................
......................................O..O..............................................................................................................................................................................................................................................................................................................................................................................................................................................................................................................
.........................................O..............................................................................................................................................................................................................................................................................................................................................................................................................................................................................................................
.........................................O..............................................................................................................................................................................................................................................................................................................................................................................................................................................................................................................
......................................O..O..............................................................................................................................................................................................................................................................................................................................................................................................................................................................................................................
......................O.................OO..............................................................................................................................................................................................................................................................................................................................................................................................................................................................................................................
.......OOOOO.........OOOOO.............OOO..............................................................................................................................................................................................................................................................................................................................................................................................................................................................................................................
........OOO.............OO.OO...O......OOO..............................................................................................................................................................................................................................................................................................................................................................................................................................................................................................................
.........O.........OO............O.OOO.OOO..............................................................................................................................................................................................................................................................................................................................................................................................................................................................................................................
...................OO.....O.......OO...OOO..............................................................................................................................................................................................................................................................................................................................................................................................................................................................................................................
.................O.OO......O...O..OO...OOO..............................................................................................................................................................................................................................................................................................................................................................................................................................................................................................................
.................O..O.O.....O..O.......OOO..............................................................................................................................................................................................................................................................................................................................................................................................................................................................................................................
.................O..OOO.........OO.....OOO..............................................................................................................................................................................................................................................................................................................................................................................................................................................................................................................
.............O..O...O......OO..OOO.....OOO..............................................................................................................................................................................................................................................................................................................................................................................................................................................................................................................
.O...........OOO......OOO.OOO..OOO.....OOO..............................................................................................................................................................................................................................................................................................................................................................................................................................................................................................................
O.O.....................O..OO..........OOO..............................................................................................................................................................................................................................................................................................................................................................................................................................................................................................................
O.O...................OO....O..........OOO..............................................................................................................................................................................................................................................................................................................................................................................................................................................................................................................
.O....................OO....OO.........OOO..............................................................................................................................................................................................................................................................................................................................................................................................................................................................................................................
...........................OO......OOO.OOO..............................................................................................................................................................................................................................................................................................................................................................................................................................................................................................................
...................................OOO.OOO..............................................................................................................................................................................................................................................................................................................................................................................................................................................................................................................
...................................OOO.OOO..............................................................................................................................................................................................................................................................................................................................................................................................................................................................................................................
............................O..OO..OOO.OOO..............................................................................................................................................................................................................................................................................................................................................................................................................................................................................................................
............................O..OO......OOO..............................................................................................................................................................................................................................................................................................................................................................................................................................................................................................................
.......................................OOO..............................................................................................................................................................................................................................................................................................................................................................................................................................................................................................................
........................................OO..............................................................................................................................................................................................................................................................................................................................................................................................................................................................................................................
......................................O..O..............................................................................................................................................................................................................................................................................................................................................................................................................................................................................................................
......................................O..O..............................................................................................................................................................................................................................................................................................................................................................................................................................................................................................................
........................................OO..............................................................................................................................................................................................................................................................................................................................................................................................................................................................................................................
.......................................OOO..............................................................................................................................................................................................................................................................................................................................................................................................................................................................................................................
.......................................OOO..............................................................................................................................................................................................................................................................................................................................................................................................................................................................................................................
........................................OO..............................................................................................................................................................................................................................................................................................................................................................................................................................................................................................................
.........................................O..O....O....O....O....O....O....O....O....O....O....O....O....O....O....O....O....O....O....O....O....O....O....O....O....O....O....O....O....O....O....O....O....O....O....O....O....O....O....O....O....O....O....O....O....O....O....O....O....O....O....O....O....O....O....O....O....O....O....O....O....O....O....O....O....O....O....O....O....O....O....O....O....O....O....O....O....O....O....O....O....O....O....O....O....O....O....O....O....O....O....O....O....O....O....O....O....O....O....O.
................................OO....O..O.O.O..O.O..O.O..O.O..O.O..O.O..O.O..O.O..O.O..O.O..O.O..O.O..O.O..O.O..O.O..O.O..O.O..O.O..O.O..O.O..O.O..O.O..O.O..O.O..O.O..O.O..O.O..O.O..O.O..O.O..O.O..O.O..O.O..O.O..O.O..O.O..O.O..O.O..O.O..O.O..O.O..O.O..O.O..O.O..O.O..O.O..O.O..O.O..O.O..O.O..O.O..O.O..O.O..O.O..O.O..O.O..O.O..O.O..O.O..O.O..O.O..O.O..O.O..O.O..O.O..O.O..O.O..O.O..O.O..O.O..O.O..O.O..O.O..O.O..O.O..O.O..O.O..O.O..O.O..O.O..O.O..O.O..O.O..O.O..O.O..O.O..O.O..O.O..O.O..O.O..O.O..O.O..O.O..O.O..O.O..O.O..O.O..O.O..O.O
................................OO...O..O...OO...OO...OO...OO...OO...OO...OO...OO...OO...OO...OO...OO...OO...OO...OO...OO...OO...OO...OO...OO...OO...OO...OO...OO...OO...OO...OO...OO...OO...OO...OO...OO...OO...OO...OO...OO...OO...OO...OO...OO...OO...OO...OO...OO...OO...OO...OO...OO...OO...OO...OO...OO...OO...OO...OO...OO...OO...OO...OO...OO...OO...OO...OO...OO...OO...OO...OO...OO...OO...OO...OO...OO...OO...OO...OO...OO...OO...OO...OO...OO...OO...OO...OO...OO...OO...OO...OO...OO...OO...OO...OO...OO...OO...OO...OO...OO...OO...OO...OO
................................OO.O....................................................................................................................................................................................................................................................................................................................................................................................................................................................................................................................
................................OO.OO..O................................................................................................................................................................................................................................................................................................................................................................................................................................................................................................................
.................................O.OOO..................................................................................................................................................................................................................................................................................................................................................................................................................................................................................................................
