!Name: DS48&320
!Source: Life-PR-98
!
........................OO................................................................................................................................................................................................................................................................................................
........................OOO...O...O...O...O...O...O...O...O...O...O...O...O...O...O...O...O...O...O...O...O...O...O...O...O...O...O...O...O...O...O...O...O...O...O...O...O...O...O...O...O...O...O...O...O...O...O...O...O...O...O...O...O...O...O...O...O...O...O...O...O...O...O...O...O...O...O...O...O...O...O...O...
..........................OO.O.O.O.O.O.O.O.O.O.O.O.O.O.O.O.O.O.O.O.O.O.O.O.O.O.O.O.O.O.O.O.O.O.O.O.O.O.O.O.O.O.O.O.O.O.O.O.O.O.O.O.O.O.O.O.O.O.O.O.O.O.O.O.O.O.O.O.O.O.O.O.O.O.O.O.O.O.O.O.O.O.O.O.O.O.O.O.O.O.O.O.O.O.O.O.O.O.O.O.O.O.O.O.O.O.O.O.O.O.O.O.O.O.O.O.O.O.O.O.O.O.O.O.O.O.O.O.O.O.O.O.O.O.O.O.O.O.O.O.O.O.O..
........................O.OO..O...O...O...O...O...O...O...O...O...O...O...O...O...O...O...O...O...O...O...O...O...O...O...O...O...O...O...O...O...O...O...O...O...O...O...O...O...O...O...O...O...O...O...O...O...O...O...O...O...O...O...O...O...O...O...O...O...O...O...O...O...O...O...O...O...O...O...O...O...O...O...
........................O..O..............................................................................................................................................................................................................................................................................................
...........................O..............................................................................................................................................................................................................................................................................................
........................O..O..............................................................................................................................................................................................................................................................................................
........O.................OO..............................................................................................................................................................................................................................................................................................
........O.OO.OO..........OOO..............................................................................................................................................................................................................................................................................................
...........O.OO..........OOO..............................................................................................................................................................................................................................................................................................
...OO.....O....OO...O.....OO..............................................................................................................................................................................................................................................................................................
.....O...OOOO.OOO.OO.O..O..O..............................................................................................................................................................................................................................................................................................
OO.OO....O...OO.O......OO..O..............................................................................................................................................................................................................................................................................................
OOO.....OO.O.O...O.....O..OO..............................................................................................................................................................................................................................................................................................
...........O.....O.OO....OOO..............................................................................................................................................................................................................................................................................................
.......OOOO.....O....O...OOO..............................................................................................................................................................................................................................................................................................
........OO...............OOO..............................................................................................................................................................................................................................................................................................
..........................OO..............................................................................................................................................................................................................................................................................................
...........................O..............................................................................................................................................................................................................................................................................................
........................O..O..............................................................................................................................................................................................................................................................................................
........................O.OO..............................................................................................................................................................................................................................................................................................
......................OOOOOO..............................................................................................................................................................................................................................................................................................
........................O.OO..............................................................................................................................................................................................................................................................................................
........................O..O..............................................................................................................................................................................................................................................................................................
...........................O..............................................................................................................................................................................................................................................................................................
..........................OO..............................................................................................................................................................................................................................................................................................
........OO...............OOO..............................................................................................................................................................................................................................................................................................
.......OOOO.....O....O...OOO..............................................................................................................................................................................................................................................................................................
...........O.....O.OO....OOO..............................................................................................................................................................................................................................................................................................
OOO.....OO.O.O...O.....O..OO..............................................................................................................................................................................................................................................................................................
OO.OO....O...OO.O......OO..O..............................................................................................................................................................................................................................................................................................
.....O...OOOO.OOO.OO.O..O..O..............................................................................................................................................................................................................................................................................................
...OO.....O....OO...O.....OO..............................................................................................................................................................................................................................................................................................
...........O.OO..........OOO..............................................................................................................................................................................................................................................................................................
........O.OO.OO..........OOO..............................................................................................................................................................................................................................................................................................
........O.................OO..............................................................................................................................................................................................................................................................................................
........................O..O..............................................................................................................................................................................................................................................................................................
...........................O..............................................................................................................................................................................................................................................................................................
........................O..O..............................................................................................................................................................................................................................................................................................
........................O.OO..O...O...O...O...O...O...O...O...O...O...O...O...O...O...O...O...O...O...O...O...O...O...O...O...O...O...O...O...O...O...O...O...O...O...O...O...O...O...O...O...O...O...O...O...O...O...O...O...O...O...O...O...O...O...O...O...O...O...O...O...O...O...O...O...O...O...O...O...O...O...O...
..........................OO.O.O.O.O.O.O.O.O.O.O.O.O.O.O.O.O.O.O.O.O.O.O.O.O.O.O.O.O.O.O.O.O.O.O.O.O.O.O.O.O.O.O.O.O.O.O.O.O.O.O.O.O.O.O.O.O.O.O.O.O.O.O.O.O.O.O.O.O.O.O.O.O.O.O.O.O.O.O.O.O.O.O.O.O.O.O.O.O.O.O.O.O.O.O.O.O.O.O.O.O.O.O.O.O.O.O.O.O.O.O.O.O.O.O.O.O.O.O.O.O.O.O.O.O.O.O.O.O.O.O.O.O.O.O.O.O.O.O.O.O.O.O..
........................OOO...O...O...O...O...O...O...O...O...O...O...O...O...O...O...O...O...O...O...O...O...O...O...O...O...O...O...O...O...O...O...O...O...O...O...O...O...O...O...O...O...O...O...O...O...O...O...O...O...O...O...O...O...O...O...O...O...O...O...O...O...O...O...O...O...O...O...O...O...O...O...O...
........................OO................................................................................................................................................................................................................................................................................................
....................OOO...................................................................................................................................................................................................................................................................................................
.......................OOOOO..............................................................................................................................................................................................................................................................................................
.......................OO...O...OO...OO...OO...OO...OO...OO...OO...OO...OO...OO...OO...OO...OO...OO...OO...OO...OO...OO...OO...OO...OO...OO...OO...OO...OO...OO...OO...OO...OO...OO...OO...OO...OO...OO...OO...OO...OO...OO...OO...OO...OO...OO...OO...OO...OO...OO...OO...OO...OO...OO...OO...OO...OO...OO...OO...OO...OO
....................OOOO....O..O.O..O.O..O.O..O.O..O.O..O.O..O.O..O.O..O.O..O.O..O.O..O.O..O.O..O.O..O.O..O.O..O.O..O.O..O.O..O.O..O.O..O.O..O.O..O.O..O.O..O.O..O.O..O.O..O.O..O.O..O.O..O.O..O.O..O.O..O.O..O.O..O.O..O.O..O.O..O.O..O.O..O.O..O.O..O.O..O.O..O.O..O.O..O.O..O.O..O.O..O.O..O.O..O.O..O.O..O.O..O.O..O.O
.....................OO..O.O....O....O....O....O....O....O....O....O....O....O....O....O....O....O....O....O....O....O....O....O....O....O....O....O....O....O....O....O....O....O....O....O....O....O....O....O....O....O....O....O....O....O....O....O....O....O....O....O....O....O....O....O....O....O....O....O....O.
........O.................OO..............................................................................................................................................................................................................................................................................................
........O.OO.OO..........OOO..............................................................................................................................................................................................................................................................................................
...........O.OO..........OOO..............................................................................................................................................................................................................................................................................................
...OO.....O....OO...O.....OO..............................................................................................................................................................................................................................................................................................
.....O...OOOO.OOO.OO.O..O..O..............................................................................................................................................................................................................................................................................................
OO.OO....O...OO.O......OO..O..............................................................................................................................................................................................................................................................................................
OOO.....OO.O.O...O.....O..OO..............................................................................................................................................................................................................................................................................................
...........O.....O.OO....OOO..............................................................................................................................................................................................................................................................................................
.......OOOO.....O....O...OOO..............................................................................................................................................................................................................................................................................................
........OO...............OOO..............................................................................................................................................................................................................................................................................................
..........................OO..............................................................................................................................................................................................................................................................................................
........................O..O..............................................................................................................................................................................................................................................................................................
...........................O..............................................................................................................................................................................................................................................................................................
..........................OO..............................................................................................................................................................................................................................................................................................
.........................OOO..............................................................................................................................................................................................................................................................................................
..........................OO..............................................................................................................................................................................................................................................................................................
...........................O..............................................................................................................................................................................................................................................................................................
........................O..O..............................................................................................................................................................................................................................................................................................
..........................OO..............................................................................................................................................................................................................................................................................................
........OO...............OOO..............................................................................................................................................................................................................................................................................................
.......OOOO.....O....O...OOO..............................................................................................................................................................................................................................................................................................
...........O.....O.OO....OOO..............................................................................................................................................................................................................................................................................................
OOO.....OO.O.O...O.....O..OO..............................................................................................................................................................................................................................................................................................
OO.OO....O...OO.O......OO..O..............................................................................................................................................................................................................................................................................................
.....O...OOOO.OOO.OO.O..O..O..............................................................................................................................................................................................................................................................................................
...OO.....O....OO...O.....OO..............................................................................................................................................................................................................................................................................................
...........O.OO..........OOO..............................................................................................................................................................................................................................................................................................
........O.OO.OO..........OOO..............................................................................................................................................................................................................................................................................................
........O.................OO..............................................................................................................................................................................................................................................................................................
.....................OO..O.O....O....O....O....O....O....O....O....O....O....O....O....O....O....O....O....O....O....O....O....O....O....O....O....O....O....O....O....O....O....O....O....O....O....O....O....O....O....O....O....O....O....O....O....O....O....O....O....O....O....O....O....O....O....O....O....O....O.
....................OOOO....O..O.O..O.O..O.O..O.O..O.O..O.O..O.O..O.O..O.O..O.O..O.O..O.O..O.O..O.O..O.O..O.O..O.O..O.O..O.O..O.O..O.O..O.O..O.O..O.O..O.O..O.O..O.O..O.O..O.O..O.O..O.O..O.O..O.O..O.O..O.O..O.O..O.O..O.O..O.O..O.O..O.O..O.O..O.O..O.O..O.O..O.O..O.O..O.O..O.O..O.O..O.O..O.O..O.O..O.O..O.O..O.O..O.O
.......................OO...O...OO...OO...OO...OO...OO...OO...OO...OO...OO...OO...OO...OO...OO...OO...OO...OO...OO...OO...OO...OO...OO...OO...OO...OO...OO...OO...OO...OO...OO...OO...OO...OO...OO...OO...OO...OO...OO...OO...OO...OO...OO...OO...OO...OO...OO...OO...OO...OO...OO...OO...OO...OO...OO...OO...OO...OO...OO
.......................OOOOO..............................................................................................................................................................................................................................................................................................
....................OOO...................................................................................................................................................................................................................................................................................................
