!Name: KM138#10
!Source: Life-PR-98
!
.........................................................................................................................OO.....OO.................
.....................................................................................................................OO..OO.....OO..OO.............
.....................................................................................................................OO.............OO.............
.........................................................................................................................OOO...OOO.................
.........................................................................................................................O..O.O..O.................
........................................................................................................................O...O.O...O................
.........................................................................................................................O..O.O..O.................
...........................................................................................................................O...O...................
.........................................................................................................................OO.....OO.................
........................................................................................................................OOO.....OOO................
.OO.....................................................................................................................OOO.....OOO................
.OO................................................................................................................................................
........OO.........................................................................................................................................
......OOOOO........................................................................................................................................
OO...O....O..............OO........................................................................................................................
OO...O..OOO..............OO..............................................................................................OOO.......................
.....OO..O...............................................................................................................OOO.......................
.......OO...............................................................................................................OOOOO......................
....................O...O..............................................................................................OO...OO.....................
.......OO.........OO.O.O.OO............................................................................................OO...OO.....................
.....OO..O.......O.OO...OO.O.......................................................................................................................
OO...O..OOO.....O..O.....O..O......................................................................................................................
OO...O....O......O.OO...OO.O.......................................................................................................................
......OOOOO.......OO.O.O.OO............................................................................................OO...OO.....................
........OO..........O...O..................................................................O..O........................OO...OO..OO.................
.OO............................................................................................O........................OOOOO...OO.................
.OO.......................OOO..............................................................O...O.........................OOO.......................
.........................O..O...............................................................OOOO.........................OOO.......................
............................O......................................................................................................................
............................O......................................................................................................................
.........................O.O.......................................................................................................................
.........................................................................................................O.........................................
........................................................................................................O.O........................................
........................................................................................................O.O........................................
.......................................................................................................OO.OO.......................................
.....................................................................................................O.......O.....................................
...................................................................................................O.OO.....OO.O...................................
...................................................................................................O...OO.OO...O...................................
....................................................................................................O...O.O...O....................................
.....................................................................................................OOO...OOO.....................................
...........................................................................OO........OOO...........................................................
...........................................................................OO........O...O.........................................................
.....................................................................................O....O......O.O...............................................
......................................................................................O...O......OO.OO.............................................
..................................................................................................O.O.O.....OO.....................................
......................................................................................O...O.......O...O.....OO.....................................
.....................................................................................O....O.......O................................................
...........................................................................OO........O...O........O...O............................................
...........................................................................OO........OOO..........O................................................
.......................................................................................................O...........................................
...................................................................................................OO..............................................
.....................................................................................................OOO.............O.O......................OOOOO
....................................................................................................................O........................O....O
....................................................................................................................O.............................O
.....................OOO.........................OOOO...............................................................O..O.....................O...O.
.....................OOO.........................O...O..............................................................OOO........................O...
...............OO...OOOOO........................O.................................................................................................
...............OO..OO...OO........................O..O..................................................................O...O..........OO..........
...................OO...OO............................................................................................OO.O.O.OO.......OOOOO........
.....................................................................................................................O.OO...OO.O......O....O.....OO
....................................................................................................................O..O.....O..O.....OOO..O.....OO
.....................................................................................................................O.OO...OO.O.......O..OO.......
...................OO...OO............................................................................................OO.O.O.OO.........OO.........
...................OO...OO..............................................................................................O...O......................
....................OOOOO...............................................................................................................OO.........
.....................OOO...............................................................................................................O..OO.......
.....................OOO..............................................................................................OO..............OOO..O.....OO
......................................................................................................................OO..............O....O.....OO
......................................................................................................................................OOOOO........
.......................................................................................................................................OO..........
..............OOO.....OOO..........................................................................................................................
..............OOO.....OOO..........................................................................................................................
...............OO.....OO...........................................................................................................................
.................O...O.............................................................................................................................
...............O..O.O..O...........................................................................................................................
..............O...O.O...O..........................................................................................................................
...............O..O.O..O...........................................................................................................................
...............OOO...OOO...........................................................................................................................
...........OO.............OO.......................................................................................................................
...........OO..OO.....OO..OO.......................................................................................................................
...............OO.....OO...........................................................................................................................
