!Name: KZ152880
!Source: Life-PR-98
!
........................................................................................................................................OO.......................
........................................................................................................................................O.O......................
...................................................................................................................................OO....OOO............O........
...............................................................................................................................OOOO..O....OOO........OOOO........
...............................................................................................................................OOO.OO....OOO........OOOO.....OO..
........................................................................................................................................O.O.........O..O....O..O.
........................................................................................................................................OO..........OOOO....O..O.
.....................................................................................................................................................OOOO...O....
........................................................................................................................................................O...O....
............................................................................................................................................................O.O..
............................................................................................................................................................O.O..
.............................................................................................................................................................O...
..........................................................................................................................................................OO...OO
...........................................................................................................................................OOO............O.....O
.............................................................................................................................................O...................
............................................................................................................................................O..............O...O.
............................................................................................................................................................OOO..
....................................................................................................................................OO...........................
...................................................................................................................................O.O...........................
.....................................................................................................................................O...........................
............................................................................................................................................................OO...
............................................................................................................................................................OO...
.....................................................................................................................O...........................................
.....................................................................................................................O.O.........................................
.....................................................................................................................OO..........................................
.............................................................................................................OOO.................................................
...............................................................................................................O.................................................
..............................................................................................................O..................................................
...............................................................................................O......OO.........................................................
..............................................................................................O......O.O.........................................................
..............................................................................................OOO......O.........................................................
.......................................................................................O......OOO................................................................
.......................................................................................O.O......O................................................................
.......................................................................................OO......O.................................................................
................................................................................O................................................................................
...............................................................................O.................................................................................
...............................................................................OOO...............................................................................
........................................................................O........................................................................................
........................................................................O.O......................................................................................
........................................................................OO.......................................................................................
...........................OO....................................O......OO.......................................................................................
.............................O..................................O......O.O.......................................................................................
................OO............O.................................OOO......O.......................................................................................
................OO....O.......O........OO........................................................................................................................
.....OO......OO.....OO........O........OO........................................................................................................................
.....OO.....OOO.....O..OO....O...................................................................................................................................
.............OO......OOOOO.OO....................................................................................................................................
................OO....O..........................................................................................................................................
................OO.......................................O......OOO..............................................................................................
.........................................................O.O......O..............................................................................................
..............................O..........................OO......O...............................................................................................
...............................O.................................................................................................................................
.............................OOO.................................................................................................................................
..................................................O..............................................................................................................
.................................................O...............................................................................................................
.................................................OOO.............................................................................................................
......................................O..........................................................................................................................
....................................O.O..........................................................................................................................
.....................................OO..........................................................................................................................
..........................................OO.....................................................................................................................
.........................................O.O.....................................................................................................................
...........................................O.....................................................................................................................
...OO............................................................................................................................................................
...OO............................................................................................................................................................
..................................OOO............................................................................................................................
....................................O............................................................................................................................
...................................O........................O....................................................................................................
.............................................................O...................................................................................................
...........................................................OOO...................................................................................................
..OOO............................................................................................................................................................
.O...O.....................OO....................................................................................................................................
..........................O.O....................................................................................................................................
O.....O.....................O....................................................................................................................................
OO...OO..........................................................................................................................................................
...O.............................................................................................................................................................
..O.O............................................................................................................................................................
..O.O..............OOO...........................................................................................................................................
....O...O............O...........................................................................................................................................
....O...OOOO........O............................................................................................................................................
.O..O....OOOO..........OO........................................................................................................................................
.O..O....O..O.........O.O........................................................................................................................................
..OO.....OOOO........OOO....OO.OOO...............................................................................................................................
........OOOO........OOO....O..OOOO...............................................................................................................................
........O............OOO....OO...................................................................................................................................
......................O.O........................................................................................................................................
.......................OO........................................................................................................................................
