!Name: WL506#4
!Source: Life-PR-98
!
...................................................OO.....OO.......................................
...................................................OO.....OO.......................................
................................OO.................................................................
.OO............................O...................................................................
.OO...........................O..OO..........OO....................................................
...........O..................O..O...........OO....................................................
...........OO.................O.O..................................................................
OO.......O.OOO.................OO..................................................................
OO...........OO....................................................................................
............OO.................OO..................................................................
............O.................O.O...................O.....O........................................
..............................O..O...........OO....OOO...OOO.......................................
............O.................O..OO..........OO...OO..O.O..OO......................................
............OO.................O.................O.OOOO.OOOO.O.....................................
OO...........OO.................OO.................OOO...OOO.......................................
OO.......O.OOO....................................OOO.....OOO......................................
...........OO......................................................................................
...........O.......................................................................................
.OO................................................................................................
.OO................................................................................................
....................................................O..............................................
.........................OO........................O...O...........................................
.........................O.O......................O.................O...O..........................
.........................O........................O....OO..........O.....O.........OO..............
....................................................OO...................O.........OO..............
....................................................................O...OO.........................
...................................................OO.....O.O........OOO...........................
..........................................................O.OO.....................................
.........................................O..................OO.......OOO...........................
..........................................OO........................O...OO.........................
........OO.....OO........................OO.............OO...............O.........OO..............
........OO.....OO.......................................OO.........O.....O.........OO..............
....................................................................O...O..........................
................................................OO.................................................
................................................O.O................................................
................................................O..................................................
.......OO.O...O.OO.................................................................................
.......O..O...O..O.................................................................................
........OOO...OOO..................................................................................
...............................................................................................OOOO
..............................................................................................O...O
..................................................................................................O
..............................................................................................O..O.
...........................................................OOO.....................................
........OO.................................................O.......................................
........OO..................................................O......................................
...................................................................................O...............
...................................................................................OO..............
.................................................................................O.OOO...........OO
................................................................OO...................OO..........OO
...............................................................O.......OO...........OO.............
..................................................OO..........O..OO....O.O..........O..............
..................................................OO..........O..O.....O...........................
..............................................................O.O...................O..............
...............................................................OO...................OO.............
.....................................................................................OO..........OO
...............................................................OO................O.OOO...........OO
..............................................................O.O..................OO..............
..................................................OO..........O..O.................O...............
..................................................OO..........O..OO................................
...............................................................O...................................
................................................................OO.................................
