!Name: 131c31climber.rle
!http://conwaylife.com/wiki/(13,1)c/31_Pseudo-B_climber
!http://www.conwaylife.com/patterns/131c31climber.rle
!
O....................................
.OO..................................
OO...................................
........O............................
......O.O............................
.......OO............................
.............O.O.....................
..............OO.....................
..............O......................
........................O............
.......................OOO...........
.......................O.OO..........
........................O..O.........
.........................OO..........
.........................O...........
......................OO.............
.....................O...............
....................O.O..O...........
....................O.OOO.O..........
...................OOO.OO.O..........
....................O.O..............
....................OOO..............
.....................O...............
.............................O.......
...........................O.O.......
............................OO.......
..................................O.O
...................................OO
...................................O.
