!Name: Barge 2 (extended)
!Author: Hartmut Holzwart
!A c/2 period 2 orthogonal spaceship.
!www.conwaylife.com/wiki/index.php?title=Barge_2_(spaceship)
!
..............OOO.OOO...............................................................OOO.OOO..............
.............O..O.O..O.....OOO.....OOO.....OOO.....OOO.....OOO.....OOO.....OOO.....O..O.O..O.............
............O...O.O...O...O...O...O...O...O...O...O...O...O...O...O...O...O...O...O...O.O...O............
.......OOO.O..O.O.O.O..O.O.....O.O.....O.O.....O.O.....O.O.....O.O.....O.O.....O.O..O.O.O.O..O.OOO.......
......O..O.O....O.O....O.O.....O.O.....O.O.....O.O.....O.O.....O.O.....O.O.....O.O....O.O....O.O..O......
.....O...O.O.O.O...O.O.O.O.OOO.O.O.OOO.O.O.OOO.O.O.OOO.O.O.OOO.O.O.OOO.O.O.OOO.O.O.O.O...O.O.O.O...O.....
.....O.....................O.O.....O.O.....O.O.....O.O.....O.O.....O.O.....O.O.....................O.....
.......O.........................................................................................O.......
....O.O...................OO.OO...OO.OO...OO.OO...OO.OO...OO.OO...OO.OO...OO.OO...................O.O....
...OO.O.OOO...................................................................................OOO.O.OO...
..O.O.O...O.....................OOOOOOOOO.......OOOOOOOOO.......OOOOOOOOO.....................O...O.O.O..
.OO.O.........................OO.O.....O.OO...OO.O.....O.OO...OO.O.....O.OO.........................O.OO.
O...O.....OO..................O...........O...O...........O...O...........O..................OO.....O...O
................................O..O.O..O.......O..O.O..O.......O..O.O..O................................
OO.OO........................OO..O..O..O..OO.OO..O..O..O..OO.OO..O..O..O..OO........................OO.OO
.................................O.O.O.O.........O.O.O.O.........O.O.O.O.................................
..........................OOO...O..O.O..O...O...O..O.O..O...O...O..O.O..O...OOO..........................
..........................O.................O...............O.................O..........................
..................................OO.OO...........OO.OO...........OO.OO..................................
.........................OO...................................................OO.........................
................................OOOOOOOOO.......OOOOOOOOO.......OOOOOOOOO................................
..............................OO.O.....O.OO...OO.O.....O.OO...OO.O.....O.OO..............................
..............................O...........O...O...........O...O...........O..............................
................................O..O.O..O.......O..O.O..O.......O..O.O..O................................
.............................OO..O..O..O..OO.OO..O..O..O..OO.OO..O..O..O..OO.............................
.................................O.O.O.O.........O.O.O.O.........O.O.O.O.................................
..........................OOO...O..O.O..O...O...O..O.O..O...O...O..O.O..O...OOO..........................
..........................O.................O...............O.................O..........................
..................................OO.OO...........OO.OO...........OO.OO..................................
.........................OO...................................................OO.........................
................................OOOOOOOOO.......OOOOOOOOO.......OOOOOOOOO................................
..............................OO.O.....O.OO...OO.O.....O.OO...OO.O.....O.OO..............................
..............................O...........O...O...........O...O...........O..............................
................................O..O.O..O.......O..O.O..O.......O..O.O..O................................
.............................OO..O..O..O..OO.OO..O..O..O..OO.OO..O..O..O..OO.............................
.................................O.O.O.O.........O.O.O.O.........O.O.O.O.................................
..........................OOO...O..O.O..O...O...O..O.O..O...O...O..O.O..O...OOO..........................
..........................O.................O...............O.................O..........................
..................................OO.OO...........OO.OO...........OO.OO..................................
.........................OO...................................................OO.........................
................................OOOOOOOOO.......OOOOOOOOO.......OOOOOOOOO................................
..............................OO.O.....O.OO...OO.O.....O.OO...OO.O.....O.OO..............................
..............................O...........O...O...........O...O...........O..............................
................................O..O.O..O.......O..O.O..O.......O..O.O..O................................
.............................OO..O..O..O..OO.OO..O..O..O..OO.OO..O..O..O..OO.............................
.................................O.O.O.O.........O.O.O.O.........O.O.O.O.................................
..........................OOO...O..O.O..O...O...O..O.O..O...O...O..O.O..O...OOO..........................
..........................O.................O...............O.................O..........................
..................................OO.OO...........OO.OO...........OO.OO..................................
.........................OO...................................................OO.........................
