!Name: c2-0112
!
..............O.O..................................
.......O.....O..O..................................
....OOOO....OO.....................................
....OO.....O.......................................
..O.......OOOO.....................................
..OOOO...O....O....................................
.O.......O..O......................................
OOO..O...O..O......................................
.OOO......O........................................
..O........OOOO.O....................O.............
...OOO.O....O...O...........OOOOOO.O...O...........
...O..OO.....O..............O.....O...OOO..........
....OOO......O.O............O.....O.....O.......OOO
......O......................O...O...OO.O.......O..
....O.......OOO................O.....OOO.........O.
....O.O.....OO................OO...................
...O........OOO..............OOOO..................
....O.O.....................OO.OO..................
....O........O.O.............OO....................
......O.....O..O.........................OOO.......
....OOO.....O............................O.........
...OOO.....O..O............OO.............O........
....OO.....OO............O....O....................
.....OO..O.O............O..........................
......OO.O.O............O.....O....................
...........O............OOOOOO.....................
......OO.O.O..O...................OOO..............
.....OO..O.OO.....................O................
....OO.....O..O....................O...............
...OO.O..O.O...................O...................
..O..OOO.O.O..O..O..........O...O..................
..O........O..O..O..........O...O..................
..O..OOO.O.O..O..O..........O...O..................
...OO.O..O.O.........OO......OOO...................
....OO.....O..O......OO............................
.....OO..O.OO......................................
......OO.O.O..O....................................
...........O.......................................
......OO.O.O.......................................
.....OO..O.O......OOOOO......OO....................
....OO.....OO.....O....O....OO.OOOO................
...OOO.....O..O...O..........OOOOOO................
....OOO.....O......O...O......OOOO.................
......O.....O..O.....O.............................
....O........O.O...................................
....O.O............................................
...O........OOO....................................
....O.O.....OO.....................................
....O.......OOO....................................
......O............................................
....OOO......O.O...................................
...O..OO.....O.....................................
...OOO.O....O...O..................................
..O........OOOO.O..................................
.OOO......O........................................
OOO..O...O..O......................................
.O.......O..O......................................
..OOOO...O....O....................................
..O.......OOOO.....................................
....OO.....O.......................................
....OOOO....OO.....................................
.......O.....O..O..................................
..............O.O..................................
