!Name: edgespark-c2
!C A period 3 c/3 spaceship with a spark at the left edge.
!C This spaceship is able to perturb the output from c/3 puffers.
!C David I. Bell, November 2002
!Source: jslife-moving
!
...........OO..............
..........OO.O.............
....O.OO..OO..O............
...OO.OO.OOO..OOOO.OO......
..O..OO............OO......
........OOOOO..O.OOOO......
....O.O.OO.OO.OOO.O........
......O......OO..O.........
...OO........OOO..OO.......
..OO..O....................
....OOO.OO.................
O..O.....OOO...............
.O.OOOO.O...O..............
........OO....O......O.....
.........O....OO....OO.OOO.
........O...O..OO..OO.....O
..........O..O.O..O.....OO.
...........O.OOO....O......
............OOO..OOO.O.....
...........OO...OOO........
..................O..O.....
...................O.......
