!Name: edgerepair-7
!C A period 3 c/3 ship with an edge-repair component.
!C This consists of an edge-repair tagalong attached to a turtle.
!C This ship is only useful along with another edge-repair spaceship
!C in order to delete blocks.  Its use is that its width is smaller
!C on one side of the ship than in the smaller edge-repair spaceships
!C and so it can fit into some places better.
!C Stephen Silver, November 2002
!Source: jslife-moving
!
.......OO.....
...OOO.OO.OOO.
..O..........O
...O.OO..OO.O.
.......OO.....
....O..OO..O..
....O.OOOO.O..
.....O....O...
....O.OOOO.O..
...OOOOOOOOOO.
...OO.OOOO.OO.
........O.....
.......OO.....
..O...O.......
.OOOO.........
O...O.........
.O.O..O.......
.....O........
