!Name: edgespark-k1
!C A period 3 c/3 spaceship with a spark at the lower edge.
!C This spark is similar to some other spaceships, but is much smaller.
!C It has a very large overhang, however, which limits its applications.
!C Stephen Silver, November 2002
!Source: jslife-moving
!
...OOO.......
..O...OO.O...
..O.O...OOO..
.OO....O...O.
OOO.......O..
..O.O........
....OO.......
..O...O......
..O..........
..OO.O.......
.....O....O..
...OOO...O.O.
........O...O
....O...O.OO.
.....OO......
...O..O......
....O.O......
