!Name: Line-puffer
!Author: Tim Coe
!A c/2 orthogonal line-puffer of width 76
!
..................................OOO...........................OOO.............OOO...........................OOO...........................................
.................................O...O.........................O...O...........O...O.........................O...O..........................................
................................OO....O...........O...........O....OO.........OO....O...........O...........O....OO.........................................
...............................O.O.OO.OO...OOOO.OO.OO.OOOO...OO.OO.O.O.......O.O.OO.OO...OOOO.OO.OO.OOOO...OO.OO.O.O........................................
..............................OO.O....O.OO.OOOO.......OOOO.OO.O....O.OO.....OO.O....O.OO.OOOO.......OOOO.OO.O....O.OO.......................................
.............................O....O...O....O..OO.O.O.OO..O....O...O....O...O....O...O....O..OO.O.O.OO..O....O...O....O......................................
......O.................O................O....O.......O....O...........................O....O.......O....O.........................O.................O......
.....OOO...............OOO...OO.......OO......O.......O......OO.......OO...OO.......OO......O.......O......OO.......OO............OOO...............OOO.....
...OO.OOO.............OOO.OO....................................................................................................OO.OOO.............OOO.OO...
....O..O.OO....O....OO.O..O..................OO.......OO...................................OO.......OO...........................O..O.OO....O....OO.O..O....
.OO.O....O.O.OO.OO.O.O....O.OO.................O.....O.......................................O.....O..........................OO.O....O.O.OO.OO.O.O....O.OO.
.OO.O.O..O.O.......O.O..O.O.OO...............O..O...O..O...................................O..O...O..O........................OO.O.O..O.O.......O.O..O.O.OO.
.O........OOO.O.O.OOO........O................O..O.O..O.....................................O..O.O..O.........................O........OOO.O.O.OOO........O.
OO.......OO.........OO.......OOO.O...............O.O...........................................O.O........................O.OOO.......OO.........OO.......OO
.................................OO............O.O.O.O.......................................O.O.O.O.....................OO.................................
...............................OO.O...........OO.O.O.OO.....................................OO.O.O.OO....................O.OO...............................
..................................OO.........O...O.O...O...................................O...O.O...O..................OO..................................
.................................O........................................................................................O.................................
...................................OOO.......OO.OO.OO.OO...................................OO.OO.OO.OO................OOO...................................
.......OOO...............OOO.........OO..............................................................................OO.........OOO...............OOO.......
......O...O.............O...O.........O.......O...O...O.....................................O...O...O................O.........O...O.............O...O......
.....OO....O...........O....OO........OO......O...O...O.......OOO.........OOO.........OOO...O...O...O....OOO........OO........OO....O...........O....OO.....
....O.O.OO.OO...OOO...OO.OO.O.O........O.....................O...O.......O...O.......O...O..............O...O.......O........O.O.OO.OO...OOO...OO.OO.O.O....
...OO.O....O.OO.OOO.OO.O....O.OO......O.O.....OO.....OO.....OO...OO.....OO...OO.....OO...OO.....OO.....OO...OO.....O.O......OO.O....O.OO.OOO.OO.O....O.OO...
..O....O...O....O.O....O...O....O......OOO...OOOO...OOOO...OO.O.O.OO...OO.O.O.OO...OO.O.O.OO...OOOO...OO.O.O.OO...OOO......O....O...O....O.O....O...O....O..
..............O.....O....................OO.OO..OO.OO..OO.OO.OO.OO.OO.OO.OO.OO.OO.OO.OO.OO.OO.OO..OO.OO.OO.OO.OO.OO....................O.....O..............
..OO.......OO.........OO.......OO.OOO.....O.O....O.O....O.O...O.O...O.O...O.O...O.O...O.O...O.O....O.O...O.O...O.O.....OOO.OO.......OO.........OO.......OO..
....................................O..................................................................................O....................................
..................................O......OO.OO..OO.OO..OO.OO.OO.OO.OO.OO.OO.OO.OO.OO.OO.OO.OO.OO..OO.OO.OO.OO.OO.OO......O..................................
..................................O.OO................................................................................OO.O..................................
.......................................OOOOOOOOOOOOOOOOOOOOOOOOOOOOOOOOOOOOOOOOOOOOOOOOOOOOOOOOOOOOOOOOOOOOOOOOOOOOOO.......................................
......................................O..............................................................................O......................................
