!Name: loggrow-corder
!CA cordership-based object whose population
!Cgrows logarithmically.
!CDavid Bell, 10 Jul 04
!
..............................................................................................O...............................................................
......................................................................................OOO...OOOO..............................................................
......................................................................................O.O...OO.OO.............................................................
......................................................................................OOO..O..................................................................
...........................................................................................OO...O.............................................................
............................................................................................OOOO..............................................................
.............................................................................................OOO..........OO..................................................
..........................................................................................................OO..................................................
..................................................................................................................OO..........................................
.....................................................................................................O............OO..........................................
..........................................................................................OO.........OOO......................................................
.........................................................................................O.O.O.......OOO......................................................
.........................................................................................O...OO.....O...O.....................................................
..........................................................................................OO........OOOO......................................................
..........................................................................................OOO.......O.OO......................................................
................................................................................O......OO.....................................................................
...............................................................................O.O...O...O....................................................................
..............................................................................O...O.O...OO....................................................................
...............................................................................O.O..O.O.OO....................................................................
................................................................................O...O..OO.....................................................................
....................................................................................O....O....................................................................
.....................................................................................O..O.....................................................................
................................................................O......................O......................................................................
........................................................OOO...OOOO............................................................................................
........................................................O.O...OO.OO...........................................................................................
........................................................OOO..O................................................................................................
.............................................................OO...O...........................................................................................
..............................................................OOOO............................................................................................
...............................................................OOO..........OO................................................................................
............................................................................OO................................................................................
..............................................................................OO.O............................................................................
..............................................................................O....O..........................................................................
..............................................................................O.....O.........................................................................
.................................................................................O..O.........................................................................
................................................................................O..OO.........................................................................
.......................................................................O.......O..O...........................................................................
............................................................OO.........OOO......O.O...........................................................................
...........................................................O.O.O.......OOO....................................................................................
...........................................................O...OO.....O...O...................................................................................
............................................................OO........OOOO......OO............................................................................
............................................................OOO.......O.OO....OO..O...........................................................................
...............................................................................O.OO...........................................................................
............................................................................OO.OO.............................................................................
............................................................................OOO...............................................................................
............................................................................O...................................................................OO............
............................................................................OO..O...............................................................OO............
................................OOOOO.......O...................OO...........OOO..............................................................................
..............................OO.....OO....O.O..................OO...........OO...............................................................................
..............................O.......O....O..................................................................................................................
..............................OO.......O...O..O............................O..................................................................................
................................OO......O...OOO..........................OOO..................................................................................
...................................O....................................O..O..................................................................................
...................................O....O.............OO.................O..O.....................................................OO.........OO..O......OO....
....................................OO.O..............OO..................O.O......................................................OO........O.O.OOO....OO....
..........................................................................OOO.....................................................O..............O.O..........
........................................................................................................................................OOO...................
......................................................................................................................................O.OO....................
......................................................................................................................................O..OO...................
......................................................................................................................................OO.O....................
.......................................................................................................................................OO.....................
...................................................O...O......OO.......................................................................O......................
.................................................O..O.OOO.....OO..............................................................................................
....................................................O.O.O.....................................................................................................
........................................O.O.......O.................................................................................O.........................
..................................OO....OOO.O.OO.OO...............................................................................O..O..............O.OO......
..................................OO......O..OO...O.O...O..........................................................................................O....O.....
..................................................O.O............................................................................O......................O.....
......................................OO...........................................................................................OO........OOO...O......OO..
..........................OOO........OOOO....................................................................................................O..O...O.......OO
........................OOOOOOO.....OO..O.......................................................................................................O....O.......O
.......................OOOOOOOOO...O.OOO......................................................................................................O.O....OO.....OO
......................O.......OOO...OO.O........................................................................................O..............O.......OOOOO..
.......................OOO......O......................................................OOO.......................................O............................
........................OO...........................................O.................O..........................................O...........................
...........................O..........................................O.................O...........................................OO........................
............................O.......................................OOO......................................................O......OOO.......................
..OOOOO.......O..............O........................................................................................O.OO...OOO.......O......................
OO.....OO....O.O......................................................................................................OOO.O...OOOOOOOOO.......................
O.......O....O.......................................................................................................O..OO.....OOOOOOO........................
OO.......O...O..O....................................................................................................OOOO........OOO..........................
..OO......O...OOO........OO...........................................................................................OO......................................
.....O......................O............................................................................O.O..................................................
.....O....O..........................................................................................O...O.O...OO..O......OO..................................
......OO.O..............O..O...............................................................................OO.OO.O.OOO....OO..................................
.........................O.................................................................................O.......O.O........................................
.....................................................................................................O.O.O....................................................
..............................................................................................OO.....OOO.O..O.................................................
......................O.......................................................................OO......O...O...................................................
.....................OO.......................................................................................................................................
....................O.OO......................................................................................................................................
...................OO..O......................................................................................................................................
....................OO.O......................................................................................................................................
...................OOO........................................................................................................................................
..........O.O..............O.....................................................OOO..........................................................................
....OO....OOO.O.O........OO......................................................O.O..................OO..............O.OO....................................
....OO......O..OO.........OO.....................................................O..O.................OO.............O....O...................................
..................................................................................O..O....................................O...................................
..................................................................................OOO..........................OOO...O......OO................................
..................................................................................O............................O..O...O.......OO..............................
..................................................................................................................O....O.......O..............................
...............................................................................OO...........OO..................O.O....OO.....OO..............................
..............................................................................OOO...........OO...................O.......OOOOO................................
............OO...............................................................O..OO............................................................................
............OO...................................................................O............................................................................
...............................................................................OOO............................................................................
.............................................................................OO.OO............................................................................
...........................................................................OO.O...............................................................................
...........................................................................O..OO....OO.O.......OOO............................................................
............................................................................OO......OOOO........OO............................................................
...................................................................................O...O.....OO...O...........................................................
....................................................................................OOO.......O.O.O...........................................................
...........................................................................O.O......OOO.........OO............................................................
...........................................................................O..O.......O.......................................................................
.........................................................................OO..O................................................................................
.........................................................................O..O.................................................................................
.........................................................................O.....O..............................................................................
..........................................................................O....O..............................................................................
............................................................................O.OO..............................................................................
................................................................................OO............................................................................
................................................................................OO..........OOO...............................................................
............................................................................................OOOO..............................................................
...........................................................................................O...OO.............................................................
................................................................................................O..OOO........................................................
...........................................................................................OO.OO...O.O........................................................
............................................................................................OOOO...OOO........................................................
......................................................................O......................O................................................................
.....................................................................O..O.....................................................................................
....................................................................O....O....................................................................................
.....................................................................OO..O...O................................................................................
....................................................................OO.O.O..O.O...............................................................................
....................................................................OO...O.O...O..............................................................................
....................................................................O...O...O.O...............................................................................
.....................................................................OO......O................................................................................
......................................................OO.O.......OOO..........................................................................................
......................................................OOOO........OO..........................................................................................
.....................................................O...O.....OO...O.........................................................................................
......................................................OOO.......O.O.O.........................................................................................
......................................................OOO.........OO..........................................................................................
..........................................OO............O.....................................................................................................
..........................................OO..................................................................................................................
..................................................OO..........................................................................................................
..................................................OO..........OOO.............................................................................................
..............................................................OOOO............................................................................................
.............................................................O...OO...........................................................................................
..................................................................O..OOO......................................................................................
.............................................................OO.OO...O.O......................................................................................
..............................................................OOOO...OOO......................................................................................
...............................................................O..............................................................................................
