!Name: rake-c12d-var
!CVariable period rake, shown at p5952.
!CDavid Bell, 26 Jun 05.
!
...................................O.............................................................................................................................................................................................................................................................................................................................................................................................
...............................O.......O.........................................................................................................................................................................................................................................................................................................................................................................................
...............................O........O..OOO...................................................................................................................................................................................................................................................................................................................................................................................
..............................O....OO...O..OOO...................................................................................................................................................................................................................................................................................................................................................................................
...............................O.O......O..OO..O.................................................................................................................................................................................................................................................................................................................................................................................
...............................O.OO..........O.O.................................................................................................................................................................................................................................................................................................................................................................................
.............................................OOO.................................................................................................................................................................................................................................................................................................................................................................................
....................................O..................OO........................................................................................................................................................................................................................................................................................................................................................................
.......................................................OO........................................................................................................................................................................................................................................................................................................................................................................
........................................................O........................................................................................................................................................................................................................................................................................................................................................................
......................................................OO.O.....OO................................................................................................................................................................................................................................................................................................................................................................
....................................................OO.O.OO....OO................................................................................................................................................................................................................................................................................................................................................................
......................................................O..........................................................................................................................................................................................................................................................................................................................................................................
...........................................OO....OO.O............................................................................................................................................................................................................................................................................................................................................................................
...................................OO........OO.O................................................................................................................................................................................................................................................................................................................................................................................
...................................OO.....OOO.O.OOOO.............................................................................................................................................................................................................................................................................................................................................................................
...............................................O.................................................................................................................................................................................................................................................................................................................................................................................
........................................OOO......................................................................................................................................................................................................................................................................................................................................................................................
.........................................OO......................................................................................................................................................................................................................................................................................................................................................................................
.......................OO.......OO...O.OOO.......................................................................................................................................................................................................................................................................................................................................................................................
.......................OOO......OOO..O.OOO.......................................................................................................................................................................................................................................................................................................................................................................................
.......................OO.O.O....................................................................................................................................................................................................................................................................................................................................................................................................
..........................OO.....................................................................................................................................................................................................................................................................................................................................................................................................
.....O...........................................................................................................................................................................................................................................................................................................................................................................................................................
.O.......O.......................................................................................................................................................................................................................................................................................................................................................................................................................
.O........O..OOO.................................................................................................................................................................................................................................................................................................................................................................................................................
O....OO...O..OOO.................................................................................................................................................................................................................................................................................................................................................................................................................
.O.O......O..OO..O...............................................................................................................................................................................................................................................................................................................................................................................................................
.O.OO..........O.O...............................................................................................................................................................................................................................................................................................................................................................................................................
...............OOO...............................................................................................................................................................................................................................................................................................................................................................................................................
......O..........................................................................................................................................................................................................................................................................................................................................................................................................................
.....................OOO.........................................................................................................................................................................................................................................................................................................................................................................................................
....................OO..OO.......................................................................................................................................................................................................................................................................................................................................................................................................
....................OO..OO.......................................................................................................................................................................................................................................................................................................................................................................................................
.....................O.OO........................................................................................................................................................................................................................................................................................................................................................................................................
.....................OO..........................................................................................................................................................................................................................................................................................................................................................................................................
.............OO......OO..........................................................................................................................................................................................................................................................................................................................................................................................................
.....OO........OOO........O.O....................................................................................................................................................................................................................................................................................................................................................................................................
.....OO.....OOO.OO........OO.....................................................................................................................................................................................................................................................................................................................................................................................................
...........................O.....................................................................................................................................................................................................................................................................................................................................................................................................
.............OO..................................................................................................................................................................................................................................................................................................................................................................................................................
.............OO..................................................................................................................................................................................................................................................................................................................................................................................................................
...........................................................................................................................................................................................................................................................................................................................................................................................O.....................................
...........................................................................................................................................................................................................................................................................................................................................................................................O.....................................
..........................................................................................................................................................................................................................................................................................................................................................................................O.O....................................
...........................................................................................................................................................................................................................................................................................................................................................................................OO..O...........OO....................
..........................................................................................................................................................................................................................................................................................................................................................................................O.....O.........O..O...................
..........................................................................................................................................................................................................................................................................................................................................................................................O.....O..........OO....................
..........................................................................................................................................................................................................................................................................................................................................................................................O....O............O....................
..............................................................................................................................................................................................................................................................................................................................................................................................O.............O....................
...........................................................................................................................................................................................................................................................................................................................................................................................OOO.............OO.O..................
..........................................................................................................................................................................................................................................................................................................................................................................................................OO.....................
..............................................................................................................................................................................................................................................................................................................................................................................................................O..................
.........................................................................................................................................................................................................................................................................................................................................................................................OO.OO............O.OOO....OO............
..............................................................................................................................................................................................................................................................................................................................................................................................O............O..O....OO............
.........................................................................................................................................................................................................................................................................................................................................................................................OO................OOO...................
...........................................................................................................................................................................................................................................................................................................................................................................................OOO...................................
...........................................................................................................................................................................................................................................................................................................................................................................................................O.....................
..........................................................................................................................................................................................................................................................................................................................................................................................................OO.....................
.........................................................................................................................................................................................................................................................................................................................................................................................................OO.O....................
........................................................................................................................................................................................................................................................................................................................................................................................................OO.......................
.......................................................................................................................................................................................................................................................................................................................................................................................................OO.....................O..
........................................................................................................................................................................................................................................................................................................................................................................................................OO.....................OO
...............................................................................................................................................................................................................................................................................................................................................................................................OO................O...............
...................................................................................................................................................................................................................................................................................................................................................................................OOO.........OOO....O..........................
...................................................................................................................................................................................................................................................................................................................................................................................O.O........O....O..........O..................
...................................................................................................................................................................................................................................................................................................................................................................................O.O.........OO..OO....OO....O.O...............
...................................................................................................................................................................................................................................................................................................................................................................................O....OO.....OO.O.......OO.....................
..................................................................................................................................................................................................................................................................................................................................................................................OOO...OO...............O.......................
........................................................................................................................................................................................................................................................................................................................................................................................O........................................
....................................................................................................................................................................................................................................................................................................................................................................................OOOO.........................................
.....................................................................................................................................................................................................................................................................................................................................................................................OO..........................................
.....................................................................................................................................................................................................................................................................................................................................................................................O...........................................
......................................................................................................................................................................................................................................................................................................................................................................................O..........................................
....................................................................................................................................................................................................................................................................................................................................................................................O.O..........................................
...................................................................................................................................................................................................................................................................................................................................................................................OOOO..........................................
...................................................................................................................................................................................................................................................................................................................................................................................OOO...........................................
.....................................................................................................................................................................................................................................................................................................................................................................................O...........................................
............................................................................................................................................................................................................................................................................................................................................................................OO...................................................
...............................................................................................................................................................................................................................................................................................................................................................................OO....O...........................................
............................................................................................................................................................................................................................................................................................................................................................................OO.OOOO...O..........................................
.........................................................................................................................................................................................................................................................................................................................................................................OOOOO....OOOO.........OO................................
............................................................................................................................................................................................................................................................................................................................................................................OOO......O.........OO................................
.............................................................................................................................................................................................................................................................................................................................................................................O...................................................
............................................................................................................................................................................................................................................................................................................................................................................OOO..................................................
...................................................................................................................................................................................................................................................................................................................................................................................O.............................................
...................................................................................................................................................................................................................................................................................................................................................................................O.............................................
.......................................................................................................................................................................................................................................................................................................................................................................................................OO........................
.......................................................................................................................................................................................................................................................................................................................................................................................................OO........................
..............................................................................................................................................................................................................................................................................................................................................................................................O..................................
...............................................................................................................................................................................................................................................................................................................................................................O............................OO.O.................................
..............................................................................................................................................................................................................................................................................................................................................................O.OO................OO.........O.OO................................
..................................................................................................................................................................................................................................................................................................................................................................O...............OO...........O.................................
............................................................................................................................................................................................................................................................................................................................................................O...O..O...........O.................................................
..........................................................................................................................................................................................................................................................................................................................................................O.........O.........O.O................................................
..........................................................................................................................................................................................................................................................................................................................................................O....OO..OO........OO.OO...............................................
...................................................................................................................................................................................................................................................................................................................................................................OO.......OO..O................................................
........................................................................................................................................................................................................................................................................................................................................O...................O.....O..........OOO.................................................
.......................................................................................................................................................................................................................................................................................................................................O.O...................O....OOO.........O..................................................
.......................................................................................................................................................................................................................................................................................................................................O..OO..................O....OO............................................................
.....................................................................................................................................................................................................................................................................................................................................OOOOOOO..............O.....OOOO.............................................................
....................................................................................................................................................................................................................................................................................................................................O..O...O..............O......................................................................
...................................................................................................................................................................................................................................................................................................................................OOO..OOOOOOO...........O......................................................................
.....................................................................................................................................................................................................................................................................................................................................OOO..O........O.............................................................................
......................................................................................................................................................................................................................................................................................................................................OO.OO........O.............................................................................
.......................................................................................................................................................................................................................................................................................................................................OOO.O..O..................................................................................
........................................................................................................................................................................................................................................................................................................................................OOO.OO.............OO....................................................................
...........................................................................................................................................................................................................................................................................................................................................O.............OO.O....................................................................
........................................................................................................................................................................................................................................................................................................................................................O...O....................................................................
........................................................................................................................................................................................................................................................................................................................................................O..OO....................................................................
.........................................................................................................................................................................................................................................................................................................................................................OOO.....................................................................
..........................................................................................................................................................................................................................................................................................................................................................O......................................................................
...................................................................................................................................................................................................................................................................................................................................................................................O.............................................
..................................................................................................................................................................................................................................................................................................................................................................................O..............................................
..................................................................................................................................................................................................................................................................................................................................................................................OOO............................................
..............................................................................................................................................................................................................................................................................................................................................OO.................................................................................
..............................................................................................................................................................................................................................................................................................................................................OO.................................................................................
......................................................................................................................................................................................................................................................................................................................................................OO.........................................................................
......................................................................................................................................................................................................................................................................................................................................................OO.........................................................................
..................................................................................................................................................................................................................................................................................................................OOO............................................................................................................
.................................................................................................................................................................................................................................................................................................................O...O...........................................................................................................
.................................................................................................................................................................................................................................................................................................................O...O...........................................................................................................
.................................................................................................................................................................................................................................................................................................................O...O............OOO............................................................................................
..................................................................................................................................................................................................................................................................................................................................OOO............................................................................................
..................................................................................................................................................................................................................................................................................................................OO.OO.........OO....O..........................................................................................
...................................................................................................................................................................................................................................................................................................................O..O.........OOO.O.O..........................................................................................
....................................................................................................................................................................................................................................................................................................................O.O..........OO...O..........................................................................................
.....................................................................................................................................................................................................................................................................................................................OO..........OOOOO...........................................................................................
..................................................................................................................................................................................................................................................................................................................O...O............O.......OO....................................................................................
.................................................................................................................................................................................................................................................................................................................O.O.O.O...................OO....................................................................................
..................................................................................................................................................................................................................................................................................................................O..............................................................................................................
.................................................................................................................................................................................................................................................................................................................................OO..O...........................................................................................
.................................................................................................................................................................................................................................................................................................................................O...O...........................................................................................
.................................................................................................................................................................................................................................................................................................................................O...............................................................................................
..................................................................................................................................................................................................................................................................................................................................O.O.............O..............................................................................
...................................................................................................................................................................................................................................................................................................................................................OO..............O.............................................................
..................................................................................................................................................................................................................................................................................................................................OOO..O.O...OOO..O.O.............O..............................................................
.......................................................................................................................................................................................................................................................................................................................OO.............O...O....O.OO.O.............OOO............................................................
............................................................................................................................................................................................................................................................................................................O..........OO..OO........OO..........OOO.............................................................................
...........................................................................................................................................................................................................................................................................................................OOO............O..O......O...........................OO...............................................................
..........................................................................................................................................................................................................................................................................................................O.O.O............OO..OO.....O.O...O...................O.O..............................................................
.........................................................................................................................................................................................................................................................................................................OOO.OOO..............OO.OOO..O...OO.....................O...............................................................
..............................................................................................................................................................................................................................................................................................................................OO..OOO..O.........................................................................................
...........................................................................................................................................................................................................................................................................................................O.OOO..............O......OOO.........................................................................................
...........................................................................................................................................................................................................................................................................................................OOOOO......................O..........................................................................................
...........................................................................................................................................................................................................................................................................................................OO..OO...........OO.O.................................................................................................
.............................................................................................................................................................................................................................................................................................................O.OO............O.O........................OOO......................................................................
............................................................................................................................................................................................................................................................................................O..................OO.............O...........................O......................................................................
...........................................................................................................................................................................................................................................................................................................O.O..O........................................O.......................................................................
........................................................................................................................................................................................................................................................................................O.......O.........O.O..O.................................................................................................................
........................................................................................................................................................................................................................................................................................O........O..OOO....O.....................................................................................................................
.......................................................................................................................................................................................................................................................................................O....OO...O..OOO..........................................................................................................................
...........................................................................................................................................................................................................................................................................O............O.O......O..OO..O........................................................................................................................
..........................................................................................................................................................................................................................................................................O.O...........O.OO..........O.O........................................................................................................................
..........................................................................................................................................................................................................................................................................O.O.........................OOO........................................................................................................................
..........................................................................................................................................................................................................................................................................O..O...............O...................................................................................................................................
...........................................................................................................................................................................................................................................................................O.O...................................................................................................................................................
..............................................................................................................................................................................................................................................................................O..................................................................................................................................................
.............................................................................................................................................................................................................................................................................OO..................................................................................................................................................
.............................................................................................................................................................................................................................................................................O...................................................................................................................................................
...................................................................................................................................................................................................................................................OOO...........................................................................................................................................................................
...................................................................................................................................................................................................................................................OOO...........................................................................................................................................................................
........................................................................................................................................................................................................................................................................................................................OOO......................................................................................................
...................................................................................................................................................................................................................................................O.OO...................................................................O......................................................................................................
...................................................................................................................................................................................................................................................O...O.................................................................O.......................................................................................................
.....................................................................................................................................................................................................................................................OOO.........................................................................................................................................................................
....................................................................................................................................................................................................................................................................OO..................OO.......................................................................................................................................
....................................................................................................................................................................................................................................................................OO....O.............OO.......................................................................................................................................
.........................................................................................................................................................................................................................................................................OOO.....................................................................................................................................................
........................................................................................................................................................................................................................................................................O.O.O....................................................................................................................................................
....................................................................................................................................................................................................................................................O...................O...O....................................................................................................................................................
...................................................................................................................................................................................................................................................O.O.................OO.OO.....................................................................................................................................................
....................................................................................................................................................................................................................................................O...................OOO......................................................................................................................................................
...................................................................................................................................................................................................................................................OO............................................................................................................................................................................
...................................................................................................................................................................................................................................................OO...........................................OO...............................................................................................................................
....................................................................................................................................................................................................................................................O...........................................OO...............................................................................................................................
..................................................................................................................................................................................................................................................O.OO...........................................................................................................................................................................
...................................................................................................................................................................................................................................................O.OO.O............OO..........................................................................................................................................................
...................................................................................................................................................................................................................................................O....O............OOO.........................................................................................................................................................
......................................................................................................................................................................................................................................................O.O...............O........................................................................................................................................................
.......................................................................................................................................................................................................................................................................OO........................................................................................................................................................
.....................................................................................................................................................................................................................................................................OOO.........................................................................................................................................................
....................................................................................................................................................................................................................................................................OO...........................................................................................................................................................
..................................................................................................................................................................................................................................................................OO.............................................................................................................................................................
...................................................................................................................................................................................................................................................................O.............................................................................................................................................................
........................................................................................................................................................................................................................................................OO.....OOOO..............................................................................................................................................................
........................................................................................................................................................................................................................................................OO....O..................................................................................................................................................................
..............................................................................................................................................................................................................................................................O..OO..............................................................................................................................................................
...............................................................................................................................................................................................................................................................OOO...............................................................................................................................................................
................................................................................................................................................................................................................................................................O................................................................................................................................................................
................................................................................................................................................................................................................................................................OO...............................................................................................................................................................
................................................................................................................................................................................................................................................................OO...............................................................................................................................................................
