!Name: ships-c5o-3
!C 1. By Josh Ball, 13 Oct 2013
!C 2. By Josh Ball, 21 Feb 2016
!C 3. By Tim Coe, 18 Mar 2016
!C 4. By Frank Everdij, Apr 2021
!C 5. By Frank Everdij, 6 May 2021
!C 6. By Dmitry Maitak, 29 Jan 2022
!C 7. By Dmitry Maitak, 31 Jan 2022
!C 8. "Kermit" by Frank Everdij, 2 Feb 2022
!C 9. By Frank Everdij, Feb 2022
!Source: jslife-moving
!
...............O..............................................................O.O.O.............................................................O.O.O.............................................................................................................O...O.......................................................................
...............O..................................................................O.................................................................O.............................................................................................................O...O.......................................................................
...............O..............................................................O.O.O.............................................................O.O.O.............................................................................................................O.O.O.......................................................................
...............O..............................................................O.....................................................................O.................................................................................................................O.......................................................................
...............O..............................................................O.O.O.............................................................O.O.O.................................................................................................................O.......................................................................
........O.............OO.OO..................................OO........................................................................O....................O............................................OOO...OOO...............O.............O.............O.............O............O.OO.O.....O.OO.O..........OO.OO.........OO.OO........
.....OOO.O............OO.O.O.............................O.OO.O...O...................................................................O..O..................O...............................................O.O..................O.O.........O.O.............O.O.........O.O............O.OO.OO...OO.OO.O.........O.O...O.......O...O.O.......
....O................O.O.O.O.............................OO.......OO..................................................................O..O..................O...O.......................................O.O.O.O.O.O..............OOO..OO.OO..OOO.............OOO..OO.OO..OOO............O......O.O......O.........O.O.O.O.......O.O.O.O.......
.....OO..O............O...O................................O.OO.....O................................................................O....OO............O.O....OOO.....................................O....O.O....O................OO.O.O.OO...................OO.O.O.OO...............O......O.O......O..........OO.OO.........OO.OO........
......O..O.............O.O................................OO..OO...OOO.......O......................................................O...OOOO...........OO.OOO.........................................O.O...O.O...O.O..........OOO.OOO.O.O.OOO.OOO.........OOO.OOO.O.O.OOO.OOO...........O.....O.O.....O......................................
.......OOO....................................................OO....OO......O.O.....................................................O....O...............OOOO.OO.......................................OO...O.O...OO...........O..O.OOO...OOO.O..O.........O..O.OOO...OOO.O..O..........O...............O..........OO...............OO........
..........OO..............O.OOO..................................OOO.O......O..OO.......................................................OO...................OO......................................O.....O...O.....O.................................................................OOO..O.......O..OOO....................................
..OOO....O............OOOO..O....................................OO...O.OOO....O......................................................O....O.................O..O...................................O.................O.......OO...O.........O...OO.......OO...O.........O...OO.......O...OOO.O...O.OOO...O......OOO.................OOO......
....O................O...OOO......................................OOO....OO....O..OOO..OO................................................OO.OO.................O.....................................O...O.......O...O............O..O.....O..O...............O..O.....O..O...........OOOOOO.........OOOOOO......OO.OOO...........OOO.OO......
....O..O.O............O.O.O..........................................OOOOO......O....O..OO...........................................O..O..O...................OOO........................................O.....O....................O.....O.....................O.....O................O...O.......O...O..........OO..OO.......OO..OO........
....OO...O............O..OO.OO........................................OO...........O.................................................O.....O...........................................................O.O.......O.O.................O.....O.....................O.....O..............O.OO..OO.....OO..OO.O........O...O.O.....O.O...O........
.....O...O..................OO.....................................................O.O.O......O.O.....................................OO....................O.O.........................................OO.O...O.OO............OOO...O.....O...OOO.........OOO...O.....O...OOO.........O.................O..........O.OO.OO...OO.OO.O.........
.OO......O...............O.............................................................OO...O...OO.......................................O.................OO.O..O..................................OO..O..O...O..O..OO........O...OO.......OO...O.........O...OO.......OO...O.........O.O...O.....O...O.O...........O....OO.OO....O..........
O..OO.OO................O...........................................................O...O...O..O.......................................O....................O.OO.O..................................OOO.OO..O.O..OO.OOO........OOO...O.....O...OOO.........OOO...O.....O...OOO..........O...............O.............O.O.O...O.O.O...........
.O...OOO................O..........................................................OO..O...OO......OOO....................................................O........................................O..O.O...O.O...O.O..O.........OOO.........OOO.............OOO.........OOO................O.......O..................O.........O............
......O.O................O..OO...........................................................O.O....OO.OOOO.................................OO...............O...O.....................................O.....O.......O.....O..........OOO.OO.OO.OOO...............OOO.OO.OO.OOO.............OO.O.........O.OO................O.O.O.O..............
...OO..OO.............OO....OO..........................................................OO..O..O.OO....O.................................OO.............OO...O.....................................O..O..O..O.O..O..O..O...........O.O.O.O.O.O.................O.O.O.O.O.O................OO.........OO...................O...O...............
....OOOOOO...........O.OO.....OO...........................................................O...O.......O..................................OO.........................................................OO....OO.OO....OO..............O..O.O..O...................O..O.O..O...............................................OOO...OOO.............
.........OO...........OOO.O..O..O..................................................................O.....................................O.............OO...............................................O.O.....O.O....................O.O.........................O.O.....................O.........O.................O...O.O...O............
......O.O..O.............OO.OOO.O...................................................................O....................................OOO..........................................................O.O.........O.O...............O..O.O..O.....................OO.OO...................OO.........OO.......................................
...O....O.O...............OO...O........................................................................................................O................OO.........................................OOO....OO.OO....OOO............O.O.O.O.O.O..................O..O.O..O.................OOO.......OOO...............O.O.......O.O...........
........O.............................................................................................................................OO...................OO......................................O.......OO.OO.......O..............OO.OO.................OO.O.O.O.O.O.O.OO.............O..O.....O..O.............O....OOO.OOO....O.........
...OO..........................OO......................................................................................................O............................................................OO....OO...OO....OO...............OO.OO................O...O.O.O.O.O.O...O...........O..O.O...O.O..O............O......O.O......O.........
...O.........................O............................................................................................................OO..............O.O............................................O.......O....................OO.OO...................OOO..O.O..OOO............O.O....O...O....O.O.......OOOO...O.......O...OOOO......
......O................O.O.OOO..O....................................................................................................O....OO...............OO............................................O.O...O.O.........................................O..O...OO.OO...O..O..........OO....OO.OO....OO..............OO.......OO............
.....O.OO.............O..OO.....O...................................................................................................OO......O................O............................................O.....O..................OOO.....OOO...............O.....O.O.....O..........O.......OO.OO.......O.......O.O...OO.....OO...O.O.......
...O....O..............O.....O.........................................................................................................OOO.O.................O.......................................................................O.....O......................OO.OO................O..O...........O..O.........O..OO..OO.OO..OO..O........
..O.OOOOOO................OOO.................................................................................................................................O...................................................................O...O...O...O..................OOO.OOO.................O.O.........O.O...........O..OOO.OO.OO.OOO..O........
.O....................................................................................................................................O..........................O................................................................O....O.O....O.................OOO...OOO.................O...........O...............O...OO.OO...O...........
....O................OOO.....OO........................................................................................................O.......................OO.O...............................................................O...........O..............O.OO.O...O.OO.O..........................................O..OO...OO..O...........
..OOO..................O....O.O...................................................................................................OO.OO.O.O....................OO.O...............................................................OOOOO...OOOOO............OO.O...O...O...O.OO........OOO...............OOO........OOO....O...O....OOO........
.......................OO..........................................................................................................O......OO................OOO.........................................................................................................................OOO...........OOO.........O.O...OOO...OOO...O.O.......
.........................O..OO......................................................................................................O....................OO......................................................................................................O.....O................O..O.........O..O.........O.O.O...O...O...O.O.O.......
..O....................OOO..OO......................................................................................................O....OOO............O.O....................................................................................................OO.......OO..............................................OOO...OOO.............
..OO.O......................O.......................................................................................................OO......O...........O..OO.O............................................................................................OOOO...........OOOO..........O...............O............O...O.....O...O..........
....O.OO.....................OO....................................................................................................OO......O...........OO.................................................................................................O.O..OO.......OO..O.O.........O.O...........O.O...........O..O.........O..O.........
.....O.O..................O..........................................................................................................O.................OO....OO..........................................................................................O.....OO.......OO.....O.........OOO.........OOO.........OOO.O.............O.OOO......
....OO.OO................OO..........................................................................................................O...................O.....O.........................................................................................O.....OO.......OO.....O..........OO.........OO..........OO.O.OO.OO...OO.OO.O.OO......
........................OOO........................................................................................................OO....................OO..OO...........................................................................................................................O.O.......O.O............O...O...O.O...O...O........
.........................O.........................................................................................................OO....................O.O...............................................................................................................................O.........O...........OOO....O.O...O.O....OOO......
..........................O..........................................................................................................O..................O...O............................................................................................................................................................O.....O..............
.........................O.O.........................................................................................................O.O.....................O................................................................................................................................................................................
..........................O.O........................................................................................................OOOOO...............O...O.....................................................................................................................................................OOO.............OOO........
...........................O.........................................................................................................OO...O...............OO.....................................................................................................................................................OO.O..OOOO...OOOO..O.OO......
...........................................................................................................................................O.....................................................................................................................................................................O..OO..O.O...O.O..OO..O......
.......................OOO.............................................................................................................O...O..................OOO...................................................................................................................................................O...OO.....OO...O.........
.........................OOO...........................................................................................................O....................OO.OO.................................................................................................................................................OO.................OO.......
.........................O..O.........................................................................................................OOO......................O..............................................................................................................................................................................
.....................................................................................................................................O...OO.................OO..O.....................................................................................................................................................O...........O...........
.........................O............................................................................................................O...OOO....................O..................................................................................................................................................OO.OO.......OO.OO.........
.........................O.O..............................................................................................................OOO............OOO..OO.O..................................................................................................................................................OOO...........OOO.........
..........................OOO............................................................................................................................OOO....O..................................................................................................................................................O.....O.....O.....O........
...........................OO............................................................................................................................O.........................................................................................................................................................OOO...OOO.OOO...OOO........
...........................O.O....................................................................................................................................................................................................................................................................................O...................O.......
............................O............................................................................................................................OOO.......................................................................................................................................................O.OO..O.....O..OO.O........
........................................................................................................................................................O..OO........................................................................................................................................................OO..O.....O..OO..........
........................................................................................................................................................O....O......................................................................................................................................................OO.O.O.....O.O.OO.........
............................................................................................................................................................O.O.....................................................................................................................................................O..OO.......OO..O.........
.........................................................................................................................................................O..O.O...................................................................................................................................................OOO......O.O......OOO.......
........................................................................................................................................................O....O..O.................................................................................................................................................O....OOO.O.O.OOO....O.......
.........................................................................................................................................................O.OO.....................................................................................................................................................O....OO.......OO....O.......
...........................................................................................................................................................OO.OOO.............................................................................................................................................................................
..............................................................................................................................................................OO..............................................................................................................................................................................
..........................................................................................................................................................OO..................................................................................................................................................................................
.........................................................................................................................................................OO..O................................................................................................................................................................................
.........................................................................................................................................................O...O................................................................................................................................................................................
.............................................................................................................................................................O................................................................................................................................................................................
...............................................................................................................................................................O..............................................................................................................................................................................
..............................................................................................................................................................O...............................................................................................................................................................................
.............O.O.O..........................................O.O.O...................................................................................O.O.O.......................................................................O.O.O.....................................................................O.O.O...............................
.............O..............................................O...........................................................................................O.......................................................................O...O.....................................................................O...O...............................
.............O.O.O..........................................O.O.O.......................................................................................O.......................................................................O.O.O.....................................................................O.O.O...............................
.................O..........................................O...O.......................................................................................O.......................................................................O...O.........................................................................O...............................
.............O.O.O..........................................O.O.O.......................................................................................O.......................................................................O.O.O.....................................................................O.O.O...............................
...............O..............................................OO....................................................OO...OO...OO.................OO...OO...OO.................OO...OO...OO..............................O...................O.................................OOO..................OOO............O.........................O.
..............O..O...........................................OOOO...................................................OOO.OOOO.OOO.................OOO.OOOO.OOO.................OOO.OOOO.OOO.............................OO...................OO................................O...O..............O...O............OOO.....................OOO.
..............O..O......................................OO..OO..OO..OO..............................................O..........O.................O..........O.................O..........O.............................O..O....OO...OO....O..O....................................O..............O..................OO...................OO...
.............O....OO....................................OO...OOOO...OO................................................O.O..O.O.....................O.O..O.O.....................O.O..O.O...................................O.OO.O...O.OO.O......................................O.O.OO........OO.O.O...............OO.O.OO...........OO.O.OO..
............O...OOOO...................................O...O......O...O...............................................O.O..O.O.....................O.O..O.O.....................O.O..O.O..................................O...............O.........................................OO........OO.....................OO...O.........O...OO....
............O....O......................................OOO........OOO.............................................OO.OO....OO.OO...............OO.OO....OO.OO...............OO.OO....OO.OO.................................OOOO.....OOOO............................................O...OO...O........................O..O.........O..O......
................OO.............................................................................................OOO..O.O..OO..O.O..OOO.......OOO..O.O..OO..O.O..OOO.......OOO..O.O..OO..O.O..OOO.................................OO.OO...............................................O...O..O...O.....................O.OO.............OO.O....
..............O....O..................................OO...O......O...OO......................................O.O.O.O.O......O.O.O.O.O.....O.O.O.O.O......O.O.O.O.O.....O.O.O.O.O......O.O.O.O.O....................................................................................O...O..O...O....................O..OO.............OO..O...
.................OO.OO................................OO.O..OO..OO..O.OO.......................................OO.O.O.O......O.O.O.OO.......OO.O.O.O......O.O.O.OO.......OO.O.O.O......O.O.O.OO..................................O.O...........................................OO......O.OO.O......OO...............O..O...............O..O...
.............O..O..O..................................OOO.O.OO..OO.O.OOO........................................OO..O..........O..OO.........OO..O..........O..OO.........OO..O..........O..OO..................................O...O..........................................OOO......OOOO......OOO....................OO.........OO........
.............O.....O....................................OO..O....O..OO...........................................O..O..........O..O...........O..O..........O..O...........O..O..........O..O...............................OOOOO...OOOOO......................................OO.....O.O..O.O.....OO....................O.OO.....OO.O........
..............OO.................................................................................................OO....OO..OO....OO...........OO....OO..OO....OO...........OO....OO..OO....OO..............................OO..OO...OO..OO........................................OO..OOO..OOO..OO........................OO.OO.OO.OO.........
.................O..........................................OO..OO....................................................OO.OO.OO.....................OO.OO.OO.....................OO.OO.OO...................................O.....O.O.....O.........................................OOO..O..O..OOO..........................OO.O.O.OO..........
...............O............................................OOOOOO.................................................OO.O......O.OO...............OO.O......O.OO...............OO.O......O.OO..............................OOOO..O.O.O.O..OOOO...........................................OO..OO.........................OOO..O..O.O..O..OOO.....
............................................................OO..OO...............................................O.O............O.O...........O.O............O.O...........O.O............O.O...................................O...O................................................................................O....OO..O.O..OO....O....
................OO........................................O........O...........................................OO..OO..........OO..OO.......OO..OO..........OO..OO.......OO..OO..........OO..OO.....................................................................................OOOO....OOOO...................OO.....O...O.O...O.....OO..
.................OO......................................O.OO....OO.O............................................OO..OO......OO..OO...........OO..OO......OO..OO...........OO..OO......OO..OO......................................................................................O..OO....OO..O..........................O..O.O..O..........
..................OO.....................................O..........O............................................O..O..........O..O...........O..O..........O..O...........O..O..........O..O.........................................................................................O......O...................OO...O..O...........O..O...OO
.................O...........................................O..O...................................................O.O......O.O.................O.O......O.O.................O.O......O.O............................................................................................OO....OO....................O...O.O..OO.....OO..O.O...O.
.................OOO.................................O....O.O....O.O....O........................................OO.OOO..OO..OOO.OO...........OO.OOO..OO..OOO.OO...........OO.OOO..OO..OOO.OO......................................................................................OO.O.O..O.O.OO......................OO.....O.O.....OO......
..............OOO...................................O.OOOOOO......OOOOOO.O........................................OOOOO......OOOOO.............OOOOO......OOOOO.............OOOOO......OOOOO........................................................................................O.O.O..O.O.O....................OO..O.O..OO.OO..O.O..OO...
....................................................OO..OO..........OO..OO......................................O..O..OOOOOOOO..O..O.........O..O..OOOOOOOO..O..O.........O..O..OOOOOOOO..O..O.......................................................................................OO.O..O.OO........................O...O..O.O..O...O......
..............O.O....................................O.O..............O.O.......................................OOO...OO....OO...OOO.........OOO...OO....OO...OOO.........OOO...OO....OO...OOO...................................................................................O....O......O....O...................OO.O.OO.O.O.OO.O.OO.....
.................O..................................O....................O......................................O.O...OOO..OOO...O.O.........O.O...OOO..OOO...O.O.........O.O...OOO..OOO...O.O...................................................................................OO....OO..OO....OO..................O...O....O.O....O...O....
..............OOO...................................O..O..............O..O......................................O.....O.O..O.O.....O.........O.....O.O..O.O.....O.........O.....O.O..O.O.....O....................................................................................OO...O....O...OO...................O....O.O.O.O.O.O....O....
..................O..................................OO................OO........................................O......O..O......O...........O......O..O......O...........O......O..O......O.....................................................................................OO....OOOO....OO...................O........O.O........O....
.............O..O................................................................................................OO..............OO...........OO..............OO...........OO..............OO........................................................................................................................O...OOOO.O.O.OOOO...O....
............O...O......................................OO............OO................................................OO..OO.......................OO..OO.......................OO..OO........................................................................................OOOO..............OOOO...............O..OO.....O.O.....OO..O...
............OO.OO......................................OO............OO.............................................OO.OO..OO.OO.................OO.OO..OO.OO.................OO.OO..OO.OO....................................................................................O..O....O......O....O..O..............OO.......O...O.......OO...
................OO....................................O.O............O.O.............................................O.OO..OO.O...................O.OO..OO.O...................O.OO..OO.O.......................................................................................O.....O......O.....O...............OOO......O.....O......OOO..
.................OO...................................O................O..............................................O.O..O.O.....................O.O..O.O.....................O.O..O.O........................................................................................O.....O......O.....O..............O.O..OO.............OO..O.O.
............OOO.OOO..................................O.O..............O.O..............................................OOOOOO.......................OOOOOO.......................OOOOOO...........................................................................................O.O..........O.O...............O......OO.O..O.O..O.OO......O
............OOO..................................OO........................OO..........................................O....O.......................O....O.......................O....O...........................................................................................O.O..........O.O................O.O....O...OO.OO...O....O.O.
..............O................................OO.O...O................O...O.OO........................................O....O.......................O....O.......................O....O...........................................................................................O.O..........O.O.....................O....O.O.O.O....O......
............O...OO..............................OOO.O....................O.OOO....................................OO...O....O...OO.............OO...O....O...OO.............OO...O....O...OO.....................................................................................O...O........O...O.................OOO.................OOO...
................OO..............................OO..........................OO...................................O.O....O..O....O.O...........O.O....O..O....O.O...........O.O....O..O....O.O.......................................................................................................................OO...................OO...
.............O..O.................................O..OO................OO..O.....................................O..OOO.O..O.OOO..O...........O..OOO.O..O.OOO..O...........O..OOO.O..O.OOO..O.........................................................................................................................O.................O.....
...............OO.................................O.OOOO..............OOOO.O.........................................OOO....OOO...................OOO....OOO...................OOO....OOO...............................................................................................................................O.............O.......
................O................................O.....O..............O.....O............................................OO...........................OO...........................OO.................................................................................................................................OOO.............OOO.....
................O...............................O......O..............O......O......................................O..........O.................O..........O.................O..........O...............................................................................................................................OO.........OO........
.............O..OO...............................O....O................O....O........................................................................................................................................................................................................................................O.OO.............OO.O....
............OO..OO.................................O.OO................OO.O..........................................................................................................................................................................................................................................O...OO.........OO...O....
............OO......................................O....................O...........................................................................O...O......................O..OO..O............................................................................................................................O.O...O.........O...O.O...
.............OO..O..................................O.O................O.O.................................OO.....OO.....OO.....OO.....................OO.......................OO....OO..........................................................................................................................OOOOO...O.........O...OOOOO.
............OO...O....................................OOO............OOO.................................O...O...O..O...O..O...O...O...................OO........................................................................................................................................................O...OOOO.O.........O.OOOO...O
...........OO.........................................O.O............O.O.................................O...O.O.OOO.....OOO.O.O...O..........................................O..O....O..O.......................................................................................................................OO.O....O..OOO.OOO..O....O.OO
..........O..O.......................................OOO..............OOO................................O.....OO..OOO.OOO..OO.....O.................OO.......................OOOO....OOOO..........................................................................................................................O....OOO..O.O..OOO....O...
...........O.O........................................O.O............O.O.................................OO.OOO...............OOO.OO.................OO.......................OO.OOOOOO.OO...........................................................................................................................O...................O....
.............OO..........................................................................................O.........................O.................O.O........................OO....OO..............................................................................................................................O.......O.O.......O.....
.............O............................................................................................O...O...............O...O....................O........................O......O..................................................................................................................................O.OOO.OOO.O.........
.............O...OOO.......................................................................................O..O...............O..O....................O.O........................O....O.....................................................................................................................................O.O.O.O...........
....................O......................................................................................................................................OO....................O....O.......................................................................................................................................................
................OO.....................................................................................................................................O...O.OO.............O...OOO..OOO...O..................................................................................................................................................
..............O.O..O.....................................................................................................................................O.OOO..............O...OO....OO...O............................................................................................................................OOO.........OOO.......
............O..OOO..........................................................................................................................................OO.............O.O..O.O..O.O..O.O.............................................................................................................................O.........O.........
............O..OOOO....................................................................................................................................OO..O.....................OO..OO.......................................................................................................................................................
...........OO.O...O...................................................................................................................................OOOO.O.................O.O........O.O...................................................................................................................................................
............OO....OO..................................................................................................................................O.....O.................O.O.O..O.O.O................................................................................................................................OOOO.O.OOOO.........
............OOO.......................................................................................................................................O......O................O..........O................................................................................................................................OOOO.O.OOOO.........
.............OOO.......................................................................................................................................O....O...................OO....OO.................................................................................................................................OOO...O...OOO........
.............O.OO......................................................................................................................................OO.O.............................................................................................................................................................OO...........OO.......
.............O...........................................................................................................................................O.............................................................................................................................................................O..O.OO...OO.O..O......
...........O.O.........................................................................................................................................O.O..............................................................................................................................................................O.O.........O.O.......
...........O.........................................................................................................................................OOO..................................................................................................................................................................O..O...O..O.........
...........O..O......................................................................................................................................O.O..................................................................................................................................................................O..O...O..O.........
.............OO.......................................................................................................................................OOO.................................................................................................................................................................O..O...O..O.........
.....................................................................................................................................................O.O.................................................................................................................................................................O...........O........
.........................................................................................................................................................................................................................................................................................................................OO..O...O..OO........
.............................................................................................................................................................................................................................................................................................................................O...O............
........................................................................................................................................................................................................................................................................................................................O.O.OO...OO.O.O.......
..............................................................................................................................................................................................................................................................................................................................O.O.............
........................................................................................................................................................................................................................................................................................................................O.....O.O.....O.......
.........................................................................................................................................................................................................................................................................................................................OOO.OO.OO.OOO........
..........................................................................................................................................................................................................................................................................................................................O.OOO.OOO.O.........
............................................................................................................................................................................................................................................................................................................................O.....O...........
..........................................................................................................................................................................................................................................................................................................................O...O.O...O.........
..............................................................................................................................................................................................................................................................................................................................O.O.............
...........................................................................................................................................................................................................................................................................................................................OO.O.O.OO..........
.............................................................................................................................................................................................................................................................................................................................OO.OO............
...........................................................................................................................................................................................................................................................................................................................O..O.O..O..........
...........................................................................................................................................................................................................................................................................................................................O.......O..........
...........................................................................................................................................................................................................................................................................................................................OO.....OO..........
..............................................................................................................................................................................................................................................................................................................................O.O.............
..........................................................................................................................................................................................................................................................................................................................O.........O.........
..........................................................................................................................................................................................................................................................................................................................O..O.O.O..O.........
..........................................................................................................................................................................................................................................................................................................................OO.......OO.........
...........................................................................................................................................................................................................................................................................................................................OOOOOOOOO..........
...........................................................................................................................................................................................................................................................................................................................OO.O.O.OO..........
..........................................................................................................................................................................................................................................................................................................................O...O.O...O.........
.........................................................................................................................................................................................................................................................................................................................O...OO.OO...O........
..........................................................................................................................................................................................................................................................................................................................OO.OO.OO.OO.........
............................................................................................................................................................................................................................................................................................................................OOO.OOO...........
............................................................................................................................................................................................................................................................................................................................OO...OO...........
..........................................................................................................................................................................................................................................................................................................................O.OO...OO.O.........
.........................................................................................................................................................................................................................................................................................................................O...........O........
........................................................................................................................................................................................................................................................................................................................O.............O.......
.......................................................................................................................................................................................................................................................................................................................OO...O.....O...OO......
.......................................................................................................................................................................................................................................................................................................................OO.O.........O.OO......
........................................................................................................................................................................................................................................................................................................................O.O.........O.O.......
.........................................................................................................................................................................................................................................................................................................................O...........O........
..........................................................................................................................................................................................................................................................................................................................O.........O.........
........................................................................................................................................................................................................................................................................................................................O..OO.....OO..O.......
........................................................................................................................................................................................................................................................................................................................OOO.O.....O.OOO.......
........................................................................................................................................................................................................................................................................................................................OOOO.......OOOO.......
..........................................................................................................................................................................................................................................................................................................................O.........O.........
