!Name: turners-c2-general
!CGeneral-period glider turners for c/2 rakes,
!Clabeled with the minumum period for which they work.
!CThese can be used to build a forward rake using
!Cmultiple backward rakes, or vice versa.
!C
!CThese reactions work for any period, but note that
!Cfor most periods, there are more-efficient ways to
!Cturn gliders than this.
!
.....................................................................................................................................................................................................................................................O.O................................................O.........................................................................................................
......................................................................................................................................................................................................................................................OO..............................................OO..........................................................................................................
......................................................................................................................................................................................................................................................O................................................OO.........................................................................................................
.........................................................................................................................................................................................................................................................O........................................................................................................................................................
..........................................................................................................................................................................................................................................................OO.......................................O.O............................................................................................................
.........................................................................................................................................................................................................................................................OO........................................OO.............................................................................................................
....................................................................................................................................................................................................................................................................................................O.............................................................................................................
............................................................................................................................................................................................................................................................O.O..................................O................................................................................................................
.............................................................................................................................................................................................................................................................OO................................OO.................................................................................................................
.............................................................................................................................................................................................................................................................O..................................OO................................................................................................................
................................................................................................................................................................................................................................................................O.................................................................................................................................................
.................................................................................................................................................................................................................................................................OO.........................O.O...................................................................................................................
................................................................................................................................................................................................................................................................OO..........................OO....................................................................................................................
.............................................................................................................................................................................................................................................................................................O....................................................................................................................
...................................................................................................................................................................................................................................................................O.O....................O.......................................................................................................................
....................................................................................................................................................................................................................................................................OO..................OO........................................................................................................................
....................................................................................................................................................................................................................................................................O....................OO.......................................................................................................................
.................................................................................................................................................................................................................................................O................................................................................................................................................................
..................................................................................................................................................................................................................................................OO..............................................................................................................................................................
.................................................................................................................................................................................................................................................OO...............................................................................................................................................................
.......................................................................................................................................................................................................................................................................O..........................................................................................................................................
........................................................................................................................................................................................................................................................................OO...........O.O..........................................................................................................................
.......................................................................................................................................................................................................................................................................OO............OO...........................................................................................................................
......................................................................................................................................................................................................................................................................................O...........................................................................................................................
....................................................................................................................................................................................................................................................O.O...........................................................................................................................................................
.....................................................................................................................................................................................................................................................OO...........................................................................................................................................................
.....................................................................................................................................................................................................................................................O............................................................................................................................................................
................................................................O.........................................................................................................................................................................................................O.O......O..............................................................................................................................
..............................................................OO...........................................................................................................................................................................................................OO....OO...............................................................................................................................
...............................................................OO..........................................................................................................................................................................................................O......OO..............................................................................................................................
................................................................................................................................................................................................................................................................................................................................................OO................................................................
.O.............................................................................................................................................................................................................................................................................................................................................O.O.............................................................OOO
..O..............................................................................................................................................................................................................................................................................................................................................O.............................................................O..
OOO.............................................................................................................................................................................................................................................................................................................................................................................................................O.
........................................................................................................................................................................................................................................................O..........................................................................................OOO......................................................OO....
.........................................................................................................................................................................................................................................................OO..........................................................................................O......................................................O.O...
........................................................................................................................................................................................................................................................OO..................O.......................................................................O.......................................................O.....
............................................................................................................................................................................................................................................................................O..........................................................................OO.........................................................
............................................................................................................................................................................................................................................................................O.........................................................................O.O...............................................OOO.......
........................................................................................................................................................................................................................................................................................................................................................O...............................................O.........
.........................................................................................................................................................................................................................................................................................................................................................................................................O........
..........................................................................................................................................................................................................................................................................................................................................................OOO........................................OO...........
....................................................................................................OOO.....................................................................................................................................................................................................................................................O........................................O.O..........
......................................................................................................O.....................................................................................................................................................................O..............................................................................O.........................................O............
.........................................................O.O.........................................O......................................................................................................................................................................O.................................................................................OO..................................................
.........................................................OO................................................................................................................................................................................................O.O..............O................................................................................O.O.................................OOO..............
..........................................................O..................................................................................................................OO.............................................................................OO.................................................................................................O.................................O................
............................................................................................................................................................................OO..............................................................................O.....................................................................................................................................O...............
.......O...................................................................................................OO.................................................................O..................................................................................................................................................................................OOO..........................OO..................
.....O.O..................................................................................................O.O......................................................................................................................................................................................................................................................O..........................O.O.................
......OO....................................................................................................O...............................................................................................................................................................O.....................................................................................O...........................O...................
............................................................................................................................................................................................................................................................................O........................................................................................OO...........................................
.......................................................................................................................................................................O....................................................................................................O.......................................................................................O.O...................OOO.....................
......................................................................................................................................................................OO..............................................................................................................................................................................................O...................O.......................
......................................................................................................................................................................O.O..................................................................................................................................................................................................................O......................
.................................................................................................................OOO...........................................................................................................................................O........................................................................................................OOO............OO.........................
...................................................................................................................O............................................................................................................................................OO........................................................................................................O............O.O........................
..................................................................................................................O............................................................................................................................................OO...........O............................................................................................O.............O..........................
............................................................................................................................................................................................................................................................................O...............................................................................................OO....................................
................................................................................................................................................................OO..........................................................................................................O..............................................................................................O.O.....OOO............................
.....................................................O.........................................................................................................OO............................................................................................................................................................................................................O.....O..............................
...................................................OO...................................................................OO.......................................O..................................................................................................................................................................................................................O.............................
....................................................OO.................................................................O.O........................................................................................................................................................................................................................................................................................
.........................................................................................................................O........................................................................................................................................................................................................................................................................................
............O...............................................................................................................................................................................................................................................................O.....................................................................................................OOO.............................
.............O............................................................................................................................................O.................................................................................................................O.....................................................................................................................................
...........OOO...........................................................................................................................................OO.......................................................................................................O.O.......O.....................................................................................................................................
.........................................................................................................................................................O.O.......................................................................................................OO.............................................................................................................................................
..............................................................................................................................OOO.............................................................................................................O....................O..............................................................................................................................................
................................................................................................................................O..............................................................................................................OO.................................................................................................................................................................
...............................................................................................................................O..............................................................................................................OO..................................................................................................................................................................
............................................................................................................................................................................................................................................................................O.....................................................................................................OOO.............................
...................................................................................................................................................OO.......................................................................................................................O........................O............................................................................................................
..................................................................................................................................................OO........................................................................................................................O........................O.O..........................................................................................................
.....................................................................................................................................OO.............O................................................................................................................................................OO...........................................................................................................
....................................................................................................................................O.O...........................................................................................................................................................................................................................................................................
......................................................................................................................................O...............................................................................................................................O..............................................................................OO...........................................................
..............................................O.O......................................................................................................................................................................................................................OO.............................................................................OO..........................................................
..............................................OO.............................................................................................O........................................................................................................................OO....O........................................................................O............................OOO.............................
...............................................O............................................................................................OO...................................................................................................O.O........................O............................................................................O......................................................OO
............................................................................................................................................O.O...................................................................................................OO........................O............................................................................OO....................................................OO.
..................O...............................................................................................................................................................................................................................O.....................................................................................................O.O......................................................O
................O.O...............................................................................................................................................................................................................................................................................O..........................................................................................................O....
.................OO..............................................................................................................................................................................................................................................................................O..........................................................OO..............................................OO....
.................................................................................................................................................................................................................................................................................................OOO.........................................................OO.............................................O.O...
..........................................................................................................................................................................................................................................................................OO................................................................................O.....................OOO.............................
.........................................................................................................................................................................................................................................................................O..O...................................................................................O........................................OO.......
..........................................................................................................................................................................................................................................................................O.O...................................................................................OO......................................OO........
..........................................................................................................................................O................................................................................................................................O...................................................................................O.O........................................O.......
...........................................................................................................................................OO........................................................................................................O................................................................................................................................................O...........
..........................................................................................................................................OO..........................................................................................................OO...........................................................................................................OO................................OO...........
.....................................................................................................................................................................................................................................................OO.............................................................................................................OO...............................O.O..........
..........................................................................................................................................................................................................................................................................OO.......................................................................................O..............OOO.............................
..........................................O..............................................................................................................................................................................................................................O..O.................O........................................................................O..........................OO..............
........................................OO................................................................................................................................................................................................................................O.O.................O.O......................................................................OO........................OO...............
.........................................OO................................................................................................................................................................................................................................O..................OO......................................................................O.O..........................O..............
...............................................................................................................................................................................................................................................................................................................................................................................................O..................
.......................O..................................................................................................................................................................................................................................................................................................................................................OO..................OO..................
........................O..................................................................................................................................................................................................................................................................................................................................................OO.................O.O.................
......................OOO.................................................................................................................................................................................................................................................OO..............................................................................................O.......OOO.............................
........................................................................................................................................................................................................................................................O.O..............O..O.................................................................................................O............OO.....................
.........................................................................................................................................................................................................................................................OO...............O.O.................................................................................................OO..........OO......................
.........................................................................................................................................................................................................................................................O.................O.................................................................................................O.O............O.....................
...........................................................................................................................................................................................................................................................................................O............................................................................................O.........................
..........................................................................................................................................................................................................................................................................................O............................................................................................OO.........................
..........................................................................................................................................................................................................................................................................................OOO..........................................................................................O.O........................
..........................................................................................................................................................................................................................................................................OO....................................................................................................OOO...............................
.........................................................................................................................................................................................................................................................................O..O..................................................................................................OOOO...............................
................................................................................................................................................O.O.......................................................................................................................O.O.................................................................................................O....O..............................
.................................................................................................................................................OO........................................................................................................................O...................................................................................................OOOOO.O............................
...................................O.O...........................................................................................................O..........................................................................................................O...................................................................................................................OOOOO.............................
...................................OO........................................................................................................................................................................................................................OO.....................................................................................................................O.............................
....................................O.......................................................................................................................................................................................................................OO....................................................................................................................................................
..........................................................................................................................................................................................................................................................................OO......................................................................................................................................
.............................O...........................................................................................................................................................................................................................................O..O..........O..........................................................................................................................
...........................O.O............................................................................................................................................................................................................................................O.O..........O.O........................................................................................................................
............................OO.............................................................................................................................................................................................................................................O...........OO.....................................................................................O...................................
...............................................................................................................................................................................................................................................................................................................................................................................O..................................
.............................................................................................................................................................................................................................................................................................................................................................................OOO..................................
..........................................................................................................................................................................................................................................................................OO......................................................................................................................................
...............................................................................................................................................................................................................................................................O.O.......O..O.....................................................................................................................................
................................................................................................................................................................................................................................................................OO........O.O.....................................................................................................................................
................................................................................................................................................................................................................................................................O..........O......................................................................................................................................
....................................................................................................................................................................................................................................................................................O.............................................................................................................................
................................OO.................................................................................................................................................................................................................................................O..............................................................................................................................
.................................OO................................................................................................................................................................................................................................................OOO............................................................................................................................
................................O......................................................................................................................O..................................................................................................................OO......................................................................................................O...............................
........................................................................................................................................................OO...............................................................................................................O..O...................................................................................................O.O...............................
.......................................................................................................................................................OO.................................................................................................................O.O....................................................................................................OO...............................
......................................O....................................................................................................................................................................................................................................O......................................................................................................................................
......................................OO...........................................................................................................................................................................................................................O..............................................................................................................................................
.....................................O.O............................................................................................................................................................................................................................OO............................................................................................................................................
...................................................................................................................................................................................................................................................................OO.............................................................................................................................................
..........................................................................................................................................................................................................................................................................OO......................................................................................................................................
.........................................................................................................................................................................................................................................................................O..O...O.................................................................................................................................
...........................................OO.............................................................................................................................................................................................................................O.O...O.O...............................................................................................................................
............................................OO.............................................................................................................................................................................................................................O....OO...................................................................................................O............................
...........................................O..........................................................................................................................................................................................................................................................................................................................................O...........................
....................................................................................................................................................................................................................................................................................................................................................................................OOO...........................
..........................................................................................................................................................................................................................................................................O.O.....................................................................................................................................
.........................................................................................................................................................................................................................................................................O........................................................................................................................................
.........................................................................................................................................................................................................................................................................O...O....................................................................................................................................
..........................................................................................................................................................................................................................................................................O..O....................................................................................................................................
...........................................................................................................................................................................................................................................................................OO.O...................................................................................................................................
.............................................................................................................................................................................................................................................................................O....................................................................................................................................
...............................................................................................................................................................................................................................................................................OOO................................................................................................................................
.................................................................................................................................................................................................................................................................................O................................................................................................................................
................................................................................................................................................................................................................................................................................O.................................................................................................................................
...................................................................................................................................................................................................................................................................................OO.............................................................................................................................
..................................................................................................................................................................................................................................................................................O.O.............................................................................................................................
...........................................................................................................................................................................................................................................................................O.OO.....O.............................................................................................................................
............................................................................................................................................................................................................................................................................OO....................................................................................................................................
......................................................................................................................................................................................................................................................................................OOO.........................................................................................................................
........................................................................................................................................................................................................................................................................................O.........................................................................................................................
.......................................................................................................................................................................................................................................................................................O..........................................................................................................................
...............................OO.O......OO.O..........................................................................................OO.O......OO.O........................................................................................................................OO...OO...OO.....................................................................................OO...OO...OO........................
...............................O.OO......O.OO..........................................................................................O.OO......O.OO.........................................................................................................................O...OO...OO......................................................................................O...OO...OO........................
...................................OO........OO............................................................................................OO..OO............................................................................................................................O................................................................................................O...................................
...................................O.........O.............................................................................................O...O.............................................................................................................................OO...OO...OO.....................................................................................OO...OO...OO........................
....................................O.........O.............................................................................................O...O.................................................................................................................................O.O.O.O..........................................................................................O.O.O.O........................
...................................OO........OO............................................................................................OO..OO............................................................................................................................OO.....O.O.......................................................................................OO.....O.O..........................
...............................OO.O......OO.O..........................................................................................OO.O......OO.O.........................................................................................................................O....OO.O........................................................................................O....OO.O..........................
...............................O.OO......O.OO..........................................................................................O.OO......O.OO........................................................................................................................O.........OO.....................................................................................O.........OO........................
.............................OO........OO............................................................................................OO........OO....OO......................................................................................................................OO.........O.....................................................................................OO.........O........................
.............................O.........O.............................................................................................O.........O.....O.................................................................................................................................O................................................................................................O.........................
..............................O.........O.............................................................................................O.........O.....O......................................................................................................................OO........OO.....................................................................................OO........OO........................
.............................OO........OO............................................................................................OO........OO....OO.......................................................................................................................O.........O......................................................................................O.........O........................
...............................OO.O......OO.O..........................................................................................OO.O......OO.O........................................................................................................................O.........O......................................................................................O.........O.........................
...............................O.OO......O.OO..........................................................................................O.OO......O.OO........................................................................................................................OO........OO.....................................................................................OO........OO........................
