!Name: verylonghookwithtail_synth.rle
!Author: Mark D. Niemiec
!Glider synthesis of very long hook with tail.
!http://conwaylife.com/wiki/Very_long_hook_with_tail
!http://conwaylife.com/patterns/verylonghookwithtail_synth.rle
!http://conwaylife.com/ref/mniemiec/10/10-15.rle
!
.......................................O....................................................................
.....................................O.O....................................................................
......................................OO....................................................................
.............................................O..............................................................
.............................................O.O............................................................
.............................................OO.............................................................
.............................................................OO...OO.............OO...OO.............OO...OO
..............................................O...............O..O.O..............O..O.O..............O..O.O
....................................OO........OO...O..........O.O.O...............O.O.O...............O.O...
.....................................OO......O.O...O.O.........O.O.................O.O.................O....
....................................O..............OO...........O...................O..OO...................
.......................................................................................O.O..................
...................................................................................OO..O....................
..................................................................................O.O.......................
....................................................................................O.......................
..................................................................................O.........................
..................................................................................O.O.......................
..............................................................................O...OO........................
............................................................................O.O.............................
.............................................................................OO..OO.........................
................................................................................O.O.........................
..................................................................................O.........................
.........................................................................O..................................
....................................O.....................................O.................................
...O.................................OO...O.............................OOO.................................
.O.O.....O..........................OO..OO..................................................................
..OO...OO................................OO.................................................................
........OO..................................................................................................
...........OO.............OO..................OO.............OO...OO..................OO.............OO...OO
...........O.O.........O.O.O..........O.O..O.O.O..............O..O.O...............O.O.O..............O..O.O
.OO........O...........OO..............OO..OO.................O.O..................OO.................O.O...
O.O....................................O.......................O.......................................O....
..O.........................................................................................................
........................................OOO.................................................................
........................................O...................................................................
.........................................O..................................................................
.......................................................................................OO...................
......................................................................................OO....................
........................................................................................O...................
.........................................................................................O..................
.........................................................................................O.O................
.........................................................................................OO.................
.............................................................OO..................OO..................OO...OO
..............................................................O...................O.........O.O.......O..O.O
.........................................OO...................O.O.................O.O.......OO........O.O...
..........................................OO...................OO..................OO........O.........O....
.........................................O...OO.............................................................
.............................................O.O........................................OO..................
.............................................O.........................................OO...................
..............................................................................O.O........O..................
...............................................................................OO..OO.......................
...............................................................................O..O.O.......................
....................................................................................O.......................
................................................................................O...........................
................................................................................OO..........................
...............................................................................O.O..........................
