!Name: zigzag
!CA rake creates gliders which are bounced back and forth
!Cindefinitely by heavyweight spaceships.
!CGabriel Nivasch, June 1998
!CThe glider-turning reaction was found by Dean Hickerson
!
...............................................................OO.........................................................................................................................................................................................................................................................................................................................
...............................................................OO.........................................................................................................................................................................................................................................................................................................................
......................................................................................O...................................................................................................................................................................................................................................................................................................
.....................................................................................O.O..................................................................................................................................................................................................................................................................................................
.....................................................................................OO.O.......OO........................................................................................................................................................................................................................................................................................
............................................................OO.O.OO......OO..........OO.OO......O.O.......................................................................................................................................................................................................................................................................................
.........................................................................OO..........OO.O.OOO......O......................................................................................................................................................................................................................................................................................
............................................................O.....O..................O.O..O..O..O..O......................................................................................................................................................................................................................................................................................
......................................................................................O....OO......O......................................................................................................................................................................................................................................................................................
.............................................................OO.OO..............................O.O......OO...............................................................................................................................................................................................................................................................................
...............................................................O................................OO.......O.O..............................................................................................................................................................................................................................................................................
...........................................................................................................O..............................................................................................................................................................................................................................................................................
...................................................................................O.O.....................OO.............................................................................................................................................................................................................................................................................
...................................................................................OO.....................................................................................................................................................................................................................................................................................................
....................................................................................O.....................................................................................................................................................................................................................................................................................................
..................................................................O........................OO.......................O......................................................................................OO.............................................................................................................................................................................
............................................................OOO....OO.......................O....................OOOO....O.................................................................................OO.............................................................................................................................................................................
...........................................................O...O..OO........................O.O.........O.......OOOO.....O..............................................................................OO..........O....O...........................................................OO...................................................................................................
.............................................................................................OO........O.O......O..O.........OO.................................................................OO.....OOO..........O....O.O.........................................................OO...................................................................................................
..........................................................O.....O.....................................O...OO....OOOO.........OO.................................................................OO......OO..........O.......OO............................................................................................................................................................
..........................................................OO...OO.....................................O...OO.....OOOO......................................................................................OO..OO...........OO....OO......................................................................................................................................................
....................................................OO................................................O...OO........O......................................................................................OO..O..OO........OO....OO......................................................................................................................................................
....................................................OO.................................................O.O..............................................................OO......................................OOOO.....O.O..............................................................................................................................................................
.............................................................O...........O.O............................O...............................................................OO.......................................O.......O................................................................................................................................................................
............................................................O.O...........OO.....................................O.O.............................................................................................................................................O....................O...................................................................................................
............................................................O.O...........O.......................................OO.............................................................................................................................................OOOO................OOO..................................................................................................
............................................................O.....................................................O......................................OO.......................................................O..............................O................OOOO...............OOO..................................................................................................
............................................................O...........................OO...................OO..........................................OO.............................................O.O.....OOO.............................O.O.....OO........O..O.....OO.............................................................................................................
....................................................OOO.....O..O.........................O...................O..........................................................................................OO.....O..............................OO...O..............OOOO.....OO......OO...OO................................................................................................
.............................................................OO..........................O.O........OO.....O.O.........................................................OOO...............................O.....OO........................OO...OO...O....O.O.OO...OOOO..............OO...OO................................................................................................
....................................................O.O...................................OO......O..O.....OO............................................................................................................................OO...OO...O.....OO...O..O........................................................................................................................
...................................................OOOOO.........................................O.......................O.............................................O.O......................................................................O.O..........O............................................................................................................................
..................................................OO...OO........................................O........................OO..........................................OOOOO......................................................................O........O..O........................OO..................................................................................................
..................................................OO...OO........................................O...........O...........OO..............................OOO.........OO...OO......................................................OO.................................................O.O..................................................................................................
..................................................................................................O..O.......OOO........................................OO.OO........OO...OO......................O..............................O.O................................................OO..O.................................................................................................
....................................................................................................OO..........O.......................................OO.OO...................................OO..............................OOO............O.....................................OO...................................................................................................
....................................................OO........................OO...............................OO.......................................OOOOO....................................OO.........OOO........OO......OOO........OO...OOOO.................O................OO...................................................................................................
...................................................OO.OO......................O........................................................................OO...OO.........OO..................................O...O.......OO.......OOO........OO...OOOO.................O...............O....................................................................................................
....................................................O..O.......................OOO....................................................................................OO.OO...............................O.....O................O.O..OO.O.OO...O..O.....OO........OOO....................................................................................................................
....................................................O............................O................................O.............O.O....................................O..O...............................O.....O.................OO..OO.O.O....OOOO.....OO..........................O.....O..............................................................................................
.......................................................O........................................................OO.OO............OO.......................OO...........O.....................................O..........................OO.O...OOOO..................................O.....O..............................................................................................
.....................................................OO..........................................................................O......................OOOOO.............O................................O...O...............................O...............................O......O...O...............................................................................................
...............................................................................................................O.....O......................................O...........OO...............O.O................OOO................................................................O.O.....OOO................................................................................................
........................................................................................................................................................OOO..............................OO..................O.................................................................OO.........................................................................................................
................................................OO...OO........................................................OO.O.OO..................................O.................................O......................................O.......................................OO...............................................................................................................
.................................................OOOOO.....O...................O.........................................................................OO........OO...OO.....................................................OO........................................OO...............................................................................................................
..................................................OOO.......OO.................OO.......................................................O................OO.........OOOOO.....O...........................OOO...................OO........................................................................................................................................................
...................................................O.......OO.................O.O........................................................OO..........................OOO.......OO.........................OOO.............................................................................................................................................................................
.....................................................................................OO.................................................OO............................O.......OO.........................O...O...........................................................O................................................................................................................
.....................................................................................O.................................OO......OO........................OO...OO.................................................O.O....................................................OOO...............................................................................................................
...................................................................................O.O................................O..O....O..O.......................O.O.O.O........................................OO...OO...OO....................................................OOO...............................................................................................................
...................................................................................OO................................OOOOOO..OOOOOO...............O.O.....OOOOO...................................................O....................................................................OO.................................................................................................
......................................................................................................................O..O....O..O................OO.......OOO.........................................................................................................................OO.................................................................................................
..................................................................O.OO.OO..............................................OO......OO............OO....O........O............................................................O................................................................................................................................................................
...................................................................OOO..OO...................................................................OO......................................O.O.................................OO...............................................................................................................................................................
...................................................OO..............O...O.....................................................................OO.......................................OO..................................OO..............................................................................................................................................................
...................................................OO.................................................................................................................OO..............O...................................OO....................................O................O........................................................................................................
............................................................................................................................................OOO.......................OO..................................................OO....................................O.O............OOO........................................................................................................
....................................................................................................................O.......................O.O..........................................................................OO.....................................OO............O...........................................................................................................
.....................................................................................................................OO.....................OOO.......................................................................................................................OO......OO..........................................................................................................
....................................O...........................O..............................................O....OO.....................................OO..............................................OO..........................................................O..................................................................................................................
...................................O............................OO..............................................OO.........................................OO..............................................OO.......................................................OOO...................................................................................................................
...................................O...O.......................O.O.............................................OO...................................................................................................................................................O.....................................................................................................................
..................OOOO.............OOOO...............O......................................................................................................................................................................................................................................OO...........................................................................................
..................O...O..............................O.O...............................................................................................................................OO.......................................O.O..........................................................OO...........................................................................................
..................O......................OO.........O...OO........O....................................................................................................................O.........................................OO......................................OO.O.OO..........................................................................................................
...................O.....................OO.........O...OO.....OOOO................................................................O.O..................................................OOO......................................O.......................................O.....O..........................................................................................................
....................................................O...OO....OOOO.........OO......................................................OO.....................................................O...............................................................................O...O...........................................................................................................
.....................................................O.O......O..O.........OO.......................................................O.....OO................................................................................OO.............................................OOO............................................................................................................
.....................O................................O.......OOOO.....O...................................................................O................................................................................O.............................................................................................................................................................
....................O..........................................OOOO....O................................................................OOO..................................................................................OOO....................................................................................O.....................................................................
....................O.............................................O.....................................................................O......................................................................................O...................................................................................O.O....................................................................
....................OO............................................................................................................................................................................................................................................................................................O...OO......OO..........................................................
......................O................................................................................................................................................................................................................................................................................OO.........O...O.OO....O.O.........................................................
........................................................................................................................OO................................................................................................................................................................OO...OO......OO.........O...O.OOO....OOO........................................................
......................................................................................................................O....O..............................................................................................................................................O........................................O.O.OO..O....OOO......OO...............................................
.....................................................................................................................O..........................................................................OOOOOO...................................................................O.................O...O....................O....OO....OOO.......OO...............................................
..................OOOO.....OO........................................................................................O.....O....................................................................O.....O..................................................................OOO................OOO...............................O.O.........................................................
..................O...O...OO.OO......................................................................................OOOOOO.....................................................................O...........................................................................................OOO...............................OO..........................................................
..................O........OOOO..................................................................................................................................................................O....O...................................................................................................................................................................................
...................O........OO.....................................................................................................................................................................OO............................................................................................................O........................................................................
.................................................................................................................................................................................................................................................................................................................O.O......................................................................
............................................................................................................................................................................................................................................................................OOOOO................................OO.......................................................................
...........................................................................................................................................................................................................................................OO....................OO........O.OOO.O..............................................................O.........................................
............................................................................................................................................................................................................................................O.......................O.......O...O..........O.....O.........................................O....OOOO......................................
............................................................................................................................................................................................................................................O.O................O...O.........OOO..........OOO.....O........................................O.....OOOO.......O.............................
.............................................................................................................................................................................................................................................OO................O.O............O...........OOO...OOO...................................OO.........O..O......O.O............................
............................................................................................................................................................................................................................................................................................................OO........................OO.........OOOO....OO...O...........................
................................................................................................................................OO......................................................................................................................................................OO...OO.............OO..................................OOOO.....OO...O.........OO................
..............................................................................................................................O....O....................................................................................................................................................OO...OO.................................................O........OO...O.........OO................
.............................................................................................................................O...............................................................................................................................................OO............................................................................O.O............................
.............................................................................................................................O.....O........................................................................................OOO....O.O.......................................OO............................O................................................O.............................
.............................................................................................................................OOOOOO...........................................................................................O....O...O...................................................O.............OO......................................O.O......................................
.............................................................................................................................................................................................................................O.........O.....OO..............OOO..........................O.O.............OO.....................................OO.......................................
...................................................................................................................................................................................................................................O....O....OO..............O...........................OO.......................................................O.......................................
.......................................................................................................................................................................................................................................O......................O..........................OO...............................................................................................
..........................................................................................................................................................................................................................OO.......O...O.................................................OOO...........OO.................................................................................
.........................................................................................................................................................................................................................O.O.......O.O....................................................O.O..........OO................................OO...............................................
.........................................................................................OOOO............................................................................................................................O...................................................O.O...........OO...........................................OO.O..................OO..........................
........................................................................................OOOOOO..........................................................................................................................OO...........................................OOO.....O...O.........................................................OO.................OO..........................
.......................................................................................OO.OOOO..................................................................................................................................................................OO..O..O.O.......O.....OO..................................................OO.............................................
........................................................................................OO....................................................................................................................................................................O..O..OO.......O....O....OO..................................................OO.............................................
.....................................................................................................................................................................................................................................................OO......O...................O......................................................OOO.O..OO.........................................
.....................................................................................................................................................................................................................................................OO......O..........OOO..O...O............................................OO........O.....O.OO........................................
.............................................................................................................................................................................................................................................................O...............O.O.............................................O.O.........O....OOO.........................................
..............................................................................................................................................................................................................................................................O..O..........................................OO...............O.................O..........................................
................................................................................................................................................................................................................................................................OO..........................................O...............OO............................................................
.............................................................................................................................................................................................................................................................................................................OOO......................................OO.......O..........................
...............................................................................................................................................................................................................................................................................................................O.....................................OO.......OOO.........................
.......................................................................................................................................................................................................................................................................................................................................................O.....OOOOO........................
............................................................................................................................................................................................................................................................................................................................................................OO...OO.........OO............
............................................................................................................................................................................................................................................................................................................................................................................O.O...........
.................................................................................OOOO..................................................................................................................................................OOOO..................................................................................................................................OOO..........
................................................................................OOOOOO.....................................................................OO.........................................................................OOOOOO.....................................................................OO.........................................OO................OO..........
...............................................................................OO.OOOO....................................................................OO.OOOO....................................................................OO.OOOO....................................................................OO.OOOO....................................O..................OO..........
................................................................................OO.........................................................................OOOOOO.....................................................................OO.........................................................................OOOOOO.......................................O.............O.O...........
............................................................................................................................................................OOOO..................................................................................................................................................OOOO.....................................O..O..............O............
...........................................................................................................................................................................................................................................................................................................................................................OO.OO..........................
.............................................................................................................................................................................................................................................................................................................................................................OO...........................
.............................................................................................................................................................................OOO..........................................................................................................................................................................................OO...OO.........
.........................O...................................................................................................................................................O.........O.....................................................................................................................O............................................................OO...OO.........
.........................O.O..................................................................................................................................................O........OOO.................................................................................................................OOO............................................OO...OO.........................
........OO..................OO............................................................................................................................................................O...............................................................................................................O...............................................OO...OO...........OOO...........
......O...O.................OO....OO.....................................................................................................................................................OO...............................................................................................................OO...............................................OOOOO............OOO...........
.....O.....O................OO....OO........................................................................................................................................................................................................................................................................................................................O.O..............O............
OO..OO.O...O........O....O.O..............................................................................................................................................................................................................................................................................................................................................................
OO...O.....O.........O...O..................................................................................................................................................................................................................................................................................................................................OOO...........................
......O...O.....O..OOO.....................................................................................................................................................................................................................................................................................OO.............................................................................
........OO................................................................................................................................................................................................................................................................................................OOO.............................................................................
..........................................................................................................................................................................................................OO.............................................................................OO................................................................................O..............
..........................................................................................................................................................................................................OO.............................................................................OO..........OO..................................................................OO...............
..........................................................................................................................................................................................OO.........................................................................................................OO.....................................................OO............OO..............
............................O............................................................................................................................................................O.O..OOO...........................................................................................................................................................OO............................
..........................O.O..............................OOO...........................................................................................................................O......O............O................................................................................................................................................................OOO.........
...........................OO................................O.............................................................................................................................OOOOO............O............................................................................O...................................................................................O...O........
............................................................O...OOO.........................................................................................................................................O...........................................................................O.O............OO...................................................................O.....O.......
..................................................................O.......................................................................................................................O............................................................................................O...O.............O..................................OO..............................O.....O.......
.................................................................O........O.O..O.O.......................................................................................................O..............................................................................................OOO...........OO.OO..................................O.................................O..........
......OO..............................................................OO.O..O..O..O.OO...................................................................................................O..O...........OO...OO.......................................................................OO...OO........OOOOOOO.................................O.O.............................O...O........
......OO..................................OO..............................O.O..O.O.......................................................................................................OOO...............O.........................................................................................OO....O..................................OO..............................OOO.........
..........................................O.O.......................................................................................................................................................OO..O.....O................................................................................................................................................................O..........
............................................O.......................................................................................................................................................O.O..OO.OO............................................................................................................................................................................
............................................OO......................................................................................................................................................O.....O.O............................................................................................O.O..............................................................................
...........................................................................................................................................................................................................O................................................................................OO...........OOO..................................................................OO..........
....................................................................O......................................................................................................................................O.................................................................................OO...............................................................................OO..........
...................................................................OOO..............................................................................................................OOO.....................................................................................................O.................................................................OO..........................
.....OOO.......OO.................................................OOOOO...............................................................................................................O......................................................................................................................................................................OO...........................
....O...O.....O.O................................................OO...OO.............................................................................................................O............................................................................................................................O............................................O..........................
................O....................O...................................................................................................................................................................O.......................................................................................................OO.......................................................................
...O.....O.........................OOO.................................................................................................................................OO...............................OOO......................................................................................................O.O........O.O...........................................................
...OO...OO........................O................................O...................................................................................................OO....O.........................O...O..............................................................................................................O...O...........................................................
..................................OO...............................O................................................................................................OO......OOOOO.OO..................O.OOO.O.................................................................................................OO..........O............OO.............................OO.........O........
........................................................OO.........................................................................................................OOO.....O..OO....O..................OOOOO...............................................................................O..........O.......O..O.......O....O........OO............................OOOO.......O.O.......
........OO.............................................O.O............OO............................................................................................OO.....OO........O........OO..........................................................................................OOO........O...OO.......O.......O.....................................O.O..O..OOO.....OO.O....OO
........O.O...........................................OOO.............O.......................................................................................OO.......OO....O.......O........OO.........................................................................................OOOOO.......O.....O......O.......O...O................................O..O..OO.........OO.OO...OO
..........O..........................................OOO...............OOO...................................................................................O.O.......OO............O..................................................................................................OO...OO.......OOOOO.......O.........O.O.......................OO......OO.........O......OO.O......
.........OO...........................................OOO................O...................................................................................O......................O.........................................................................................................................O..O....................................OO....OO...O........O.....O.O.......
......O.......................................OO.......O.O.....OO...........................................................................................OO....................OO..........................................................................................................................OO..............................................OO..........O......O........
......O..O.......OO..........................O.O........OO.....O.O.............................................................................................................................................................................................................................................................................................O..O.......................
......O..........OO..........OO..............O...................O........................................................................................................................................................................................................................OOO...................................................................O.O.......................
.................OO..........OO.............OO...................OO.......................................................................................................................................................................................................................OOO.............................................................................................
.................O........................................................................................................................................................................................................................................................................................................................................................................
.....OO.O.OO....O.O.......................................................................................................................................................................................................................................................................................................................................................................
................O.O..............O......................................................................................................................................................................OO................................................................................OO..............................................................................................
.....O.....O.....O..............OO......................................................................................................................................................................OO................................................................................OO..............................................................................................
................................O.O.......................................................................................................................................................................................................................................................................................................................................................
......OO.OO...............................................................................................................................................................................................................................................................................................................................................................................
........O.....OO...OO.....................................................................................................................................................................................................................................................................................................................................................................
..............O.O.O.O.............OO......................................................................................................................................................................................................................................................................................................................................................
...............OOOOO..............OO......................................................................................................................................................................................................................................................................................................................................................
................OOO...OO..................................................................................................................................................................................................................................................................................................................................................................
.................O...O.O..................................................................................................................................................................................................................................................................................................................................................................
.......OO..............O..................................................................................................................................................................................................................................................................................................................................................................
.......OO.................................................................................................................................................................................................................................................................................................................................................................................
.......................................OOO................................................................................................................................................................................................................................................................................................................................................
.......................................O..................................................................................................................................................................................................................................................................................................................................................
........................................O.................................................................................................................................................................................................................................................................................................................................................
....................................................O.....................................................................................................................................................................................................................................................................................................................................
..................OOO...............................OO....................................................................................................................................................................................................................................................................................................................................
.................OO.OO...................O.....OO....OO...................................................................................................................................................................................................................................................................................................................................
.................OO.OO...................O.O...OO....OOO..................................................................................................................................................................................................................................................................................................................................
.................OOOOO.......OO...........O.O..OO....OO...................................................................................................................................................................................................................................................................................................................................
................OO...OO......OO...........O..O......OO.......OO...........................................................................................................................................................................................................................................................................................................................
..........................................O.O.......O........O.O..........................................................................................................................................................................................................................................................................................................................
.........................................O.O...................O..........................................................................................................................................................................................................................................................................................................................
.........................................O.....................OO.........................................................................................................................................................................................................................................................................................................................
.................OO.......................................................................................................................................................................................................................................................................................................................................................................
...................OO.....................................................................................................................................................................................................................................................................................................................................................................
...................OO.....................................................................................................................................................................................................................................................................................................................................................................
