!Name: 56et4be4.rle
!Author: Mark D. Niemiec's life synthesis database, Thu Feb 19 02:05:23 2015
!
..O.O................................................................................O..............................................................................O..............................................................................O.................
...OO............................................................................OOO..........................................................................OOO..........................................................................OOO.......................
...O..............................................................................O..............................................................................O..............................................................................O....................
.................................................................................OO............................................................................OO............................................................................OO......................
OOO..................................................................................................................................................................................................................................O...............................
..O...................................................................................................................................................................................................................................O..............................
.O..................................................................................................................................................................................................................................OOO..............................
................................................................................................................................................................................................................................OOO..................................
...............................................................................................................................................................OO.............................................................O......OO......OO......................
................................................................................O.O............................................................................O.O...........................................................O......O.O......O.O.....................
...............................................................................OO............OO.............................................................OO...........OO.....................................................O.......OO...........OO..............
...........................................................................O....O.............O..............................................................................O..............................................................................O........
...............OO..........................................................O...............O.O...........................................................................O.O...........................................................................O.O...........
..............OO.........................................................OOO..OO...........OO............................................................................OO.........................................................OO........OO.....OO..............
...........OO...O..............................................................O.O....................................................................................OO..................................................................O.O.......O.O..............
..........O.O....................................................................O...............................................................................OOO.OO....................................................................OO........OO..............
............O......................................................................................................................................................O...O.............................................................................................
..................................................................................................................................................................O..................................................................................................
.................................................................................................................................................................................................................................................OO..................
...................................................................................................................................................................OO............................................................................O.O.................
...................................................................................................................................................................O.O............................................................................OO.................
...................................................................................................................................................................O.................................................................................................
......................................................................................O..............................................................................O..............................................................................O................
....................................................................................OOO..........................................................................OOO..........................................................................OOO....................
...................................................................................O..............................................................................O..............................................................................O...................
...................................................................................OO............................................................................OO............................................................................OO....................
.............................................................................OO............................................................................OO............................................................................OO..........................
.............................................................................OO..OO......................................................................OO..OO......................................................................OO..OO..........................
...........................................................................OO....O.O...................................................................OO....O.O...................................................................OO....O.O.........................
...........................................................................OO.....OO...........OO....................................................OO.....OO...........OO....................................................OO.....OO...........OO................
...............................................................................................O..............................................................................O..............................................................................O.......
.............................................................................................O.O...........................................................................O.O...........................................................................O.O.........
......................................................................................OO.....OO.......................................................OO........OO.....OO.......................................................OO........OO.....OO..................
............................................................................OO........O.O...............................................................O.O.......O.O...............................................................O.O.......O.O....................
.......................................................................OOO.OO..........OO................................................................OO........OO................................................................OO........OO....................
.........................................................................O...O.......................................................................................................................................................................................
........................................................................O............................................................................................................................................................................................
...............................................................................................................................................................................................................................................OO....................
.........................................................................OO......................................................................................OO............................................................................O.O...................
.........................................................................O.O................................................................................OOO.OO..............................................................................OO...................
.........................................................................O....................................................................................O...O..................................................................................................
.............................................................................................................................................................O........................................................................................OOO............
........................................................................................................................................................................................................................................................O............
..............................................................................................................................................................OO.......................................................................................O.............
..............................................................................................................................................................O.O....................................................................................................
..............................................................................................................................................................O...........................................................................................OO.........
..........................................................................................................................................................................................................................................................O.O........
..........................................................................................................................................................................................................................................................O..........
........................................................................................................................................................................................................................................................OO...........
.......................................................................................................................................................................................................................................................O.O...........
.........................................................................................................................................................................................................................................................O...........
........................................................................................................................................................................................................................................O............................
.......................................................................................................................................................................................................................................O.............................
.......................................................................................................................................................................................................................................OOO...........................
.......................................................................................................................................................................................................................O.............................................
........................................................................................................................................................................................................................O............................................
......................................................................................................................................................................................................................OOO....................O.......................
............................................................................................................................................................................................................................................O........................
............................................................................................................................................................................................................................................OOO......................
..............................................................................................................................................................................................................O......................................................
............................................................................................................................................................................................................O.O......................................................
.............................................................................................................................................................................................................OO......................................................
....................................O..................................................................................................O..................................................................................................O..........................
..................................OOO..............................................................................................OOO..............................................................................................OOO..............................
.................................O..................................................................................................O..................................................................................................O.............................
.................................OO................................................................................................OO................................................................................................OO..............................
...........................OO................................................................................................OO................................................................................................OO....................................
...........................OO..OO............................................................................O.............OO..OO..........................................................................................OO..OO.......................O............
.........................OO....O.O............................................................................OO.........OO....O.O.......................................................................................OO....O.O......................O.O..........
.........................OO.....OO...........OO............................................................OO..........OO.....OO...........OO........................................................................OO.....OO...........OO.........OO...............
.............................................O..................................................................................................O..................................................................................................O.................
.........O.................................O.O...............................................................................................O.O...............................................................................................O.O...................
.......O.O................OO........OO.....OO...........................................................................OO........OO.....OO..................................................OO.......................OO........OO.....OO.................O..........
........OO................O.O.......O.O...................................................................................O.O.......O.O.........................................................O.O.......................O.O.......O.O.......................O.O....
...........................OO........OO....................................................................................OO........OO.........................................................O.................OO.....OO........OO.......................OO.......
.........O.................................................................................................OO..........................................................................................................O.O...........................................
.........OO...............................................................................................O..O..........................................................................................................O............................................
........O.O....................OO.....OO..............................................................O..O...................OO.....OO.............................................................OO.........OO...........OO.....OO.................................
...............................O.O....OO..........................................................OOO..OO....................O.O....OO..............................................................O.O......................O.O....OO...............................
................................OO..OO................................................................O.........................OO..OO..................................................................O.......................OO..OO...............................
....................................OO.................................................................O..............................OO................................................................................................OO...........................
....................................................................................................................................................................................................................................OO...............................
......................................................................................................................................................................................................................................O..............................
.................................................................................................................................................................................................................................OOO.................................
...................................................................................................................................................................................................................................O.................................
..................................................................................................................................................................................................................................................................OO.
.........................................................................................................................................O........................................................................................................................O.O
........................................................................................................................................OO........................................................................................................................O..
........................................................................................................................................O.O..........................................................................................................................
..............................................................................................................................OO.....................................................................................................................................
............................OO...............................................................................................O..O....................................................................................................................................
.............................OO.OOO..........................................................................................O..O....................................................................................................................................
............................O...O.............................................................................................OO................................................................................................OOO..................................
.................................O..................................................................................................................................................................................................O................................
..............................................................................................................................OO...................................................................................................O....................OOO..........
.............................................................................................................................O.O........................................................................................................................O............
...............................................................................................................................O.........................................................................................................................O...........
.......................................................................................................................................................................................................................................OOO...........................
.........................................................................................................................................................................................................................................O...........................
........................................................................................................................................................................................................................................O............................
......................................................................................O..............................................................................O..............................................................................O................
....................................................................................OOO..........................................................................OOO..........................................................................OOO....................
.........................................................................O.........O..............................................................................O..............................................................................O...................
........................................................................O..........OO............................................................................OO...........................................................O................OO....................
........................................................................OOO........................................................................................................................................................OO................................
..................................................................................................................................................................................................................................OO.................................
.........................................................................OOO.........................................................................................................................................................................................
...........................................................................O...............................................................................OO............................................................................OO..........................
..........................................................................O......OO.....................................................................O.O..OO.....................................................................O.O..OO..........................
.................................................................................O.O......................................................................O...O.O......................................................................O...O.O.......................
.............................................................................O....OO...........OO.............................................................OO...........OO.............................................................OO...........OO............
............................................................................OO.................O..............................................................................O..............................................................................O.......
............................................................................O.O..............O.O...........................................................................O.O...........................................................................O.O.........
......................................................................................OO.....OO...................................................................OO.....OO...................................................................OO.....OO..............
......................................................................................O.O...........................................................................O.O...........................................................................O.O................
.......................................................................................OO............................................................................OO...........................................................O................OO................
.....................................................................................................................................................................................................................................OO..............................
.................................................................................................................................................................................................................................O...O.O.............................
................................................................................................................................................................................................................................OO....................OO.............
...............................................................................................................................................................................................................................OO....................O.O.............
.......................................................................................................................................................................................................................................................O.............
..............................................................................................................................................................O......................................................................................................
...............................................................................................................................................................O.....................................................................................................
.............................................................................................................................................................OOO.....................................................................................................
.................................................................................................................................................................OOO.................................................................................................
...................................................................................................................................................................O....OOO..........................................................................................
..................................................................................................................................................................O.....O............................................................................................
.........................................................................................................................................................................O...........................................................................................
......................................................................................O..............................................................................O..............................................................................O................
....................................................................................OOO..........................................................................OOO..........................................................................OOO....................
...................................................................................O..............................................................................O..............................................................................O...................
...................................................................................OO............................................................................OO............................................................................OO....................
.............................................................................OO............................................................................OO............................................................................OO..........................
............................................................................O.O..OO.....................................................................O.O..OO.....................................................................O.O..OO..........................
...........................................................................O.O...O.O...................................................................O.O...O.O...................................................................O.O...O.O.........................
...........................................................................OO.....OO...........OO....................................................OO.....OO...........OO....................................................OO.....OO...........OO................
...............................................................................................O..............................................................................O..............................................................................O.......
.............................................................................................O.O...........................................................................O.O...........................................................................O.O.........
......................................................................................OO.....OO.......................................................OO........OO.....OO.......................................................OO........OO.....OO..................
............................................................................OO........O.O...............................................................O.O.......O.O...............................................................O.O.......O.O....................
.......................................................................OOO.OO..........OO................................................................OO........OO................................................................OO........OO....................
.........................................................................O...O.......................................................................................................................................................................................
........................................................................O............................................................................................................................................................................................
........................................................................................OO............................................................................OO...................................................................OO.....OO.................
.........................................................................OO............O.O.....................................................................OO....O.O...................................................................O.O...O.O.................
.........................................................................O.O............O..................................................................OOO.OO......O......................................................................OO....O................
.........................................................................O....................................................................................O...O..................................................................................................
.............................................................................................................................................................O.......................................................................................................
..............................................................................................................................................................OO.....................................................................................................
..............................................................................................................................................................O.O..............................................................................O.....................
..............................................................................................................................................................O.................................................................................OO...................
...............................................................................................................................................................................................................................................OO....................
............................................................................................................................................................................................................................................................O........
..............................................................................................................................................................................................................................................O............OO........
.............................................................................................................................................................................................................................................OO............O.O.......
.............................................................................................................................................................................................................................................O.O.....................
...............................................................................................................................................................................................................................................O.O...................
...............................................................................................................................................................................................................................................OO....................
................................................................................................................................................................................................................................................O....................
..........................................................................................................................................................................................................................................O..........................
..................................................................O..................................................................................................O................................................................O.O...........O................
................................................................OOO..............................................................................................OOO...............................................................OO.........OOO....................
...............................................................O..................................................................................................O..............................................................................O...................
...............................................................OO................................................................................................OO............................................................................OO....................
....................................................................................................................................................................................................................................O................................
.....................................................................................................................................................................................................................................O...............................
...................................................................................................................................................................................................................................OOO...............................
.........................................................OO................................................................................................OO............................................................................OO..........................
........................................................O.O..OO............................................................................O............O.O..OO.....................................................................O.O..OO..........................
.......................................................O.O...O.O............................................................................OO.........O.O...O.O...................................................................O.O...O.O.........................
.......................................................OO.....OO...........OO............................................................OO..........OO.....OO...........OO....................................................OO.....OO...........OO................
...........................................................................O..................................................................................................O...............................................OO.............................O.......
.......................................O.................................O.O...............................................................................................O.O...............................................OO..........................O.O.........
.....................................O.O................OO........OO.....OO...........................................................................OO........OO.....OO...........................................O...........OO........OO.....OO..................
......................................OO................O.O.......O.O...................................................................................O.O.......O.O...............................................................O.O.......O.O....................
.........................................................OO........OO....................................................................................OO........OO.......................................................OO.....OO........OO...........O..........
.......................................O.................................................................................................OO......................................................................................O.O..........................OO.....
.......................................OO...............................................................................................O..O......................................................................................O.............................OO...
......................................O.O....................OO.....OO..............................................................O..O...................OO.....OO....................................................OO...........OO.....OO.......................
.............................................................O.O...O.O..........................................................OOO..OO....................O.O...O.O...................................................................O.O...O.O.....................
..............................................................OO..O.O...............................................................O.........................OO..O.O.....................................................................OO..O.O....................
..................................................................OO.................................................................O..............................OO............................................................................OO.................
...............................................................................................................................................................................................................................................................OOO...
...............................................................................................................................................................................................................................................................O.....
................................................................................................................................................................................................................................................................O....
..............................................................................................................................................................................................................................................OO.....................
................................................................................................................................................................................................................................................O....................
...........................................................................................................................................................................................................................................OOO.........OO............
.............................................................................................................................................................................................................................................O...........O.O.........
..........................................................................................................................................................................................................................................................O..........
....................................................................................................................................................................................................................................................O................
.......................................................................................................................................................................O............................................................................OO...............
......................................................................................................................................................................OO...........................................................................O.O...............
......................................................................................................................................................................O.O............................................................................................
............................................................................................................................................................OO.......................................................................................................
..........................................................OO...............................................................................................O..O......................................................................................................
...........................................................OO.OOO..........................................................................................O..O......................................................................................................
..........................................................O...O.............................................................................................OO.......................................................................................................
...............................................................O.....................................................................................................................................................................................................
............................................................................................................................................................OO.......................................................................................................
...........................................................................................................................................................O.O.......................................................................................................
.............................................................................................................................................................O.......................................................................................................
