!Name: sawtooth6
!CThis is an updated version of a sawtooth pattern originally
!Cbuilt by David Bell on 29 Aug 1992.
!C
!CThere are two phases in the sawtooth's operation.
!C
!CIn the first phase, a stream of gliders travels to the receding
!CCordership and are reflected back.  The density of the returning
!Cstream is 1/2 that of the outgoing stream.  The population is at
!Cthe new maximum at about the time that the first glider in the
!Cstream returns so that the streams are full.
!C
!CIn the second phase, each returning glider impacts into an
!Coutgoing glider to create an eater, which deletes the following
!Coutput glider. This cuts off the output stream, which then
!Cempties until there are no more gliders left.  The population is
!Cat its minimum (again) at around the time that the last glider in
!Cthe stream is used up so that the streams are empty.
!C
!CBy David Bell, 25 Apr 2002
!C[Updated to use smaller Cordership, 6/2004]
!
.....................................................................................................O...............................
.........................................................................................O...........OOO.............................
.......................................................................................OOO..............O.......................OO...
.......................................................................O..............O................OO.......................O....
.......................................................................OOO............OO......................................O.O....
..........................................................................O.......OO......................................OO..OO.....
.........................................................................OO.......O.......................................OO.........
.........................................................................................O....................O..O...................
...................................................................................OO.....O...................O...O..................
..........................................................................OO..............OO.................O....O..................
..........................................................................OO.......OO....OO..OO..............O....O..................
.........................................................................................O...OO..............O...O...................
....................................................................................O.........................O.O....................
..........................................................................................OO....................................OO...
..........................................................................................O...................OO................O.O..
............................................................................................O................O.O..................O..
...........................................................................................OO................O.............O......OO.
.......................................................................................OO...................OO....OO......OO.........
.......................................................................................O........................O..O.....O..O........
........................................................................................OOO.....................OO.......O.O.........
.............................................................................OOO..........O...............................OO.........
............................................................................O..O.....................................................
................................................................................O....................................................
............................................................................OO.......................................................
.......................................................................OO...OO...O...................................................
......................................................................O.O........O...................................................
......................................................................O........O.....................................................
.....................................................................OO......OOO.....................................................
.............................................................................OO....................................................OO
.............................................................................O.....................................................O.
................................................................................O................................................O.O.
............................................................................OOOOOO...............................................OO..
...........................................................................OOOOO.....................................................
...........................................................................O...O.....................................................
............................................................................OOO.O....................................................
............................................................................O.OOO..............................O.....................
................................................................................O.......OO.....................OOO...................
...........................................................................OOO........O..O........................O......OO..........
..............OO......................................................................OO....OO...................OO.....O.O..........
..............OO......................................................OO....................O................OO...........O..........
.......................................................................O..................O.O................O........O..............
.......................................................................O.O................OO...................O.....O...............
........................................................................OO....................................OO.....O..OO...........
......................................................................................................................OOO............
..............................................................................OO...OO........................O.........O.............
.............O.O..........OOO................................................O.O..O.O.......................O.OO.....................
......OO.....O.O..........O...........................................OO.....O....O........................OO...O....................
......OO......OOOO.........O..........................................OO.....O..O..O...................OO...O........................
................OO....O.O.....................................................OOO.......................OO..O...O....................
................OO....OOOO.............................................O.............................OO.O...O.................OO.....
.......................O.OO...........................................O.O............................O......O.................OO.....
.......................O..O..........................................O..O.....................O......O.O.............................
......................O...O.........................................O..O.......................O......OO....O.O......................
.........................O...................................................................OOO.............O.................OO....
......................OO............................................O..O.......................................................O.....
......................................................................OO..........................................OO............OOO..
.................................................................................................OO................O..............O..
.................................................................................................O..............OOO..................
..................................................................................................OOO...........O....................
.................OO..............................................................OO.................O................................
....O...........O..O.............................................................O...................................................
...OOO......O...O.................................................................OOO................................................
...OOO.....O...OOOOO................................................................O................................................
OOO.......O......O...................................................................................................................
...........OO...O....................................................O...............................................................
...............OO..................................................OO............OO..................................................
....................................................................OO...............................................................
..........................OOO...................................................O...O................................................
...............................................................................O....O................................................
........................O...O.....O...........................................O.O.O..................................................
........................OOOO......O....OOO...................................O.O.O...................................................
........................O..............O...................................O....O....................................................
.......................................O..O................................O...O.....................................................
........................................O..O.........................................................................................
.........................................O.......OO.......................O..OO......................................................
...............................................OOO.O.....................O.O.........................................................
....................................OO.....O...O...OO....................OO..........................................................
....................................OO......O..OO.O..........................OO......................................................
......................................................O......................O.O.....................................................
......................................................OO................OO.....O.....................................................
.....................................................O....OO....OO......OO.....OO....................................................
.......................................................OO..O....OO...................................................................
.........................................................OO..........................................................................
.........................................................O...........................................................................
........................................................OO...........................................................................
...............................................OO.......OO...........................................................................
..................................O...........O..O...................................................................................
.................................OOO......O...O......................................................................................
.................................OOO.....O...OOOOO...................................................................................
..............................OOO.......O......O.....................................................................................
.........................................OO...O......................................................................................
.............................................OO......................................................................................
