!Name: stretch-c2
!Cc/2 wickstretcher
!CLeft part by Jason Summers, 16 Sep 00
!CRight part by Dean Hickerson, 28 Oct 02
!CBottom: a smaller version by Hartmut Holzwart, May '05
!
..............O......................................................
OOOO.........O.O.....................................................
O...O.......O..OO....................................................
O........OO.OOO.O....................................................
.O..O...O........OO..................................................
.......OO...O........................................................
.....OOOOOOO......O..................................................
.....O..O............................................................
......OOO............................................................
OOOOO.OOOO.....OO....................................................
O....OO..O....OO.OOOO................................................
O.....O........OOOOOO................................................
.O....O.........OOOO.................................................
...OO.O....OO........................................................
.....OOO..O..........................................................
.......O..O.......OO......................O..........................
.........OO......OOO....................OOO........O.O.......OO......
OOOO.....O......OOO....................O.......OO.O.OO..O...O..O..OO.
O...O......OO....OO.................OO..OOOOO..O.OO.....OOO..OO.O..O.
O............OOOOO..O.O.............O.OO.....O.O....OOOO...OO...O.O..
.O..O..........OO..O....................O.O.O.O.OOOO....OOO..OOOO.OO.
....................O.OO................O...O.O......OO....O....O.O..
.....................O.O..OO....O.OO.O..O.OO...O.O.OOOO....O.OOOO.O..
.......................OO...O....O.OOO.OOOO.O.OO.O..O.O....O.....O...
..........................OOO.OO.OO.O.........O...O......OOOOOOOO....
..........................OOO.OO.OO.O.........O...O......OOOOOOOO....
.......................OO...O....O.OOO.OOOO.O.OO.O..O.O....O.....O...
.....................O.O..OO....O.OO.O..O.OO...O.O.OOOO....O.OOOO.O..
....................O.OO................O...O.O......OO....O....O.O..
.O..O..........OO..O....................O.O.O.O.OOOO....OOO..OOOO.OO.
O............OOOOO..O.O.............O.OO.....O.O....OOOO...OO...O.O..
O...O......OO....OO.................OO..OOOOO..O.OO.....OOO..OO.O..O.
OOOO.....O......OOO....................O.......OO.O.OO..O...O..O..OO.
.........OO......OOO....................OOO........O.O.......OO......
.......O..O.......OO......................O..........................
.....OOO..O..........................................................
...OO.O....OO........................................................
.O....O.........OOOO.................................................
O.....O........OOOOOO................................................
O....OO..O....OO.OOOO................................................
OOOOO.OOOO.....OO....................................................
......OOO............................................................
.....O..O............................................................
.....OOOOOOO......O..................................................
.......OO...O........................................................
.O..O...O........OO..................................................
O........OO.OOO.O....................................................
O...O.......O..OO....................................................
OOOO.........O.O.....................................................
..............O......................................................
..........OO.........................................................
.........OOOO........................................................
........OO.OO........................................................
.........OO..........................................................
..............O......................................................
..............O......................................................
.......OO............................................................
......OO.OOOOOOOO....................................................
.......OOOOOOOOOO....................................................
........OOO...OO.....................................................
............O........................................................
..........O..O..................................................O....
........OO...O..................................................OO.OO
.......OOO..O............................................O.O.OO...OOO
......OO.OO.O..........................................OO.O.OO....OO.
.......O....OO....O.....O.....O.....O.....O.....O.....O.....O........
........OOO...O....OO....OO....OO....OO....OO....OO.....O..OOO.......
..........O..OO.OO.OO.OO.OO.OO.OO.OO.OO.OO.OO.OO.OO.OOO..............
..........O..OO.OO.OO.OO.OO.OO.OO.OO.OO.OO.OO.OO.OO.OOO..............
........OOO...O....OO....OO....OO....OO....OO....OO.....O..OOO.......
.......O....OO....O.....O.....O.....O.....O.....O.....O.....O........
......OO.OO.O..........................................OO.O.OO....OO.
.......OOO..O............................................O.O.OO...OOO
........OO...O..................................................OO.OO
..........O..O..................................................O....
............O........................................................
........OOO...OO.....................................................
.......OOOOOOOOOO....................................................
......OO.OOOOOOOO....................................................
.......OO............................................................
..............O......................................................
..............O......................................................
.........OO..........................................................
........OO.OO........................................................
.........OOOO........................................................
..........OO.........................................................
