!Name: p008
!Source: ptpuffer
!
...........................................................................................OOO.OOO...........................................................................................
..........................................................................................O..O.O..O..........................................................................................
.........................................................................................O...O.O...O.........................................................................................
.........................................................................................O.........O.........................................................................................
...........................................................................................O.....O.........................................................................OOO...........OOO.
........................................................................................O.O.......O.O......................................................................O..O.........O..O.
.......................................................................................OO.O.OO.OO.O.OO.....................................................................O......OOO......O.
......................................................................................O.O.O..O.O..O.O.O....................................................................O.....O...O.....O.
.....................................................................................OO.O....O.O....O.OO....................................................................O.O.O.....O.O.O..
....................................................................................O...O.OO.O.O.OO.O...O.......................................................................OO.O.OO......
............O...O.....................................O...O...............................OOO...OOO............................................................................O.O...O.O.....
...........OOO.OOO...................................OOO.OOO........................OO.OO.OO.....OO.OO.OO.....................................................................OO.......OO....
..........OO.O.O.OO.................................OO.O.O.OO......................O.....................O...................................................................OOO.O...O.OOO...
.........OO.......OO...............................OO.......OO......................O...O..O.....O..O...O....................................................................OO...O.O...OO...
..........O.......O.................................O.......O..........................O...O.....O...O.......................................................................OO.OO...OO.OO...
.........OO.......OO...............................OO.......OO...........................O.........O............................................................................OO.O.OO......
.......OO.O.O...O.O.OO...........................OO.O.O...O.O.OO........................O...........O.......................................................................O.....O.O.....O..
........O.O.OO.OO.O.O.............................O.O.OO.OO.O.O........................OO.OO.....OO.OO......................................................................OOO.........OOO..
.....OO.O..O.O.O.O..O.OO.......................OO.O..O.O.O.O..O.OO....................O.O.O.......O.O.O.....................................................................OOOOOOOOOOOOOOO..
.....OO.O.OO.O.O.OO.O.OO.......................OO.O.OO.O.O.OO.O.OO...................OO.O.O.OO.OO.O.O.OO.....................................................................OOOO.....OOOO...
.....O..O....O.O....O..O.......................O..O....O.O....O..O..................O...O.O..O.O..O.O...O.......................................................................OOOOOOO......
....OO..O.OO.O.O.OO.O..OO.....................OO..O.OO.O.O.OO.O..OO..........................O.O.................................................................................O.O.O.......
........................O.....................O...................O.................OO.OO.OO.O.O.OO.OO.OO..................................................................OOO...........OOO.
.......................O.O...................O.O.................O.O.........................O.O..........................................................................O..O...........O..O
..........................O.................O.......................O................O...O.........O...O.....................................................................O...........O...
........................O.....................O...................O..................O..O...........O..O..................................................................O.O..O.......O..O.O
........................O.OO...............OO.O...................O.OO....................OOO...OOO..........................................................................OO.O.....O.OO...
.......................OO...O.............O...OO.................OO...O.............OO......O...O......OO....................................................................OO.OO...OO.OO...
.............OOO........O..O...............O..O........OOO........O..O.............O..O...............O..O.......................................................................O...O.......
............O...O....OO.........................OO....O...O....OO..................O.O......OO.OO......O.O.................................O..OOO............................OOOO.O.O.OOOO...
.......OOO.O.....O...OO.OO...................OO.OO...O.....O...OO.OO..............OO.....................OO...................O..........OO.OOO..O..........................O.....O.O.....O..
......O..OOO.....O....OOOO...................OOOO....O.....O....OOOO..............O.O.....OOOOOOOOO.....O.O..................OOO.OO.....O...O.O...O..........................OOO..O.O..OOO...
.....O...O.O.OOO.O.OO....OO.................OO....OO.O.OOO.O.OO....OO...............OO..OO.O.....O.OO..OO...................OO...O.OO..OO.O.O.....O........................O......O.O......O.
.....O.....O.O.O.O.OO.O.........................O.OO.O.O.O.O.OO.O...................O.OOO...........OOO.O..................OO..O....OOO.O...O...O.........................O..OOOO.O.O.OOOO..O
.......O...O.....O.OOOOO.......................OOOOO.O.....O.OOOOO....................O.O.O...O...O.O.O.....................O.....O.O.O..O.O.....O.O.......................O..OOOO...OOOO..O.
....O.O.....O....O....OO.......................OO....O.....O....OO....................O.O...........O.O....................OO.......O.O.......OO.O.OO.....................OO...............OO
...OO.O.OO......O..O...............................O..O...O..O.......................O...O.........O...O.................OO.O.O....O...O......OO.O.O.O..........................OO...OO......
..O.O.O.OO................................................................................................................O.O.OO..............O..O...OO........................O..O.O..O.....
.OO...O..O......O..O...............................O..O...O..O.......................O.................O...............OO.O.O...O......O.....OO..O.O...O.......................O..O.O..O.....
O...O.O..OO.....O..O...............................O..O...O..O.......................O..O...........O..O...............OO...O.......O..O............O.........................O.O.O.O.O.O....
...O.............OO.................................OO.....OO.........................OO.............OO................OOO.O...OO....OO...............OO.....................OOO..O.O..OOO...
OO....................................................................................................................OO........................................................O.O.O.O......
............................................................................................................................................................................O.....O.O.....O..
.................OO.................................OO.....OO.........................OO.............OO..............................OO.....................................O....O...O....O..
.................OO.................................OO.....OO.........................OO.............OO..............................OO......................................OOO.......OOO...
.................OO.................................OO.....OO.........................OO.............OO..............................OO.......................................OO.......OO....
.................OO.................................OO.....OO.........................OO.............OO..............................OO.......................................OO.......OO....
.................OO.................................OO.....OO.........................OO.............OO..............................OO.......................................OO.......OO....
.................OO.................................OO.....OO.........................OO.............OO..............................OO.......................................OO.......OO....
.................OO.................................OO.....OO.........................OO.............OO..............................OO.......................................OO.......OO....
.................OO.................................OO.....OO.........................OO.............OO..............................OO.......................................OO.......OO....
.................OO.................................OO.....OO.........................OO.............OO..............................OO.......................................OO.......OO....
.................OO.................................OO.....OO.........................OO.............OO..............................OO.......................................OO.......OO....
.................OO.................................OO.....OO.........................OO.............OO..............................OO.......................................OO.......OO....
.................OO.................................OO.....OO.........................OO.............OO..............................OO.......................................OO.......OO....
.................OO.................................OO.....OO.........................OO.............OO..............................OO.......................................OO.......OO....
.................OO.................................OO.....OO.........................OO.............OO..............................OO.......................................OO.......OO....
