!Name: p030
!Source: ptpuffer
!
...........................................................OOO.OOO............................................................
..........................................................O..O.O..O...........................................................
.........................................................O...O.O...O..........................................................
.........................................................O.........O..........................................................
...........................................................O.....O............................................................
........................................................O.O.......O.O.........................................................
.......................................................OO.O.OO.OO.O.OO........................................................
.....................................................OO.O.O..O.O..O.O.OO......................................................
......................................................O.O....O.O....O.O.......................................................
...................................................OO.O.O.OO.O.O.OO.O.O.OO....................................................
...................................................OO.O.O.OOO...OOO.O.O.OO....................................................
...................................................O.O...O..OO.OO..O...O.O....................................................
..................................................OO.OO.OO.........OO.OO.OO...................................................
..................................................O.......................O...................................................
..................................................OOOO.OOO.........OOO.OOOO...................................................
.................................................OO.......................OO..................................................
.....................................................OOO.............OOO......................................................
......................................................O...............O.......................................................
.....................................................O.O.............O.O......................................................
......................................................OOO...........OOO.......................................................
.....................................................O.................O......................................................
.........................................................OO.......OO..........................................................
.....................................................OO....OO...OO....OO......................................................
.........................................................O..O...O..O..........................................................
..........................................................O.......O...........................................................
.......................................................OO.O.OO.OO.O.OO........................................OOO.............
.......................................................OO.O.......O.OO.......................................O...O............
.......................................................O..O.O...O.O..O..................................OOO.O.....O.OOO.......
......................................................OO.O.........O.OO................................O..O.O.....O.O..O......
........................................................OO.O.....O.OO.................................O...O.O.OOO.O.O...O.....
......................................................OO....O...O....OO...............................O.......O.O.......O.....
.......................................................OO..O.....O..OO..................................O.............O.......
........................................................O...........O................................O.O.....OO.OO.....O.O....
.......................................................O...OO...OO...O..............................OO.O.OO.........OO.O.OO...
..........................................................O..O.O..O................................O.O.O.OO.........OO.O.O.O..
.....................................................OO...O.O...O.O...OO..........................OO...O..O.........O..O...OO.
.....................................................OO..OO.......OO..OO.........................O...O.O..OO.......OO..O.O...O
.....................................................O...O.O.....O.O...O............................O......O.......O......O...
....................................................OO.....OO...OO.....OO........................OO.......O.O.....O.O.......OO
....................................................O....O.O..O..O.O....O..................................OOO...OOO..........
....................................................OOOOO.OO.O.O.OO.OOOOO....................................OO.OO............
...................................................OO..OOOO..O.O..OOOO..OO...................................O...O............
............................................................O...O............................................OOOOO............
..........................................................OOOO.OOOO.......................................OO.O...O.OO.........
.......................................................O.OO.......OO.O..................................OO.O.O...O.O.OO.......
......................................................OO.O...OOO...O.OO................................O...O.O.O.O.O...O......
.....................................................O...O.........O...O..............................OO.O.O.......O.O.OO.....
.............................................................OOO....................................OO.O...O.......O...O.OO...
.....................................................OO.OO..OO.OO..OO.OO.............................O.O...............O.O....
..................................................................................................OO.O.O..O...OOO...O..O.O.OO.
......................................................O...OO.O.O.OO...O...........................OO.O.O.OO..O...O..OO.O.O.OO.
......................................................O.......O.......O...........................O.O...O.O.O.....O.O.O...O.O.
............................................................O.O.O................................OO.OO.OO.O.O.....O.O.OO.OO.OO
....................................................OO.................OO.................................O.O.OOO.O.O.........
....................................................OO.......O.O.......OO........................OOO.OOO.O..O.O.O.O..O.OOO.OOO
....................................................O........O.O........O...................................O.....O...........
...................................................OO.........O.........OO.................................OO.....OO..........
...................................................O........O.O.O........O........................OO.......O.O...O.O.......OO.
........O....O....O...............................O.O......OOO.OOO......O.O........................O........OOO.OOO........O..
.......OOO.OO.OO.OOO.......................................O.OOO.O................................O.O........O...O........O.O.
......OOOO.......OOOO................................OOO..OO.....OO..OOO...........................OOO........O.O........OOO..
.....OO..OO.O.O.OO..OO..............................OO.OO....O.O....OO.OO............................OO......O...O......OO....
......O.............O...............................OOOO.O..O...O..O.OOOO............................O...................O....
.....OO.............OO...............................................................................OO......OO.OO......OO....
...OO.O.OO.......OO.O.OO.............................O.....OO...OO.....O...........................O.O.OO...O.....O...OO.O.O..
....O.O..OO.....OO..O.O..............................O.O.....O.O.....O.O..........................OO.O.O.....O...O.....O.O.OO.
.OO.O..O..O.....O..O..O.OO..............................OO..O...O..OO............................O...O.O.OO....O....OO.O.O...O
.OO.O.....OO...OO.....O.OO.........................OO.O...O.......O...O.OO.............................O.O.O..OOO..O.O.O......
.O.O...................O.O.........................OO.O.O.OO.....OO.O.O.OO.......................OO.OO.O.O.OO.....OO.O.O.OO.OO
OO.OO.................OO.OO........................O....O...O...O...O....O.................................O.O...O.O..........
..................................................OO.........O.O.........OO.......................O...OO...O.......O...OO...O.
OOO.OOO.............OOO.OOO.......................O..........O.O..........O.......................O...........OOO...........O.
......OO...........OO.............................OOOOOOOOOO.O.O.OOOOOOOOOO................................O.......O..........
.......O.....O.....O.............................OO..OOOOO.O.O.O.O.OOOOO..OO......................OO......OO.......OO......OO.
..OO...OO...OOO...OO...OO....................................O.O.................................O.......O...........O.......O
...OO......OOOOO......OO.....................................O.O..................................O...........OOO...........O.
...OOO....OO...OO....OOO..............................OOO...OO.OO...OOO.............................OO...OO..O...O..OO...OO...
....O.OOO.O..O..O.OOO.O..............................O...O.........O...O...........................OO.OO....O.....O....OO.OO..
......O.O.O.O.O.O.O.O.......................................OO.OO.......................................OO.OO.....OO.OO.......
.....O....O.O.O.O....O.............................................................................O..O.O.O.O.OOO.O.O.O.O..O..
..........O.....O....................................O...O.........O...O................................O.O.O.O.O.O.O.O.......
........O..O...O..O...................................OOO...........OOO..............................OO...O.O.....O.O...OO....
...........OO.OO....................................................................................O........O...O........O...
.......O...OO.OO...O........................................OO.OO....................................O...................O....
........O..OO.OO..O.........................................OO.OO......................................OOO...........OOO......
.........OO.....OO......................................................................................O.O.........O.O.......
..........................................................................................................O.........O.........
..........................................................................................................O.........O.........
..................................................OO.....................OO.............................O.............O.......
.................................................O.........................O..................................................
..................................................OO.....................OO...................................................
..........................................................................................................O.........O.........
...........OO.OO............................................OO.OO........................................O.O.......O.O........
...........OO.OO............................................OO.OO.........................................O.........O.........
..........................................................................................................O.........O.........
...........OO.OO............................................OO.OO........................................O.O.......O.O........
...........OO.OO............................................OO.OO.........................................O.........O.........
..........................................................................................................O.........O.........
...........OO.OO............................................OO.OO........................................O.O.......O.O........
...........OO.OO............................................OO.OO.........................................O.........O.........
