!Name: p040
!Source: ptpuffer
!
.............................O....OO....O...............................................................................................O....O....O...................................................................................................
............................OOO.OO..OO.OOO.............................................................................................OOO.OO.OO.OOO..................................................................................................
...........................OOOO........OOOO...........................................................................................OOOO.......OOOO............................................................................OOO..OOO..OOO........
..........................OO..OO.O..O.OO..OO.........................................................................................OO..OO.O.O.OO..OO..........................................................................O...O.OOO.O...O.......
...........................O..............O...........................................................................................O.............O..........................................................................O......O.O......O......
..........................OO..............OO.........................................................................................OO.............OO.........................................................................O...OO.....OO...O......
........................OO.O.OO........OO.O.OO.....................................................................................OO.O.O.........O.O.OO.........................................................................O...........O........
.........................O.O..OO......OO..O.O.......................................................................................O.O.OO.......OO.O.O.......................................................................O.O.............O.O.....
......................OO.O..O..O......O..O..O.OO.................................................................................OO.O.O...O.....O...O.O.OO...................................................................OO.O.OOO.....OOO.O.OO....
......................OO.O.....OO....OO.....O.OO.................................................................................OO...O.............O...OO..................................................................O.O.O...O.....O...O.O.O...
.....................O..OO..O............O..OO..O................................................................................OOO.O...OO.....OO...O.OOO.................................................................OO.O.................O.OO..
......................O.O.O.OO..........OO.O.O.O................................................................................OO.........O...O.........OO...............................................................O...O.....OO...OO.....O...O.
............................O.O........O.O................................................................................................O.....O.....................................................................................O.O.............
...........................OO.OO......OO.OO............................................................................................OO.........OO......................................................................OO.OO......O...O......OO.OO.
...........................O..............O..........................................................................................OO.OO.......OO.OO............................................................................OO.......OO.........
..............................O.O....O.O............................................................................................O.................O..........................................................................OO.........OO........
..........................OO..O.OO..OO.O..OO.......................................................................................OO.O..O.......O..O.OO........................................................................OOO....O....OOO.......
.............................OO........OO.........................................................................................O.O.................O.O.....................................................................OO.O....OOO....O.OO.....
..............................O.O.OO.O.O.........................................................................................OO.O.OO.....O.....OO.O.OO...................................................................O.O.....OOOOO.....O.O....
...........................OO.O........O.OO.....................................................................................O...O.OO....OOO....OO.O...O.................................................................OO.O..O.OO...OO.O..O.OO...
............................O............O............................................................................................O....OOOOO....O......................................................................O.O.OO...O..O..O...OO.O.O..
.........................OO.O............O.OO...................................................................................OO.OO..OO.OO...OO.OO..OO.OO...............................................................OO.O.O.OO.O.O.O.O.OO.O.O.OO.
..........................O.......OO.......O..............................................................................................O..O..O........................................................................O...O.O..O.O.O.O.O.O..O.O...O
.......................OO.O...O.OO..OO.O...O.OO..................................................................................O...OO.O.O.O.O.O.O.OO...O........................................................................O.O.....O.O.........
.......................OO....OO........OO....OO..................................................................................O......O.O.O.O.O.O......O...............................................................OO.OO.OO.O.........O.OO.OO.OO
......................O..OO..O.O.O..O.O.O..OO..O.......................................................................................O..O.....O..O..............................................................................O.........O.........
.......................O.OO.O.O........O.O.OO.O..................................................................................OO.......OO...OO.......OO................................................................O...O.................O...O.
..........................O.O.O.OOOOOO.O.O.O.......................................................................................O.....O.O...O.O.....O..................................................................O..O.........O.........O..O.
.....................OO..O....O.O....O.O....O..OO................................................................................O..O...OOO.....OOO...O..O.....................................................................OOO....OOO....OOO......
.....................OO.......O........O.......OO.................................................................................O..O...O.......O...O..O.................................................................OO.....O...OOOOO...O.....OO.
......................O.........O.OO.O.........O.....................................................................................O..O.........O..O......................................................................O.......OO...OO.......O...
......................OO.....O..........O.....OO......................................................................................OOO..O...O..OOO.....................................................................O..O...OO.O..O..O.OO...O..O.
..............................O........O...........................................................................................OO.O.O.OO...OO.O.O.OO...................................................................O..O.....O.O.O.O.....O..O..
...................................................................................................................................OO...O.O.OOO.O.O...OO......................................................................O...O.O.O.O.O.O...O.....
............................O.OOO....OOO.O.........................................................................................OOO..O...O.O...O..OOO....................................................................O.OO.O...........O.OO.O...
............................O.O........O.O.......................................................................................OO......O..O.O..O......OO.................................................................OO.O.OO.O.O...O.O.OO.O.OO..
.................................................................................................................................O..OO.....OO.OO.....OO..O................................................................O...O....O..O.O..O....O...O.
.................................................................................................................................OOOO....OO.O.O.OO....OOOO.......................................................................O...O...O...O........
................................................................................................................................OO...O..O.O.O.O.O.O..O...OO...............................................................OO.OO.................OO.OO.
................................OO..OO..............................................................................................O...O...O.O...O...O.........................................................................OO...........OO.......
...............................O.O..O.O.............................................................................................OO...............OO....................................................................O...O...............O...O..
................................O....O.............................................................................................O.O..OO.OO.OO.OO..O.O...................................................................O.....O...........O.....O..
..................................................................................................................................OOO.................OOO........................................................................O...........O........
...................................................................................................................................O.....O...O...O.....O..................................................................OO.......O.......O.......OO.
..................................................................................................................................O......O...O...O......O................................................................O.......O.OO.....OO.O.......O
...................................................................................................................................O...................O..................................................................O.....OO.O.O...O.O.OO.....O.
.........................................................................................................................................OO.....OO..........................................................................OOO....O.OO.OO.O....OOO...
..................................................................................................................................OO.......O...O.......OO....................................................................OO..O.O.......O.O..OO....
..................................................................................................................................OOOOO...O.....O...OOOOO....................................................................O.O...O.O.O.O.O...O.O....
...........................OO............OO......................................................................................OO..O..OOOOOOOOOOO..O..OO.........................................................................O.......O..........
..........................O..O..........O..O........................................................................................O...O...O.O...O...O.....................................................................O.....O.O.....O.O.....O...
..........................O.O............O.O.....................................................................................OO.O...O.........O...O.OO.................................................................OO.....O..O...O..O.....OO..
...........................O..............O........................................................................................OO.................OO...................................................................O.OOO.....O...O.....OOO.O..
............................OO..........OO.........................................................................................OOOOO.OO.....OO.OOOOO..................................................................OO.O.OO..O.......O..OO.O.OO.
............................O..O......O..O............................................................................................OO.OO..O..OO.OO........................................................................O..O...OO...OO...O..O....
......................................................................................................................................OO.OOOO.OOOO.OO.....................................................................OO.O..O.OO.O...O.OO.O..O.OO.
...........................OO...O....O...OO........................................................................................O.......O...O.......O....................................................................OO..O.O...O.O...O.O..OO...
............................O....O..O....O........................................................................................OO.........O.........OO...................................................................O.O.O.O.O.O.O.O.O.O.O.O...
.............................OO...OO...OO........................................................................................O........O.....O........O......................................................................O.O.O.O.O.O.O.O.......
................................OO..OO...................................................................................................OOOOOOOOO.............................................................................OO...O.O.O.O...OO......
.............................OOO......OOO........................................................................................OO.OOO..O.......O..OOO.OO........................................................................O..O...O..O.........
.............................O..........O...........................................................................................O.OO.O.......O.OO.O............................................................................OOO...OOO..........
..................................................................................................................................O....O.O.......O.O....O......................................................................O.OOO.O...O.OOO.O......
...........................OOO..........OOO........................................................................................O..O..O.OOOOO.O..O..O......................................................................OO.O..OOO.OOO..O.OO.....
............................O..OO....OO..O........................................................................................OO.....O..OOO..O.....OO.....................................................................O..OO.O.....O.OO..O.....
.............................OOO......OOO.........................................................................................O.O.....O.....O.....O.O.............................................................................................
..............................O........O...........................................................................................OOO...............OOO..............................................................................................
....................................................................................................................................O.......OOO.......O...............................................................................................
.....................................................................................................................................O......O.O......O................................................................................................
....................................................................................................................................O.................O...............................................................................................
...........................................................................................................................................O...O......................................................................................................
....................................................................................................................................OO....OO...OO....OO.......................................................................OO...............OO.....
...................................................................................................................................O..O..O.......O..O..O.....................................................................O..O.............O..O....
...................................................................................................................................O.O...............O.O......................................................................O.O.............O.O.....
..................................................................................................................................OO.....OO.....OO.....OO......................................................................O...............O......
................................OOOOOO............................................................................................O.O.................O.O.............................................................................................
...............................OOOOOOOO.............................................................................................OO...O...O...O...OO...............................................................................................
.............................O...OOOO...O..........................................................................................O...OO..OO.OO..OO...O..............................................................................................
.............................OO.OO..OO.OO............................................................................................O.O...........O.O................................................................................................
............................O...OO..OO...O..........................................................................................O..O.OO.O.O.OO.O..O...............................................................................................
............................O.OO......OO.O...........................................................................................O.O....O.O....O.O...........................................................................OO.........OO........
.............................OO........OO........................................................................................OOO.O.....O...O.....O.OOO......................................................................O..O.......O..O.......
..................................OO.............................................................................................O...O..O.........O..O...O......................................................................OO...........OO.......
......................O........................O........................................................................................OO.......OO............................................................................O...O.OO.OO.O...O......
....................OO........O........O........OO..............................................................................OO..O..O.O.......O.O..O..OO...................................................................OOOOO..OO.OO..OOOOO.....
.....................OO......O..........O......OO...................................................................................OO.O.OO.....OO.O.OO......................................................................O......O.....O......O....
.............................O....OO....O...........................................................................................OO.OO.........OO.OO....................................................................OOO...O..O.....O..O...OOO..
.............................OO.O....O.OO..........................................................................................OO.OO.OO.....OO.OO.OO..................................................................O.OO.....O.......O.....OO.O.
...............................OO....OO...................................................................................................................................................................................OO......OO.......OO......OO.
...................................................................................................................................OOO.OOO.......OOO.OOO........................................................................O....OO.OO....O.......
.....................................................................................................................................................................................................................................OO.OO............
..............................O........O............................................................................................OOOO...........OOOO...............................................................................................
..............................O........O..............................................................................................O.............O.................................................................................................
..............................O........O............................................................................................OOOO.....O.....OOOO...............................................................................................
...................................................................................................................................OO..OO...OOO...OO..OO..............................................................................................
..................................................................................................................................O........OOOOO........O.............................................................................................
.......................................................................................................................................O..OO...OO..O..................................................................................................
..................................................................................................................................OO....O.O..O..O.O....OO.............................................................................................
.................................................................................................................................O........O.O.O.O........O............................................................................................
..................................................................................................................................O.........O.O.........O.............................................................................................
.........................................................................................................................................O..O.O..O....................................................................................................
.........................................................................................................................................OOOO.OOOO....................................................................................................
........................................................................................................................................O..O...O..O...................................................................................................
.......................................................................................................................................OOOOO...OOOOO..................................................................................................
.......................................................................................................................................O...OO.OO...O..................................................................................................
........................................................................................................................................OO.OO.OO.OO...................................................................................................
.........................................................................................................................................OOO...OOO............................................................................OO...............OO.....
.............................................................................................................................................................................................................................O..O.............O..O....
.............................................................................................................................................................................................................................O..O.............O..O....
..............................................................................................................................................................................................................................OO...............OO.....
.......................................................................................................................................OO.........OO.....................................................................OO.........................OO
......................................................................................................................................O..O.......O..O....................................................................OO.........................OO
............O............................................O............................................................................O..O.......O..O.................................................................................................
..........OO..............................................OO...........................................................................OO.........OO..................................................................................................
...........OO............................................OO................................................................................................................................................................OO.....................OO..
.............................OO........OO.................................................................................................................................................................................O..O...................O..O.
.............................OO........OO...............................................................................................O.........O.......................................................................O.O.....................O.O.
......................................................................................................................................O....O...O....O......................................................................O.......................O..
...........................................................................................................................................O...O......................................................................................................
..................................................................................................................................OO.......O...O.......OO.............................................................................................
.................................................................................................................................O........O.....O........O............................................................................................
................................................................................................................................O....OOOOO.......OOOOO....O...........................................................................................
...............................................................................................................................O...........................O..........................................................................................
...............................................................................................................................O..O.....................O..O..........................................................................................
...............................................................................................................................O...........................O..........................................................................................
................................................................................................................................OO.OO.................OO.OO...................................................................OO...............OO.....
..................................................................................................................................OOO.................OOO....................................................................O..O.............O..O....
...................................................................................................................................OO.................OO.....................................................................O..O.............O..O....
....................................................................................................................................O.................O.......................................................................OO...............OO.....
...................................................................................................................................O.O...............O.O..............................................................................................
....................................................................................................................................O....OO.....OO....O..................................................................OO.........................OO
........................................................................................................................................O..O...O..O......................................................................OO.........................OO
.........................................................................................................................................OO.....OO....................................................................................................
...........................................................................................................................................................................................................................OO.....................OO..
.............................OO........OO..............................................................................OOO.......................................OOO......................................................O..O...................O..O.
.............................OO........OO..............................................................................O...........................................O......................................................O.O.....................O.O.
........................................................................................................................O.........................................O........................................................O.......................O..
................................................................................................................................OO.......................OO...........................................................................................
..O................................................................O............................................................OO...OO.............OO...OO...........................................................................................
OO..................................................................OO...............................................................OO.............OO................................................................................................
.OO................................................................OO.................................................................................................................................................................................
.............................................................................................................OOO..............OO...........................OO..............OOO................................................OO...............OO.....
.............................................................................................................O...............O..O.........................O..O...............O...............................................O..O.............O..O....
..............................................................................................................O..............O.O...........................O.O..............O................................................O..O.............O..O....
..............................................................................................................................O.............................O.................................................................OO...............OO.....
.........................................................................................................................................OO.....OO.......................................................................OO.........................OO
........................................................................................................................................O..O...O..O......................................................................OO.........................OO
.........................................................................................................................................OO.....OO....................................................................................................
...........................................................................................................................................................................................................................OO.....................OO..
.............................OO........OO..........................................................OOO...............................................................................OOO..................................O..O...................O..O.
.............................OO........OO..........................................................O...................................................................................O..................................O.O.....................O.O.
....................................................................................................O.................................................................................O....................................O.......................O..
................................................................................................................................OO.......................OO...........................................................................................
................................................................................................................................OO...OO.............OO...OO...........................................................................................
.....................................................................................................................................OO.............OO................................................................................................
..............................................................................................................................OO...........................OO.................................................................OO...............OO.....
.............................................................................................................................O..O.........................O..O...............................................................O..O.............O..O....
.............................................................................................................................O.O...........................O.O...............................................................O..O.............O..O....
..............................................................................................................................O.............................O.................................................................OO...............OO.....
.........................................................................................................................................OO.....OO.......................................................................OO.........................OO
........................................................................................................................................O..O...O..O......................................................................OO.........................OO
.........................................................................................................................................OO.....OO....................................................................................................
...........................................................................................................................................................................................................................OO.....................OO..
..........................................................................................................................................................................................................................O..O...................O..O.
..........................................................................................................................................................................................................................O.O.....................O.O.
...........................................................................................................................................................................................................................O.......................O..
................................................................................................................................OO.......................OO...........................................................................................
................................................................................................................................OO...OO.............OO...OO...........................................................................................
.....................................................................................................................................OO.............OO................................................................................................
..............................................................................................................................OO...........................OO.........................................................................................
.............................................................................................................................O..O.........................O..O........................................................................................
.............................................................................................................................O.O...........................O.O........................................................................................
..............................................................................................................................O.............................O.........................................................................................
.........................................................................................................................................OO.....OO....................................................................................................
........................................................................................................................................O..O...O..O...................................................................................................
.........................................................................................................................................OO.....OO....................................................................................................
