!Name: p110
!Source: ptpuffer
!
................................................................................................................................O.O..................................................................................................................................................
...................................................................................................................O.........O..O.O..................................................................................................................................................
..................................................................................................................O.OO......OOO...O..................................................................................................................................................
................................................................................................................OO.........O.....O...................................................................................................................................................
...............................................................................................................OO...OOO.O.O...O.O.O.............O....................................................................................................................................
................................................................................................................OO......O...O.....OO............O....................OO.....................................................OO.....................................................OO
.......................................................................................................OO........O..........O.....O.............O....................OO.....................................................OO.....................................................OO
......................................................................................................O..O..................O........................................................................................................................................................
..............O..................O............O.......................................................O.O.............OO.......O.....................................................................................................................................................
...........O.O.O..............O.O.O......O.OOOO.....O.O.......................O........................O..............OO....................OO.....................................................................................................OOO...............................
..........O..O.......O.O.....O..O...O.OO.O.O.O...OOOO.O......................OOOO...........OOO...............O.............................O.O..OOO..............................................................................................O...O..............................
.........OO.......OOOO.O....OO.....OO...O....O...OO..O..................O..OO.OO.O....O......................O.O............................O.OO......................................................OO.........................................O.....O.............................
........O....O....OO..O.OO.........O....OOO..OOO.....OO.................O.OOOO..OOO..OOO.........OOO.........O.O......O........................OO......OO.....................OO.....O................OO......OO................................O...O...O............OO..............
.......OOOOO.O.OO.....OO.OO.........O.O....O.O.......O.O..........O.....OO.O.OO..O..O....OOO.....O.O..........O......OO.............O.......O...O......OO..................O..OOO...O.O....O..................OO......................O.........O..O.O...OOOO........OO..............
......O..............O...O.O........O...OO...O.......OO...OO.....OOO....OOO...OOO..OO...O..O.....O.OO.................O.....O.......O.........OOO.........................O.O..OO..........O..........................................O.........O...O........O.......................
......OOOOOO.O........O.O..O.........O..OOOO..........OOOO..O...OO.OO...OO....OO....O...O.O.........OOO....................O.O......O..........................................OO..O..O....O..........................................O..........O......O....O.......................
...O.O.......O........O..........O.O.O.....OO....................OOO....OO..OO.........OOO..........O..O...................O.O............O..............................OO..O.O...O..O...........................................................O...O..O...O.......................
..OOOOOO.OO....O.......OOOOOOO.OO.OO........OOO.....OOO...O.......O.........OO...................OO.O..O....................O............OO..............OO...............OOOOO.....OO..........................OO.....O..........OOO...OOO........OOO....OOO..........OO.....O......
.OO.....OO.....O........O.......OO...O.............OO..O..OOO....................................OO.O..O.................................OO..............OO...........OOOOO...O.................................OO....O.O..............................................OO....O.O.....
OO....OO....O..OO.O......OO.O.....OO.O....O..O..OO..OO..............OO...OO......................O...OO...............................................................O.O....O.........................................O......................................................O......
.OO....OOOO.O.....O.......O....OOO.O.O.O.OO.O....O.O................OO...OO............................................................................................OO.O.O........................................................................................................
............................O..O.......OOO...........................................................................................................................................................................................................................................
.OO....OOOO.O.....O.......O....OOO.O.O.O.OO.O....O.O................OO...OO............................................................................................OO.O.O........................................................................................................
OO....OO....O..OO.O......OO.O.....OO.O....O..O..OO..OO..............OO...OO......................O...OO...............................................................O.O....O.........................................O......................................................O......
.OO.....OO.....O........O.......OO...O.............OO..O..OOO....................................OO.O..O.................................OO..............OO...........OOOOO...O.................................OO....O.O..............................................OO....O.O.....
..OOOOOO.OO....O.......OOOOOOO.OO.OO........OOO.....OOO...O.......O.........OO...................OO.O..O....................O............OO..............OO...............OOOOO.....OO..........................OO.....O..........OOO...OOO........OOO....OOO..........OO.....O......
...O.O.......O........O..........O.O.O.....OO....................OOO....OO..OO.........OOO..........O..O...................O.O............O..............................OO..O.O...O..O...........................................................O...O..O...O.......................
......OOOOOO.O........O.O..O.........O..OOOO..........OOOO..O...OO.OO...OO....OO....O...O.O.........OOO....................O.O......O..........................................OO..O..O....O..........................................O..........O......O....O.......................
......O..............O...O.O........O...OO...O.......OO...OO.....OOO....OOO...OOO..OO...O..O.....O.OO.................O.....O.......O.........OOO.........................O.O..OO..........O..........................................O.........O...O........O.......................
.......OOOOO.O.OO.....OO.OO.........O.O....O.O.......O.O..........O.....OO.O.OO..O..O....OOO.....O.O..........O......OO.............O.......O...O......OO..................O..OOO...O.O....O..................OO......................O.........O..O.O...OOOO........OO..............
........O....O....OO..O.OO.........O....OOO..OOO.....OO.................O.OOOO..OOO..OOO.........OOO.........O.O......O........................OO......OO.....................OO.....O................OO......OO................................O...O...O............OO..............
.........OO.......OOOO.O....OO.....OO...O....O...OO..O..................O..OO.OO.O....O......................O.O............................O.OO......................................................OO.........................................O.....O.............................
..........O..O.......O.O.....O..O...O.OO.O.O.O...OOOO.O......................OOOO...........OOO...............O.............................O.O..OOO..............................................................................................O...O..............................
...........O.O.O..............O.O.O......O.OOOO.....O.O.......................O........................O..............OO....................OO.....................................................................................................OOO...............................
..............O..................O............O.......................................................O.O.............OO.......O.....................................................................................................................................................
......................................................................................................O..O..................O........................................................................................................................................................
.......................................................................................................OO........O..........O.....O.............O....................OO.....................................................OO.....................................................OO
................................................................................................................OO......O...O.....OO............O....................OO.....................................................OO.....................................................OO
...............................................................................................................OO...OOO.O.O...O.O.O.............O....................................................................................................................................
................................................................................................................OO.........O.....O...................................................................................................................................................
..................................................................................................................O.OO......OOO...O..................................................................................................................................................
...................................................................................................................O.........O..O.O..................................................................................................................................................
................................................................................................................................O.O..................................................................................................................................................
