!Name: p134
!Source: ptpuffer
!
............O...O............
...........OOO.OOO...........
..........OO.O.O.OO..........
.........OO.......OO.........
..........O.......O..........
.........OO.......OO.........
.......OO.O.O...O.O.OO.......
........O.O.OO.OO.O.O........
.....OO.O..O.O.O.O..O.OO.....
....O.O.O.OO.O.O.OO.O.O.O....
...OO.O.O.O..O.O..O.O.O.OO...
..O.O.O.O...........O.O.O.O..
.OO.O.O.....OO.OO.....O.O.OO.
O...O.O.OO.........OO.O.O...O
......O...............O......
OO.OO.O.O...........O.O.OO.OO
..........OO.....OO..........
.O...OO.OO.OO...OO.OO.OO...O.
.O......OO..O...O..OO......O.
......O..O..OO.OO..O..O......
..OOO...................OOO..
.O......O...........O......O.
.O...OO..OOOOOOOOOOO..OO...O.
OO....O.O.OOOOOOOOO.O.O....OO
.OOOO.O.O...........O.O.OOOO.
OO.OO.O.O..OOOOOOO..O.O.OO.OO
.....O..O.O.......O.O..O.....
OOO..OO.O.O.......O.O.OO..OOO
........O.O.......O.O........
..OOOO.O..O.OOOOO.O..O.OOOO..
...O......O..OOO..O......O...
...O.......O.....O.......O...
...OO........OOO........OO...
..O..O.................O..O..
..O.O........OOO........O.O..
.OO.........OO.OO.........OO.
.O.O....OOO.......OOO....O.O.
...OO..O..O.O.O.O.O..O..OO...
..O...O...O.......O...O...O..
....O.O...............O.O....
...OO...O...O...O...O...OO...
...O.O.O....OO.OO....O.O.O...
.....O.O.OOO.O.O.OOO.O.O.....
..O..O...O.O.....O.O...O..O..
.OO...O.O..O.....O..O.O...OO.
O..........OO...OO..........O
..........O.O...O.O..........
OO.OO....OOO.....OOO....OO.OO
...O.OO...O.......O...OO.O...
.O....O..O.........O..O....O.
....O..OOO..O...O..OOO..O....
.....O.O.O.OO...OO.O.O.O.....
.......O.O.O.OOO.O.O.O.......
.........O.O.O.O.O.O.........
