!Name: p140-pi20
!Source: ptpuffer
!
............................OOO.OOO............................
...........................O..O.O..O...........................
..........................O...O.O...O..........................
..........................O.........O..........................
............................O.....O............................
.........................O.O.......O.O.........................
........................OO.O.OO.OO.O.OO........................
.......................O.O.O..O.O..O.O.O.......................
......................OO.O....O.O....O.OO......................
.....................O...O.OO.O.O.OO.O...O.....................
...........................OOO...OOO...........................
.....................OO.OO.OO.....OO.OO.OO.....................
....................O.....................O....................
.....................O...O..O.....O..O...O.....................
........................O...O.....O...O........................
..........................O.........O..........................
........................O.O.........O.O........................
.......................OO.............OO.......................
.....................OO.O.............O.OO.....................
......................O.OO...........OO.O......................
...................OO.O.................O.OO...................
...................OO.O.OO...........OO.O.OO...................
..................O..O.O...............O.O..O..................
...................O.OOO...............OOO.O...................
......................O.....OOO.OOO.....O......................
....................OO.....O..O.O..O.....OO....................
..........................O...O.O...O..........................
....................OO....O.........O....OO....................
.....................O......O.....O......O.....................
....................O.O..O.O.......O.O..O.O....................
........................OO.O.OO.OO.O.OO........................
..................OO.O.O.O.O.OO.OO.O.O.O.O.OO..................
..................OO.O.O.O.O.O.O.O.O.O.O.O.OO..................
..................O......O.O.......O.O......O..................
.................OO........O.......O........OO.................
..........................OO.......OO..........................
..........................OO.......OO..........................
.......................OO.OO.......OO.OO.......................
........................OOO.........OOO........................
.........................O...........O.........................
....................OO...................OO....................
..................O...O.................O...O..................
..................OOO.....................OOO..................
.................OO.OOOO...............OOOO.OO.................
..................OO..O.................O..OO..................
................O...O........OO.OO........O...O................
.................O...O.......OO.OO.......O...O.................
..................OO.O...O...........O...O.OO..................
....................O...OOO.........OOO...O....................
.......................OO.OO.......OO.OO.......................
........................OOO.........OOO........................
.........................O...........O.........................
.........................OO.........OO.........................
.........................OO.........OO.........................
.........................OO.........OO.........................
.......................O.OO.........OO.O.......................
.......................O...O.......O...O.......................
..........................O.........O..........................
.........................O...........O.........................
.........................O...........O.........................
....................O.......OO...OO.......O....................
...................OOO......OO...OO......OOO...................
...................OOO...................OOO...................
.................O...........................O.................
................OOO.........................OOO................
................O..O.OO.OO...........OO.OO.O..O................
................O.OO.OO.................OO.OO.O................
.................OO.O......O.......O......O.OO.................
...................OO.OOOOOO.......OOOOOO.OO...................
.....................OOO...............OOO.....................
............................OO...OO............................
...........................O..O.O..O...........................
............................OO...OO............................
......................O.................O......................
...................OOO...................OOO...................
..................O..O...................O..O..................
..................O..O...................O..O..................
..................O...O.................O...O..................
....................OOO.................OOO....................
.......................O...............O.......................
...................O..OO..O.........O..OO..O...................
..................O...O..O.OO.....OO.O..O...O..................
..................OOOO..OO.OO.....OO.OO..OOOO..................
....................O...OOOO.......OOOO...O....................
.......................OOO...........OOO.......................
.......................O...............O.......................
.......................O...............O.......................
.......................O...............O.......................
.......................O...............O.......................
.......................OO.............OO.......................
........................O...O.....O...O........................
..................O........O.......O........O..................
..................O.........................O..................
..................O.........................O..................
.....................OOO...............OOO.....................
.........................O...........O.........................
.........................O...........O.........................
.........................O...........O.........................
........OO...........................................OO........
........OO...........................................OO........
............O.....................................O............
...........O.O...................................O.O...........
...........O.O...................................O.O...........
............O.....................................O............
.......OO.......OO...OOO...............OOO...OO.......OO.......
......O..O.....O..O..O...................O..O..O.....O..O......
.......OO.......OO....O.................O....OO.......OO.......
............O.....................................O............
...........O.O...................................O.O...........
...........O.O...................................O.O...........
............O.....................................O............
...............OO.............................OO...............
...............OO.............................OO...............
.....................OOO...............OOO.....................
.........................O...........O.........................
.........................O...........O.........................
.........................O...........O.........................
........OO...........................................OO........
........OO...........................................OO........
....................OO...................OO....................
....................OO...................OO....................
OO...........................................................OO
OO...........................................................OO
.....................OOO...............OOO.....................
.........................O...........O.........................
.........................O...........O.........................
.........................O...........O.........................
........OO...........................................OO........
........OO...........................................OO........
....................OO...................OO....................
....................OO...................OO....................
OO...........................................................OO
OO...........................................................OO
