!Name: p168-u12
!Source: ptpuffer
!
......................................................................................................................................................................................................................................................................................................................OOO.OOO...........
.....................................................................................................................................................................................................................................................................................................................O..O.O..O..........
....................................................................................................................................................................................................................................................................................................................O...O.O...O.........
....................................................................................................................................................................................................................................................................................................................O.........O.........
......................................................................................................................................................................................................................................................................................................................O.....O...........
...................................................................................................................................................................................................................................................................................................................O.O.......O.O........
..................................................................................................................................................................................................................................................................................................................OO.O.OO.OO.O.OO.......
.................................................................................................................................................................................................................................................................................................................O.O.O..O.O..O.O.O......
................................................................................................................................................................................................................................................................................................................OO.O....O.O....O.OO.....
...............................................................................................................................................................................................................................................................................................................O...O.OO.O.O.OO.O...O....
.................................................................................................................................................................O....O....O.........................................................................................................................................OOO...OOO..........
................................................................................................................................................................OOO.OO.OO.OOO..................................................................................................................................OO.OO.OO.....OO.OO.OO....
...............................................................................................................................................................OOOO.......OOOO................................................................................................................................O.....................O...
..............................................................................................................................................................OO..OO.O.O.OO..OO................................................................................................................................O...O..O.....O..O...O....
.............OOO...............................................................................................................................................O.............O....................................................................................................................................O...O.....O...O.......
............O...O.............................................................................................................................................OO.............OO.....................................................................................................................................O.........O.........
.......OOO.O.....O.OOO......................................................................................................................................OO.O.OO.......OO.O.OO..................................................................................................................................O...........O........
......O..O.O.....O.O..O......................................................................................................................................O.O..OO.....OO..O.O..................................................................................................................................OO.OO.....OO.OO.......
.....O...O.O.OOO.O.O...O..................................................................................................................................OO.O..O..O.....O..O..O.OO..............................................................................................................................O.O.OO.....OO.O.O......
.....O.......O.O.......O..................................................................................................................................OO.O.....OO...OO.....O.OO.............................................................................................................................OO.O..O.....O..O.OO.....
.......O.............O....................................................................................................................................O.O...................O.O............................................................................................................................O...O..OO...OO..O...O....
....O.O.....OO.OO.....O.O................................................................................................................................OO.OO.................OO.OO...................................................................................................................................O...O............
...OO.O.OO.........OO.O.OO............................................................................................................................................O........................................................................................................................................OO.OO..O.O.O.O..OO.OO....
..O.O.O.OO.........OO.O.O.O..............................................................................................................................OOO.OOO.....OOO.....OOO.OOO....................................................................................................................................................
.OO.O..O.O.........O.O..O.OO...................................................................................................................................OO...OOOOO...OO..............................................................................................................................OOO...O.............O...OOO.
O...O.OO.OOO.OOO.OOO.OO.O...O...................................................................................................................................O..OO...OO..O...............................................................................................................................O.....O.............O.....O.
....O........OOO........O.................................................................................................................................OO...O.O.O..O..O.O.O...OO.....................................................................................................................................................
OO...O.OOO.OO.O.OO.OOO.O...OO.............................................................................................................................OO..OO.O.O.O.O.O.O.OO..OO........................................................................................................................OO....OO.............OO....OO
.........................................................................................................................................................O.......O...O.O...O.......O............................................................................................................................O.................O.....
...OO...................OO..................................................................................................................................OO.O..O.O...O.O..O.OO...........................................................................................................................O......OOO.......OOO......O.
....O..O.............O..O................................................................................................................................OO.......................OO.........................................................................................................................OO.OO...O.......O...OO.OO..
.OO.O.OO.............OO.O.OO.................................................................................................................................O.................O........................................................................................................................................................
.OO.O.O.OO.........OO.O.O.OO................................................................................................................................O...OOO.......OOO...O...............................................................................................................................O....OO.....OO....O.....
O.O.O...O.OO.....OO.O...O.O.O................................................................................................................................OO.O.OO.....OO.O.OO...............................................................................................................................O.......O...O.......O....
O...O...O...O...O...O...O...O..............................................................................................................................OO.O.O.O.OO.OO.O.O.O.OO..............................................................................................................................OOO...O.....O...OOO.....
....OO.OO....O.O....OO.OO.....................................................................................................................................O......O.O......O...............................................................................................................................O.O..OO.........OO..O.O...
OO.O.O.O.O...O.O...O.O.O.O.OO.................................................................................................................................OO...O.O.O.O...OO..............................................................................................................................OO.O.................O.OO..
...O.O.O..OO.O.O.OO..O.O.O...................................................................................................................................O.O.....O.O.....O.O....................................................................................................................................O....O....O.........
.O...O.......O.O.......O...O................................................................................................................................OOO...............OOO..............................................................................................................................O..OO....OOO....OO..O....
.O.....OO.O.......O.OO.....O.................................................................................................................................O.....O.....O.....O.............................................................................................................................OO........OOOOO........OO..
....O.......OO.OO.......O...................................................................................................................................O.....OO.....OO.....O.................................................................................................................................OO..OO...OO..OO.......
...OO...O...........O...OO...................................................................................................................................O...O.........O...O.............................................................................................................................OO....O..O..O..O..O....OO..
..O.....O...........O.....O..................................................................................................................................................................................................................................................................................O....O.O.O.O.O.O.O.O....O..
............................................................................................................................................................OO...OO.......OO...OO...........................................................................................................................O.O..O.O..O.O.O.O..O.O..O.O.
..OO...OO...........OO...OO................................................................................................................................O....O...........O....O..............................................................................................................................OO.OO.O.....O.OO.OO.....
.O....O...............O....O................................................................................................................................O...OO.........OO...O..............................................................................................................................O.OOO...........OOO.O....
..O...OO.............OO...O....................................................................................................................................O.OOO.....OOO.O................................................................................................................................OO......O.....O......OO...
.....O.OOO.........OOO.O......................................................................................................................................OO...OO...OO...OO...............................................................................................................................O.O..O.O.......O.O..O.O...
....OO...OO.......OO...OO.....................................................................................................................................O.O....O.O....O.O.........................................................................................................................................................
....O.O....O.....O....O.O...............................................................................................................................................................................................................................................................................................................
....................................................................................................................................................................OO.OO...............................................................................................................................................................
..........OO.....OO.....................................................................................................................................................................................................................................................................................................................
............................................................................................................................................................................................................................................................................................................OO.OOO...............OOO.OO.
............................................................................................................................................................OO.OOO.........OOO.OO...........................................................................................................................OO..O.................O..OO.
..OO.OOO.............OOO.OO.................................................................................................................................OO..O...........O..OO............................................................................................................................OOO...................OOO..
..OO..O...............O..OO..................................................................................................................................OOO.............OOO..............................................................................................................................O.....................O...
...OOO.................OOO....................................................................................................................................O...............O.........................................................................................................................................................
....O...................O...............................................................................................................................................................................................................................................................................................................
