!Name: p252-1
!Source: ptpuffer
!
............................................................................................................................................................................................................................................................................................................O..........................................
............................................................................................................................................................................................................................................................................................................OO.........................................
...........................................................................................................................................................................................................................................................................................................O.O.........................................
...................................................................................................................................................................................................O...................................................................................................................................................
..................................................................................................................................................................................................O.O..................................................................................................................................................
..................................................................................................................................................................................................O.O..................................................................................................................................................
...................................................................................................................................................................................................O...................................................................................................................................................
.....................................................................................................................O...............O.................................................................................................................................................................................................................
.....................................................................................................................O..............O.O................................................................................................................................................................................................................
.....................................................................................................................O.............O...................................................................................................................................................................................................................
..............................................................................................................................O.....O...O..............................................................................................................................................................................................................
..............................................................................................................................O......OO..O.............................................................................................................................................................................................................
..............................................................................................................................O.O.....O.O..............................................................................................................................................................................................................
..................................................................................................................................O......................................................................O.......................................OO....................................................................................................
.............................................................................................................................OO...OO..............................................................OO...O...O...........OO........................OO....................................................................................................
....................................................................................................................................O............................................................OOO...O...............O.O.................................OOO.........................................................................................
................................................................................O..............................................OO.O.OO............................................................O...O.....O...OOO.....O..............................................................................................................................
...............................................................................OOO..............................................OO.O..O..............................................................OO................................................................................................................................................
..............................................................................OO.OOO...O.O.....................................O..O.O.OO....................................................................O.OO....O................O......................................................................................OO.........................
.............................................................................OOO.OOOO.O.O.....OO...............................OOO....O............................................................OO....OOOO.OO....O................O...................................OO................................................O..O........................
.............................................................................OOO..OO.O........O.O.............................O.O.O........................................................O...........O............O................O..................................O..O................................................OO.........................
...........................................................O.............O.....O...OOO.O.......O.............................OOO.OOO................OO....................................O.O.....O..OO.................................................................O.O....................................................................O.......
..........................................................OOO...........OOO....OO.OO..O..O....................................O.O.O................OOO....................................O......OO..O...................................................................O.......................................................OOO...........O.......
.........O.O.............................................OOOOO.........O.OOO......OO...OOO.....................................OOO.............................................O.....OO....O....O...O........................................................OO........................................................O.......................O.......
........O..O.OO.........................................OO...OO.........O.OO...OO......O..O........OO...........................O..............................................O.....OO.........O..O.........................................................OO.......................................................O.O............O.................
.......OO..............................................OOO...OOO....OO..O.OOO.O...O.....O.O........O.O.........................................................................O.................OOO..................................................................................................................O.O............O.................
......O....O............................................OO...OO.....OO.O..OO.....OOO.....O..........O............................OOO..............O.O..................................................................................................................................................................O.............O.................
.....OOOOO.O.............................................OOOOO........O...OOO.....O..............................................O.O...............OO.........................................................................O........................................................................................................................
..OO.........O............................................OOO.....OO.O.....O..OO.O...............................................OOO.....OO.........O........................................................................O.O.......................................................................................................................
.O...OOO.....O.............................................O......OO.O.OOOOOO.OOO........................................................OO....O....................................................................OO.......OO........................................................................................................................
O...O........OO.O.....................................................O..O............................................................O...O........................................................................O.O.................................................................................................................................
O.....O.........O.O..........................................O...........OOO..........................................................O.............................................................................O..................................................................................................................................
O..O..O............O.........................................OO...........O.....................................O.....................O.....................OO..................................OO..........................................................................................................................................OOO...OO...
.O.O..OO.O.......O...........................................OOO...................OO.OO......................OO.............................OO.............OO.........................OOO.OO.....O.............OO.....................................................................................................................O..........OO...
.........O......OOO.........OOO..............................OO..................O...O..O......................OO.........O.................O..........................................O..O........O....O.......OO.............................................................................................O......................O.O..............
OOO............OO........OOOOO.O.........OOO...OOO...........O..........................OO...............................O.O.....O...........OO........................................OO..OO....OO....O.O..........................................................OOO.......................................O.O....................O..O..............
OO............OO........OOO...OO.........O.O...O.O..............................O......O................................OO.O....O.O......................................................OO............OO.....................................................................................................O.O.....................OO...............
OO.............OO......OOOO...O..........O.O...O.O.......................................................................O.OOO..O.O.............................................................................................................................................OO..................OO.........O.......................................
OOO................O.O..O........................................................OO..O...................................OOOOO...O.....OO.......................................................................................................................................OO.................O.O........................................O.....OOO
...............OOOOO.OOO.O.................................................OO....O..........OO.........................................OO..........................................................................................................................................................OO........................................O.O.......
.O.O..........OO.......O..O...O..........OO.....OO.........................OO..............O.O.............................OO........................................................................................OOO..........................................................................................................OO.........OO........
O..O.........OO..OOOOO.....OOO...........OO.....OO.........................................OO...............................O.....................................................................................................................................................................................................OO...................
O...........OOO.O......................................................................................................................................................................................................................................................................................................................................
O..O.........OO..OOOOO.....OOO...........OO.....OO.........................................OO...............................O.....................................................................................................................................................................................................OO...................
.O.O..........OO.......O..O...O..........OO.....OO.........................OO..............O.O.............................OO........................................................................................OOO..........................................................................................................OO.........OO........
...............OOOOO.OOO.O.................................................OO....O..........OO.........................................OO..........................................................................................................................................................OO........................................O.O.......
OOO................O.O..O........................................................OO..O...................................OOOOO...O.....OO.......................................................................................................................................OO.................O.O........................................O.....OOO
OO.............OO......OOOO...O..........O.O...O.O.......................................................................O.OOO..O.O.............................................................................................................................................OO..................OO.........O.......................................
OO............OO........OOO...OO.........O.O...O.O..............................O......O................................OO.O....O.O......................................................OO............OO.....................................................................................................O.O.....................OO...............
OOO............OO........OOOOO.O.........OOO...OOO...........O..........................OO...............................O.O.....O...........OO........................................OO..OO....OO....O.O..........................................................OOO.......................................O.O....................O..O..............
.........O......OOO.........OOO..............................OO..................O...O..O......................OO.........O.................O..........................................O..O........O....O.......OO.............................................................................................O......................O.O..............
.O.O..OO.O.......O...........................................OOO...................OO.OO......................OO.............................OO.............OO.........................OOO.OO.....O.............OO.....................................................................................................................O..........OO...
O..O..O............O.........................................OO...........O.....................................O.....................O.....................OO..................................OO..........................................................................................................................................OOO...OO...
O.....O.........O.O..........................................O...........OOO..........................................................O.............................................................................O..................................................................................................................................
O...O........OO.O.....................................................O..O............................................................O...O........................................................................O.O.................................................................................................................................
.O...OOO.....O.............................................O......OO.O.OOOOOO.OOO........................................................OO....O....................................................................OO.......OO........................................................................................................................
..OO.........O............................................OOO.....OO.O.....O..OO.O...............................................OOO.....OO.........O........................................................................O.O.......................................................................................................................
.....OOOOO.O.............................................OOOOO........O...OOO.....O..............................................O.O...............OO.........................................................................O........................................................................................................................
......O....O............................................OO...OO.....OO.O..OO.....OOO.....O..........O............................OOO..............O.O..................................................................................................................................................................O.............O.................
.......OO..............................................OOO...OOO....OO..O.OOO.O...O.....O.O........O.O.........................................................................O.................OOO..................................................................................................................O.O............O.................
........O..O.OO.........................................OO...OO.........O.OO...OO......O..O........OO...........................O..............................................O.....OO.........O..O.........................................................OO.......................................................O.O............O.................
.........O.O.............................................OOOOO.........O.OOO......OO...OOO.....................................OOO.............................................O.....OO....O....O...O........................................................OO........................................................O.......................O.......
..........................................................OOO...........OOO....OO.OO..O..O....................................O.O.O................OOO....................................O......OO..O...................................................................O.......................................................OOO...........O.......
...........................................................O.............O.....O...OOO.O.......O.............................OOO.OOO................OO....................................O.O.....O..OO.................................................................O.O....................................................................O.......
.............................................................................OOO..OO.O........O.O.............................O.O.O........................................................O...........O............O................O..................................O..O................................................OO.........................
.............................................................................OOO.OOOO.O.O.....OO...............................OOO....O............................................................OO....OOOO.OO....O................O...................................OO................................................O..O........................
..............................................................................OO.OOO...O.O.....................................O..O.O.OO....................................................................O.OO....O................O......................................................................................OO.........................
...............................................................................OOO..............................................OO.O..O..............................................................OO................................................................................................................................................
................................................................................O..............................................OO.O.OO............................................................O...O.....O...OOO.....O..............................................................................................................................
....................................................................................................................................O............................................................OOO...O...............O.O.................................OOO.........................................................................................
.............................................................................................................................OO...OO..............................................................OO...O...O...........OO........................OO....................................................................................................
..................................................................................................................................O......................................................................O.......................................OO....................................................................................................
..............................................................................................................................O.O.....O.O..............................................................................................................................................................................................................
..............................................................................................................................O......OO..O.............................................................................................................................................................................................................
..............................................................................................................................O.....O...O..............................................................................................................................................................................................................
.....................................................................................................................O.............O...................................................................................................................................................................................................................
.....................................................................................................................O..............O.O................................................................................................................................................................................................................
.....................................................................................................................O...............O.................................................................................................................................................................................................................
...................................................................................................................................................................................................O...................................................................................................................................................
..................................................................................................................................................................................................O.O..................................................................................................................................................
..................................................................................................................................................................................................O.O..................................................................................................................................................
...................................................................................................................................................................................................O...................................................................................................................................................
...........................................................................................................................................................................................................................................................................................................O.O.........................................
............................................................................................................................................................................................................................................................................................................OO.........................................
............................................................................................................................................................................................................................................................................................................O..........................................
