!Name: p330
!Source: ptpuffer
!
..........................................................................OOO.OOO..........................................................................
.........................................................................O..O.O..O.........................................................................
........................................................................O...O.O...O........................................................................
........................................................................O.........O........................................................................
..........................................................................O.....O..........................................................................
.......................................................................O.O.......O.O.......................................................................
......................................................................OO.O.OO.OO.O.OO......................................................................
....................................................................OO.O.O..O.O..O.O.OO....................................................................
.....................................................................O.O....O.O....O.O.....................................................................
..................................................................OO.O.O.OO.O.O.OO.O.O.OO..................................................................
..................................................................OO.O.O.OOO...OOO.O.O.OO..................................................................
..................................................................O.O...O..OO.OO..O...O.O..................................................................
.................................................................OO.OO.OO.........OO.OO.OO.................................................................
.................................................................O.......................O.................................................................
.................................................................OOOO.OOO.........OOO.OOOO.................................................................
................................................................OO.......................OO................................................................
....................................................................OOO......O......OOO....................................................................
.....................................................................O......OOO......O.....................................................................
....................................................................O..O...OOOOO...O..O....................................................................
......................................................................OOO.OO...OO.OOO......................................................................
....................................................................O.O.O.O..O..O.O.O.O....................................................................
...................................................................OO..O.O..O.O..O.O..OO...................................................................
..................................................................O.O.OO.OO.O.O.OO.OO.O.O..................................................................
.................................................................OO.O.......O.O.......O.OO.................................................................
................................................................O....O.OOO.O...O.OOO.O....O................................................................
................................................................OO.......................OO................................................................
...............................................................O........OO.......OO........O...............................................................
..................................................................OOO....O.......O....OOO..................................................................
...............................................................OO...O...O.O.....O.O...O...OO...............................................................
.........................................................................OOO...OOO.........................................................................
....................................................................OO.....OO.OO.....OO....................................................................
......................................................................O.....O.O.....O......................................................................
.................................................................OOO.....OO.O.O.OO.....OOO.................................................................
.................................................................O...OO..OO.O.O.OO..OO...O.................................................................
........................................................................O.O.O.O.O.O........................................................................
................................................................OO....O.O...O.O...O.O....OO................................................................
............................................................................O.O............................................................................
.................................................................O..OO.O.OO.....OO.O.OO..O.................................................................
..................................................................OOO.................OOO..................................................................
...................................................................O.O...O.OO.OO.O...O.O...................................................................
..................................................................OO....O..OO.OO..O....OO..................................................................
...................................................................O......O.O.O.O......O...................................................................
..................................................................O.O.................O.O..................................................................
.....................................................................O..OO.......OO..O.....................................................................
................................................................OO.O.O..O.OOOOOOO.O..O.O.OO................................................................
................................................................OO.O.OO.O.OOOOOOO.O.OO.O.OO................................................................
................................................................O...O.O.OO.......OO.O.O...O................................................................
...............................................................OO.....O.O..OOOOO..O.O.....OO...............................................................
......................................................................O.O.O.....O.O.O......................................................................
......................................................................O..O.......O..O......................................................................
.........................................................................OO.....OO.........................................................................
.....................................................................OO.O.O.O.O.O.O.OO.....................................................................
.......................................................................OOOO.O.O.OOOO.......................................................................
........................................................................OO.OO.OO.OO........................................................................
.........................................................................O.O...O.O.........................................................................
.........................................................................OO.....OO.........................................................................
.....................................................................OO..O.......O..OO.....................................................................
.....................................................................O.O...........O.O.....................................................................
.........................................................................OO.....OO.........................................................................
.........................................................................OOO...OOO.........................................................................
..........................................................................OO...OO..........................................................................
.........................................................................OOO...OOO.........................................................................
........................................................................OO.......OO........................................................................
.........................................................................OO.....OO.........................................................................
.......................................................................OO.........OO.......................................................................
......................................................................O..OO.....OO..O......................................................................
......................................................................OO.OO.....OO.OO......................................................................
........................................................................O...O.O...O........................................................................
.......................................................................OO.........OO.......................................................................
........................................................................O...O.O...O........................................................................
...............................................................OO.........................OO...............................................................
...............................................................OO.........................OO...............................................................
......................................................................O.............O......................................................................
.....................................................................O.O...........O.O.....................................................................
.....................................................................O.O...........O.O.....................................................................
......................................................................O.............O......................................................................
.....................................................................O...............O.....................................................................
.....................................................................O...............O.....................................................................
.....................................................................O...............O.....................................................................
..............................................................O.............................O..............................................................
...............................................................O...........................O...............................................................
.............................................................O.O...........................O.O.............................................................
..............................................................O.............................O..............................................................
...........................................................OOO.O...........................O.OOO...........................................................
...........................................................OOO..O.........................O..OOO...........................................................
................................................................O.........................O................................................................
...............................................................O...........................O...............................................................
....................................................................O.O.............O.O....................................................................
..................................................................OO...................OO..................................................................
...................................................................OO.................OO...................................................................
....................................................................O.................O....................................................................
.....................................................................OO.............OO.....................................................................
.....................................................................OO.............OO.....................................................................
............................................................OO...............................OO............................................................
............................................................O.O.............................O.O............................................................
.............................................................O...............................O.............................................................
........................................................................OO.......OO........................................................................
........................................................................OO.......OO........................................................................
........................................................................OO.......OO........................................................................
.......................................................................O..O.....O..O.......................................................................
.......................................................................O..O.....O..O.......................................................................
........................................................................OO.......OO........................................................................
...........................................................................OO.OO...........................................................................
...........................................................................OO.OO...........................................................................
......................................................................O.............O......................................................................
......................................................................O.............O......................................................................
......................................................................O.............O......................................................................
.......................................................................O...........O.......................................................................
.......................................................................O...........O.......................................................................
.......................................................................O...........O.......................................................................
.................................................................O.......................O.................................................................
.................................................................O.......................O.................................................................
.................................................................O.......................O.................................................................
........................................................................O.........O........................................................................
........................................................................O.........O........................................................................
........................................................................O.........O........................................................................
....................................................................OOO...OOO.OOO...OOO....................................................................
........................................................................O.........O........................................................................
........................................................................O.........O........................................................................
........................................................................O.........O........................................................................
...............................................................OO.........................OO...............................................................
...............................................................OO.........................OO...............................................................
......................................................................O.............O......................................................................
.....................................................................O.O...........O.O.....................................................................
.....................................................................O.O...........O.O.....................................................................
......................................................................O.............O......................................................................
.....................................................................O...............O.....................................................................
.....................................................................O...............O.....................................................................
.....................................................................O...............O.....................................................................
O.O.....................................................................................................................................................O.O
OO.......................................................................................................................................................OO
.O.......................................................................................................................................................O.
...........................................................OO.................................OO...........................................................
...........................................................OO.................................OO...........................................................
.....................................................................OO.............OO.....................................................................
.....................................................................OO.............OO.....................................................................
............................................................OO...............................OO............................................................
............................................................O.O.............................O.O............................................................
.............................................................O...............................O.............................................................
........................................................................OO.......OO........................................................................
........................................................................OO.......OO........................................................................
........................................................................OO.......OO........................................................................
.......................................................................O..O.....O..O.......................................................................
.......................................................................O..O.....O..O.......................................................................
........................................................................OO.......OO........................................................................
...........................................................................OO.OO...........................................................................
...........................................................................OO.OO...........................................................................
......................................................................O.............O......................................................................
......................................................................O.............O......................................................................
......................................................................O.............O......................................................................
.......................................................................O...........O.......................................................................
.......................................................................O...........O.......................................................................
.......................................................................O...........O.......................................................................
.................................................................O.......................O.................................................................
.................................................................O.......................O.................................................................
.................................................................O.......................O.................................................................
