!Name: s018
!Source: ptpuffer
!
..............O..............
.............OOO.............
........O...OOOOO...O........
.......OOO.OO...OO.OOO.......
......OO.O.O..O..O.O.OO......
.....OO......O.O......OO.....
......O.....OO.OO.....O......
.....OO.....OO.OO.....OO.....
...OO.O.O...........O.O.OO...
....O.O.OO.........OO.O.O....
.OO.O.O...O.......O...O.O.OO.
.OO.O.........O.........O.OO.
.O..O.OO.OO.OO.OO.OO.OO.O..O.
OO..O...................O..OO
........O...O.O.O...O........
....O...O...........O...O....
...OO...................OO...
...O.O.OO...........OO.O.O...
..OO.O...O...OOO...O...O.OO..
.....O.O.O..O...O..O.O.O.....
..OO.O...O.O.....O.O...O.OO..
....O.O.O.OO..O..OO.O.O.O....
....OOOOOOO.O...O.OOOOOOO....
......O.O...........O.O......
.....OO.OO.........OO.OO.....
....O.O.O.O.......O.O.O.O....
...OO.O.O.OO.....OO.O.O.OO...
..O...O.O...O...O...O.O...O..
..OO.OO.OO.OO...OO.OO.OO.OO..
.............O.O.............
...O...O...O.O.O.O...O...O...
...O.........O.O.........O...
........OOO.......OOO........
...OO...................OO...
..O..O.................O..O..
..O.O.....O.......O.....O.O..
.OO.......OO.....OO.......OO.
.O.O........O...O........O.O.
...OO...................OO...
...O.OO....OO...OO....OO.O...
....O.OO.....O.O.....OO.O....
...OOOO.OO..O...O..OO.OOOO...
..........O.......O..........
..O.OO.O.............O.OO.O..
.OOO.....OO.......OO.....OOO.
O...O...................O...O
.........O.........O.........
OO.OO..OO..O.....O..OO..OO.OO
......OO.O.OO...OO.O.OO......
.O...O.O.O...O.O...O.O.O...O.
.O.......O.O.O.O.O.O.......O.
.........O..O...O..O.........
..OO....O.O.OO.OO.O.O....OO..
..OO....O.OO.....OO.O....OO..
...O......O.OO.OO.O......O...
...OOO.O..O.......O..O.OOO...
.......OO.O.OO.OO.O.OO.......
.....OO.O.O.OO.OO.O.O.OO.....
........O.O.......O.O........
........O.O.O.O.O.O.O........
.........OO.......OO.........
..........O.......O..........
............O...O............
..........O.OO.OO.O..........
..........O..O.O..O..........
