!Name: s032
!Source: ptpuffer
!
.............................................................................................................................O.............O.......
............................................................................................................................OOO...........OOO......
..........................................................................................................................OO.OOO.........OOO.OO....
...........................................................................................................................O..O.OO.....OO.O..O.....
........................................................................................................................OO.O....O.O...O.O....O.OO..
........................................................................................................................OO.O.O..O.OO.OO.O..O.O.OO..
........................................................................................................................O........O.O.O.O........O..
.......................................................................................................................OO.......OO.O.O.OO.......OO.
.......................................................................................................................O........O..O.O..O........O.
.....OOO...OOO.........................................................................................................OOOO...................OOOO.
.....O..O.O..O........................................................................................................OO..OO.OOO..OO.OO..OOO.OO..OO
....O...O.O...O..........................................................................................................O...O.O.........O.O...O...
......O.O.O.O................................................................................................................O.OO.......OO.O.......
......O.....O..............................................................................................................O.................O.....
......OO...OO............................................................................................................OO.........O.........OO...
.......OO.OO..............................................................................................................O.OO.....OOO.....OO.O....
.......OO.OO...........................................................................................................OO.O.O.O...OOOOO...O.O.O.OO.
......O.....O..........................................................................................................OO.O.O.OO.OO...OO.OO.O.O.OO.
.......................................................................................................................O.O...O.O.O..O..O.O.O...O.O.
...O.....O.....O......................................................................................................OO.OO.OO.O...O.O...O.OO.OO.OO
..OOO...O.O...OOO..............................................................................................................O..OO.OO..O.........
.OO.O..OO.OO..O.OO....................................................................................................OOO.OOO.O...OO.OO...O.OOO.OOO
.OOO...OO.OO...OOO.................................................................................................................................
.OOO....OOO....OOO.....................................................................................................OOOO....OO.......OO....OOOO.
..OO...........OO........................................................................................................O.....OO.......OO.....O...
.O...............O...................OOO..OOO..OOO............................OOO..OOOO..OOO..............................O.....O.......O.....O....
.O...OOOO.OOOO...O..................O...O.OOO.O...O..........................O...O.OOOO.O...O..............................O....OO.....OO....O.....
O.....O..O..O.....O................O......O.O......O........................O......O..O......O...........................O.OO....O.....O....OO.O...
....O.O.....O.O....................O...OO.....OO...O........................O...OO......OO...O..........................OO.O.O..O.O...O.O..O.O.OO..
...OOO.......OOO.....................O...........O............................O............O...........................O.....OO...........OO.....O.
..................................O.O.............O.O......................O.O..............O.O..............................O.O.........O.O.......
.................................OO.O.OO.......OO.O.OO....................OO.O.OO........OO.O.OO.......................OO......OO.......OO......OO.
...OO.........OO................O.O.O.OO.......OO.O.O.O.................OO.O.O.OO........OO.O.O.OO............................OOO.......OOO........
...............................OO...O..O.......O..O...OO.................O...O.O.O......O.O.O...O..................................................
....O....O....O...............O...O.O..OO.....OO..O.O...O.............OO.O...O...O......O...O...O.OO...............................................
..OO....OOO....OO................O...................O................OO.OO.OO..............OO.OO.OO...............................................
.O.OO.OO.O.OO.OO.O............OO.......OO.....OO.......OO............O.OO.O.O.O.OO......OO.O.O.O.OO.O........................OO.O.......O.OO.......
OO....OO.O.OO....OO......................O...O.......................OO...O.O.O............O.O.O...OO.........................OOO.......OOO........
.O....OOOOOOO....O.......................OO.OO......................O..OO.O.O...O........O...O.O.OO..O.........................O.........O.........
.O...O.O.O.O.O...O.....................OO.O.O.OO................................O........O.........................................................
..O.OO.......OO.O.....................OO..O.O..OO...................OO..............................OO.............................................
....O...O.O...O.......................O.O.O.O.O.O................................OO....OO..........................................................
.....O...O...O.......................OO.........OO...............................OO....OO..........................................................
.........O............................O.........O.................................O....O...........................................................
......O.....O......................OOOO....O....OOOO..............................OO..OO....................................OO.............OO......
........O.O.......................OO..OOO.OOO.OOO..OO......................................................................O.................O.....
........O.O.......................O.......OOO.......O.........................O............O................................O.O...........O.O......
......O.O.O.O....................OO.....OOO.OOO.....OO.......................OOO.OOOOOOOO.OOO................................O.............O.......
.....OO.O.O.OO..............................................................OO...OOOOOOOO...OO.....................................................
...OO.O.O.O.O.OO.................OO.......OOO.......OO.....................OO..O..O....O..O..OO....................................................
....O...O.O...O.................O.....................O.....................O................O...................................OO...OO...........
.OO.O...O.O...O.OO............OO..OOOOO...OOO...OOOOO..OO..................OO................OO...............................OOO.O...O.OOO........
.OO.OO.OO.OO.OO.OO............O...O.O.OO.OO.OO.OO.O.O...O................OO.O.OOOOOOOOOOOOOO.O.OO............................O...O.....O...O.......
.OOO.O.O.O.O.O.OOO............OOO.O..O.O.O.O.O.O.O..O.OOO.................O.O..OOOOOOOOOOOO..O.O..............................OOO.......OOO........
OO...O.O...O.O...OO..........OO...O....O.O...O.O....O...OO.............OO.O..O..............O..O.OO............................O.........O.........
.....O.O...O.O.........................O.O...O.O.......................OO.O....................O.OO................................................
.....O.O...O.O.........................O.O...O.O.......................O.O......................O.O.........................O...............O......
....OO.OO.OO.OO.......................OO.OO.OO.OO.....................OO.OO......OOOOOOOO......OO.OO.........................O.OO.......OO.O.......
.......OO.OO.............................OO.OO....................................OOOOOO...................................O...OO.......OO...O.....
...................................................................................OOOO....................................OOOO.O.......O.OOOO.....
................................................................................OO......OO...................................OO...........OO.......
...............................................................................O..O....O..O........................................................
.................................................................................OO....OO..........................................................
................................................................................O........O.........................................................
..................................................................................O....O......................................OO.OO...OO.OO........
................................................................................OOO....OOO....................................OO..O...O..OO........
...............................................................................O..........O..................................O....O...O....O.......
.............................................................................................................................O..O.......O..O.......
...............................................................................O...O..O...O..................................O.............O.......
...................................................................................O..O...........................................O...O............
.................................................................................O......O........................................OO...OO...........
