!Name: 2x2 7-cell still lifes
!All 10 7-cell still lifes in the 2x2 (125/36) rule.
!www.conwaylife.com/wiki/index.php?title=2x2
!
OO.O...OO......OO.....O..OO...O.....
O...O..O.........O.O...O...O...O.OO.
..OO.....O.......O.O....OO.........O
..........O.......O.............OO..
...........O........................
............O.......................
O.......O.......O.........OO....O...
.O..O....O.......O.......O..O..O.O..
..O..O....O.O.....O......O.O.....O..
...OO........O.....O......O......O.O
...........OO.......O.............O.
.....................O..............
......................O.............
