!Name: eaters
!CStill lifes that eat gliders.
!CMost of the unusual ones were found
!Cby Dean Hickerson.
!
...........................................................................................................O..................
.......O.......................O.........................O....................O.............................O.................
........O.......................O.........................O....................O..........................OOO.................
......OOO.....................OOO.......................OOO..................OOO..............................................
................................................................OO...................OO.........................O.............
...........OO......................OO..OO.OO.................OO..O................OO..O..........................O............
...........O.O.....................O.O..O.OO.................O.OO.................O.OO.........................OOO............
.............O.......................OO.O......................O....................O.........................................
.............OO......................O..O.OO...................O....................O.........................................
.......................................OO.OO.............OO..OO...................OO.............................OO...........
.........................................................O..O....................O................................O...........
...........................................................OO..................OOO...............................O............
..............................................................................O..................................OO...........
..............................................................................OO..............................................
.O............................................................................................................................
..O...........................................................................................................................
OOO...........................................................................................................................
....O.........................................................................................................................
.....O.....................................................................................................O..................
...OOO......................................................................................................O.................
..........................................................................................................OOO.................
.......O......................................................................................................................
........O.......................O.............................................................................O...............
......OOO........................O.........................O........................O..........................O..............
...............................OOO..........................O........................O.......................OOO..............
..........O...............................................OOO......................OOO........................................
...........O............................OO........................OO........................OO....................OO..........
.........OOO.......................OO.O..O.....................OO..O.....................OO..O...................O..O..OO.....
...................................OO.OO.......................OO.O...................OO..O.O....................O.O....O..O..
..............OO.O................................................O.O.OO..............OO.O..OO....................O.....O.O.O.
..............OO.OOO...............OO.OO.......................OO.O.OO.O.................O.O.........................OO.O..O..
....................O...............O.OO.......................O..O......................O.O.........................O..O.....
..............OO.OOO..............O..............................OO.......................O.......................O....O......
...............O.O................OO..............................................................................OOOOO.......
...............O.O............................................................................................................
................O.........................OOO.......................................................................O.........
..........................................O........................................................................O.O........
...........................................O........................................................................O.........
...O........................O.....................O.......................O....................O..............................
....OO.......................OO....................OO......................OO...................OO............................
...OO.......................OO....................OO......................OO...................OO.............................
...........O........................O.....................O.......................O....................O...................O..
...........O.O......................O.O...................O.O.....................O.O..................O.O.................O.O
...........OO.......................OO....................OO......................OO...................OO..................OO.
...................................................................................................................OO.........
....OO.............................................................................................................O..O.......
....OO...O...................OO...O................OO...O..................OO...O...............OO...O...............OO..O....
........O.O..................O...O.O...............O...O.O.................O...O.O..............O...O.O...............O.O.O...
.........O.O..................O...O.O...............O...OO..................O...OO...............O...OO...............O..OO...
...........O...................O....O................O.......................O....................O..................OO.......
...........OO...............OOO.....OO.............O.OOOOO.................O.OOOOO..............O.OOOOO.......................
............................O......................OO....O................O.O...O..............O.O....O.......................
......................................................OOO.................O..O....O............O.O.OOO........................
...................................................OO.O....................OO....OO.............OO.O..........................
...................................................O.O........................................................................
..............................OO..............................................................................................
.......O.................O....O.O..........................................................O..................................
........O.................O.....O.............O..................O..........................O......OO.........................
......OOO..OO.OO........OOO.....O.OO...........O.................OOO......................OOO..OO.O..O...............OO.......
............O.OO.............OO.O.O..........OOO...OO...............O....OO.....................O.O.OO..........O....O.O......
............O.................O.O.O.................O..............OO...O..O....................O.O..............O.....O..O...
..........O.O.................O..O..................O.OO................O.O.O....................OO............OOO.....O.O.O..
..O.......OO................O.O..................OO.OO.O.........O.....OO.O..O...........OO.........................OO.O..O...
...O........................OO....................O...............O...O....OO............O..O.OO.....................O.O......
.OOO............................................O.O.............OOO...O.OO.O...............OO.O......................O.OO.....
..........OO....................................OO...................OO.O..O................O.O.....OO.O........O..O.O........
..........OO................OO...........................................OO.................O.OOO...O.OO........OOOO..O.OOO...
............................OO...............................................................O...O..................O.O.O..O..
..............................................................................................OOOO..............OO..OO....OO..
............................................................................................O.O.................OO............
..........................................................................................OOO.O.OO............................
..........................OOO............................................................O....O.O.............................
..........................O...............................................................OOO.O.O.O...........................
...........................O................................................................OO...OO...........................
.....O.................O...................O...................O......................O......................O................
...O.O...............O.O.................O.O.................O.O....................O.O.....OO.............O.O................
....OO................OO..................OO..................OO.....................OO....O.O..............OO................
.............OO................OO..................OO..................OO..................O..................................
........OO.O..O...........OO.O..O.............OO.O..O.............OO.O..O................OOO..O.....................OO........
.......O.O.OOO...........O.O.OOO........O....O.O.OOO.............O.O.OOO................O...OOO................OO.O..O........
....O..O.O...............O.O...........O.O...O.O.................O.O...................O.OOO..................O.O.OOO.........
....OOOO.OOO...........OOO.OOOOO........O..OOO.OO.OO...........OOO.OO.OO...............O....O............OO...O.O.............
........O...O.........O...O....O.........OO....O...O..........O....O...O................O.OO.O...........O..O.O.OOO...........
......O.O..OO.........OO..O.O...............OO.O...O.O........OO...O.OO...............O.O.O..O............OOOO.O...O..........
......OO...................OO................O.OO...OO..............O................O.OO...O..................O..OO..........
...........................................O.........................OO..............O...OOO................O.O...............
...........................................OO.........................O.............OO...O..................OO................
......................................................................O.O.....................................................
.......................................................................OO.....................................................
