!Name: conga-line
!C Guns create a line of mutually-supporting switch engines
!C based on a reaction by "Ian07".
!C Luka Okanishi and "wwei23", 26 Sep 2020
!Source: jslife-moving
!
......................................................OO.........................................................................O...........................................................................................
......................................................O.O........................................................................OOO.........................................................................................
........................................................O....OO.....................................................................O........................................................................................
....................................................OOOO.OO..O..O..................................................................OO........................................................................................
....................................................O..O.O.O.O.OO............................................................................................................................................................
.......................................................O.O.O.O..........................................................................O....................................................................................
........................................................OO.O.O.........................................................................O.O........O..........................................................................
............................................................O..........................................................................O..O...O...O..........................................................................
...................................................................................................................OO.....OO............OO....OOO.OO.OO......................................................................
..............................................OO..................O................................................OO.....OO.....................O.....O.....................................................................
...............................................O.......OO.........OOO............................................................................O....O......................................................................
...............................................O.O.....OO............O...........................................................................O...O....O..................................................................
................................................OO..................O.O..................................................................................O.O.................................................................
....................................................................O.O............................................OO.....OO......................OOOOO..O..O................................................................
.....................................................................O............................................OO.O...O.OO.........................OO..OO.................................................................
....................................................................................................................OO...OO............................OOO...................................................................
.....................................................................................................................OO.OO.............................O.O...................................................................
......................................................................................................................O.O...............................O....................................................................
.....................................................................................................................OO.OO........................O......OOO.................................................................
..........................................................OO........................OO..........................................................O.O........O.................................................................
..........................................................O.........................OO...........................................................OO..........................................................................
...........................................................OOO....................................................O.O.....O.O...............OO...............................................................................
...................................OO........................O.....................................................OO.....OO................OO...............................................................................
....................................O...........................................................................................................O............................................................................
..................................O.............................OO........................................................OOOO..............OOOOO............................................................................
..................................OOOOO..............OO........O.O.............................OO...........O.............O..O.............O.................................................................................
.......................................O.............O.........O...............................OO..........O.O...............O.O............OOO..............................................................................
....................................OOO............O.O........OO.......OO..................................O.O..OO...O...O....OO...............O.............................................................................
...................................O...............OO..................OO.................................OO.OO..O..O.O..OOO................OOOO.............................................................................
...................................OOOO...........................................OO.OO.......................O.O...O.O.....O..........OO...O...OO...........................................................................
.................................OO...O...OO...................................OO..O.O....................OO.O..OOOO.O.....OO..........OO....OOO..O..........................................................................
................................O..OOO....OO...................................OO.O..O....................OO.O.O...O...........................O.OO..........................................................................
................................OO.O..............................................O.O.........................O.O...O..........................O.............................................................................
...................................O...........................................OO.O.OO.........................O.O...O........................OO.............................................................................
...................................OO.........................................O..O.O............................O...OO...................................OO..................................................................
.............................................................................O.O.O.O....................................................................O.O..................................................................
...........................................................O..................O..O.OO.................................................OO..........OO....O....................................................................
...........................................OO..............OOO...................O....................................................O.........O..O..OO.OOOO......................OO........................................
............................................O.................O.................OO.....................OO..............................OOO......OO.O.O.O.O..O......................O.........................................
.........................................OOO.................OO..............O.O..OO...................OO................................O.........O.O.O.O.......................O.O.........................................
.........................................O...................................OO..O..O...OO.........................................................O.O.OO........................OO..........................................
..................................................................................OO...O..O.........................................................O........................................................................
......................................................................................O.OO...................................................................................................................................
.............................................................O........................O................................................OO........................OO..........OO..............................................
............................................................OO.....................OO.O................................................OO...............OO.......O..........O..O.............................................
............................................................O.O..................OOO.O..................................................................OO.....O.O..........O.O..............................................
................................................................................O..................OO..........................................................OO............O.......O.......................................
...................................................O............................OO..................O..............................................................................OOO.......................................
.................................................OOO...............................................O..............OO..............................................................O..........................................
................................................O...OO.............................................OO............O.O..............................................................OO.........................................
.................................................OOO..O..........................................................O..........................................................OO...............................................
...................................................O.O..........................................................OO..........................................................OO.OO............................................
.....................................................OO.........................................................................................................................O.O..........................................
....................................................O..O.............................................................................................OO..........................O.O.........................................
....................................................OOOO..............................................................................................O............................O.........................................
...........................................................................O.......................................................................OOO.............................OO........................................
......................................................OO......OO...OO.....O.O......OO..............................................................O.........................................................................
......................................................O.......OO...OO......O......O..O...OO.......................................................................O..........................................................
........................................................O.........................OO.OO..OO......................................................................OO............................O.............................
.......................................................OO........................................................................................................O.O.........................OOO........OO...................
..................................................................................................................................................................................OO..OO....O...........OO...................
.........................................................................................OOO...................................................................................OO..O...O...O..OO.............................
..............................................................................OO............O..................................................................................O...O.O....O.OO.O.............................
...............................................................................O.......O...O.................................................................................O.O....O.OOOOO..................................
............................................................................OOO.......O.OO..OOO..............................................................................OO.......O....O.OO..............................
............................................................................O.........O.......O......................................................................................O...O.O.OO..............................
.....................................................................................OO.............................................................................................O...O.O..................................
....................................................................................................................................................................................OO...O...................................
....................................................................................................................................................................O........................................................
.............................................................................................OO....................................................................O.O.......................................................
.....................................................................................O......O.O...OO................................................................O..........................O.............................
.....................................................................................OO....O..O...OO.......................................................................................OO..O.............................
.........................................................................................O...O............................................................................................O.....O............................
.........................................................................................O.O.............................................................................................OO..O.O.............................
..........................................................................................................................................................................................OO...O...............OO............
.........................................................................................O.O......................................................OO....OO.................................OOO................O..O...........
.........................................................................................O...O...................................................O.O.....O.......O.OO..........................................OO.O..........
.....................................................................................OO....O..O...OO...........................................OOO.......O.O...OOO.OO.............................................O..........
.....................................................................................O......O.O...OO..........................................O...O.......OOO.O...................................................OO.........
.............................................................................................OO...............................................O..OO.........OO.O...................................OO........................
............................................................................................................................................OO..............O..O....................................O...................OO...
............................................................................................................................................O.........O............OO............................OOO....................O....
.............................................................................................................................................O.......O.O...........OO................OO..........O........................O..
............................................................................................................................................OO.......O..O..O..O......................O.O..............OO..............OOOOO..
......................................................................................................................................................OO....OO...................O.....O...............O.............O.......
..................................................................................................................................................................................OO...OO..............O.O............OOO....
.................................................................................................................................................................................OO.....................OO...............O...
......................................................................................................................................................................................................................OOOO...
.................................................................................................................................................................OO..............................................OO...O...OO.
.................................................................................................................................................................O..O.OO.........................................OO....OOO..O
....................................................................................................................................OO.............................OO.O.O.O........................O.....................O.OO
..............................................................................................O......................................O..............................O.O.OO.O.....................OOO.....................O...
............................................................................................OO.....................................O................................O..O...O....................O.......................OO...
.............................................................................................OO......O.............................OOOOO..............OO.....O.O.....O.O...OO...................OO...........................
...................................................................................................OO...................................O.............O.......OO......O......................................................
....................................................................................................OO...............................OOO............O.O.......O.................................................OO...........
....................................................................................................................................O...............OO..........................................................O............
....................................................................................................................................OOOO.........................................................................OOO.........
..................................................................................................................................OO...O...OO......................................................................O.........
.................................................................................................................................O..OOO....OO................................................................................
...................................OO............................................................................................OO.O.................................................OO.....................................
...........................O.......O.........O......................................................................................O................................................O.O.....OO..............................
...........................OOO...O.O.......OOO......................................................................................OO...............................................O.......OO..............................
..............................O.OOO.......O........................................................................................................................................O.O.......................................
.............................O.OO.........OO.......................................................................................................................................OO........................................
.............................O..O...........................................................................................................OO....................................................O..........................
...O.................................O.......................................................................................................O................................................OO.O.O.........................
..O.O...OO.OO.......................O..O..................................................................O.O.............................OOO..................................OO............O.O.O.O.........................
...OO..O.O.O.O................O..O.O...O..................................................................OO..............................O...................................O..O........O..O.O.O.O.OO......................
.....OOO.O.O..O................OO..O...O...................................................................O..................................................................O.O.........OOOO.OO..O..O......................
.OOOO.......O.O.....................OOO........................................................................................................................................O.......O......O....OO........................
.O..O..OO.O.O.OO.....................O...............................................................................................................................................OOO....O.O..............................
...O.OO.O.O.O..O............................................................................................OO......................................................................O.......OO...............................
..OO.O..O....OO.............................................................................................OO.......................................................................O.......................................
.O......OO.OO......................................................O........O.................................................................................................OO..O..O.......................................
..OO......O.O......................................................OO.....OO...................................OO.............................................................OO..O..........................................
.....O.O.OOO......................................................O.O.......OO................................O.O.................................................................O.O........................................
....OO.O...................................................................O...................................O...................................................................O.O.......................................
....OOOO..OO.........................................................................................................................................................................O..O....................................
...O..O....O.........................................................................................................................................................................OOOO..........OO........................
...O..O...O...OO...................................................................................................................................................................................O.........................
...O...O..O.O..O................................................................................................................................................................O......OO...OO.......O.......................
.......OO.O.OO...................................................................................OO............................................................................O.O.....OO...OO......OOOO.....................
OO..OOOOO.O.O....................................................................................O.O............................................................................O.......................O....................
O....O....O...O.OO...............................................................................O..................................................................................................OOO..O...................
.OOO.O.O.O.OOOO.O...................................................................................................................................................................................O..OO....................
..O.....O..O....O....................................................................................................................................................................................OO......................
..O...O.OO...OOO......................................................................................................................................................................................O......................
..OO..O....O.O..........................................................................OO...........................................................................................................O.......................
....OO.OOOOO.............................................................................OO...........................................................................................................OOO....................
.OOO........O...........................................................................O...............................................................................................................O....................
.OOO...O...OO.............................................................................................................................................................OO.................................................
..O.OO............................................................................................................OO.......................................................O.................................................
.....O..........................OO.......O........................................................................O.O...................................................OOO..................................................
O...............................OO.....OOO............................................................O...........O.....................................................O....................................................
O.O...................................O...................................................OO.........OOO.....................................................................................................................
.OO....................OO.............OO...................................................OO........OOO...............................................................O.....................................................
........................O.................................................................O..........OOO...............................................................OOO...................................................
........................O.O...........................................................................OOO.................................................................O..OO...................................O..........
.....OO..................OO..............................................................................O...............................................................O..O.O..............OO.................OOO..........
....O..O......................OO...................................................................OO.O.O.O.............................................................O.OO.................O.................O.............
.....O.O......................OO...................................................................OOO.OO.O...........................................................OOO.O...................OOO..............OO............
......O............................................................................................OO....O...........................................................O....O..O..................O............................
........................................................................................................O............................................................OO...O.O.O..............................................
.........................................................................................................OOO..........................................................O..OO..O.........................................OO....
...........................O...............................................................................O..........................................................O.O..OO...........................................O....
......OO..................O.O..........................................................................................................................................O.O..............................................O.OO.
.......O...................O.............................................................................................................................................O.OO...................................OO....OOO..O.
.......O................................................................................................................................................................O..OO...................................OO...O...OO..
........OOO.............................................................................................................................................................OO...........................................OOOO....
.....OOO....O......................OO.........OO..............................OO...................................................................................................OO..................OO...............O....
.......O....O......................OO........OO...............................O.O.................................................................................................O..O......OO........O.O............OOO.....
............O..................................O..............................O..................................................................................................OOOOOO.....O.........O.............O........
.......O..O.O....................................................................................................................................................................OO.O.....O.O........OO..............OOOOO...
.......O.O..OO......................O.............................................................................................................................................OOO.....OO.............................O...
........O....OOO.........O........OOO..............................................................................................................................................O...................................O.....
..............O.O.........O......O...........................................................................................OO...............................................................O........................OO....
...........OO.OO.O......OOO......OO..................................................................................OO.....O.OO..OO..........................................................OOO............................
..........O..O...O...................................................................................................OO.....O.O...OO.............................................................O...........................
...........O.O...OO......................................O..................................................................O...................................................................OO...........................
............O.........OO.................................OO...............................................................O..................................................................................................
......................O...........O.....................O.O..................................................................................................................................................................
........................O........O.O......................................................................................O..................................................................................................
.......................OO........OO.........................................................................................O...............................OO.......OO......................................................
......................O..............................................................................................OO.....O.O...OO.......................O..O.OO.O..O..OO.OO........O......................................
.....................O.OO............................................................................................OO.....O.OO..OO.......................O.O...O.OO..OOO...OOO.....O.O.....................................
....................O..O.O...................................................................................................OO.............................O.OO.....OO....O....O....O.O..................OO.................
....................OO..O.....................................................................................................................................O.OOO.O..O.OO.OO.OO.....O............OO.....O.O................
.........................................OO...................................................................................................................O.....O..OO.O.O..........OOO.........OO.......O................
.......................................O..O..................................................................................................................OO.O.OO....O.O.O............O..................OO...............
............................OO.........OOO....................................................................................................................O.O..O.OOOO.O.OO...............................................
.............................O......O.........................................................................................................................O..O..O....O.....................O.............................
..........................OOO.......OOOO.......................................................................................................................OO.....OOO.....................O.O.OO.........................
..........................O............O.............................................................................................................................OO.......................O.O.O.O........................
....................................OOO....................................................................................................................................................OO.O.O.O.O..O.....................
....................................O......................................................................................................................................................O..O..OO.OOOO.....................
.............................................................................................................................................................................................OO....O.........................
...................................................................................................................................................................................................O.O.......................
....................................................................................................................................................................................................OO.......................
..............................................................................................................................................................................................O..............................
............................................................................................................................................................................................OOO........OO....................
....................................................OO...........................................................................................................................OO..OO....O...........OO....................
...................................................O.O........................................................................................................................OO..O...O...O..OO..............................
.................................................OOO..........................................................................................................................O...O.O....O.OO.O..............................
................................................O...O.......................................................................................................................O.O....O.OOOOO...................................
..........OO.....OO.............................O..OO......O................................................................................................................OO.......O....O.OO...............................
..........OO.....OO...........................OO..........O.O.......................................................................................................................O...O.O.OO...............................
.............................................O.............O.......................................................................................................................O...O.O...................................
.............................................O.....................................................................................................................................OO...O....................................
..........O.......O........................OO........OO............................................................................................................O.........................................................
.........OOO.....OOO.......................O.........OO...........................................................................................................O.O........................................................
.........O.........O.....................O.O..OO...................................................................................................................O.........................................................
..........OOO...OOO......................OO...OO...................................................................................................................................................OO........................
....................................................................................................................................................................................................OO.......................
.............O.O...............................................OO..................................................................................................................................OO........................
...............................................................OO........................................................................................OO.....................................O.............OO.............
.....................................................................................OO..................................................................O...................................................O..O............
................................................OO...................................O................................................O......OO...OO.......O......OO..........................................OO.O...........
..........OO.....OO............................O.O................O......OO...OO.......O.............................................O.O.....OO...OO......OOOO....OO.............................................O...........
..........OO.....OO............................O.................O.O.....OO...OO......OOOO.....OO..............................OO.....O.......................O..................................................OO..........
..............................................OO..................O.......................O...OO...............................O.O........................OOO..O..................................OO.........................
......................................................................................OOO..O....O..............................O..........................O..OO....................................O...................OO....
......................................................................................O..OO................................................................OO.....OO............................OOO....................O.....
.......................................................................................OO...................................................................O.....OO................OO..........O........................O...
........................................................................................O..................................................................O........................O.O..............OO..............OOOOO...
.......................................................................................O....................................................................OOO.......................O...............O.............O........
........................................................................................OOO.......................................................O...........O.......................OO..............O.O............OOO.....
..........................................................................................O.....................................OO.................O...................................................OO...............O....
.....OO.....................................................OO...................................................................O...............OOO.................................................................OOOO....
......O......................................................O................................................................OOO...............................................................................OO...O...OO..
....O.....................................................OOO.................................................................O....................................O.OO.........................................OO....OOO..O.
....OOOOO..............OO.................................O......................................................................................................OOO.O.O.O........................O.....................O.OO.
.........O.............O.....................................................................................................O..................................O....O.OO.O..O..................OOO.....................O....
......OOO............O.O.................................O...........OOO.....................................................OOO.................................OOO..O...OOOO.................O.......................OO....
.....O...............OO..................................OOO........O...O.......................................................O..OO..............................OOO..OO.....................OO............................
.....OOOO...................................................O..OO........O..........................O..........................O..O.O..............OO.................OOO..O.................................................
...OO...O...OO.............................................O..O.O..............OO.................OOO.........................O.OO.................O.................O....OO...................................OO............
..O..OOO....OO............................................O.OO......OO...O.....O.................O..........................OOO.O...................OOO..............OO........................................O.............
..OO.O..................................................OOO.O.........OOO.......OOO..............OO........................O....O..O..................O.........................................................OOO..........
.....O.........................................O.......O....O..O..................O........................................OO...O.O.O.............................................................................O..........
.....OO.......................................OO.......OO...O.O.O...........................................................O..OO..O.........................................OO..............................................
..............................................O.O.......O..OO..O.........................................OO.................O.O..OO...........................................O......OO......................................
........................................................O.O..OO...........................................O..................O.O..............................................O.OO..O.O.....OO...............................
.............OO..........................................O.O..............................................O.OO.................O.OO...................................OO....OOO..O..O.......OO...............................
..............O............................................O.OO...................................OO....OOO..O................O..OO...................................OO...O...O.O.OO........................................
...........OOO............OO..............................O..OO...................................OO...O...OO.................OO...........................................OOOO..O...........................................
...........O......OO.....OO...............................OO...........................................OOOO..............................OO..................OO...............O.OO...............O...........................
..................O.O......O.........................................OO..................OO...............O..............................OO.......OO........O.O............OOO..O............OO.O.O..........................
....................O................................................OO.......OO........O.O............OOO........................................O.........O.............O.....O...........O.O.O.O..........................
...............O..O.OO.........OO.............................................O.........O.............O.........................................O.O........OO..............OOOOO.........O..O.O.O.O.OO.......................
...............OOOO...O....OO..OO...........................................O.O........OO..............OOOOO.............................OOO....OO...........................O...........OOOO.OO..O..O.......................
...................O.OO...O.O...............................................OO.............................O.............................O...................................................O....OO.........................
...............OOOO...O...O..............................................................................O................................O.........O......................................O.O...............................
..............O.....OO.....O..O.................................................O........................OO.........................................OOO....................................OO................................
.............O.OO.O.O.........O.................................................OOO....................................................................O.....................................................................
.............O.O....O........O.....................................................O..................................................................OO.....................................................................
............OO.O.O.O.OO.......OOO.................................................OO.........................................................................................................................................
............O..O.O.O..O.........O............................................................................................................................................................................................
..............O...O.O........................................................................................................................................................................................................
...............OO...OO............................................................................................OO.......OO...OOO..........................................................................................
................O.O...........................OO.......OO.....................OOO................................O..O.OO.O..O..O.O.O........O................................................................................
..............O...OOOO.......................O..O.OO.O..O..OOOOO........O.....O..................................O.O...O.OO..OOO...OOO.....O.O...............................................................................
.............O.OO....O.......................O.O...O.OO..OOO.O.OOO.....O.O.....O..................................O.OO.O...OO....O....O....O.O..................OO...........................................................
.............O.....O..........................O.OO.O...OO....O....O....O.O..................OO......................O..OO.O...O.O.OO.OO.....O............OO.....O.O..........................................................
..............OOOOOO.O..........................O.OO.OO..OOOO.OO.OO.....O............OO.....O.O.....................O......OO...O.O..........OOO.........OO.......O..........................................................
................O...O.O.........................O.O....OO.O.O.O..........OOO.........O........O....................OO.O.OO....O.O.O............O..................OO.........................................................
...................O..O........................OO.OOOO.O..O.O.O............O..................OO....................O.O..O.OOOO.O.OO.........................................................................................
....................OO..........................O.O..O.OOOO.O.OO....................................................O..O..O....O.....................O.......................................................................
................................................O..O..O....O.....................O...................................OO.....OOO.....................O.O.OO...................................................................
.................................................OO.....OOO.....................O.O.OO.....................................OO.......................O.O.O.O..................................................................
.......................................................OO.......................O.O.O.O..........................................................OO.O.O.O.O..O...............................................................
.............................................................................OO.O.O...O..O.......................................................O..O..OO.OOOO...............................................................
.............................................................................O..O..OO.OOOO.........................................................OO....O...................................................................
...............................................................................OO....O...................................................................O.O.................................................................
.....................................................................................O.O..................................................................OO.................................................................
......................................................................................OO.....................................................................................................................................
