!Name: gun-2c5-p690
!Cp690 gun for a 2c/5 spaceship.
!CBased on a glider synthesis primarily by Noam Elkies.
!CJason Summers, 28 Oct 03
!C(Note: The first gun for this spaceship was built by
!CDave Greene in April '03. This one was constructed
!Cindependently.)
!Source: jslife-oversize-20100113
!
.....................OO................................................................................................................................................................................................................................................................................................................................................................................................................................................................................................................................................................................................................................................................................................................................................................................................................................................................................
.....................OO................................................................................................................................................................................................................................................................................................................................................................................................................................................................................................................................................................................................................................................................................................................................................................................................................................................................................
............................................................................................................................................................................................................................................................................................................................................................................................................................................................................................................................................................................................................................................................................................................................................................................................................................................................................OO.........................
............................................................................................................................................................................................................................................................................................................................................................................................................................................................................................................................................................................................................................................................................................................................................................................................................................................................................OO.........................
.....................OOO...............................................................................................................................................................................................................................................................................................................................................................................................................................................................................................................................................................................................................................................................................................................................................................................................................................................................................
....................O...O..............................................................................................................................................................................................................................................................................................................................................................................................................................................................................................................................................................................................................................................................................................................................................................................................................................................................................
............................................................................................................................................................................................................................................................................................................................................................................................................................................................................................................................................................................................................................................................................................................................................................................................................................................................................O..........................
...................O.....O.................................................................................................................................................................................................................................................................................................................................................................................................................................................................................................................................................................................................................................................................................................................................................................................................................................................OOO.........................
...................OO...OO................................................................................................................................................................................................................................................................................................................................................................................................................................................................................................................................................................................................................................................................................................................................................................................................................................................O...O........................
............................................................................................................................................................................................................................................................................................................................................................................................................................................................................................................................................................................................................................................................................................................................................................................................................................................................................O..........................
......................................OOOO...............................................................................................................................................................................................................................................................................................................................................................................................................................................................................................................................................................................................................................................................................................................................................................................................................................O.....O.......................
......................O......OO......OO..O..............OO...............................................................................................................................................................................................................................................................................................................................................................................................................................................................................................................................................................................................................................................................................................................................................................................................................O.....O.......................
.....................O.O.....OO.....OO..O...............OO................................................................................................................................................................................................................................................................................................................................................................................................................................................................................................................................................................................................................................................................................................................................................................................................................O...O........................
.....................O.O.............O..O..................................................................................................................................................................................................................................................................................................................................................................................................................................................................................................................................................................................................................................................................................................................................................................................................................................OOO.........................
.................O...O................OO..............................................OO...............................................................................................................................................................................................................................................................................................................................................................................................................................................................................................................................................................................................................................................................................................................................................................................................................
..............OOOO...O................................................................OO...............................................................................................................................................................................................................................................................................................................................................................................................................................................................................................................................................................................................................................................................................................................................................................................................................
......OO.....OOOO....O..O.............OO........................................................................................................................................................................................................................................................................................................................................................................................................................................................................................................................................................................................................................................................................................................................................................................................................OO..O.O................................................
......OO.....O..O....O..O............O..O................................................................................................................................................................................................................................................................................................................................................................................................................................................................................................................................................................................................................................................................................................................................................................................................OO....OOO.O...O............OO.................................
.............OOOO.....OO............OO..O...............OO...............................................................................................................................................................................................................................................................................................................................................................................................................................................................................................................................................................................................................................................................................................................................................................................OO...OO......O.............OO.................................
..............OOOO...................OO..O..............OO.....................................................................................................................................................................................................................................................................................................................................................................................................................................................................................................................................................................................................................................................................................................................................................................................O.OOOOO.................................................
.................O....................OOOO......................................................................................................................................................................................................................................................................................................................................................................................................................................................................................................................................................................................................................................................................................................................................................................................................OOO...............................OO...................
......................................................................................O......................................................................................................................................................................................................................................................................................................................................................................................................................................................................................................................................................................................................................................................................................................................................................................O.O...O.O..........O..O.......O...........
.....................................................................................OOO........................................................................................................................................................................................................................................................................................................................................................................................................................................................................................................................................................................................................................................................................................................................................................OOO............O...O...........O.......OO...O..........
...................................................OO................................OOO.......................................................................................................................................................................................................................................................................................................................................................................................................................................................................................................................................................................................................................................................................................................................................................O.OOOOO.....O...........O.......O......O.....O..........
...............OO.....OO..........................OOOO.......OO..........................................................................................................................................................................................................................................................................................................................................................................................................................................................................................................................................................................................................................................................................................................................................................................OO...OO......O...O...O.....O...O......O.......OOOOO...........
...............OO.....OO.........................O.O.O......O..OO...........OO.....OO...OO...............................................................................................................................................................................................................................................................................................................................................................................................................................................................................................................................................................................................................................................................................................................................................OO....OOO.O...O...O...........O........O..O...................
.................................................OO.OOO....OOOOOO...........OO.....OO...OO......................................................................................................................................................................................................................................................................................................................................................................................................................................................................................................................................................................................................................................................................................................................................................OO..O.O........O...O..............OO...................
....................................................OO.O.....OOOO..............................O.............................................................................................................................................................................................................................................................................................................................................................................................................................................................................................................................................................................................................................................................................................................................................................O.O...O.O.................................
....................................................OO.O.......................................OO......................................................................................................................................................................................................................................................................................................................................................................................................................................................................................................................................................................................................................................................................................................................................................................................................
................O.....O...............................................................O...OO....OO........OO..........OO.........................................................................................................................................................................................................................................................................................................................................................................................................................................................................................................................................................................................................................................................................................................................................................OO....................
...............OOO...OOO............................OO.O.............................O.O..OO....OOO.......OO..........OO........................................................................................................................................................................................................................................................................................................................................................................................................................................................................................................................................................................................................................................................................................................................................................O..O...................
..............OO..O.O..OO...........................OO.O.....OOOO....................O.O..OO....OO..............................................................................................................................................................................................................................................................................................................................................................................................................................................................................................................................................................................................................................................................................................................................................................................O......................
..............OO.OO.OO.OO..........................O..O....OOOOOO...........OO........O........OO...............................................................................................................................................................................................................................................................................................................................................................................................................................................................................................................................................................................................................................................................................................................................................................................O......................
.................OO.OO..............................OO......O..OO...........OO.................O.........................................................................................................................................................................................................................................................................................................................................................................................................................................................................................................................................................................................................................................................................................OO.....................................................................................O.O....................
...............O.O...O.O............................OO.......OO..........................................................................................................................................................................................................................................................................................................................................................................................................................................................................................................................................................................................................................................................................................................................OO.....................................................................................O.O....................
..............O..O...O..O................................................................................................................................................................................................................................................................................................................................................................................................................................................................................................................................................................................................................................................................................................................................................................OO......................................................................................O.....................
.................O...O....................................................................................................................................................................................................................................................................................................................................................................................................................................................................................................................................................................................................................................................................................................................................................................O............................................................................................................
..............O.O.....O.O..................................................................OO............................................................................................................................................................................................................................................................................................................................................................................................................................................................................................................................................................................................................................................................................................O.O...........................................................................................................
...............O.......O...................................................................OO............................................................................................................................................................................................................................................................................................................................................................................................................................................................................................................................................................................................................................................................................................O.O..................................................................................OO...OO..................
..........................................................................................................................................................................................................................................................................................................................................................................................................................................................................................................................................................................................................................................................................................................................................................................................O...................................................................................O.....O..................
.....................................................................................................................OOO...............................................................................................................................................................................................................................................................................................................................................................................................................................................................................................................................................................................................................................................................................................................................................................................
......................O.............................................................................................O...O......................................................................................................................................................................................................................................................................................................................................................................................................................................................................................................................................................................................................................................................................................................................................................O...O...................
.....................O.O...........................................................................................O.....O.....O.O.....................................................................................................................................................................................................................................................................................................................................................................................................................................................................................................................................................................................................................................................OO...OO..................................................................................OOO..........OO........
....................................................................................................................O...O....O...O.....................................................................................................................................................................................................................................................................................................................................................................................................................................................................................................................................................................................................................................................O.O.O.O..............................................................................................O...O......
...................O.....O...........................................................................................OOO.....O............OO............................................................................................................................................................................................................................................................................................................................................................................................................................................................................................................................................................................................................................................OOOOO..............................................................................................O.....O...OO
......................O..............................................................................................OOO....O....O........OO.............................................................................................................................................................................................................................................................................................................................................................................................................................................................................................................................................................................................................................................OOO...............................................................................................O...O.OO..OO
...................OO...OO..........................................................OOO...OOO................................O...............................................................................................................................................................................................................................................................................................................................................................................................................................................................................................................................................................................................................................................O............O................................................................................................O.....O.....
...................................................................................O..O...O..O...............................O...O.........................................................................................................................................................................................................................................................................................................................................................................................................................................................................................................................................................................................................................................OOOO.............................................................................................................O...O......
...................................................................................OO.O...O.OO.................................O.O...................................................................................................................................................................................................................................................................................................................................................................................................................................................................................................................................................................................................................................OO...O.O.OO.............................................................................................................OO........
.....................................................................................................................................................................................................................................................................................................................................................................................................................................................................................................................................................................................................................................................................................................................................................................OO..O..O.OOO......................................................................................................................
...................OO...OO................................................................................................................................................................................................................................................................................................................................................................................................................................................................................................................................................................................................................................................................................................................................................O.O.OO.......................................................................................................................
...............OO.....O....................................................................................................................................................................................................................................................................................................................................................................................................................................................................................................................................................................................................................................................................................................................................................OOOO........................................................................................................................
...............OO..O.....O.................................................................................................OO................................................................................................................................................................................................................................................................................................................................................................................................................................................................................................................................................................................................................................................O........................................................................................................OO...............
...........................................................................................................................OO................................................................................................................................................................................................................................................................................................................................................................................................................................................................................................................................................................................................................................................................................................OO.......................................................OO...............
.....................O.O.....................................................................................................................................................................................................................................................................................................................................................................................................................................................................................................................................................................................................................................................................................................................................................................................................O.........................................................................
......................O............................................................................................................................................................................................................................................................................................................................................................................................................................................................................................................................................................................................................................................................................................................................................................................................OO......O.O.........................................................................
............O........................................................................................................O.....O.....................................................................................................................................................................................................................................................................................................................................................................................................................................................................................................................................................................................................................................OO.................OO............................O.O.....OOO..........................................................................
...........OO........O..............................................................................................OOO...OOO....................................................................................................................................................................................................................................................................................................................................................................................................................................................................................................................................................................................................................................OO...............O..O..................OO.......O......OOO............................................................................
..........OO....OO..O.O.........................O...................................................................O.OO.OO.O....................................................................................................................................................................................................................................................................................................................................................................................................................................................................................................................................................................................................................................OO.......................OOO...........OO.......O..O..O..O............................................................................
OO.......OOO....OO..O.O.........................OOO................................................................OO.......OO....................................................................................................................................................................................................................................................................................................................................................................................................................................................................................................................................................................................................................................O....................O.O...O...................O......OO.............................................................................
OO........OO....OO...O.............................O...............................................................OO.......OO...................................................................................................................................................................................................................................................................................................................................................................................................................................................................................................................................................................................................................................O.O..............OO...O.O...O....................O.O..................................................................................
...........OO.....................................OO...............................................................OOO.....OOO...................................................................................................................................................................................................................................................................................................................................................................................................................................................................................................................................................................................................................................O.O.......................OO......................OO..........................................................OOO...OOO...............
............O........................................................................................................OOO.OOO......................................................................................................................................................................................................................................................................................................................................................................................................................................................................................................................................................................................................................................O...................O...O...................................................................................O..O...O..O..............
..................OO...OO...........................OOO................................................................O.O....................................................................................................................................................................................................................................................................................................................................................................................................................................................................................................................................................................................................................................................................................................................................................OO.O...O.OO..............
..................OO...OO...........................OOO.............................OO.....OO.......................O..O.O..O..........................................................................................................................................................................................................................................................................................................................................................................................................................................................................................................................................................................................................................................................................................................................................................................
....................................................................................OO.....OO......................O..O...O..O.................................................................................................................................................................................................................................................................................................................................................................................................................................................................................................................................................................................................................................OO...OO.................................................................................................................................
....................OOO.............................................................................................OO.....OO..................................................................................................................................................................................................................................................................................................................................................................................................................................................................................................................................................................................................................................O.O.O.O..............OO.....OO..........................................................................................................
....................OOO.........................................................................................................................................................................................................................................................................................................................................................................................................................................................................................................................................................................................................................................................................................................................................OOOOO.............................................................................................OO.....OO............................
.....................O............................OO...OO........................................................................................................................................................................................................................................................................................................................................................................................................................................................................................................................................................................................................................................................................................................OOO...............O.........O....................................................................OO.....OO............................
...................................................OOOOO.............................................................................................................................................................................................................................................................................................................................................................................................................................................................................................................................................................................................................................................................................................O............O................O...O.O...O.........................................................................................................
....................................................OOO............................................................................................................................................................................................................................................................................................................................................................................................................................................................................................................................................................................................................................................................................................OOOO............................O...O.O...O.........................................................................................................
.....................................................O.......................................................................................................................................................................................................................................................................................................................................................................................................................................................................................................................................................................................................................................................................................OO...O.O.OO............................O.O...O.O..........................................................................................................
...............................................................................................................................................OO............................................................................................................................................................................................................................................................................................................................................................................................................................................................................................................................................................................................OO..O..O.OOO............................O.....O...........................................................................................................
...............................................................................................................................................OO.................................................................................................................................................................................................................................................................................................................................................................................................................................................................................................................................................................................................O.O.OO..........................................................................................................OOO...OOO............................
....................OO.............................................................................................................................................................................................................................................................................................................................................................................................................................................................................................................................................................................................................................................................................................................................OOOO...........................................................................................................O..O.O..O............................
....................OO...............................................................................................................................................................................................................................................................................................................................................................................................................................................................................................................................................................................................................................................................................................................................O...........................................................................................................O...O.O...O...........................
...................................................................................................................................................................................................................................................................................................................................................................................................................................................................................................................................................................................................................................................................................................................................................................O..............................................................................................O..O.O..O............................
...................................................................................................................................................................................................................................................................................................................................................................................................................................................................................................................................................................................................................................................................................................................................................................O................................................................................................O...O..............................
..................................................................................................................................................................................................................................................................................................................................................................................................................................................................................................................................................................................................................................................................................................................................................................................................................................................................OO.....OO............................
....................................................OO..............................................................OO.....OO...............................................................................................................................................................................................................................................................................................................................................................................................................................................................................................................................................................................................................................OO...................................................................................................OOO.....OOO...OO.....OO...............
....................................................OO..............................................................OO.....OO...............................................................................................................................................................................................................................................................................................................................................................................................................................................................................................................................................................................................................................OO..OO...OO..........................................................................................OOO.....OOO...OO.....OO...............
..............................................................................................................................................OOO......................................................................................................................................................................................................................................................................................................................................................................................................................................................................................................................................................................................................................................................................................................................................................
.............................................................................................................................................O...O..................................................................................................................................................................................................................................................................................................................................................................................................................................................................................................................................................................................................................................OO.....OO..........................................................................................................
............................................................................................................................................O.....O.................................................................................................................................................................................................................................................................................................................................................................................................................................................................................................................................................................................................................................OO.....OO..........................................................................................................
............................................................................................................................................O.....O.....O.........................................................................................................................................................................................................................................................................................................................................................................................................................................................................................................................................................................................................................................................................................................OOO..................................
...............................................................................................................................................O......O.O.......................................................................................................................................................................................................................................................................................................................................................................................................................................................................................................................................................................................................OO...OO...........................................................................................OOO..................................
.............................................................................................................................................O...O...O.O...........OO............................................................................................................................................................................................................................................................................................................................................................................................................................................................................................................................................................................................................................................................................................OOOOO.................................
..............................................................................................................................................OOO...O..O...........OO...........................................................................................................................................................................................................................................................................................................................................................................................................................................................................................................................................................................................................................................................................................OO...OO................................
...............................................................................................................................................O.....O.O...........................................................................................................................................................................................................................................................................................................................................................................................................................................................................................................................................................................................................O............................................................................................OO...OO................................
......................................................................................................................................................O.O..........................................................................................................................................................................................................................................................................................................................................................................................................................................................................................................................................................................................................O...................................................................................................................................
........................................................................................................................................................O....................................................................................................................................................................................................................................................................................................................................................................................................................................................................................................................................................................OO........................................................................................................................................................................
.............................................................................................................................................................................................................................................................................................................................................................................................................................................................................................................................................................................................................................................................................................................................OO........................................................................................................................................................................
............................................................................................................................................................................................................................................................................................................................................................................................................................................................................................................................................................................................................................................................................................................................................................O.......O...........................................................................................OO...OO................................
............................................................................................................................................................................................................................................................................................................................................................................................................................................................................................................................................................................................................................................................................................................................................................OO.....OO...........................................................................................OO...OO..OO............................
....................................................................................................................................................OO......................................................................................................................................................................................................................................................................................................................................................................................................................................................................................................................................................................................................OOO...OOO............................................................................................OOOOO...OO............................
....................................................................................................................................................OO........................................................................................................................................................................................................................................................................................................................................................................................................................................................................................................................................................................................................OO.OO...............................................................................................OOO..................................
..............................................................................................................................................................................................................................................................................................................................................................................................................................................................................................................................................................................................................................................................................................................................................................O...O...............................................................................................OOO..................................
...........................................................................................................................................................................................................................................................................................................................................................................................................................................................................................................................................................................................................................................................................................................................................................OO.......OO.................................................................................................................................
...........................................................................................................................................................................................................................................................................................................................................................................................................................................................................................................................................................................................................................................................................................................................................................OO.......OO...........................................................................................................O.....................
...............................................................................OO............................................................................................................................................................................................................................................................................................................................................................................................................................................................................................................................................................................................................................................OOO...............................O.O....................................................................OO........................................OOOO...................
...............................................................................OO...........................................................................................................................................................................................................................................................................................................................................................................................................................................................................................................................................................................................................................................O...O..........................O..O...O..O................................................................OO.......................................OO.O.O..................
...........................................................................................................................................................................................................................................................................................................................................................................................................................................................................................................................................................................................................................................................................................................................O.....O..........................OOO...OOO.........................................................................................................OOO.O..O..OO.............
...........................................................................................................................................................................................................................................................................................................................................................................................................................................................................................................................................................................................................................................................................................................................OO.O.OO.............................................................................................................................................OO.O.O...OO.............
..............................................................................................................................................O.....O.................................................................................................................................................................................................................................................................................................................................................................................................................................................................................................................................................................O.........................................................................................................................................................OOOO...................
.............................................................................................................................................OOO...OOO...............................................................................................................................................................................................................................................................................................................................................................................................................................................................................................................................................................O.O............................................................................................................................................O............O.....................
............................................................................................................................................OO.O...O.OO...........................OO.....................................................................................................................................................................................................................................................................................................................................................................................................................................................................................................................OO.........O...OO....O.............................OO.....OO..............................................................................................OOO.................................
..................................................................................................................................................................................OO.....................................................................................................................................................................................................................................................................................................................................................................................................................................................................................................................OO.........O...OO...O.O............................OO.....OO.............................................................................................OOOOO................................
..................................................................................................................................................................................OO................................................................................................................................................................................................................................................................................................................................................................................................................................................................................................................................O...OO...O.O.................................................................................................................................O.O.O.O...............................
...............................................................................................................................................O...O..............................O..................................................................................................................................................................................................................................................................................................................................................................................................................................................................................................................................O.O......O......................................................................................................OOO.........................OO...OO...............................
...............................................................................................................................................O...O.............................O.O..................................................................................................................................................................................................................................................................................................................................................................................................................................................................................................................................O.............................................................................................................O...O..............................................................
.................................................................................................................................................................................O.O...............................................................................................................................................................................................................................................................................................................................................................................................................................................................................................................................................................................................................................................O.....O.............................................................
.............................................................................OO...OO..............................................................................................O................................................................................................................................................................................................................................................................................................................................................................................................................................................................................................................................................................................................................................................OO.O.OO..........................O..................................
....................................................................O.O........OOO............................................................................................................................................................................................................................................................................................................................................................................................................................................................................................................................................................................................................................................................................................................................................................O....................O.O.................................
....................................................................O..O......O...O.....................................................................................................................................................................................................................................................................................................................................................................................................................................................................................................................................................................................................................................OO...................................................................................................................O.O...................O.O.................................
...........................................................OO..........OO......O.O.............................................................................................OO...OO..................................................................................................................................................................................................................................................................................................................................................................................................................................................................................................................................OO............................................................................................................O....OO...O.........OO........O..................................
...........................................................OO........O...OO.....O..............................................................................................O.O.O.O...............................................................................................................................................................................................................................................................................................................................................................................................................................................................................................................................................................................................................................................O.O...OO...O.........OO........OO.................................
................................................................OO.....OO.......................................................................................................OOOOO................................................................................................................................................................................................................................................................................................................................................................................................................................................................................................................................................................................................................................................O.O...OO...O...................OO.................................
...............................................................O....O..O.........................................................................................................OOO..................................................................................................................................................................................................................................................................................................................................................................................................................................................................................................................................................................................................................................................O......O.O....................OO.................................
....................................................................O.O...........................................................................................................O............O..............................................................................................................................................................................................................................................................................................................................................................................................................................................................................................................................................................................................................................................O........................................................
..............................................................................................................................................................................................OOOO.....................................................................................................................................................................................................................................................................................................................................................................................................................................................................................................................................................................................................................................................................................................
.............................................................................................................................................................................................OO.O.O...OO...............................................................................................................................................................................................................................................................................................................................................................................................................................................................................................................................................................................................................................................................................................
.............................................................................................................................................OO.....OO......................................OOO.O..O..OO.................................................................................................................................................................................................................................................................................................................................................................................................................................................................................................................O.....O.......................................................................................................................................................................
..........................................................................OO........................O.O......................................OO.....OO.......................................OO.O.O.....................................................................................................................................................................................................................................................................................................................................................................................................................................................................................................................OOO...OOO...................................................................................O......................OO..........................................................
..........................................................................OO.......................O..O.......................................................................................OOOO.....................................................................................................................................................................................................................................................................................................................................................................................................................................................................................................................O..OO.OO..O.................................................................................O.O......O..............O..O........................................................
..................................................................................................OO..........OO...............................................................................O.......................................................................................................................................................................................................................................................................................................................................................................................................................................................................................................................OOO.....OOO.....................................................................OO.........O...OO...O.O......OOO................................................................
..........................................................................................O.....OO...O........OO...........................................................................................................................................................................................................................................................................................................................................................................................................................................................................................................................................................................OO..........................................................................................................OO.........O...OO...O.O.....O...O.O.............................................................
.........................................................................................O.O......OO.....OO................................................................................................................................................................................................................................................................................................................................................................................................................................................................................................................................................................................OO.....................................................................................................................O...OO....O......O...O.O...OO........................................................
...........................................................................O.....O......O...O......O..O....O.......................................................................................................................................................................................................................................................................................................................................................................................................................................................................................................................................................................................................................................................................................................O.O..............OO.................................................................
..........................................................................OOO...OOO......OOO........O.O................................................................................OO................OO.........................................................................................................................................................................................................................................................................................................................................................................................................................................................................................................................................................................................................O.................O...O............................................................
.........................................................................OO..O.O..OO...OO...OO.........................................................................................OO................OO..............................................................................................................................................................................................................................................................................................................................................................................................................................................................................................................................................................................................................OO.O.OO.......................................................................
.........................................................................OO.OO.OO.OO..........................OO............................................................................................................................................................................................................................................................................................................................................................................................................................................................................................................................................................................O............................................................................................................................O.....O.......................................................................
............................................................................OO.OO.............................OO...........................................................................................................................................................................................................................................................................................................................................................................................................................................................................................................................................................................O.O............................................................................................................................O...O........................................................................
..........................................................................O.O...O.O.......................................................................................................................................................................................................................................................................................................................................................................................................................................................................................................................................................................................................O...O............................................................................................................................OOO......OO.....OO..........................................................
.........................................................................O..O...O..O.......................................................................................................................................................................................................................................................................................................................................................................................................................................................................................................................................................................................................OOO.........................................................................................................................................................................................................
............................................................................O...O........................................................................................................................................................................................................................................................................................................................................................................................................................................................................................................................................................................................................OO...OO...................................................................................................................................O.........O.........................................................
.........................................................................O.O.....O.O....................................................................................................................OOO........................................................................................................................................................................................................................................................................................................................................................................................................................................................................................................................................................................................................................O...O.O...O.........................................................
..........................................................................O.......O...........................OOO......................................................................................OO.OO......................................................................................................................................................................................................................................................................................................................................................................................................................................................................................................................................................................................OO...............................O...O.O...O.........................................................
..............................................................................................................OOO......................................................................................OO.OO......................................................................................................................................................................................................................................................................................................................................................................................................................................................................................................................................................................................OO................................O.O...O.O..........................................................
.............................................................................................................O...O.....................................................................................OOOOO.....................................................................................................................................................................................................................................................................................................................................................................................................................................................................O.O.................................................................................................................................................O.....O...........................................................
......................................................................................................................................................................................................OO...OO...................................................................................................................................................................................................................................................................................................................................................................................................................................................................O..O....O..............................................................................................................................................................................................................
..........................................................................................OO................OO...OO....................................................................................................................................................................................................................................................................................................................................................................................................................................................................................................................................................OO......OO.....OO................................OO.....OO..........................................................................................OO..........................................................................
..........................................................................................OO......................................................................................................................OO...................................................................................................................................................................................................................................................................................................................................................................................................................................................OO....OO...O.........O...........................OO.....OO.................................................................O........................OO..........................................................................
................................................................................................................................................................................OOO...OOO.........................O..O.........................................................................................................................................................................................................................................................................................................................................................................................................................................................OO...........O....................................................................................................OOO...................................................................................................
.....................................................................................................OO.....OO..................................................................O..O.O..O................OOOOOO.......O......OO.................................................................................................................................................................................................................................................................................................................................................................................................................................................O..O............................................................................................................O...O..................................................................................................
....................................................................................................OOO...O....O................................................................OO.O.O.OO...............O......O......O......OO..................................................................................................................................................................................................................................................................................................................................................................................................................................................O.O...........................................................................................................O.OOO.O.................................................................................................
..........................................................................................OO.....O.OO.....O.....................................................................OO.....OO...............O....OO.......O.........................................................................................................................................................................................................................................................................................................................................................................................................................................................................................................................................................................OOOOO..................................................................................................
..........................................................................................OO.....O..O....O......O........................................................................................OO.......O..O.......................................................................................................................................................................................................................................................................................................................................................................................................................................................................O.........................................................................................................................................................................................................
.................................................................................................O.OO.........O.O.................................................................................................OO........................................................................................................................................................................................................................................................................................................................................................................................................................................................................OOO........................................................................................................................................................................................................
....................................................................................................OOO...............................................................................................................................................................................................................................................................................................................................................................................................................................................................................................................................................................................OO...O...O.......................................................................................................................................................................................................
..........................................................................OO.....OO..................OO.................................................................................................O.............................................................................................................................................................................................................................................................................................................................................................................................................................................................................OO..O.....O...........................................................................................................O.......................OO.....OO..........................................................
..........................................................................OO.....OO...............................................................................................OO.OO................O.O................................................................................................................................................................................................................................................................................................................................................................................................................................................................................O.....O......................................................................................................O....OOOO....................OO.....OO..........................................................
................................................................................................................................................................................O..O.O..O.............O...O...OO...........................................................................................................................................................................................................................................................................................................................................................................................................................................................................O...O.......................................................................................................O.....OOOO.....OO...............................................................................
................................................................................................................................................................................O.O...O.O.............OOOOO...OO.............................................................................................................................................................................................................................................................................................................................................................................................................................................................................................................................................................................................O..O.....OO...............................................................................
.........................................................................................................OO.......................OO............................................OOO...OOO............O.O.O.O...............................................................................................................................................................................................................................................................................................................................................................................................................................................................................O...O.............................................................................................................OOOO......................................................................................
.........................................................................................................OO.......................OOO...........................................OO.....OO.............O...O...............................................................................................................................................................................................................................................................................................................................................................................................................................................................................O.....O.........................O.................................................................................OOOO.......................................................................................
........................................................................................................................O.O.........OO.O.....OO.................................OO.....OO.................................................................................................................................................................................................................................................................................................................................................................................................................................................................................................O.....O.......................OO..................................................................................O..........................................................................................
........................................................................................................................O......O....O..O.....OO............................O....OO.....OO.............O...O................................................................................................................................................................................................................................................................................................................................................................................................................................................................................O...O.........................OO............................................................................................................................................................................
..........................................................................................................O.....O.............O.....OO.O.............................O...O.O.........................O.O.O.O................................................................................................................................................................................................................................................................................................................................................................................................................................................................................OOO........................................................................................................................................................................................................
.........................................................................................................OOO...OOO.......O....O...OOO.................................O...OO..........................OOOOO...........................OO.....................................................................................................................................................................................................................................................................................................................................................................................................................................................O.........................................................................................................................................................................................................
.........................................................................................................O.OO.OO.O.........OO.....OO................................OOO...............................O...O...........................OO.........................................................................................................................................................................................................................................................................................................................................................................................................................................................................................O.O..........................................O........................OO..............................................................................................
........................................................................................................OO.......OO....................................................................................O.O.......................................................................................................................................................................................................................................................................................................................................................................................................................................................................................................................OO........................................OOOO........................OO..............................................................................................
........................................................................................................OO.......OO.....................................................................................O.........................................................................................................................................................................................................................................................................................................................................................................................................................................................................................................................O................................OO.....OOOO.........................................................................................................................
........................................................................................................OOO.....OOO...OO...OO......................................................................................................................................................................................................................................................................................................................................................................................................................................................................................................................................................................................................................................OO.....O..O.........................................................................................................................
..........................................................................................................OOO.OOO.........................OO..........................................................................................................................................................................................................................................................................................................................................................................................................................................................................................................................................O.......O...........................................................................OOOO.....O...................................................................................................................
............................................................................................................O.O........O...O..............OO........................................................................................................................................................................................................................................................................................................................................................................................................................................................................................................................................OO.OO...OO.OO..........................................................................OOOO....O...................................................................................................................
.........................................................................................................O..O.O..O......OOO..........................................................................................................OOO......................................................................................................................................................................................................................................................................................................................................................................................................................................................................................................................................O........................................................................................................................
........................................................................................................O..O...O..O.....OOO........................................................................................................................................................................................................................................................................................................................................................................................................................................................................................................................OO..................................O.O.O.O.........................................................................................................................................................................................................
.........................................................................................................OO.....OO.........................O..........................................................OOO.....OOO....................O.O...........................................................................................................................................................................................................................................................................................................................................................................................................OO................................O...O.O...O..................................................................OO...................................................................................................................................
..........................................................................................................................................O.O........................................................OO.OO...OO.OO..................OOOOO............................................................................................................................................................................................................................................................................................................................................................................................................................................O..OO.OO..O..................................................................OO...................................................................................................................................
.........................................................................................................................................O...O.......................................................OO.O.O.O.O.OO.................OO...OO............................................................................................................................................................................................................................................................................................................................................................................................................................................OOO...OOO.......................................................................................OOOOO............................................................................................................
.........................................................................................................................................OOOOO........................................................O...O.O...O..................OO...OO.............................................................................................................................................................................................................................................................................................................................................................................................................................................O.....O.......................................................................................O.OOO.O...........................................................................................................
.........................................................................................................................OO.............OO...OO.......................O...............................O..O...O..O..............................OO....................................................................................................................................................................................................................................................................................................................................................................................................OO...............................................................................O...............................................O...O......O.....O...............................................................................................
.........................................................................................................................OO..............OOOOO.........................O...............................OOO...OOO...............................O.O....................................................................................................................................................................................................................................................................................................................................................................................................................................................................................O.O..............................................OOO......OOO...OOO..............................................................................................
..........................................................................................................................................OOO........................OOO..............................................................O...OO......O.......OO..........................................................................................................................................................................................................................................................................................................................................................................................................................................................................OO................................................O......OO.OO.OO.OO.............................................................................................
...........................................................................................................................................O.........................................................................................O.O.O..O..O..O.......OO..................................................................................................................................................................................................................................................................................................................................................................................................................................................................................O.O.............................................OOO.......OOO............................................................................................
.....................................................................................................................................................................................................................................O.O..OO......O...................................................................................................................................................................................................................................................................................................................................................................................................................................OO.....OO...............................................OO.......................................................................................................................................................
................................................................................................................................O.....................................................................................................O........O.O...............................................................................................................................................................................................................................................................................................................................................................................................OO...OO..............................OO.....OO................................................O................................................O.......O..............................................................................................
..............................................................................................................................O.O...............................................................O..............................................OO.................................................................................................................................................................................................................................................................................................................................................................................................OOOOO........................................................................................................OO.O.OO.................OO..............................................................................................................
......................................................................................................................OO....OO................................................................O.O......OO.....OO..................................................................................................................................................................................................................................................................................................................................................................................................................................OO.OO................................................................................................................................OO..............................................................................................................
......................................................................................................................OO....OO.................................................................OO......OO.....OO.....................O..................................................................................................................................................................................................................................................................................................................................................................................................OO........OO.OO........................................................................................................O.....O.................................................................................................................................
.........................................................................................................OO.....OO..........OO......................................................................................................O.O.........................................................................................................................................................................................................................................................................................................................................................................................O.......O..O.......OOO.......................................................................................................................OO........................................................................................................................
.........................................................................................................OO.....OO............O.O..................................................................................................O...O...OO..................................................................................................................................................................................................................................................................................................................................................................................O...OO.......O...................................................................................................................OO.OO........OO........................................................................................................................
................................................................................................................................O..................................................................................................OOOOO...OO..................................................................................................................................................................................................................................................................................................................................................................................O.....O......O.....................................................................................................................O.......OO......O...OO...............................................................................................................
................................................................................................................................................................................................O.................................O.O.O.O.......................................................................................................................................................................................................................................................................................................................................................................................OOOOO.......O............................................................................................................................OOO.....O...O.O...............................................................................................................
..............................................................................................................................................................................................O.O..................................O...O................................................................................................................................................................................................................................................................................................................................................................................................O..O..............................................................................................................................OO......OOOOO................................................................................................................
...............................................................................................................................................................................................OO.......................................................................................................................................................................................................................................................................................................................................................................................................................................OO...................................................................................................................................OO....OOO.................................................................................................................
.....................................................................................................................................OO.........................O..................................................................O...O......................................................................................................................................................................................................................................................................................................................................................................................................................................................O..............................................................................OO.................OO.....OO..............................................................................................
.....................................................................................................................................OO.........................O.O...............................................................O.O.O.O....................................................................................................................................................................................................................................................................................................................................................................................................................................................O..................................................................................................OO.....OO..............................................................................................
...................................................................................................................................................................OO....OO........................................................OOOOO.....................................................................................................................................................................................................................................................................................................................................................................................................................................................OOO.......................................................................................................................................................................................................
...................................................................................................................................................................OO....OO........................O...............................O...O......................................................................................................................................................................................................................................................................................................................................................................................................OO.......................................................................................................................................................................................................................................................
...................................................................................................................................................................OO...............................O...............................O.O.......................................................................................................................................................................................................................................................................................................................................................................................................OO............................................................................................OO...................O.....OO..............................................................................................................................
................................................................................................................................................................O.O........................O......OOO................................O........................................................................................................................................................................................................................................................................................................................................................................................................OO............................................................................................OO..................OOO....OO..............................................................................................................................
................................................................................................................................................................O...........................O.................................................................................................................................................................................................................................................................................................................................................................................................................................................OOO...OOO............................................................................OO...O......OO..............OO.OO...................................................................................................................................
..........................................................................................................................................................................................OOO.................................................................................................................................................................................................................................................................................................................................................................................................................................................O.O...O.O............................................................................O.O...O.....OOO.....................................................................................................................................................
......................................................................................................................................O.....O........O........................................................................................................................................................................................................................................................................................................................................................................................................................................................................................O..O.O..O.............................................................................OOOOO......OO.......O.....O.O.O.O..................................................................................................................................
.....................................................................................................................................OOO...OOO......OOO...............OO........................................O...............................................................................................................................................................................................................................................................................................................................................................................................................................OO.OO................................................................................OOO....OO........OO.OO............................................................................................................................................
....................................................................................................................................O..OO.OO..O....OOOOO..............OO.......................................O............................................................................................................................................................................................................................................................................................................................................................................................................................................................................................................................OO.................OO.OO...................................................................................................................................
....................................................................................................................................OOO.....OOO...OO...OO......................................................OOO.................OOO.....OOO.......................................................................................................................................................................................................................................................................................................................................................................................................................................................................................................O.....O...OO.OO...................................................................................................................................
...................................................................................................................................................OOOOO..........................................................................OO.OO...OO.OO....................................................................................................................................................................................................................................................................................................................................................................................................................................................................................OO............................O.....................................................................................................................................
...................................................................................................................................................O...O.................O........................................................OO.O.O.O.O.OO....................................................................................................................................................................................................................................................................................................................................................................................................................................................................................OO................OO.O.OO...........................................................................................................................................
....................................................................................................................................................O.O.................O..........................................................O...O.O...O................................................................................................................................................................................................................................................................................................................................................................................................OO.....OO................................................................................................................................................................................................................................................
.....................................................................................................................................................O..................O..........................................................O..O...O..O................................................................................................................................................................................................................................................................................................................................................................................................OO.O.O.OO................................................................................................................................................................................................................................................
....................................................................................................................................................................................................................................OOO...OOO.................................................................................................................................................................................................................................................................................................................................................................................................O..O.O..O..............................O.................................................................................................................................................................................................................
..............................................................................................................................................................................................................................................................................................................................................................................................................................................................................................................................................................................................................................................OOO...OOO.............................O..................................................................................................................................................................................................................
.....................................................................................................................................................OO.............OO...OO.........................................................................................................................................................................................................................................................................................................................................................................................................................................................................................................OOO................................................................................................................................................................................................................
.....................................................................................................................................................OO................O...............................................................................................................................................................................................................................................................................................................................................................................................................................................................................................................................................................................................................................................................................................................................
....................................................................................................................................................................O.....O............................................................................................................................................................................................................................................................................................................................................................................................................................................................................................................................................................................................................................................................................................................................
.....................................................................................................................................................................OO.OO....................................................................................OO.....OO.............................................................................................................................................................................................................................................................................................................................................................................................................................................................O..........................OO.O...O.OO.............................................................................................................................
...........................................................................................................................................................OO.........O.O...........................................................OO.....OO.................OO.....OO............................................................................................................................................................................................................................................................................................................................................................................................................................................................OOO.................OO......O..O...O..O.............................................................................................................................
...........................................................................................................................................................O.O.........O............................................................OO.....OO.....................................................................................................................................................................................................................................................................................................................................................................................................................................................................................OOOOO................OO.......OOO...OOO..............................................................................................................................
..................................................................................................................................................OOO.OO....OOO........O..............................................................................................................................................................................................................................................................................................................................................................................................................................................................................................................O.O........................................OO...OO...............................................................................................................................................................
..................................................................................................................................................OOOO..O....OOO......................................................................................................................................................................................................................................................................................................................................................................................................................................................................................................................OO....................................................O..........................................................................................................................................................
......................................................................................................................................................OO....OOO........................................................................................................................................................................................................................................................................................................................................................................................................................................................................................................................O...................................................O.O.........................................................................................................................................................
.....................................................................................................................................OO.....OO.............O.O............................................................................................................................................................................................................................................................................................................................................................................................................................................................................................................................................................................O.OO..........OO.............................................................................................................................................
.....................................................................................................................................OO.....OO.............OO.............................................OOO......................................................................................................................................................................................................................................................................................................................................................................................................................................................................................................................OOO...OO.OO..........OO.............................................................................................................................................
.........................................................................................................................................................................................................O..O......................................................................................................................................................................................................................................................................................................................................................................................................................................................................................................................OOO....O.OO.........................................................................................................................................................
............................................................................................................................................................................................................O.................................................................................................................................................................................................................................................................................................................................................................................................................................OO.....OO....................................................................................O.O.........................................................................................................................................................
............................................................................................................................................................................................................O.................................................................................................................................................................................................................................................................................................................................................................................................................................OO.....OO.....................................................................................O...................OO.....OO..............................................................................................................................
.................................................................................................................................................................OO.........................OO...........O.O..................................................O.......O.........................................................................................................................................................................................................................................................................................................................................................................................................................................................................................OO.....OO..............................................................................................................................
.................................................................................................................................................................OO........................O.O.........................................................................................................................................................................................................................................................................................................................................................................................................................................................................................................................................................................................................................................................................................................
..........................................................................................................................................................................................OOO....OO.OOO.....................................................OOO.......OOO..............................................................................................................................................................................................................................................................................................................................................................................................................................................................................................................................................................................................................................
.........................................................................................................................................................................................OOO....O..OOOO......................................................OO.OO.OO.OO..........................................................................................................................................................................................................................................................................................................................................................................................................................................O................O.....OO............................................................................................................................................................
.................................................................................................................................................................................O........OOO....OO...........................................................OOO...OOO..........................................................................................................................................................................................................................................................................................................................................................................................................................................O.O...............O.....OO............................................................................................................................................................
.................................................................................................................................................................................O.........O.O.................................................................O.....O...............................................................................................................................................................................................................................................................................................................................................................................................................................OO..........OO.O....OOO......OOO..................................................................................................................................................................
................................................................................................................................................................................O.O.........OO............................................................................................................................................................................................................................................................................................................................................................................................................................................................................................OO.........OO..........OO.OO...OOO...........................................................................................................................................................................
...............................................................................................................................................................................OO.OO.....................................................................................................................................................................................................................................................................................................................................................................................................................................................................................................OOO.....................OO.O............OO.OO.................................................................................................................................................................
..............................................................................................................................................................................O.....O................................................................................................................................................................................................................................................................................................................................................................................................OO..................................................................................................O..OO...................O.O.............OO.OO.................................................................................................................................................................
.................................................................................................................................................................................O....................................................................................................................................OO.............................................................................................................................................................................................................................................................OO...................................................................................................OOOO....................O...............O.O..................................................................................................................................................................
..............................................................................................................................................................................OO...OO.............OO..................................................................................................................OO....................................................................................................................................................................................................................................................................................................................................................................O..........................OO...OO.....O...................................................................................................................................................................
..................................................................................................................................................................O.....O.........................O.O...............................................................................................................................................................................................................................................................................................................................................................................................................................................................................................OO..................OOOOO..........................................................................................................................................................................
.................................................................................................................................................................OOO...OOO.........................OOO..............................................................................................................................................................................................................................................................................................................................................................................................................................................................................................OO...................OOO...........................................................................................................................................................................
................................................................................................................................................................OO..O.O..OO.....O...................OO...............................................................................................................................................................................................................................................................................................................................................................................OOO..................................................................................................................................O............................................................................................................................................................................
...............................................................................................................................................................O.OOOO.OOOO.O....O...................OO...............................................................................................................................................................................................................................................................................................................................................................................OOO...............................................................................................................................................................................................................................................................................................................
.................................................................................................................................................................OOO...OOO.....O..................O.O.......................................................................O.......OO..............................................................................................................................................................................................................................................................................................O...O........................................................................................................................................OOO.....OOO...........................................................................................................................................................
................................................................................................................................................................OOO.....OOO........................O.......................................................................OO......O..O............OO................OOO...........................................................................................................................................................................................................................................................O.....O........................................................................................................................................OOO...OOO............................................................................................................................................................
..........................................................................................................................................................................................................................................................................O........O..OO...........OO...............................................................................................................................................................................................................................................................................O...O.......................................................................................................................................O.OOOO.OOOO.O..........................................................................................................................................................
.................................................................................................................................................................................OO........................................................................................OO.O....O..O..............................O.O.............................................................................................................................................................................................................................................................OOO............................................................................................................O............................OO..O.O..OO...........................................................................................................................................................
.................................................................................................................................................................................OO.............OO...OO.....................................................................OOO......O..............................OOOOO..........................................................................................................................................................................................................................................................................................................................................................................OOO............................OOO...OOO............................................................................................................................................................
................................................................................................................................................................................................OO...OO............................................................................................................OO...OO.........................................................................................................................................................................................................................................................................................................................................................................OOO.............................O.....O.............................................................................................................................................................
............................................................................................................................................................................................................................................................................OOO......O.............................OO...OO................................................................................................................................................................................................................................................O.O............................................................................................................................................OO............................................................................................................................................................................
..................................................................................................................................................................................................OOO....................................................................O.OO.O....O..O........................................OO.........................................................................................................................................OO............................................................................................O...O....................................................................................................................OO...OO.................OO............................................................................................................................................................................
.......................................................................................................................................................................................O..........OOO...................................................................O..........O..OO...........OO..........................O.O........................................................................................................................................OO.....................................................................................OO.....O........................................................................................................................OO...OO...............................................................................................................................................................................................
.......................................................................................................................................................................................OO..........O....................................................................O...O......O..O............OO.................O...OO......O.......OO.....................................................................................................................................................................................................................OO....O....O................................................................................................................................O.........................................................................................................................................................................................
..............................................................................................................................................................................OO..OO....OO...............................................................................OOOO.......OO...............................O.O.O..O..O..O.......OO............................................................................................................................................................................................................................O....................................................................................................................................OO........................................................................................................................................................................................
..............................................................................................................................................................................OO..OO....OOO..........................................................................................................................O.O..OO......O.....................................................................................................................................................................................................................................O...O.......................................................................................................................O...OO....OO........OO.............................................................................................................................................................................
.................................................................................................................................................................OO.....OO........OO....OO............................................................................................................................O........O.O........................................................................................................................................................................................................................................O.O......................................................................................................................O.O..OO....OOO.......OO.............................................................................................................................................................................
.................................................................................................................................................................OO.....OO.............OO......................................................................................................................................OO..................................................................................................................................................................................................................................................................................................................................................................O.O..OO....OO.......................................................................................................................................................................................
.......................................................................................................................................................................................O.........................................................................................OO.................................................................................................................................................................................................................................................................................................................................................................................................................O........OO........................................................................................................................................................................................
..................................................................................................................................................................................................................................................................................O.................................OOO...................................................................................................................................................O..................................................................................................................................................................................................................................O....................OO.....OO............................................................................................................................................................
..................................................................................................................................................................................................................................................................................O.O.......O.......................OOO..................................................................................................................................................OOO....................................................................................OO..............OO................................................................................................................................................OO.....OO............................................................................................................................................................
...................................................................................................................................................................................................................................................................................OO.......OOOO...................OOOOO...OO...........................................................................................................................................OOOOO...................................................................................OO..............OO.....................................................................................................................................................................................................................................................................................................................
.............................................................................................................................................................................................OO..........................O...................................................................OOOO.....OO..........OO...OO..OO................OO........................................................................................................................O.O.O.O....................................................................................................................................................................................................................OOO..................................................................................................................................................................................................
.............................................................................................................................................................................................OO.........................OO...................................................................O..O.....OO..........OO...OO....................OO........................................................................................................................OO...OO...................................................................................................................................................................................................O................OOO....OO............................................................................................................................................................................................
.......................................................................................................................................................................................................................OO....OO..OO..........................................................OOOO...............................................................................................................................................................................................................................................................................................................................................................................OO........O......O...O...OO............................................................................................................................................................................................
......................................................................................................................................................................................................................OOO....OO..OO.........................................................OOOO..........................................................................................................................................................OO.O...................................................................................................O...................................................................................................OO........OO....OO..O.O....O.....O................................................................................................................................................................................................
.......................................................................................................................................................................................................................OO....OO.............................................................O................................................O.........................................................................................OO............OOO..OO..O...OO......O.....................................................................................O.O.............OOO...OOO............................................................................OO.......OOO....OO..O.O.....OO.OO.................................................................................................................................................................................................
.............................................................................................................................................................................................................O..........OO........................................................................................OO...OO...................O.O........................................................................................OO.............OO......O...OO.....O.O...................................................................................O...O............O..O.O..O......................................................................................OO....OO...O............................................................................................................................................................................................................
............................................................................................................................................................................................................OOO..........O........................................................................................OO...OO..................O...O.......................................................................................................OOO...OO..........O.O....................................................................................OOO............O...O.O...O......................................................................................OO...............OO.OO.................................................................................................................................................................................................
............................................................................................................................................................................................................OOO....................................................................................................OOOOO...................OOOOO........................................................................................................O...O.............O...O.O.............................................................................OO...OO...........O..O.O..O........................................................................................O..............O.....O................................................................................................................................................................................................
....................................................................................................................................................................................................................................................................................................................OOO...................OO...OO........................................................................................................................OO...O..O................................................................................................O...O................................................................................................OO...OO...O...O.................................................................................................................................................................................................
..........................................................................................................................................................................................................OO...OO...................................................................................................OOO....................OOOOO........................................................................................................O...O............OO......OO......OO.....................................................................................OO.....OO..............................................................................................OO...OO....OOO..................................................................................................................................................................................................
..........................................................................................................................................................................................................OO...OO...........................................................................................................................OOO........................................................................................................OOO...OO.........O..O...O...OO....OO....................................................................................OOO.....OOO........................................................................................................OOO..................................................................................................................................................................................................
..............................................................................................................................................................................................O.....O........................................................................................................................................O.........................................................................................OO.............OO......O..........OO......OO...................................................................O.O......................OOO.....OOO...............................................................................................OOO...........................................................................................................................................................................................................
.............................................................................................................................................................................................OOO...OOO.................................................................................................................................................................................................................................OO............OOO..OO..O...............O..O...................................................................O..O....O...........................................................................................................................OOO...........................................................................................................................................................................................................
............................................................................................................................................................................................OO..O.O..OO......O..........................................................................................................................................O.................................................................................................OO.O................O.O...........................................................OO......OO.....OO.............................................................................................................................O............................................................................................................................................................................................................
...........................................................................................................................................................................................O.OOOO.OOOO.O....O.O....................................................................................................OOO.....OOO..........................O.O.................................................................................................................................................................................OO....OO...O.........O.....................................................................................................................................................................................................................................................................................................................................
.............................................................................................................................................................................................OOO...OOO.....OO......................................................................................................OOO.....OOO.............................OO....OO.................................................................................................................................................................................OO...........O.....................................................................................................................................................................................................................................................................................................................................
............................................................................................................................................................................................OOO.....OOO....OO.............OOO.......................................................................................OO.....OO..............................OO....OO..................................................................................................................................................................................O..O..............................................................................................................................................................................................................................................................................................................................................
...........................................................................................................................................................................................................OOO..............O.........................................................................................O...O................................OO.........................................................................................................................................................................................O.O........................................................................................................................................OO.......OO...........................................................................................................................................................................................
............................................................................................................................................................................................................O.O............O........................................................................................O..O.O..O...........................O.O......................................................................................................................................................................................................................................................................................................................................O.OO...OO.O...........................................................................................................................................................................................
.............................................................................................................................................................................................................OO....................................................................................................O...O.O...O..........................O......................................................................................O......O..................................................................................................................................................................................................................................OO......O...O.O...O...........................................................................................................................................................................................
....................................................................................................................................................................................................................................................................................................................O..O.O..O.................................................................................................................OO......OO.................................................................................................................................................................................................................................OO......OO..O.O..OO...........................................................................................................................................................................................
....................................................................................................................................................................................................................................................................................................................OOO...OOO................................................................................................................OOO......OOO..............O...................................................................................OO.....................................................................................................................................OOO...OOO............................................................................................................................................................................................
..............................................................................................................................................................................................................................................................................................................................................................................................................................................OO......OO.............OOO...................................................................................OO......................................................................................................................................O.....O.............................................................................................................................................................................................
..................................................................................................................................................................................................................................................................................................................................................OO...........................................................................................O......O.............O.............................................................................................................OO.OO................................................................................................................................................................................................................................................................................................................
..................................................................................................................................................................................................................................................................................................................................................OO..........................................................................................................O....O.O.............................................................................................................O.O.................................................................................................................................................................................................................................................................................................................
.............................................................................................................................................................................................................................................................OOO..............................................................................................................................................................................................OO....O..............................................................................................................O.O.................................................................................................................................................................................................................................................................................................................
...............................................................................................................................................................................................................................................................O....................................................OO.....OO................................................................................................................................O.O....................................................................................................................O..................................................................................................................................................................................................................................................................................................................
.............................................................................................................................................................................................OO.....OO........................................................O.....................................................OO.....OO...............O.....O....................................................................................................................................................................................................................................................................................................................................................................................................................................................................................................................................................
.............................................................................................................................................................................................OO.....OO.....................................................................................................................................OOO...OOO..............................................................................................................OO..............................................................................................................................................................................................................................OO.....OO............................................................................................................................................................................................
...........................................................................................................................................................................................................................................................................................................................................O.OO.OO.O..............................................................................................................OO..............................................................................................................................................................................................................................OO.....OO............................................................................................................................................................................................
..........................................................................................................................................................................................................................................................................................................................................OO.......OO..................................................................................................................................................................................................................................................................................................................................................................................................................................................................................................................................................
..........................................................................................................................................................................................................................................................................................................................................OO.......OO..........................................................................................................................................................................OO......................................................................................................................................................................................................................................................................................................................................................................
..........................................................................................................................................................................................................................................................................................................................................OOO.....OOO.........................OO...............................................................................................................................................OO......................................................................................................................................................................................................................................................................................................................................................................
............................................................................................................................................................................................................................................................................................................................................OOO.OOO...........................OO.......................................................................................................................................................................................................................................................................................................................................................................................................................................................................................................................
..............................................................................................................................................................................................................................................................................................................................................O.O...........................................................................................................................................................................................................O.....O....................................................................................................................................................................................................................................................................................................................................
......................................................................................................................................................................................................................................................................O....................................................................O..O.O..O.......................................................................................................................................................................................................OOO...OOO...................................................................................................................................................................................................................................................................................................................................
...........................................................................................................................................................................................................................................OO........................OO...................................................................O..O...O..O.................................................................OO.....OO...................OO......................................................................................................O...O.O...O..................................................................................................................................................................................................................................................................................................................................
..........................................................................................................................................................................................................................................O.O.......................OOO.O.........OO.......................................................OO.....OO..................................................................OO.....OO....................OO.....................................................................................................O.........O..................................................................................................................................................................................................................................................................................................................................
.........................................................................................................................................................................................................................................O......OO.................OO.............OO..............................................................................................................................................................O........................................................................................................OOO...OOO...................................................................................................................................................................................................................................................................................................................................
................................................................................................................................................................................................................................OO.......O..O..O..O.................OO.................................................................................................................................................................................................................................................................................................................................................................................................................................................................................................................................................................................................................................
................................................................................................................................................................................................................................OO.......O......OO...................O.......................................................................................................OOO...........................................................................................................................................................................................................................................................................................OO.....OO...................................................................................................................................................................................................................
..........................................................................................................................................................................................................................................O.O...............................................................................................................................O...O..........................................................................................................................................................................................................................................................................................OO.....OO...................................................................................................................................................................................................................
...........................................................................................................................................................................................................................................OO........................O.......................................................................................................................................................................................................................................................OO...OO...................................................................................................................................................................................................................................................................................................................................................................
....................................................................................................................................................................................................................................................................OO.....................................................................................................O.....O...........................................................................................................................................................................OO.OO.....................................................................................................................................................................................................................................................................................................................................
......................................................................................................................................................................................O...............OO.......OOO.............................OOO.....OO..........OO.............OO.......................................................................................OO...OO..................................................................................................................................OO........O...O...........................O.O......................................................................................................................................................................................................................................................................................................................................
....................................................................................................................................................................................O.O..............O..O....O....O...........OO...............OOO.....OO...........OOO.O.........OO..................................................................................................OO............................................................................................................................OOO........OOO........................OO.OO.OO.OO............................................................OO....................................................................................................................................................................................................................................................................
..................................................................................................................................................................................OO........OO.......O..O....O.....O..........OO..............O...O..................OO.............................................................................................................O...O..................................................................................................................OO.........OO.O.....OOO........................O..O...O..O............................................................OO....................................................................................................................................................................................................................................................................
............................................................................................................................................................................OO....OO......O..........O...O........O..........................O.....O..................O.......................................................................................................O....O.....O........OO...................................O...................................................................O.....O....O..O................................O.........O..................................................................................................................................................................................................................................................................................................................................
............................................................................................................................................................................OO....OO.........O........OO........OO............................O...O..........................................................................................................................O.O..OO.O...O........OO...................................OO.......................................................................O.....OO.O................................O..O...O..O.......................................................................................................O.....O....................................................................................................................................................................................................................
....................................................................................................................................................................................O.O..O.....................................................OOO...........................................................................................................................O.O...O.....O............................................O.O...OO.....OO.............................OO........................O...O...OOO....................................OO.....OO.......................................................................................................OOO...OOO...................................................................................................................................................................................................................
......................................................................................................................................................................................O..O............OO........OO..............................................................OO.........................................................OO.....OO..........................O.....O...O.............................O.......O.............OO.....OO.............................OO..........................O.....OO....................................................................................................................................................O..OO.OO..O..................................................................................................................................................................................................................
.........................................................................................................................................................................................................O........O.............................................................OO.........................................................OO.....OO..................................OO..............................OO.....OO..................................................................................................................................................................................................O........................................OOO.....OOO..................................................................................................................................................................................................................
..........................................................................................................................................................................................OO.......OO........O.....O..........OO.............................................................................................................................................O........................................OOO...OOO................................................................................................................................................................................................OO.OO...................................................................................................................................................................................................................................................................
............................................................................................................................................................................................O......O.........O....O...........OO.............................................................................................................................................O..........................................OO.OO..........................................................................................................................................................................................................................................................................................................................................................................................................................................................................
.......................................................................................................................................................................................................O.......OOO..............................................................OOO.....................................................................................................................................O...O.............................................................................................OO.....O............................................................................................O.....O..................................................................................................................................................................................................................................................................
....................................................................................................................................................................................................O..O........................................................................OOO................................................................................................OO................................OO.......OO..........................................................................................OO....O.O....................................................................................................................................................................................................................................................................................................................................................................
.........................................................................................................................................................................................OO...OO..........................................................................................................................................................................OO...OO..OO................................OO.......OO...............................................................................................O...O..........................................................................................OO.O.OO..................................................................................................................................................................................................................................................................
.........................................................................................................................................................................................OO...OO.........................................................................................................................................................................................................................O.O...................................................................................................O...O...................................................................................................................................................................................................................................................................................................................................................................
..........................................................................................................................................................................................OOOOO......................................................................................................................................................................................................................O..O...O..O..............................................................................................OOO.OOO.....................................................................................................OO...........................................................................................................................................................................................................................................................
...........................................................................................................................................................................................O.O.................................................OO.............................OO...OO.................................................................................................................................OOO...OOO................................................................................................O...O..............................................................................................OOOO....OO...........................................................................................................................................................................................................................................................
...............................................................................................................................................................................................................................................OO..............................OOOOO...........................................................................................................................................................................................................................................OO.OO.............................................................................................OOOOOO......OO......OO................................................................................................................................................................................................................................................
...........................................................................................................................................................................................OOO..................................................................................OOO.......................................................................................................................................O.....O...........OOO...OOO..........................OO...OO..........................................O.O.............................................................................................O.OO...O.....OOO.....OO................................................................................................................................................................................................................................................
.................................................................................................................................................................................................................................................................................O........................................................................................OO...OO........................................OOO...OOO.........O...O.O...O...........................OOO.............................................O..............................................................................................O.....O......OO........................................................................................................................................................................................................................................................
....................................................................................................................................................................................................................................................................O...................................................................................................................................................OO..O.O..OO.......O...OO.OO...O.........................O...O.....................OO.....................................................................................................................O........OO...........................................................................................................................................................................................................................................................
...................................................................................................................................................................................................................................................................O.O..................................................................................................................................................OO.OO.OO.OO.......O.OO.....OO.O..........................O.O.....OO...............O.O.......OO....................................................................................................................OO...........................................................................................................................................................................................................................................................
............................................................................................................................................................................................................................................................OO....O.OO.......................................................................................................O.............................................OO.OO............O.......O.............................O......OO.................O.......OO.................................................................................................................................................................................................................................................................................................................................................................................
............................................................................................................................................................................................................................................................OO...OO.OO.......................................................................................................O...........................................O.O...O.O........................................................................OOO..........................................................................................................................................................................................................................................................................................................................................................................................
...........................................................................................................................................................................................OO.....................................................................O.OO.............O....................................................................................................................................O..O...O..O...........................................OO............................................O...O...........................................................................................................................................O..........................................................................................................................................................................................................................
...........................................................................................................................................................................................OO......................................................................O.O..............O......................................................................................................................................O...O.............................................O...O...........O..............................O...O............................................................................OO.................O.....OO...................................O...........................................................................................................................................................................................................................
....................................................................................................................................................................................................................................................................O.............OOO.......................................................................................O.......O...................................O.O.....O.O...............................OO........O.....O........O...OO............................................................................................................OO........O........O.....OO....................O..............OOO.........................................................................................................................................................................................................................
............................................................................................................................................................................................................................................................................................................................................................................OO.....OO....................................O.......O................................OO........O...O.OO......OO.O.OO.........OOO.....................................................................................OO......OO......O.....O......OOO.........................OOO.........................................................................................................................................................................................................................................
............................................................................................................................................................................................................................................................................................................................................................................OOO...OOO.............................................................OOO.......................O.....O......OO......O..........O.......OO...OO.O...O.OO..............................................................OO.....OOO.....O...OO.O.................................OO.O.........................................................................................................................................................................................................................................
..............................................................................................................................................................................................................................................................................................................................................................................OO.OO...............................................................O.O........................O...O........OO.O.OO.........O.O.......OO....OOO...OOO.......................................................................OO......OOOOOO......OO.OO.......................OOO..........................................................................................................................................................................................................................................
...........................................................................................................................................................................................................................................................................OO...........................O.....................................................................O...O..............................................................O...O........................OO...........O...OO.........OO...............O.....O...........................................................................OO....OOOO.......OO.OO.......................OOO..........................................................................................................................................................................................................................................
...........................................................................................................................................................................................................................................................................OO..........................O.O.................................................................OO.......OO...........................................................O...O.......................................O...............................................................................................................OO................O.O.........................OO..........................................................................................................................................................................................................................................
.......................................................................................................................................................................................................................................................................................................OO.O....OO..........................................................OO.......OO..........................................................................................................................................................................................................................................O......................................................................................................................................................................................................................................................................
.......................................................................................................................................................................................................................................................................................................OO.OO...OO..............................................................O.O..........................................................OO....OOO.......................................................................................O.O...................................................OO................OO.O.OO...................................................O.......O................................................................................................................................................................................................................
.......................................................................................................................................................................................................................................................................................................OO.O............................................O...................O..O...O..O......................................................OO.................................................OO...........................................OO....................................................OO.........................................................................OOOO...OOOO...............................................................................................................................................................................................................
.......................................................................................................................................................................................................................................................................................................O.O..............................................O...................OOO...OOO........................................................................................................O...O...........................................O......................................................................O.....O..................................................O...O.O...O...............................................................................................................................................................................................................
........................................................................................................................................................................................................................................................................................................O.........................................O...OOO...................................................................................................................................O.....O.............................................................................................................................................................O.............O..O.O..O................................................................................................................................................................................................................
...........................................................................................................................................................................................................................................................................................O....................................................O.O........................................................................................................................................OO.O...O........OO.........................................O..............................................................OO.OO....OOO.....OOO.......................O.O...........OOO...OOO................................................................................................................................................................................................................
..........................................................................................................................................................................................................................................................................................OOO....................................................OO.........................................................................................................................................O.....O........OO.............OO.....OO.................OO..........................................OO.....................O.......OOO...OOO........................OO.....................................................................................................................................................................................................................................
.........................................................................................................................................................................................................................................................................................OOOOO...............OO.............................................................OO.....OO..........................................................OO............................................O...O........................OO.....OO..................OO......................................................................O.OOOO.OOOO.O.............................................................................................................................................................................................................................................................
........................................................................................................................................................................................................................................................................................OO...OO..............OO.............................................................OO.....OO....................................OO.....OO.............OO..............................................OO.............................................................................................................................OO..O.O..OO............OO................................................................................................................................................................................................................................................
.........................................................................................................................................................................................................................................................................................................................................................................................................................OO.....OO.............................................................................................................................................................................................OOO...OOO.............OO................................................................................................................................................................................................................................................
............................................................................................................................................................................................................................................................................O.....O.................................................................................................................................................................................OO.....OO...............O...................................................................................................................................O.....O................................................................................................................................................................................................................................................................
...........................................................................................................................................................................................................................................................................OOO...OOO.........................OOO....................................................................................................................................................OO.....OO..............O.O.................................................................................................OO...OO................OO...............................................................................................................................................................................................................................................................................
..........................................................................................................................................................................................................................................................................OO.OO.OO.OO.....OOO................OOO..........................................................................................................................................................................O...O.................................................................................................OOOOO.................OO............................O................OO.......OO.....OO................................................................................................................................................................................................................
.........................................................................................................................................................................................................................................................................OOO.......OOO....OOO..............................................................................................................................................................................................OOO..................................................................................................OO.OO..............................................O.O.............O....O.....OO.....OO................................................................................................................................................................................................................
...............................................................................................................................................................................................................................................................................................................................................................................................................................................OOO.......................................OO...OO................................................................................................OO.OO........OO.....................................O.............O......O.............................................................................................................................................................................................................................
...........................................................................................................................................................................................................................................................................O.......O..........................................................................................................................................................OO.OO..............................................................................................................................................OOO.......O..O.......O..........................OOO.............O........O............................................................................................................................................................................................................................
...........................................................................................................................................................................................................................................................................................OO..............OO...OO............................................................................................................................OO.OO.......................................................................................................................................................O.......OO...O.........................O...............O........O............................................................................................................................................................................................................................
...........................................................................................................................................................................................................................................................................................OO...............OOOOO.............................................................................................................................OOOOO.......................................................................................................O...............................................O......O.....O.........................................O........O............................................................................................................................................................................................................................
.............................................................................................................................................................................................................................................................................................................OOO...................................O.........................................................................................OO...OO.....................................................................................................O................................................O.......OOOOO...........................................O......O.............................................................................................................................................................................................................................
..............................................................................................................................................................................................................................................................................................................O..................................O.O.....................................................................................................................................................................................................OOO...............................................O..O....................................................O....O..............................................................................................................................................................................................................................
.................................................................................................................................................................................................................................................................................................O................................................OO..................................................................................OO...........................................................................................................................O.........................................OO................OO.....OO.............................OO................................................................................................................................................................................................................................
................................................................................................................................................................................................................................................................................................O.O.................................................................................................................................O..O............................OOO...OOO....................................................................................OO............................................................OO.....OO...............................................................................................................................................................................................................................................................
.........................................................................................................................................................................................................................................................................................OO....O.OO................................................................................................................................O.......OOOOOO..................O..O...O..O....................................................................................OO...................................................................................................................................................................................................................................................................................................................................
.........................................................................................................................................................................................................................................................................................OO...OO.OO.........................................................................O..............................................OO......O......O......O.....................O.O.............................................................................................................................................................................O...O..........OO...............................................................................................................................................................................................................................
...............................................................................................................................................................................................................................................................................................O.OO..........................................................................O.............................................OO......O.......OO....O.....................O.O..................................................................................................OO.........................OO................................OO..........OO.O.O.OO.......OOOOO.............................................................................................................................................................................................................................
...........................................................................................................................................................................................................................................................................OO.....OO............O.O........................................................................OOO......................................................O..O.......OO......................O.O.................OO.......................................................................O.......O..O.......................OO...............................OOO.........O.OO...OO.O......O....O.....OO.....................................................................................................................................................................................................................
...........................................................................................................................................................................................................................................................................OO.....OO.............O....................................................................................................................................OO...........................O..O...O..O.............OO......................................................................O...OO.......O....................................................O.OO.....OO...O..O.....O..O.....OOO..O.....OO.....................................................................................................................................................................................................................
....................................................................................................................................................................................................................................................................................................................................................................................................................................................................O.......O......................................................................................O.....O......O.............................................OO.....O..O....O..O...O.OO...OO.O.......O..OO............................................................................................................................................................................................................................
....................................................................................................................................................................................................................................................................................................................................................................................................................................................................................................................................................................OOOOO.......O.............................................OO.....O.OO.....OO.....OO.O.O.OO.........OO..............................................................................................................................................................................................................................
...............................................................................................................................................................................................................................................................................................................O............................................................O...............................................................................................................................................................................................O..O.......OOO..............................................OOO............O...O...........................................................................................................................................................................................................................................
........................................................................................................................................................................................................................................................................................................OO....OOO....................O.......................................O..............................................................................................................................................................................................OO........OO.OO..............................................OO...O........................OO..............................................................................................................................................................................................................................
........................................................................................................................................................................................................................................................................................................OO...O...O..................O.O....................................OOO.......................................................................................O................................................................................................................OO.OO..................................................O.O......................O..OO............................................................................................................................................................................................................................
.............................................................................................................................................................................................................................................................................................................OO.OO..................OO.O....OO.....................................................................................................................OO.OO...........................................................................................OO.................OOOOO..................................................O.O.....OO..............OOO..O.....OO.....................................................................................................................................................................................................................
.............................................................................................................................................................................................................................................................................................................OO.OO..................OO.OO...OO...................................................................................................................................................................O...............................................O..O................OO...OO..................................................O......OO..............O....O.....OO.....................................................................................................................................................................................................................
....................................................................................................................................................................................................................................................................................................................................OO.O...........................................................................................................................OO.OO.........................................O.O.................................................................................................................................................OOOOO.............................................................................................................................................................................................................................
.............................................................................................................................................................................................................................................................................................................OO.OO..................O.O............................................................................................................................O...O.........................................OO.............................................O.....................................................................................................OO...............................................................................................................................................................................................................................
.............................................................................................................................................................................................................................................................................................................OO.OO...................O..........................................O...................................................................................OOO....................................................................................................................................................................OO.O.OO.....................................................................................................................................................................................................................................................
.............................................................................................................................................................................................................................................................................................................O...O......O.....................................................O.O..........................................................................................OO....................................................................................OO........................................................................O.....O.....................................................................................................................................................................................................................................................
..............................................................................................................................................................................................................................................................................................................OOO......OOO..............................................O......OO..........................................................................................OO......................................................................................O.....................OO.....OO.....OO...................................O...O......................................................................................................................................................................................................................................................
...............................................................................................................................................................................................................................................................................................................O......OOOOO...........................................O.O......................................................................................................................................................................................................................O..O...O..O...................................OOO.......................................................................................................................................................................................................................................................
.....................................................................................................................................................................................................................................................................................................................OO...OO.............OO............................OO.......................................................................................................................................................................................................................O..O.O..O..............................................................................................................................................................................................................................................................................................
.........................................................................................................................................................................................................................................................................................................................................OO.....................................................................................................................................................................................................................OO...OO............................O.O.................................................................................................................................................................................................................................................................................................
........................................................................................................................................................................................................OO.....OO...............................................................................................................................................................................................................................................................O.O.............................................................................OO...OO................OO........OOO.OOO...............................................................................................................................................................................................................................................................................................
........................................................................................................................................................................................................OO.....OO...................................................................................................................................................................O..........................................................................................O..O....O.........................................................................OOOOO.................OO......OOO.....OOO.............................................................................................................................................................................................................................................................................................
.......................................................................................................................................................................................................................................................................................................................OOO........................................................O.O.........................................................................................OO.....OO...........................................................................O.O..........................OO.......OO.............................................................................................................................................................................................................................................................................................
.......................................................................................................................................................................................................................................................................................................................OOO.........................................................OO.................................................................................O.....OO...O........OO..................................................................................OO...............OO.......OO.............................................................................................................................................................................................................................................................................................
........................................................................................................................................................................................................................................................................................................O.......O....................................................................................................................................................O.O......OO..........OO......................................................................OOO........O.O................O.OO.OO.O..............................................................................................................................................................................................................................................................................................
.......................................................................................................................................................................................................................................................................................................OOOO...OOOO.......................OOO........................................................................................................................O...O......O..O.........................................................................................O......OO..OO.......OOO...OOO....................................OO........................................................................................................................................................................................................................................................
.......................................................................................................................................................................................................................................................................................................O...O.O...O......OO..............OO.OO...........................................................O............................................................OOO........O.O.........................................................................................O..O..O..O.OO........O.....O.....................................OO........................................................................................................................................................................................................................................................
........................................................................................................................................................................................................................................................................................................O..O.O..O.......OO..............OO.OO............................................................O.........................................................OO...OO..............................O...................................................................O......OO..................................................................................................................................................................................................................................................................................................................
........................................................................................................................................................................................................................................................................................................OOO...OOO.......................OOOOO..........................................................OOO..............................................................................................O.O..................................................................O.O.......................................................................................................................................................................................................................................................................................................................
........................................................................................................................................................................................................................OO.............................................................................................................OO...OO..........................................................................................................................................................OO....................................................................OO................OO.....OO..............................................................................................................................................................................................................................................................................................
........................................................................................................................................................................................................................OO......................................................................................................................................................................................................................................................................................................................................................................OO.....OO..............................................................................................................................................................................................................................................................................................
................................................................................................................................................................................................................................................................................................................................OO.....................................................................................................................................................................................................................................................................................................................................................................................................................................................................................................................................................................
..............................................................................................................................................................................................................................................................................................................................O..O.....................................................................................................................................................................................................................................................................................................................................................................................................................................................................................................................................................................
.....................................................................................................................................................................................................................................................................................................................OO......O.......OOOOOO..................................................................................................................................................................................................OO.........................OO.............................................................................................................................................................................................................................................................................................................................
.....................................................................................................................................................................................................................................................................................................................OO......O......O......O...............................................................................................................................................................O.................................O.O........................OO.............................................................................................................................................................................................................................................................................................................................
........................................................................................................................................................................................................................................................................................................OO.....OO............O.......OO....O.............................................................................................................................................................OO.........................OO..OO......O......................................................................................................................................................................................................................................................................................................................................................
........................................................................................................................................................................................................................................................................................................OO.....OO.............O..O.......OO...............................................................................................................................................................OO........................OO.O..O..O..O................................................................................................OO....................................................................................................................................................................................................................................................
.......................................................................................................................................................................................................OOO.....OOO..............................................................................................................OO......................................................................................................................................................................................................OO......O................................................................................................OO....................................................................................................................................................................................................................................................
.......................................................................................................................................................................................................O..OO.OO..O....................................................................................................................................................................................................................................................OO.......................................O.............................O.O........OOO......................................................................................OO....................................................................................................................................................................................................................................................
........................................................................................................................................................................................................OOO...OOO.....................................................................................................................................................................................................................................................OO......................................O..............................OO...................................................................................................O....................................................................................................................................................................................................................................................
.........................................................................................................................................................................................................O.....O.......OOO....................................................................................................................................................................................................................................................................................OOO.......................................O.O......................................................................................O.O...................................................................................................................................................................................................................................................
......................................................................................................................................................................................................................O...O.........................................................................................................OO.......................OO........................................................................................................................................................................................OOOOO.....OOO...OOO.......................................................................O.O...................................................................................................................................................................................................................................................
.....................................................................................................................................................................................................................O.....O.....O.O................................................................................................OO..............OO.......O..O.....................................................................................................................................................................................OO...OO....O..O.O..O........................................................................O....................................................................................................................................................................................................................................................
......................................................................................................................................................................................................................O...O....O...O......................................................................................................OOO......O....OO.......O......OO............................................................................................................................................................................OO...OO...O...O.O...O.................................................................................................................OO.........................................................................................................................................................................................................
.......................................................................................................................................................................................................................OOO.....O.........................................................................................................O...O.....O......O......O......OO......................................................................................................................................................................................OOOO...OOOO.................................................................................................................OO.........................................................................................................................................................................................................
.......................................................................................................................................................................................................................OOO....O....O........OO..................................................................OO.......................OO.OO......OOOOOO.......O...............................................................................................................................................................................................O.......O.....................................................................OO...OO.................................................................................................................................................................................................................................................
...............................................................................................................................................................................................................................O............OO..................................................................OO...........................................O..O.........................................................................................O.O............................................................................................O.....................................................................................O.O.O.O.................................................................................................................................................................................................................................................
........................................................................................................................................................................................................OO.....................O...O.....................................................................................................OO.OO...............OO..............................................................................................O............................................................................................OO....................................................................................OOOOO..................................................................................................................................................................................................................................................
..................................................................................................................................................OO....................................................OO.......................O.O.......................................................................................................O.............................................................................................................O...O...................................................................................................................................................................................OOO..........................................OO.......................................................................................................................................................................................................
..................................................................................................................................................OO.............................................................................................................................................................................................OO...OO.....................................................................................................O..............................................................................................O.....................................................................................O....................................................................................................................................................................................................................................................
..................................................................................................................................................................................................................................................................................................................................................OOOOO...................................................................................................O..O....................................................................................................................................................................................................OOOO.................................................................................................................................................................................................................................
..................................................................................................................................................................................................................................................................................................................................................OO.OO....................................................................................................OOO..........................................................................................O..O.............................................................................................OO......OO..O..............OO.................................................................................................................................................................................................................
...................................................................................................................................................................................................O.O..............................................................................................................................O.......O.....OO.OO.................................................................................................................................................................................................OO...............................................................................................OO.....OO..O...............OO.................................................................................................................................................................................................................
....................................................................................................................................................OO.............................................O...O...........................................................................................................................O..O...O..O.....OOO...........................................................................................................................................................................................................................................................................................................O..O.....................OO...OO......................................................................................................................................................................................................
.........................................................................................................................................................................................OO............O...............................................................................................................................O.O.................................................................................................................................................................................................................................................................................................O.O....................OO.......................OOOOO.......................................................................................................................................................................................................
.........................................................................................................................................................................................OO........O....O....OOO.......................................................................................................................O.O.................................................................................................O...............................................................................................................................................................................................O..O............................................OO.OO.......................................................................................................................................................................................................
.......................................................................................................................................................................................................O.....OOO...............................................................................................OOO.....................O.O..................................................................................................OO....................................................................................................................................................................................OO..........OO..................OO.......................OO.OO.......................................................................................................................................................................................................
...................................................................................................................................................................................................O...O....O...O.............................................................................................O...O................O..O...O..O.............................................................................................OO.....................................................................................................................................................................................OO........O...OO...............O..O.......................OOO........................................................................................................................................................................................................
................................................................................................................................................OO...OO............................................O.O.....O.....O...........................................................................................O.....O................OOO...OOO..........................................................................................................................................................................................................................................................................................OO.....OO................OO..O...............OO.................................................................................................................................................................................................................
.................................................................................................................................................OOOOO......................................................O...O...........................................................................O.O..OO...........O...O.................................OO................................................................................................................................................................................................................................................................................O....O..O..................OO..O..............OO.................................................................................................................................................................................................................
.................................................................................................................................................OO.OO.......................................................OOO.............O..O............................................OO............O...O.OOO....OO.....OOO..................................OO...........................................................................................................................................................................................................OO.....OO.................................................................O.O....................OOOO.................................................................................................................................................................................................................................
.......................................................................................................................................OO........OO.OO..........................................................................O.......OOO..................................OO.............O......OO...OO.....OOO.............OO...................................................................................................................................................O.O..........................................................................OO.....OO......................................................................................................................O......................................................................................................................................................................................................
...............................................................................................................................O.......O..O.......OOO.......................................................................O.........O....O...........OO....................................OOOOO.O...........................O....................................................................................................................................................OO.........................................................................................................................................................................................................O.O.....................................................................................................................................................................................................
..............................................................................................................................O...OO.......O................................................................................OO........O.....O..........OO.......................................OOO.................OO.......O.O................................................................................................................O....................................O........................................................................................................................................................................................................O.OO..........OO.........................................................................................................................................................................................
..............................................................................................................................O.....O......O......................................................................................O........O........................................................................O.O......OO..................................................................................................................O...........................................................................................................................................................................................................................................OO.OO..........OO.........................................................................................................................................................................................
...............................................................................................................................OOOOO.......O...................................................................................OO........OO.....................................................OOO............OO......O.......................................................................................................................OOO......................................................................................................OO....................................................................................................................................O.OO.....................................................................................................................................................................................................
.......................................................................................................................................O..O..................................................................................................................................................OOOOO.O..........O..O..O..O...............................................................................................................................................................................................................................OO.OO...................................................................................................................................O.O.....................................................................................................................................................................................................
.......................................................................................................................................OO.....................OO...............................................................OO........OO..................................OO.............O......OO..........OO......O.................................................................................................................O..............................................................................................................OOOO....................................................................................................................................O.................................................................................................................................................................................................O....
...............................................................................................................................................................O..................................................................O........O.................................OO............O...O.OOO................O.O.............OO.....OO.............................................................................................O.................O............................................................................................OO......................................................................................................................................................................................................................................................................................................................................O.O...
...............................................................................................................................................................O.O..........................................................OO........O.....O...............................................O.O..OO.................OO..............OO.....OO...........................................................................................OOO...............OO.....................................................................................................................................................................................................................................................................................................................................................................................................................................O.O...
...................................................................................................................................................OOO..........O.O..........................................OO.............O.........O....O...............................................................................................................................................................................................................OO...................................................................................................................................................................................................................................................................................................................................................................................................................................OO.OOO.
.............................................................................................................................................OO....OOO...........O...OO......................................OO.................O.......OOO...........................................................................................................................................................................................................................................................................................................................................................................................................................................................................................................................................................................................................................................................O
.............................................................................................................................................OO...O...O..............OO......................................................O..O.................................................OO............................................................................................................................................................................................................................................................................................................................................................................................................................................................................................................................................................................................................OO.OOO.
.................................................................................................................................................O.....O.........................................................................................................................OOOO.................................................................................................................................................................................................................................................................................................O.........................................................................................................................................................................................................................................................................................................OO.O...
..................................................................................................................................................OO.OO..........................................................................................................................OO.OO.............................................................................................................................................................................................................................................................................................OOOOO...............................................................................................................................................................................................................................................................................................................
.....................................................................................................................................................................................................................................................O.............................OO...................................................................................................................................................................O.O.......................................................................................................................O.....O..............................................................................................................................................................................................................................................................................................................
..................................................................................................................................................OO.OO............................................................................................O...O................................................................................................................................................................................................OO............................................................................................................................OO...............................................................................................................................................................................................................................................................................................................
.................................................................................................................................................O.....O................................................................................................O................................................................................................................................................................................................O.........................................................................................................................O..O................................................................................................................................................................................................................................................................................................................
..................................................................................................................................................O...O............................................................................................O....O.............................................................................................................................................................................................O...................................................................................................................................OO...........................................................................................................................................................................................................................................................................................................
...................................................................................................................................................OOO..............................................................................................OOOOO...........................................................................................................................................................................................O.O.................................................................................................................................OO.OO..........................................................................................................................................................................................................................................................................................................
...................................................................................................................................................OOO.................................................................................................................OOOO..........................................................................................................................................................................OO.................................................................................................................................OO.O...........................................................................................................................................................................................................................................................................................................
......................................................................................................................................................................................................................................................................O...O........................................................................................................................................................................................................................................................................................................O..O...O............................................................................................................................................................................................................................................................................................................
.............................................................................................................................................................OOO.........OO...............................................................................................O........................................................................................................................................................................................................................................................................................................OOOOOOO.............................................................................................................................................................................................................................................................................................................
............................................................................................................................................................O...O.......OO.............................O..............................................................O..O.............................................................................................................................................................................................................................................................................................................................................................................................................................................................................................................................................................................................................................
............................................................................................................................................................O...O.........O..........................O..O..........................................................................................................................................................................................................................................................................................................................................................................OOOOOOO.............................................................................................................................................................................................................................................................................................................
.............................................................................................................................................................OOO.........................OO..........OOOOO.........................................................................................................................................................................................................................................................................................................................................................................O..O...O............................................................................................................................................................................................................................................................................................................
.........................................................................................................................................................................................OO..........OOO.OO.....................................OO...................................................................................................................................................................................................OO.................................................................................................................................OO.O...........................................................................................................................................................................................................................................................................................................
............................................................................................................................................OO.......OO...............................................OO.O......................................OO..................................................................................................................................................................................................O.O.................................................................................................................................OO.OO..........................................................................................................................................................................................................................................................................................................
............................................................................................................................................O.OO...OO.O................................................OO.............................................................................................................................................................................................................................................O...................................................................................................................................OO...........................................................................................................................................................................................................................................................................................................
............................................................................................................................................O...O.O...O..................................................................................................................................................................................................................................................................................................O.........................................................................................................................O..O................................................................................................................................................................................................................................................................................................................
............................................................................................................................................OO..O.O..OO......OOO.......................................OO.................................................................................O..O..........................................................................................................................................................OO............................................................................................................................OO...............................................................................................................................................................................................................................................................................................................
.............................................................................................................................................OOO...OOO......O...O.....................................OO.O......................................OOO..........................OO...............O.........................................................................................................................................................O.O.......................................................................................................................O.....O..............................................................................................................................................................................................................................................................................................................
..............................................................................................................................................O.....O.......O...O........................OO..........OOO.OO.........OO..........................OOO...................OOO....OO...........O...O....................................................................................................................................................................................................................................................................................OOOOO...............................................................................................................................................................................................................................................................................................................
.............................................................................................................................................................OOO.....................O...OO..........OOOOO..........OO.........................O...O.................OOOOO......OO.........OOOO.......................................................................................................................................................................................................................................................................................O.........................................................................................................................................................................................................................................................................................................OO.O...
....................................................................................................................................................................................OO...............O..O.....................................O.....O...............O.O...O.....OOO.............................................................................................................................................................................................................................................................................................................................................................................................................................................................................................................................................................................................................OO.OOO.
....................................................................................................................................................................................O.O................O.......................................O...O................OO...O......OO....................................................................................................................................................................................................................................................................................................................................................................................................................................................................................................................................................................................................................O
................................................................................................................................................................................................................................................OOO..........................OO............................................................................................................................................................................OO...................................................................................................................................................................................................................................................................................................................................................................................................................................OO.OOO.
.............................................................................................................................................................................................................................................................................OO...............................................................OO.....OO.................................................................................OOO...............OO.....................................................................................................................................................................................................................................................................................................................................................................................................................................O.O...
.............................................................................................................................................OO.....OO...............................................OO.......................................................................................................................................OO.....OO...................................................................................O.................O....................................................................................................................................................................................................................................................................................................................................................................................................................................O.O...
.............................................................................................................................................OO.....OO..............................................O.O...............OO.............O.O.................................................................................................................................................................................................O................................................................OOOO.....................................................................................................................................................................................OO.............................................................................................................................................................................................O....
...................................................................................................................................................................................................OO.O...............OO...........O...O..................................................................................................................................................................................................................................................................O...O....................................................................................................................................................................................O.O.................................................................................................................................................................................................
........................................................................................................................................................................................OO..........OO.............................O...........................................................................................................................................................................................................OOO........................................................O...................................................................................................................................................................................OO......O................................................................................................................................................................................................
.......................................................................................................................................................................OO..............OO.OO.........O......................OO....O....O.........................................................................................................................................................................................................O.........................................................O..O..............................................................................................................................................................................O..O..O..O.......OO.......................................................................................................................................................................................
.......................................................................................................................................................................OO...............O..O................................OO.....O................................................O...........................................................................................................................................................O.......................................OO....................................................................................................................................................................................................OO......O.......OO.......................................................................................................................................................................................
........................................................................................................................................................................................O..O.........O.............................O...O...........................................OOO.................................................................................................................................................................................................OO..........................................................................................................................................................................................................O.O.................................................................................................................................................................................................
.........................................................................................................................................................................................OO.........OO...............................O.O..........................................OOOOO..................................................................................................................................................................................................O............................................................................................................OO...........................................................................................OO..................................................................................................................................................................................................
...................................................................................................................................................................................................OO.O...............OO.........................................................OO...OO......................................................................OO.....................................................................................................................................................................................................................................O..O................................OO......................OO....................................................................................................................................................................................................................................
.........................................................................................................................................................................................OO.........O.O...............OO......................................................................................................................................OO...................................................................................................................OO....................................................................OO.....OO......................................O................................O.O....................O.O...............OO..........OOO......................................................................................................................................................................................................
........................................................................................................................................................................................O..O.........OO............................................................................................................................................................................................................................................................................O.O...................................................................OO.....OO......................................O...........................OO......O...................O.................OO..........OOO......................................................................................................................................................................................................
.......................................................................................................................................................................OO...............O..O...............................................OO........................O.O...........................................................................................................................................................................................................O..................................................................................................................O.O.......................OO.O..O..O..O...................OOO..........................O...O.....................................................................................................................................................................................................
.......................................................................................................................................................................OO..............OO.OO...............................................OO........................O...O.........OOO................................................................................................................................................................................................................................................................................................................O.O.......................OO..OO......O...............................................O.....O....................................................................................................................................................................................................
........................................................................................................................................................................................OO...............................................................................O.....OO..OOO.................................................................................................................................................................................................................................................................................................................O.................................O.O.................................................O...O.....................................................................................................................................................................................................
.....................................................................................................................................................................................................................................................................O....O....OO.............................................................O.......O..................................................................................................................................................................................................................................................................................OO...................................................OOO......................................................................................................................................................................................................
.........................................................................................................................................................................................................................................................................O..................................................................OO.OO...OO.OO....OOO................................................................................................................................................................................................................................................................................................OOO....................................................................................................................................................................................................................................
.....................................................................................................................................................................................................................................................................O...O.........OO.......................................................................OO.OO.................................................................................................................O.................................................................................................................OO...OO............................................OO.......O.................OO...................................................................................................................................................................................................................
.....................................................................................................................................................................................................................................................................O.O...........OO..........................................................O.O.O.O......OO.OO.............................................................OO...........................OOO...................OO.................................................................................................................O.....O............................................OO.......O.O...............OO...................................................................................................................................................................................................................
.............................................................................................................................................................................................................................................................................................................................................O...O.O...O....OOOOO..............................................................OO.........................O..O...................O.O............................................................OO...............................................................................................................OO....................................................................................................................................................................................................................................
...........................................................................................................................................................................................................................................OOO...OOO.........................................................................................O..OO.OO..O...OO...OO............................................................O..............................O..................................................................................OO...................................................O...O.............................................................................................................................................................................................................................................................................................
...........................................................................................................................................................................................................................................O..O.O..O......OOO.................................................................................OOO...OOO..................................................................................................O...O...........................................................................................O.......O....................................OOO..............................................................................................................................................................................................................................................................................................
..........................................................................................................................................................................................................................................O...O.O...O....O...O.................................................................................O.....O.................OO....................................................................................O..........................................................................................O..O...O..O.....................................................OO.............................................................................................................................................................................................................................................................................
..........................................................................................................................................................................................................................................OOOO...OOOO...O.....O........................................................................................................O..O...............................................................................O.O...............................................................................................O.O...............................................OO.......O.O...............OO....OOO.....................................................................................................................................................................................................................................................
...........................................................................................................................................................................................................................................O.......O.....O...O................................................................................................OOOOOO.......O................................................................................................................................................................................O.O...............................................OO.......O.................OO...O...O....................................................................................................................................................................................................................................................
..........................................................................................................................................................................................................................................................OOO................................................................................................O......O......O......OO........................................................................................................................................................................O.O........................................................OOO...................O.....O..........................................OO.......................................................................................................................................................................................................
..........................................................................................................................................................................................................................................................OOO................................................................................................O....OO.......O......OO....................................................................................................................................................................O..O...O..O..............................O............................................O...O...........................................OO.......................................................................................................................................................................................................
..............................................................................................................................................................................................................................................................................................................................................OO..............OO.......O..O..............................................................................................................................................................................OOO...OOO...............................OOOO..........................................OOO.....................................................................................................................................................................................................................................................
..............................................................................................................................................................................................................................................................................................................................................OO.......................OO..............................................................................................................................................................................................................OO.........OOOO.........................................OOO.....................................................................................................................................................................................................................................................
...........................................................................................................................................................................................................................................................................................................................................................................................................................................................................................................OO....................................O.....................................OO.........O..O.................OOO.............................................................................................................................................................................................................................................................................
...........................................................................................................................................................................................................................................................OO..............................................................................................................................................................................................................................................O.O..................................OOO.........................................O.....OOOO.................O.................OO............................................................................................................................................................................................................................................................
...........................................................................................................................................................................................................................................................OO..............................................................................................................................................................................................................................................O...................................OOOOO........................................O....OOOO..................O.O...............OO............................................................................................................................................................................................................................................................
..........................................................................................................................................................................................................................................................................................................................................OO...........................................................................................................................................................................................O......OO...OO............................................O........O.O...........OO.....................OO......................................................................................................................................................................................................................................................
..................................................................................................................................................................................................................................................................................................................OO.....OO.............O..O.......OO..................................................................................................................................................................................O.O.....OOOOO.......................................................OO..................................OO......................................................................................................................................................................................................................................................
..................................................................................................................................................................................................................................................................................................................OO.....OO............O.......OO....O....................................................................................................................................................................................OO...O...O.......................................................O...........................................................................................................................................................................................................................................................................................
...............................................................................................................................................................................................................................................................................................................................OO......O......O......O..............................................................OOO.....................................................................................................OO............OO....O.O....................................................................................................................................................................................................................................................................................................................................................
...............................................................................................................................................................................................................................................................................................................................OO......O.......OOOOOO.................................................................O.....................................................................................................OO............OO.....O.....................................................................................................................................................................................................................................................................................................................................................
........................................................................................................................................................................................................................................................................................................................................O..O.........................................................................O.................................................................................................................O.O......................OO.....................................................................................................................................................................................................................................................................................................................................
..........................................................................................................................................................................................................................................................................................................................................OO...........................................................................................................................................................................................O........................OO........................................................OO......OO...................................................................................................................................................................................................................................................................
...........................................................................................................................................................................................................................................OO.....OO.....................................................................................................................................................................................................................................................................................................................................................................O..O....O..O..................................................................................................................................................................................................................................................................
...........................................................................................................................................................................................................................................OO.....OO.............................................................................................OO...OO..................................................................................................................................................................................................................................................O..............O..O....O..O..................................................................................................................................................................................................................................................................
..................................................................................................................................................................................................................................................................................................................................................OOOOO.................................................................................................................................................................................................................................OO.....OO.........OOO............O..O....O..O..................................................................................................................................................................................................................................................................
..................................................................................................................................................................................................................................................................................................................................OO..............OO.OO..............................................................................................................................................................................................................O..................OO.....OO............O............OO......OO...................................................................................................................................................................................................................................................................
..................................................................................................................................................................................................................................................................................................................................OO..............OO.OO............................................................................................................................................................................................................O.O......................................O.O........................OO.....OO.......................................................................................................................................................................................................................................................
...................................................................................................................................................................................................................................................................................................................................................OOO.....................................................................................................................................................................................................O.....OO..........................................O.........................OO.....OO.......................................................................................................................................................................................................................................................
..........................................................................................................................................................................................................................................................................................................................................................................................................................................................................................................................................................O.O....OO............OO....................................O.................................................................................................................................................................................................................................................................................
.................................................................................................................................................................................................................................................................................................................................OOO...............................................OO....................................................................................................................................................................O...O...OO............OO...................................OO.................................................................................................................................................................................................................................................................................
..................................................................................................................................................................................................................................................................................................................OO.....OO......OOO..............................................O.O....................................................................................................................................................................OOOOO.....O.O........................................OO....O.O................................................................................................................................................................................................................................................................................
..................................................................................................................................................................................................................................................................................................................O.OO.OO.O.........................................................O...................................................................................................................................................................OO...OO......O...................O.....O..............OO.......................................................................................................................................................................................................................................................................................
...................................................................................................................................................................................................................................................................................................................O.O.O.O...............................................................................................................................................................................................................................OOOOO..........................OOO...OOO......................................................................................................................................................................................................................................................................................................
...................................................................................................................................................................................................................................................................................................................O.O.O.O.........................OO.....................................................................................................................................................................................................OOO..................OO......OO..O.O..OO.....................................................................................................................................................................................................................................................................................................
..................................................................................................................................................................................................................................................................................................................O.......O....OO...OO.............OO......................................................................................................................................................................................................O...................OO......O...O.O...O.....................................................................................................................................................................................................................................................................................................
................................................................................................................................................................................................................................................................................................................................OOOOO..................................................................................................................................................................................................................................................O.OO...OO.O.....................................................................................................................................................................................................................................................................................................
.................................................................................................................................................................................................................................................................................................................................OOO...........................................OO......................................................................................................................................................................................................OO.......OO.....................................................................................................................................................................................................................................................................................................
..................................................................................................................................................................................................................................................................................................................................O...........................................O.O......................................................................................................................................................................................................................................................................................................................................................................................................................................................................................................................
....................................................................................................................................................................................................................................................................................................................OO.OO......................O................................O......................................................................................................................................................................................................................................................................................................................................................................................................................................................................................................................
..................................................................................................................................................................................................................................................................................................................O..O.O..O...................O.O.................OO.............................................................................................................................................OO......................................................................................................................OO.OO.........................................................................................................................................................................................................................................................
..................................................................................................................................................................................................................................................................................................................OOO...OOO...................OO.O.................OO............................................................................................................................................O.O............................................................................................................OO......O.....O........................................................................................................................................................................................................................................................
...................................................................................................................................................................................................................................................................................................................O.....O....................OO.OO...OO..........O..............................................................................................................................................O.............................................................................................................OO......................................................................................................................................................................................................................................................................
..............................................................................................................................................................................................................................................................................................................................................OO.O....OO........................................................................................................................................................................................................................O................................................O.....O.......O.......................................................................................................................................................................................................................................................
..................................................................................................................................................................................................................................................................................................................OO..........................O.O..........................OOO.............................................................................................................................................................................OO..................OOO......OOO............................................O..O.O..O.......................................................................................................................................................................................................................................................
..................................................................................................................................................................................................................................................................................................................OO...........................O.............................O.............................................................................................................................................................................OO.................OOOOO.....OOO............................................OOO...OOO.......................................................................................................................................................................................................................................................
............................................................................................................................................................................................................................................................................................................................................................................O................................................................................................................................................................................................OO...OO...O...O...........................................................................................................................................................................................................................................................................................................
........................................................................................................................................................................................................................................................................................................................................................................................................................................................................................................................................................................O.............O.....O..........................................................................................................................................................................................................................................................................................................
.......................................................................................................................................................................................................................................................................................................................................................................................................................................................................................................................................................................O.O.............OO.OO...........................................................................................................................................................................................................................................................................................................
.....................................................................................................................................................................................................................................................................................OO.....OO.............O...........................................................................................................................................................................................................................................................OO.O............................................................................................................................................................................................................................................................................................................................
.....................................................................................................................................................................................................................................................................................OO.....OO............O.O..............................................................OOO........................................................................................OO...................................................................................OO..........OO.OO...OOO.....OO.OO...........................................................................................................................................................................................................................................................................................................
.........................................................................................................................................................................................................................................................................................................O.OO...............................................O................O........................................................................................OO...................................................................................OO..........OO.O....OOO....O.....O..........................................................................................................................................................................................................................................................................................................
...................................................................................................................................................................................................................................................................................................OO...OO.OO...............................................OO..............O..........................................................................................................................................................................................O.O.............O...O...OO......................................................................................................................................................................................................................................................................................................
...................................................................................................................................................................................................................................................................................................OO....O.OO..............................................O.O..........................................................................................................................................................................................................O...............OOO....OO......................................................................................................................................................................................................................................................................................................
..........................................................................................................................................................................................................................................................................................................O.O...........................................................................................................................................................................................................................................................................OOO............................................................................................................................................................................................................................................................................................................
...........................................................................................................................................................................................................................................................................................................O...........................................................................................................................................................................................................................................................................................................................................................................................................................................................................................................................................................................................
........................................................................................................................................................................................................................................................................................................................O..............................................................................................................................................................................................................................................................................................................................................................................................................................................................................................................................................................................
.....................................................................................................................................................................................................................................................................................OOO...OOO.........................OOO............................................................OO.....OO......................................................................OOO..........................................................................................................................O..................................O.....O...........................................................................................................................................................................................................................................................
.....................................................................................................................................................................................................................................................................................O..O.O..O.......OO...............OOOOO..........................................................O.O.....O.O....................................................................OO.OO........................................................................................................................O.O................................OOO...OOO..........................................................................................................................................................................................................................................................
....................................................................................................................................................................................................................................................................................O...O.O...O......OO..............OO...OO........................................................OOO.......OOO...................................................................OO.OO.................................................................................OOO............................OOO....O.OO................................O.OO.OO.O..........................................................................................................................................................................................................................................................
....................................................................................................................................................................................................................................................................................OOOO...OOOO.....................................................................................OO.OOO.OOO.OO...................................................................OOOOO.........................................OO.....OO...............................O..............................OOO...OO.OO..........OO......................OO.OO............................................................................................................................................................................................................................................................
.....................................................................................................................................................................................................................................................................................O.......O.......................................................................................OOOOO.OOOOO...................................................................OO...OO.......................................O..O...O..O...............................O....................................O.OO..........OO......................OO.OO............................................................................................................................................................................................................................................................
....................................................................................................................................................................................................................................................................................................OOO................................................................................O.....O...................................................................................................................O.........O.....................................................................O.O..................................OO.OO............................................................................................................................................................................................................................................................
....................................................................................................................................................................................................................................................................................................OOO................OOO..............................................................OO.OO..................................................................................OO................................O..O...O..O......................................................................O....................................................................................................................................................................................................................................................................................................
.......................................................................................................................................................................................................................................................................................................................OOO.....................................................................................................................................................O..O..............................OO.OO.OO.OO...........................................................OO...OO.........................................................................................................................................................................................................................................................................................................
......................................................................................................................................................................................................................................................................................................................................................................................................................................................................OOOOOO.......O......OO.........................O.O................................................................OOOOO..........................................................................................................................................................................................................................................................................................................
.....................................................................................................................................................................................................................................................................................................................................................................................................................................................................O......O......O......OO........................OO.OO................................................................OOO...........................................................................................................................................................................................................................................................................................................
..................................................................................................................................................................................................................................................................................................OO...OO..............OO..............................................................O.....O.......................................................................O....OO.......O......................................................................................................O............................................................................................................................................................................................................................................................................................................
............................................................................................................................................................................................................................................................................................O......OOOOO...............OO.............................................................OO.....OO.......................................................................OO.......O..O..................................................................OO................................................................................................................................................................................................................................................................................................................................................
...........................................................................................................................................................................................................................................................................................OOO......OOO..........................................OO..................................O.OO...OO.O...............................................................................OO...................................................................OO.................................................................................................................................................................................................................................................................................................................................................
..........................................................................................................................................................................................................................................................................................O...O......O..........................................O.O..................................O.OO...OO.O......................................................................................................................................................O................................................................................................................................................................................................................................................................................................................................................
..........................................................................................................................................................................................................................................................................................OO.OO...................O...............................O...OOO.............................OOO...OOO...................................................................................................................OOO...OOO............................................................................................................................................................................................................................................................................................................................................................................
..........................................................................................................................................................................................................................................................................................OO.OO..................O.O....................................O.............................OOO...OOO..................................................................................................................O.........O.................O.........................................................................................................................................................................................................................................................................................................................................................
.................................................................................................................................................................................................................................................................................................................OO.O..................................O...................................................................................................................OO....................................O...O.O...O................OO.........................................................................................................................................................................................................................................................................................................................................................
..........................................................................................................................................................................................................................................................................................OO.OO..................OO.OO...OO................................................................................................................................................OO.....................................OOO...OOO.................O.O.....................................................................................OO.....OO..........................................................................................................................................................................................................................................................
..........................................................................................................................................................................................................................................................................................OO.OO..................OO.O....OO........................................................................................................................................................................................O.....O................................................................OO........................................OO.....OO..........................................................................................................................................................................................................................................................
.....................................................................................................................................................................................................................................................................................OO...O...O..................O.O......................................................................................................................................................................................................................................................................OO...........................................................................................................................................................................................................................................................................................................
.....................................................................................................................................................................................................................................................................................OO....OOO....................O....................................................................................................................................................................................................................................................................................................................................................................................................................................................................................................................................................................................
............................................................................................................................................................................................................................................................................................O..........................................................................................................................................................................................................................................................................................................................................................................................................................................................................................................................................................................................................
......................................................................................................................................................................................................................................................OO.....OO........................................................................................................................................................................................O...............................................................................................................................................................................................................................................................................................................................................................................................................................................
......................................................................................................................................................................................................................................................OO.....OO...............O.......................................................................................................................................................................O................................................................................................................................................................................................................................................................................................................................................................................................................................................
.............................................................................................................................................................................................................................................................................O.O......................................................................................................................................................................OOO............O.....O...........................................................................................................................................................................................................................................................................................................................................................................................................................
............................................................................................................................................................................................................................................................................O.OO....................................................................................................................................................................................OOO...OOO..........................................................................................................................................................................................................................................................................................................................................................................................................................
.......................................................................................................................................................................................................................................................O.....O........OO...OO.OO.............................................................................................................OO....................................................................OO.O...O.OO.........................................................................................................................................................................................................................................................................................................................................................................................................................
......................................................................................................................................................................................................................................................OOO...OOO.......OO....O.OO.............................................................................................................OO.....................................O......................................................OO..........................................................................................................................................................................................................................................................................................................................................................................................................
......................................................................................................................................................................................................................................................O.OO.OO.O..............O.O....................................................................................................................................................OO.....................................................OO..............................................................................................................................................................OO.....OO...................................................................................................................................................................................................................................
.....................................................................................................................................................................................................................................................OO.......OO..............O............................................................................................................................................OO..OO....OO...............................O...O.......................................OO.......................................................................................................................................OO.....OO...................................................................................................................................................................................................................................
.....................................................................................................................................................................................................................................................OO.......OO...........................O...............................................................................................................................OO..OO....OOO..............................O...O.......................................OO...................................................................................................................................................................................................................................................................................................................................................................................
.....................................................................................................................................................................................................................................................OOO.....OOO......OO..................OOO........................................................OO.....OO.....................................OO..........................OO....OO................................................................................................................................................................................................................................................................................................................................................................................................................................................................
.......................................................................................................................................................................................................................................................OOO.OOO........OO.................OOOOO.......................................................OO.....OO.....................................OO....OOO........................OO..........O......................................................................................................................................................................................................................................................................................................................................................................................................................................................
.........................................................................................................................................................................................................................................................O.O............................OO...OO.................................................................................................OO......OOOOO.......................O..........OOO.....................................................................................................................................................................................................................................................................................................................................................................................................................................................
......................................................................................................................................................................................................................................................O..O.O..O................................................................................................................................OOO.....O...O.O.................................OOO.........................................OOO..............OO.........................................................................................................................................................................................................................................................................................................................................................................................
................................................................................................................................................................................................OO...................................................O..O...O..O........................................................................................................................O.......OO......O...OO............................................................................OO.OO.............O..O...................................OO.....OO...........................................................................................................................................................................................................................................................................................................................................
................................................................................................................................................................................................OO....................................................OO.....OO.......................................................................................................................OO.OO........OO........................................OO...OO......................................OO.OO.....OOOOO.......O..................................OO.....OO...........................................................................................................................................................................................................................................................................................................................................
..........................................................................................................................................................................................................................................................................................OOO......................................................................................................OO........................................OO...OO......................................OOOOO....O.....O......O.................................................................................................................................OO...................................................................................................................................................................................................................................................
..........................................................................................................................................................................................................................................................................................OOO........................................................................................O.....O.............................................................................................OO...OO...O...OO.......O.................................................................................................................................OO...................................................................................................................................................................................................................................................
....................................................................................................................................................................................................................................................................................................................................................................................................................................................................................................O.......O..O.......OOO.............................................................................................................................................................................................................................................................................................................................................................................
.....................................................................................................................................................................................................................................................................................................................................................................................OO.O.OO....................................................O...........................................................OO........OO.OO............................................................................................................................................................................................................................................................................................................................................................................
..........................................................................................................................................................................................................................................................................................OO...................................................................................................................................................O.O....................................................................OO.OO..........................................................................................................................O.......O...O.....................................................................................................................................................................................................................................
.................................................................................................................................................................................................O.................................................................OO...OO................OO.....................................................................................................................................................OO.................OO.....OO.........................................OOOOO.........................................................................................................................O........O...O.....................................................................................................................................................................................................................................
................................................................................................................................................................................................OOO...................................................................................................................................................O.....O....................................................................................OO.................OO.....OO................OO......................OO...OO........................................................................................................................O..................................................................................................................................................................................................................................................
................................................................................................................................................................................................OOO.................................................................O...O........OO.....O............................................................O.O...O.O...........................................................OO.....OO..............OOO....................................................................................................................................................................................................................................................................................................................................................................................................................................................
.....................................................................................................................................................................................................................................................................OOO........OOO...O...O.........................................................O...O.O...O..........................................................OO.....OO.............O.O..................................................O.....................................................................................................................................................OO.O...O.OO..................................................................................................................................................................................................................................
..............................................................................................................................................................................................OO...OO................................................................OOO.....O.OO.....O.............................................................O...O.O...O................................................................................OO..................................................O.O..........................................................................................................................................OO...OO....OOO...OOO...................................................................................................................................................................................................................................
..............................................................................................................................................................................................OO...OO........................................................................O..O....O.....O........................................................O.........O....................................................................................................................................OO.O....OO......................................................................................................................................O........O.....O....................................................................................................................................................................................................................................
.............................................................................................................................................................................................................................................................................O.OO.........OO.............................................................................................................................OOO...OOO......................................O..O.......................OO.OO...OO............OO...................................................................................................OO................O.....O................................................................................................................................................................................................................................................
......................................................................................................................................................................................................................................................OO........................OOO..................................................................OO.....OO..........................OO...............................O..O.O..O.....................................O...........................OO.O........................................................................................................................O.................OO.OO.................................................................................................................................................................................................................................................
.................................................................................................................................................................................................O......OO........OOO..............OO.................OO.........................OO.....................................................................................................OO.................................OO.OO.......................................O...O.......................O.O.........................................................................................................................O.O.....OO.........O.O..................................................................................................................................................................................................................................................
................................................................................................................................................................................................O.O.....OO........O...O............OO.......................................................................................................................................................................................................OO.........................OOOO.........................O.............................................OOO.....OOO...................................................................OO.....O.O.........O...................................................................................................................................................................................................................................................
...............................................................................................................................................................................................OO.................O....O...............................................................................................................................................................................................O...........O........OO.........................................................................OO........................OO.OO...OO.OO..........................................................................OOO........O...................................................................................................................................................................................................................................................
..........................................................................................................................................................................................O.O..OO..................O...O...............................................................................................................................O...O............................................................O.........O....................................................................................OO........................OO.O.O.O.O.OO...........................................................................OOO...........................................................................................................................................................................................................................................................
........................................................................................................................................................................................O...O..OOO........................................O.....OO...................................................................................................OO...................................................................O.O.O.O.................................................................................................................O...O.O...O...........................................................................OOO............................................................................................................................................................................................................................................................
.................................................................................................................................................................................OO.....O......OOO.................O...O................O...O...OOO...........................................................................OO.....OO.............O...O.O...OO..........................................................O.O.O.O.........................................O.......................OOOO............................................O..O...O..O..........................................................................O.O........................OO...................................................................................................................................................................................................................................
.................................................................................................................................................................................OO....O....O...O..O..............O....O....................O.....OO.O..............OO........................................................OO.....OO.............O...O.O................................................................OO.OO.........................................O.O.....................OO..O..............OO.............................OOO...OOO...........................................................................OO.........................OO...................................................................................................................................................................................................................................
........................................................................................................................................................................................O........OO...............O...O............OO..O.....O....O..O..............OOO.......................................................OO.....OO..............OOO................................................................O..O...O..O.....................................O.OO....................OO..O...............OO.................................................................................................................................................................................................................................................................................................................................................................................
........................................................................................................................................................................................O...O.....................OOO..............OO..OO.........OO.O.....OOO.....O.OO.......................................................OOO...OOO.....................O..O.........................................................OO.....OO................................OO...OO.OO.....................O..O....................................................................................................................................................OO............................................................................................................................................................................................................................................
..........................................................................................................................................................................................O.O...................................................OOO........OOO.....OOO........................................................O.O...O.O.....................OO....................................................................................................OO....O.OO......................OO.....................................................................................................................................................O.O...............................OO.....OO...................................................................................................................................................................................................
................................................................................................................................................................................................................................................OO........O...O.....O.........................................................O..O.O..O..................................................................................................................................O.O.............................................................................................................................................................................O..............OO................O.O.....O.O..................................................................................................................................................................................................
................................................................................................................................................................................................................................................................................................................................OO.OO........................................................................................................O.....O......................O.......................OO...................................................................................................................................................................O.O...............OOO.......OOO.................................................................................................................................................................................................
.........................................................................................................................................................................................................................................................OO...OO............................................................................................................................................................................OOO...OOO............................................O..O..............................................OO.................................................................................................................OOO....OO..........OO.OOO.OOO.OO.................................................................................................................................................................................................
...............................................................................................................................................................................................................................................................................................................................................................OO...........................................................................O.OO.OO.O...........................OO.......OO.....OO..O...............OO.............................OO................................................................................................................OOO....O..OOOO.......OOOOO.OOOOO..................................................................................................................................................................................................
.......................................................................................................................................................................................................................................................................................................................................................O.....O...O............................................................................OO.OO......................................OO......OO..O..............OO.......................................................................................................................................O........OOO....OO.OOO.........O.....O....................................................................................................................................................................................................
......................................................................................................................................................................................................................................................................................................................................................O.O...O.....O...........................................................................OO.OO...............................................OOOO.......................................................................................................................................................O.........O.O...................OO.OO.....................................................................................................................................................................................................
..............................................................................................................................................................................................................................................................................................................................OO.....OO...............O.O..OO.O...O........OO.................................................................OO.OO.........................................................................................................................................................................................................O.O.........OO.............................................................................................................................................................................................................................
..............................................................................................................................................................................................................................................................................................................................OO.O.O.OO................O....O.....O........OO..................................................................................................................................................................OO..........................................................................................................OO.OO.......................................................................................................................................................................................................................................
..............................................................................................................................................................................................................................................................................................................................O..O.O..O......................O...O.............................................................................................................OO...OO.........................................................OO........O................................................................................................O.....O.................OO...................................................................................................................................................................................................................
..............................................................................................................................................................................................................................................................................................................................OOO...OOO........................OO...............................................................................................................OOOOO.......................................................OO......O.....O..................................................................................................O....................OO........O.....O....................................................................................................................................................................................................
.................................................................................................................................................................................................OO.....OO..........................................................................................................................................OO...OO.....................................................................................................................OO.OO...............................................OO.....OOO.....O...OO.O...............................................................................................OO...OO.................OO.......OO.....OO...................................................................................................................................................................................................
.................................................................................................................................................................................................OO.....OO..........................................................................................................................................O.....O.....................................................................................................................OO.OO...............................................OO......OO......OOOOOO.........................................................................................................................O......O.OO...OO.O..................................................................................................................................................................................................
...........................................................................................................................................................................................................................................................OO....................................................................................................................................................................................................................OOO...........................................................OO....OOOO.........................................................................................................................O.O.....O.OO...OO.O..................................................................................................................................................................................................
...........................................................................................................................................................................................................................................................OO........................................................................................O...O.....................................................................................................................................................................................OO...........................................................................................................O.....................O.O......OOO...OOO...................................................................................................................................................................................................
......................................................................................................................................................................................................................................................................................................................................................OOO........................................................................O.O........................................................................................................................................................................................................................O......................O.......OOO...OOO...................................................................................................................................................................................................
..................................................................................................................................................................................................................................................................................................................................................................................................................................OO..................................................................................................................OO.O.OO..............................................................................................O...........................................................................................................................................................................................................................................
..................................................................................................................................................................................................................................................................................................................................................................................................................................O....................................................................................................................................................................................................................................................................................................................................................................................................................................................................
......................................................................................................................................................................................................................................................................................................................................................................................................................................................................................................................................................O.....O...................................................................................................................OO...OO................................................................................................................................................................................................................
......................................................................................................................................................................................................................................................................................................................................................................................................................OO.....OO.............OO.....OO.............................OO.........................................................................................................................................................................OO.................O.O.O.O................................................................................................................................................................................................................
.................................................................................................................................................................................................................OO...................................................................................................................................................................................................O.OO.OO.O.............OO.....OO.............................OO...................................................................OO.OO.................................................................................................OO..................OOOOO.................................................................................................................................................................................................................
.................................................................................................................................................................................................................OO....................................................................................................................................................................................................O.O.O.O...........................................................................................................................O........................................................................................................................OOO..................................................................................................................................................................................................................
.......................................................................................................................................................................................................................................................................................................................................................OO..............................................................O.O.O.O........................................................................................................................................................................................................................................O............O...................................................................................................................................................................................................................
.....................................................................................................................................................................................................................................................................................................................................OO................OO.............................................................O.......O.....................................................................................................................................................................................................................................OOOO...............................................................................................................................................................................................................................
.................................................................................................................................................................................................................O...................................................................................................................OO............................................................................................................................................................................................................................................................................................................................O.O.OO..............................................................................................................................................................................................................................
................................................................................................................................................................................................................O.O...........................................................................................................................................................................................................................................................................................................................................................................................................................................OO..O..O.OOO.............................................................................................................................................................................................................................
.................................................................................................................................................................................................O.......O.....O...O.........................................................................................................................................................................................................................O..........................................................................................................OO....................................................................................................OO...O.O.OO..............................................................................................................................................................................................................................
...............................................................................................................................................................................................OO.OO...OO.OO...OOOOO....................................................................................................................................................................................................OO.OO.................OO........................................................................................................OO..........................................................................................................OOOO..........................OO...................................................................................................................................................................................................
..............................................................................................................................................................................................................OO...OO.....................................................................................................................O.O.........................................................................O..O.O..O..............OO........................................................................................................................................................OO.....OO......................................................O...........................OO...................................................................................................................................................................................................
..................................................................................................................................................................................................O.O.O.O......OOOOO.....................................................................................................................O..O....O....................................................................OOO...OOO........................................................................................................................................................................OO.....OO.......................................................................................................................................................................................................................................................................................
................................................................................................................................................................................................O...O.O...O.....OOO.....................................................................................................................OO.....OO......................................................................O.....O.........................................................................................................................................................................................................................................................................................................................................................................................................................................................................
................................................................................................................................................................................................O..OO.OO..O......O.........................................................................OO.....OO............................O.....OO...O........OO...................................................................................................................................................................................................................................................................................................................................................................OO.....OO.....................................................................................................................................................................
.................................................................................................................................................................................................OOO...OOO.................................................................................OO.....OO...........................O.O......OO..........OO................................................................OO.....OO...........................................................................................................................................................................................................................................................................O..............OO.....OO.....................................................................................................................................................................
..................................................................................................................................................................................................O.....O...................O.................................................................................................O...O......O..O.........................................................................OO.....OO..........................................................................................................................................................................................................................................................................OOOO..........................................................................................................................................................................................
............................................................................................................................................................................................................................O.O.......O.O......................................................................................OOO........O.O...........................................................................................................................................................................................................................................................................................................................................................OO.O.O.........................................................................................................................................................................................
...............................................................................................................................................................................................................................OO......OO....................................................................................OO...OO...................................................................................................................................................................................................................................................................................................................................................................OOO.O..O..OO....................................................................................................................................................................................
...............................................................................................................................................................................................................................OO......O................................................................................................................................................................................................................................................................................................................................................................................................................................................................OO.O.O...OO....................................................................................................................................................................................
...............................................................................................................................................................................................................................OO....................................................................................................................................................................................................................................................................................................................................................................................................OOO.................................................................OOOO..........................................................................................................................................................................................
.................................................................................................................................................................................................OO.........................O.O....OO...................................................................................................................................................................................................................O.O............................................................................................................................................................................O.....................................................O............O............................................................................................................................................................................................
.................................................................................................................................................................................................OO.........................O......O.O...................................................................................................................................................................................................................OO............................................................................................................................................O.......O......................O.....................................................OOO........................................................................................................................................................................................................
.....................................................................................................................................................................................................................................O...................................................................................................................................................................................................................O........OO.......................................................................................................................................................................................................................OOOOO................OO.....................................................................................................................................................................................
.....................................................................................................................................................................................................................................OO...........................................................................................................................................................................................................................OO.................................................................................................................................OOO.......OOO........................................................................O.O.O.O...............OO.....................................................................................................................................................................................
......................................................................................................................................................................................................................................................................................................................................................................................................................................................................................................................................................................................................OO.OO.OO.OO.........................................................................OO...OO........................O.......O.....................................................................................................................................................................
............................................................................................................................................................................................O..........................................................................................................................................................................................................................................................................................................................................................................................................OOO...OOO........................................................................................................O..O...O..O....................................................................................................................................................................
.....................................................................................................................................................................OO.....OO............O.O.......................................................................................................................................................................................................................................................................O...................................................................................................................................O.....O.............................................................................................................O.O........................................................................................................................................................................
.....................................................................................................OO.....OO.......................................................OO.....OO..........OO.................................................................................................OO.....OO...............................................................................................................................................................O.O.......................................................................................................................................................................................................................O...................O..........O.O........................................................................................................................................................................
.....................................................................................................OO.....OO....................................................................OO....OO................................................................................................O..O...O..O...........................OO..............................................................................................................OOOOOO..............O.......................................................................................................................................................................................................................O.O.................O.O.........O.O........................................................................................................................................................................
..................................................................................................................................................................................OO....OO...................................................................................................OO.OO..............................OO.............................................................................................................O......O..............OOO....................................................................................................................................................................................................................O.O................O...O....O..O...O..O....................................................................................................................................................................
..........................................................................................................................................................................................O.O...............................................................................................O.O.O.O...........................................................................................................................................O........O...............O.....................................................................................................................................................................................................................O..................OOO......OOO...OOO.....................................................................................................................................................................
............................................................................................................................................................................................O...............................................................................................O.O.O.O............................................................................................................................................O......O.....................................................................................................................................................................................................................................OO................OO...OO..................................................................................................................................................................................
..........................................................................................................................................................................................................................................................................................O.........O...........................................................................................................................................OOOOOO.........................................................................................................................................................................................................OOO..........................OO.........................................................................................................................................................................................................
.......................................................................................................................................................................................................O.................................................................................O...........O.........................................................................................................................................................................................................................................................................................................................................................O............................OO.........................................................................................................................................................................................................
......................................................................................................................................................................................................OOO.......................................................................................................................................................................................................................................................................................................................................................................................................................................................O......................................................................................................................................................................................................................................
.....................................................................................................................................................................................OO..............OOOOO...................................................................................OO.OO....................................................................................................................................................................................................................................................................................................................................................................................................O.O..............................................................................................................................................................................................
.....................................................................................................OOO...OOO.......OO..............................................................OO.............OO...OO..O.O....................................................OO.....................O..O.O..O.................................................................................................................................................................................................................................................................................................................................................................................................O..O....O.........................................................................................................................................................................................
....................................................................................................O..O...O..O......OO..............................................................................OOOOO......O..................................................O.O.....................OOO...OOO...................................................................................................................................................................................................................................................................................................OO...........................................................................................OO.....OO..........................................................................................................................................................................................
....................................................................................................OO.O...O.OO......................................................................................O...O......O.................................................O......OO.....................................................................................................................................................................................................OO.....................................................................................................................OO...................................................................................OO....OO...O.........O.....................................................................................................................................................................................
....................................................................................................................................................................................OOO...............O.O....O..O.................................................O..O..O..O.OO........................................................................................................................................................OO..OO....O..OO........................O..O............................................................................................................................................................................OO............................OO......OO...........O.....................................................................................................................................................................................
....................................................................................................................................................................................OOO................O......OOO.................................................O......OO..OO........O..........OO...................................................................................................................................OO.OO......OO.O.......................O.......OOOOO...................................................................................................................................................................OO......................................O..O.......................OO.....................................................................................................................................................................
.....................................................................................................................O...............................................O.......O............................................................................OO.......O.O................OO..........OO.......................................................................................................................................O.O......O........................O......O.....O....................................................................................................................................................................O......................................O.O.......................OO.....................................................................................................................................................................
....................................................................................................................OOO............................................OO.OO...OO.OO.........................................................................O.O........OO................O.O...................................................................................................................................................OO....OOO........................O.......OO...O.....................................................................................................O......................................................................................................................................................................................................................................................................................................
...................................................................................................................O...O..............................................................................OO.................................................O....................................................................................................................................................................................................................O..O.......O....................................................................................................OOOO.....................................................................................................................................................................................................................................................................................................
..................................................................................................................O.OOO.O.............................................O.O.O.O.....OO...OO.............OO................................................OO..................................................................................................................................................................................OO....OOO...........................OO...........................................................................................................O.O.OO....................................................................................................................................................................................................................................................................................................
...................................................................................................................OOOOO............................................O...O.O...O....OOOOO.............................................................................................................O.....................................................................................................................................O.O......O...................................................................................................................................OO..O..O.OOO................................................................................................................................O.O................................................................................................................................................................
....................................................................................................................................................................O..OO.OO..O.....OOO......................................................................................................O.....OOOO................................................................................................................................OO.OO......OO.O............OO....................................................................................................................OO...O.O.OO.................................................................................................................................O..O...............................................................................................................................................................
............................................................................................................O........................................................OOO...OOO.......O......................................................................................................O.O...O.O.OO...............................................................................................................................OO..OO....O..OO............OO..........................................................................................................................OOOO.........................................................................................................................O...........OO......OO......................................................................................................................................................
..........................................................................................................OO.OO.......................................................O.....O.....................O.........................................................................................O.O..O..O.OOO........OO.............................................................................................................................................................................................................................................................................O............O.............................................................................................................O.........O...OO....OO......................................................................................................................................................
..........................................................................................................OO.OO................O.................................................................O.O.........................................................................................O....O.O.OO.........OO.........................................................................................................................................................................................................................................................................................OOO.................................................................................................................OO.....OO..............................................................................................................................................................
..........................................................................................................................O....OOOO..............................................................OO.O..............................................................................................OOOO....................................................................................................................................................................................................................................................................................................OOOOO...............................................................................................................O....O..O...............................................................................................................................................................
.........................................................................................................O.O.O.O..........O.....OOOO.............................................................OO.OO...OO..........................................................................................O...................................................................................................................................................................OOO..............................................................................................................................O.O.O.O..............................OO.....OO...............................OOO..........................................O.O................................................................................................................................................................
................................................................................................................................O..O.....OO......................................................OO.O....OO...............................................................................OO...OO.......................................................................................................................................................................O...O.............................................................................................................................OO...OO..............................OO.....OO...............................O...............................................................................................................................................................................................................
..........................................................................................................OO.OO.................OOOO.....OO..........................OO..........................O.O....................................OO.....OO.........................................O.O.O.O......................................................................................................................................................................O.....O..........................................................................................................................................................................................................O................................................................OO.....OO.....................................................................................................................................
.....................................................................................................OO....OOO.................OOOO..................................OO...........................O.....................................OO.....OO..........................................OOOOO.......................................................................................................................................................................O.....O...........................................................................................................................................................................................................................................................................OO.....OO.....................................................................................................................................
.....................................................................................................OO.....O..................O............................................................................................................................................................OOO...........................................................................................................................................................................O..................................................................................................................................O..........................................................................................................OO...OO........................................................................................................................................................................
.............................................................................................................................................................................................................................................................................................O..........................................................................................................................................................................O...O...............................................................................................................................O.O...........................................................................................................OOO..........................................................................................................................................................................
.......................................................................................................................................OO.....OO.........................................................................................................................................................................................................................................................................................................................OOO................................................................................................................................O.O..........................................................................................................O...O.........................................................................................................................................................................
.......................................................................................................................................OO.....OO..............O...........................................................................................................................................................................................................................................................................................................O..................................................................................................................................O............................................................................................................O.O..........................................................................................................................................................................
.................................................................................................O...........................................................O.O............................................................................................................................................................................................................................................................................................................................................................................................................................................OO.............................................................................................................O...........................................................................................................................................................................
..............................................................................................OOOO..........................................................O.OO............................................................................................................................................................................................................................................................................................................................................................................................................................................OO.........................................................................................................................................................................................................................................................................................
.............................................................................................OOOO.....................................................OO...OO.OO..........................................................................................................................................................................................................................................................................................................OO................................................................................................................................OO.........................................................................................................................................................................................................................................................................................
......................................................................................OO.....O..O.....................................................OO....O.OO..........................................................................................................................................................................................................................................................................................................OO....................................................................................................................................................................................................................................................................OO.......OOO...OOO.....................................................................................................................................
......................................................................................OO.....OOOO.....O......................................................O.O.............................................................................................................................OO............................................................................................................................................................................................................................................................................................................................................................................................................................OO...................OO......O..O...O..O....................................................................................................................................
..............................................................................................OOOO....O.......................................................O..............................................................................................................................OO............................................................................................................................................................................................................................................................................................................................................................................................................................OO...........................OO.O...O.OO....................................................................................................................................
.................................................................................................O.........................................................................O...................................................................................................................................................................................................................................................................................................................................................................................................................................................................OO.....OO...............................................................................................................................................................................................................................................
.......................................................................................................................................OOO...OOO.......OO.................OOO.................................................................................................................................................................................................................................................................................................................................................................................................................................................................O..O...O..O..........................................................................................O...................................................................................................................................................
......................................................................................................................................O..O...O..O......OO................OOOOO..........................................................OO.....OO..............................................................................................................................................................................................................................................................................................................................................................................................O..O.O..O..........................................................................................O....................................................................................................................................................
......................................................................................................................................OO.O...O.OO.......................OO...OO.........................................................O.OO.OO.O.................................................................................................................................................................................................................................................................................................................................................................................................O.O.............................................................................................O....................................................................................................................................................
.........................................................................................................OOOOO.........................................................................................................OOO...............O.O.O.O................................................................................................................................................................................................................................................................................................................................................................................................OOO.OOO................................................................................................................................................................................................................................................
........................................................................................................O.OOO.O........................................................................................................O.................O.O.O.O..............................................................................................................................................................................................................................................................................................................................................................................................OOO.....OOO..............................................................................................................................................................................................................................................
.........................................................................................................O...O..........................................................................................................O...............O.......O.............................................................................................................................................................................................................................................................................................................................................................................................OO.......OO.....................................................................................OO...OO..................................................................................................................................................
..........................................................................................................OOO.............................................................OOO.................................................................................................................................................................................................................................................................................................................................................................................................................................................................OO.......OO........................................................................................O.....................................................................................................................................................
...........................................................................................................O..........................................OOO.................OOO..................................................................................................................................................................................................................................................................................................................................................................................................................................................................O.OO.OO.O......................................................................................O.....O.....O............................................................................................................................................
...............................................................................................................................................................................................................................................................................................................................................................................................................................................................................................................................................................................................................................................OOO...OOO.......................................................................................OO.OO....OO.OO..........................................................................................................................................
......................................................................................................................................................O.O.........................................OOO.....................................OO.OO.................................................................................................................................................................................................................................................................................................................................................................................................O.....O..............................................................................OO.........O.O.....OO.OO..........................................................................................................................................
.....................................................................................................................................................OOOOO.................OO.......................O...................................O..O.O..O....................................................................................................................................................................................................................................................................................................................................................................................................................................................................................O.O.........O.....................................................................................................................................................
..........................................................................................................OO..................................O.....OO...OO................OO.........O............O....................................OOO...OOO...............................................................................................................................................................................................................................................................................................................................................................................................................................................................................OO....OOO........O.....O.O.O.O.........................................................................................................................................
..........................................................................................................OO................................OO.OO...OO...OO...........................OO.................................................O.....O...............................................................................................................................................................................................................................................................................................................................................................................................OO............................................OOO............................OOOO..O....OOO.............................................................................................................................................................
............................................................................................................................................OO.OO...............OO...................O.O.......................................................................................................................................................................................................................................................................................................................................................................................................................................................OO............................................O..............................OOO.OO....OOO...............OO.OO..........................................................................................................................................
................................................................................................................................................................O.O............................................................................OO.............................................................................................................................................................................................................................................................................................................................................................................................................................................O......................................O.O.................OOO....OO.....................................................................................................................................
...........................................................................................................................................O.O.O.O.....O...OO......O...........................OO..............................................OO....................................................................................................................................................................................................................................................................................................................................................................................................................................................................................OO...................O.....OO.....................................................................................................................................
......................................................................................................................................................O.O.O..O..O..O.......OO.................O.O......................................................................................................................................................................................................................................................................................................................................................................................................................................................................................................................................................................................................................................................................................................
............................................................................................................................................OO.OO.....O.O..OO......O.......OO...................O..........OO.....OO.......................................................................................................................................................................................................................................................................................................................................................................................................................OO..........................................................................................................................................................................................................................................................
.......................................................................................................................................OO....OOO.......O........O.O........................................OO.....OO......................................................................................................................................................................................................................................................................................................................................................................................................................O.O........O.................................................................................................................................OO.....OO.......................................................................................................
.......................................................................................................................................OO.....O.................OO....................................................................................O..................................................................................................................................................................................................................................................................................................................................................................................O......OO..O.O...............................................................................................................OO...............OO.....OO.......................................................................................................
.....................................................................................................................................................................................................................................................OO.........................................................................................................................................................................................................................................................................................................................................................................OO.......O..O..O..O.O.O..........................OO.....OO...........................................................................O.O...............................................................................................................................
...............................................................................................................................................................................................OO...................................................OO....OO....................................................................................................................................................................................................................................................................................................................................................................OO.......O......OO...O...........................OO.....OO..........................................................................OOO....OO..........................................................................................................................
..............................................................................................................................................................................................O.O..................................................OOO....OO..OO..........................................................................................................................................................................................................................................................................................................................................................................O.O......................................................................................................................OOO....O..OOOO......................................................................................................................
...................................................................................................................................OO..........................................OO...............O...................................................OO....OO..OO...........................................................................................................................................................................................................................................................................................................................................................................OO..............................................................................................................O........OOO....OO.OOO......................................................................................................................
..................................................................................................................................O.O........O..................................OO........................................................O..........OO...........................................................................................................................................................................................................................................................................................................................................................................................OO...OO..................................................................................................O.........O.O...............................................................................................................................
.................................................................................................................................O......OO..O.O................................O.........................................................OOO..........O...........................................................................................................................................................................................................................................................................................................................................................................................OO...OO.................................................................................................O.O.........OO...............................................................................................................................
........................................................................................................................OO.......O..O..O..O.O.O..........................................................................................OOO.......................................................................................................................................................................................................................................................................................................................................................................................................OOOOO..........................O.....O................................................................OO.OO.........................................................................................................................................
........................................................................................................................OO.......O......OO...O......................................................................................................................................................................................................................................................................................................................................................................................................................................................................................................O.O..........................OOO...OOO..............................................................O.....O...............OO.......................................................................................................................
..................................................................................................................................O.O..................................................................................................OO...OO..................................................................................................................................................................................................................................................................................................................................................................................................................................O..OO.OO..O................................................................O..................OO.......OOO...OOO.......................................................................................................
...................................................................................................................................OO..................................................................................................OO...OO......................................................................................................................................................................................................................................................................................................................................................................................................OOO.........................O...O.O...O.............................................................OO...OO........................O..O.O..O.......................................................................................................
..........................................................................................................................................OO...OO.................................................................................................................................................................................................................................................................................................................................................................................................................................................................................................................................O.O.O.O..............................................OO..............................................O.......O.......................................................................................................
..........................................................................................................................................OO...OO..........................................................OO.....OO...................................................................................................................................................................................................................................................................................................................................................................................................................................................................................................................O.O.............................................................................................................................................................
...........................................................................................................................................OOOOO...........................................................O.OO.OO.O......................O....................................................................................................................................................................................................................................................................................................................................................................................................................................OO.OO...OO.OO...........................................O....................O...........................O.....O........................................................................................................
............................................................................................................................................O.O.............................................................O.O.O.O......................O.O.....................................................................................................................................................................................................................................................................................................................................................................................................................................O.......O..................................................................O............................OO.OO.........................................................................................................
............................................................................................................................................................................................................O.O.O.O.....................OO...................................................................................................................................................................................................................................................................................................................................................................................................................................................................................................................O................OOO......................................................................................................................
............................................................................................................................................OOO............................................................O.......O....................OO..........................................................................................................................................................................................................................................................................................................................................................................................................OO.......................................................................................................................OO.OO.....................................................................................................................
........................................................................................................................................................................................................................................OOO.........................................................................................................................................................................................................................................................................................................................................................................................................OO.......................................................................................................................OO.OO.....................................................................................................................
.........................................................................................................................................................................................................................................O.O..............................................................................................................................................................................................................................................................................................................................................................................................................................................................................................................OO.................OOOOO.....................................................................................................................
..........................................................................................................................................................................................................................................OO............................................................................................................................................................................................................................................................................................................................................................................................................................................O.................................................................OO................OO...OO.....O..............................................................................................................
.............................................................................................................................................................................................................OO.OO.....................................................................................................................................................................................................................................................................................................................................................................................................................................................................OOO........................................O....................................................O.O.............................................................................................................
...........................................................................................................................................................................................................O..O.O..O..................................................................................................................................................................................................................................................................................................................................................................................................................................................................O...O......................................OO..................................OO................O.O.............................................................................................................
............................................................................................................................................OO......................OOO....................................OOO...OOO.................................................................................................................................................................................................................................................................................................................................................................................................................................................................O.....O.....................................O.O...............................O..O...............O...O............................................................................................................
............................................................................................................................................OO........................O...OO................................O.....O..................................................................................................................................................................................................................................................................................................................................................................................................................................................................O.....O......................................................................O.......OOOOOO......OO.OO............................................................................................................
.....................................................................................................................................................................O...O.O..........................................................................................................................................................................................................................................................................................................................................................................................................................................................................................................O...O...............................................................OO......O......O......O.....O...O............................................................................................................
...........................................................................................................................................................................O......................................OO.....................................................................................................................................................................................................................................................................................................................................................................................................................................................................................................OO...............................OO......O.......OO....O......OOO.............................................................................................................
..................................................................................................................................................................................................................OO..................................................................................................................................................................................................................................................................................................................................................................................................................................................................O...O...............OO.....OO.....OO.........................................O..O.......OO.......OOO....OO.......................................................................................................
.....................................................................................................................................................................................................................................................................................................................................................................................................................................................................................................................................................................................................................................................................................O.....O..............OO.....OO.......O..........................................OO.......................OO.......................................................................................................
.................................................................................................................................................................................................................................................................................................................................................................................................................................................................................................................................................................................................................................................................................OO..O.....O..............OO.....OO....................................................................................................................................................................................
..............................................................................................................................OO...........................................OO.....OO.............................................................................................................................................................................................................................................................................................................................................................................................................................................................................................OO...O...O...............OOO...OOO....................................................................................................................................................................................
..............................................................................................................................OO...........................................OO.....OO....................................OO.............................................................................................................................................................................................................................................................................................................................................................................................................................................................OOO................O.O...O.O....................................................................................................................................................................................
.......................................................................................................................................................................................................................O.O..............................................................................................................................................................................................................................................................................................................................................................................................................................................................O.................O..O.O..O...............................................................................OO...................................................................................................
......................................................................................................................................................................................................................OOO....OO.............................................................................................................................................................................................................................................................................................................................................................................................................................................................................OO.OO........................................................................OO.......O..O.................................................................................................
.....................................................................................................................................................................................................................OOO....O..OOOO.........................................................................................................................................................................................................................................................................................................................................................................................................................................O...........................................................................................................O....OO.......O................................................................................................
.............................................................................................................................................................................................................O........OOO....OO.OOO....................................................................................................................................................................................................................................................................................................................................................................................................................................O....OOOO........................................................................................................O......O......O......OO........................................................................................
..............................................................................................................................OOO............................................................................O.........O.O.............................................................................................................................................................................................................................................................................................................................................................................................................................................O.....OOOO........................................................................................................OOOOOO.......O......OO........................................................................................
..............................................................................................................................OOO...........................................................................O.O.........OO........................................................................................................................................................................................................................................................................................................................................................................................................................................OO.........O..O......O..........................................................................................................O..O.................................................................................................
.............................................................................................................................O...O.........................................................................OO.OO..................................................................................................................................................................................................................................................................................................................................................................................................................................................OO.........OOOO.....OOO.................OO.....OO...............................................................................OO...................................................................................................
..........................................................................................................................................................................................................O.....O...........................................................................................................................................................................................................................................................................................................................................................................................................................................................OOOO.....O...O................OO.O.O.OO....................................................................................................................................................................................
............................................................................................................................OO...OO..........................................................................O..............................................................................................................................................................................................................................................................................................................................................................................................................................................................O.......O.OOO.O...............O..O.O..O...................................................................OO...OO..........................................................................................................
..........................................................................................................................................................................................................OO...OO....................................................................................................................................................................................................................................................................................................................................................................................................................................................................OOOOO................OOO...OOO....................................................................OOOOO...........................................................................................................
...........................................................................................................................................................................OOO...OOO...................................................................................................................................................................................................................................................................................................................................................................................................................................................................................................................................................................................................OO.OO...........................................................................................................
..........................................................................................................................................................................O...O.O...O..................................................................................................................................................................................................................................................................................................................................................................................................................................................................................................................................................................................................OO.OO...........................................................................................................
.........................................................................................................................................................................O...OO.OO...O......................O...........................................................................................................................................................................................................................................................................................................................................................................................................................................................................................................................................................................OOO............................................................................................................
.........................................................................................................................................................................O.OO.....OO.O......................O..........................................................................................................................................................................................................................................................................................................................................................................................................................................................................................................................................................................................................................................................................................
...........................................................................................................................................................................O.......O.......................O.............................................................................................................................................................................................................................................................................................................................................................................................................................................................................................................................................................................................................................................OO............................................
.........................................................................................................................................................................................................................................................................................................................................................................................................................................................................................................................................................................................................................................................................................................................................................................................................................................................OO............................................
............................................................................................................................OO...............................................................................OO........................................................................................................................................................................................................................................................................................................................................................................................................................................................................................................................................................................................................................................................................................
.............................................................................................................................O...............................................................................OO..........................................................................................................................................................................................................................................................................................................................................................................................................................................................................................................................................................................OO............................................................................................................
..........................................................................................................................OOO............................................................................................................................................................................................................................................................................................................................................................................................................................................................................................................................................................................................................................................................OO............................................................................................................
..........................................................................................................................O................................................OOO........................................................................................................................................................................................................................................................................................................................................................................................................................................................................................................OO...............................................................................................................................................................................................................
...........................................................................................................................................................................O.O........................................................................................................................................................................................................................................................................................................................................................................................................................................................................................................OO...............................................................................................................................................................................................................
..........................................................................................................................................................................O...O...........................................................................................................................................................................................................................................................................................................................................................................................................................................................................................................................OO...........................................................................................................................................................................................
..........................................................................................................................................................................O...O...........................................................................................................................................................................................................................................................................................................................................................................................................................................................................................................................OO...........................................................................................................................................................................................
...........................................................................................................................................................................OOO....OO....................................................................................................................................................................................................................................................................................................................................................................................................................................................................................................................................................................................................................................................................OOO............................................
..................................................................................................................................................................................OO...................................................................................................................................................................................................................................................................................................................................................................................................................................................................................................................................................................................................................................................................O...O...........................................
....................................................................................................................................................................................................................................................................................................................................................................................................................................................................................................................................................................................................................................................................................................O.................................................................................................................................................O.....O..........................................
....................................................................................................................................................................................................................................................................................................................................................................................................................................................................................................................................................................................................................................................................................................OO........................................................................................................................O...OO...................O...O...........................................
...............................................................................................................................................................................................................................................................................................................................................................................................................................................................................................................................................................................................................................................................................................OO....OO...............................................................................................................OO....OO.O.OOO.............OO.....OOO............................................
......................................................................................................................................................................................O....................................................................................................................................................................................................................................................................................................................................................................................................................................................................................................OO..OO....OOO..............................................................................................................OO....O....OOO.............OO.....OOO............................................
....................................................................................................................................................................................O.O....................................................................................................................................................................................................................................................................................................................................................................................................................................................................................................OO..OO....OO.....................................................................................................................O...O......................................................................
.............................................................................................................................................................................O.....O.O..............................................................................................................................................................................................................................................................................................................................................................................................................................................................................................................OO..........O............................................................................................................OOO.............................OO........................................
............................................................................................................................................................................OOO...O..O...........OO.................................................................................................................................................................................................................................................................................................................................................................................................................................................................................................O..........OOO.........................................................................................................................OO...OO...........O.O.......................................
...........................................................................................................................................................................O...O...O.O...........OO............................................................................................................................................................................................................................................................................................................................................................................................................................................................................................................OOO...........................................................................................................OOO..........OOO...OOO.....OO......O.......OO.............................
......................................................................................................................................OO.....OO..............................O......O.O............................................................................................................................................................................................................................................................................................................................................................................................................................................................................................................................................................OO.....OO.....................................................OO.........O...O.......OOO.......OOO..O..O..O..O.......OO.............................
......................................................................................................................................OO.....OO...........................O.....O.....O......................................................................................................................................................................................................................................................................................................................................................................................................................................................................................................................OO...OO...............................OO.....OO.....................................................OO...OO....O....OOO....OOO.......OOO...OO......O......................................
..........................................................................................................................................................................O.....O............................................................................................................................................................................................................................................................................................................................................................................................................................................................................................................................OO...OO..................................................................................................OO....OO.O.OOO....OOO.......OOO........O.O.......................................
...........................................................................................................................................................................O...O..............................................................................................................................................................................................................................................................................................................................................................................................................................................................................................................................................................................................................................................O...OO......OOO...OOO..........OO........................................
............................................................................................................................................................................OOO.........OO.....OO..........................................................................................................................................................................................................................................................................................................................................................................................................................................................................................................................................................................................................................................OO...OO.....................................................
........................................................................................................................................................................................OO.....OO...............................................................................................................................................................................................................................................................................................................................................................................................................................................................................................................O..............................................................................................OO......................................................................................
...............................................................................................................................................................................................................................................................................................................................................................................................................................................................................................................................................................................................................................................................................................................O.O.....................................................................................................................................................................................
.................................................................................................................................................................................................................................................................................................................................................................................................................................................................................................................................................................................................................................................................................................................OO....................................................................................................................................................................................
.................................................................................................................................................................................................................................................................................................................................................................................................................................................................................................................................................................................................................................................................................................................OO....................................................................................................................................................................................
................................................................................................................................................................................................................................................................................................................................................................................................................................................................................................................................................................................................................................................................................................................OOO....................................................................................................................................................................................
...............................................................................................................................................................................................................................................................................................................................................................................................................................................................................................................................................................................................................................................................................................................O.O............................................................................................OO...OO..................................................................................
...............................................................................................................................................................................................................................................................................................................................................................................................................................................................................................................................................................................................................................................................................................................OO..............................................................................................OOOOO...................................................................................
..................................................................................OO..............................................................................................................................................................................................................................................................................................................................................................................................................................................................................................................................................................................................................................................................OOO.....OOO..................................................OO.OO...................................................................................
..................................................................................OO.........................................................................................OO....................................................................................................................................................................................................................................................................................................................................................................................................................................................................................................................................................................OOO...OOO...................................................OO.OO...................................................................................
.............................................................................................................................................................................OO..................................................................................................................................................................................................................................................................................................................................................................................................................................................................................................................................................................O.OOOO.OOOO.O..................................................OOO....................................................................................
..................................................................................................................................................................................................................................................................................................................................................................................................................................................................................................................................................................................................................................................................................................................................................OO..O.O..OO..........................................................................................................................................
.....................................................................................................................................OO.......OO...................................................................................................................................................................................................................................................................................................................................................................................................................................................................................................................................................................................................OOO...OOO...........................................................................................................................................
.....................................................................................................................................O.OO...OO.O....................................................................................................................................................................................................................................................................................................................................................................................................................................................................................................................................................................................................O.....O............................................................................................................................................
.......................................OO.........................................OOO................................................O...O.O...O........................................OO.....OO......................................................................................................................................................................................................................................................................................................................................................................................................................................................................................................................................................................................................................................................................................................
.......................................OO.........................................OOO................................................OO..O.O..OO........................................O.OO.OO.O..................................................................................................................................................................................................................................................................................................................................................................................................................................................................................................................................................................................................................OO..................................................................................
.................................................................................O...O................................................OOO...OOO..........................................O.O.O.O...................................................................................................................................................................................................................................................................................................................................................................................................................................................................................................................................................................................................................O...................................................................................
.......................................................................................................................................O.....O...........................................O.O.O.O....................................................................................................................................................................................................................................................................................................................................................................................................................................................................................................................................................................................................................OOO................................................................................
................................................................................OO...OO.................................................................................................O.......O.....................................................................................................................................................................................................................................................................................................................................................................................................................................................................................................................................................................................................................O................................................................................
.......................................OOO.............................................................................................................................................................................................................................................................................................................................................................................................................................................................................................................................................................................................................................................................................................................................................................................................................................................................
.......................................OOO.....................................................................OO.....OO...............................................................................................................................................................................................................................................................................................................................................................................................................................................................................................................................................................................................................................................................................................................OO.....OO.......................................................
......................................O...O....................................................................OO.....OO...............................................................................................................................................................................................................................................................................................................................................................................................................................................................................................................................................................................................................................................................................................................OO.....OO.......................................................
.....................................O.....O..............................................................................................................................................OO.OO........................................................................................................................................................................................................................................................................................................................................................................................................................................................................................................................................................................................................................................................................................................
......................................O...O..................................................................................................OO.........................................O..O.O..O..................................................................................................................................................................................................................................................................................................................................................................................................................................................................................................................................................OO..................................................................................................................................................
.......................................OOO...................................................................................................OO.........................................OOO...OOO..................................................................................................................................................................................................................................................................................................................................................................................................................................................................................................................................................OO..................................................................................................................................................
.........................................................................................................................................................................................O.....O........................................................................................................................................................................................................................................................................................................................................................................................................................................................................................................................................................................................................................................O.....O........................................................
.......................................................................................................................................................................................................................................................................................................................................................................................................................................................................................................................................................................................................................................................................................................................................................................................................................................OOO...OOO.......................................................
................................................................................OO.............................................................................................................OO.....................................................................................................................................................................................................................................................................................................................................................................................................................................................................................................................................................................................................................................OO..O.O..OO......................................................
.................................................................................O..............................................................OO.............................................OO..............................................................................................................................................................................................................................................................................................................................................................................................................................................................................................................................................O......................................................................................OO.OO.OO.OO......................................................
...............................................OO........OOO..............OO..OOO.......................................................O.....O...O.........................................................................................................................................................................................................................................................................................................................................................................................................................................................................................................................................................................................OOOO.........................................................................................OO.OO.........................................................
...............................................OO........O...O............OO..O........................................................O.O...O.....O.......................................................................................................................................................................................................................................................................................................................................................................................................................................................................................................................................................................................OOOO........................................................................................O.O...O.O.......................................................
.........................................................O....O........................................................................O.O..OO.O...O........OO......................................................................................................................................................................................................................................................................................................................................................................................................................................................................................................................................................................OO.....O..O.......................................................................................O..O...O..O......................................................
.................................OO.......................O...O.........................................................................O....O.....O........OO.....................................O.O..............................................................................................................................................................................................................................................................................................................................................................................................................................................................................................................................OO.....OOOO.....O....................................................................................O...O.........................................................
.................................O.O.............................................................................O...O........................O...O..............................................O...O......................................................................................................................................................................................................................................................................................................................................................................................................................................................................................................................................OOOO....O.................................................................................O.O.....O.O......................................................
........................OO..OO......O.....................O...O..................................................O...O..........................OO...............................................O.............................................................................................................................................................................................................................................................................................................................................................................................................................................................................................................................................O.......................................................................................O.......O.......................................................
........................OO.O..O..O..O....................O....O......................................................................OO...OO.............................................OOO....O....O........OO.......................................................................................................................................................................................................................................................................................................................................................................................................................................................................................................................................................................................................................................................................................
............................OO......O....................O...O............OO.........................................................O.....O.............................................OOO.....O............OO.......................................................................................................................................................................................................................................................................................................................................................................................................................................................................................................................................................................................................................................................................................
.................................O.O.....................OOO..............OO..................................OO.O...O.OO...............................................................O...O....O...O..................................................................................................................................................................................................................................................................................................................................................................................................................................................................................................................................................................................................................................O..............................................................
.................................OO............................................................................OOO...OOO..............O...O............................................O.....O.....O.O.................................................................................................................................................................................................................................................................................................................................................................................................................................................................................................................................................OOOOO.........................................O.................................O.O.............................................................
................................................................................................................O.....O................OOO..............................................O...O.........................................................................................................................................................................................................................................................................................................................................................................................................................................................................................................................................................O.OOO.O......................................O.O.................................................................................................
.........................................................................................................................................................................................OOO...........................................................................................................................................................................................................................................................................................................................................................................................................................................................................................................................................................O...O.....................................OO..................................O.....O...........................................................
........................................................................................................................................................................................................................................................................................................................................................................................................................................................................................................................................................................................................................................................................................................................................................OOO................................OO....OO.....................................O..............................................................
.........................................................................................................................................................................................................................................................................................................................................................................................................................................................................................................................................................................................................................................................................................................................................................O.................................OO....OO..................................OO...OO...........................................................
...................................................................................................................................................................................................................................................................................................................................................................................................................................................................................................................................................................................................................................................................................................................................................................................................O.O........OO.......................................................................................
.....................................................................................................................................................................................................................................................................................................................................................................................................................................................................................................................................................................................................................................................................................................................................................................................................O........O.O......................................................................................
................................................................................................................................................................................................................................................................................................................................................................................................................................................................................................................................................................................................................................................................................................................................................................................................................O......................................................................................
........................................................................................................................................OO..............................................................................................................................................................................................................................................................................................................................................................................................................................................................................................................................................................................................................OO......................................................OO...................OO...OO...........................................................
......................................................................................................................OO................OO..............................................................................................................................................................................................................................................................................................................................................................................................................................................................................................................................................................................................................OO..............................................................................O.....OO.......................................................
......................................................................................................................OO...........................................................................................................................................................................................................................................................................................................................................................................................................................................................................................................................................................................................................................................OO......................OO........................................O.....O..OO.......................................................
...................................................................................................................................................................................................................................................................................................................................................................................................................................................................................................................................................................................................................................................................................................................................................................O..O..................OO.OO..............OO.........................................................................................
..........................................................................................................................................................................................OO...............................................................................................................................................................................................................................................................................................................................................................................................................................................................................................................................................................OOOOO.......O.................O..O...............OO.........................O.O.............................................................
..........................................................................................................................................................................................OO..............................................................................................................................................................................................................................................................................................................................................................................................................................................................................................................................................................O.....O......O.................O..O...........................................O..............................................................
.........................................................................................................................O................................................................................................................................................................................................................................................................................................................................................................................................................................................................................................................................................................................................................................O...OO.......O..................OO.....................................................O.....................................................
.................................................................................................................O......O.O................................................................................................................................................................................................................................................................................................................................................................................................................................................................................................................................................................................................................................O.......O..O.........................................................................O.O....................................................
................................................................................................................O.O...OO...O.......................................................................................................................................................................................................................................................................................................................................................................................................................................................................................................................................................................................................................................OO.....................OO............................................OOO....O.OO....................................................
................................................................................................................O.O...OO...O.........OO..................................................................................................................................................................................................................................................................................................................................................................................................................................................................................................................................................................................................................................................O..O...........................................OOO...OO.OO..........OO........................................
.................................................................................................................O....OO...O.........OO..........................................................................................................................................................................................................................................................................................................................................................................................................................................................................................................................................................................................................................................OO......O..O...............OO.................................O.OO..........OO........................................
........................................................................................................................O.O......................................................................................................................................................................................................................................................................................................................................................................................................................................................................................................................................................................................................................................................OO......OO.OO..............OO..................................O.O....................................................
....................................................................O.O...O.O............................................O.................................................................................................................................................................................................................................................................................................................................................................................................................................................................................................................................................................................................................................................................OO....................................................O.....................................................
......................................................................O...O........O.O..OO....................OO.O.OO.................................................................................................................................................................................................................................................................................................................................................................................................................................................................................................................................................................................................................................................................................................................OO...OO..........................................................
..................................................................O...........O...O...O.OOO....OO.............O.....O..................................................................................................................................................................................................................................................................................................................................................................................................................................................................................................................................................................................................................................................................................................................OOOOO...........................................................
.................................................................O...O.....O...O...O......OO...OO..............O...O.....................................................................................................................................................................................................................................................................................................................................................................................................................................................................................................................................................................................................................................................OOO............................................................OOO............................................................
..................................................................O...........O.....OOOOO.O.....................OOO.....................................................................................................................................................................................................................................................................................................................................................................................................................................................................................................................................................................................................................................................O...O............................................................O.............................................................
......................................................................O...O............OOO.............................................................................................................................................................................................................................................................................................................................................................................................................................................................................................................................................................................................................................................................................O.....O.........................................................................................................................
....................................................................O.O...O.O..........................................................................................................................................................................................................................................................................................................................................................................................................................................................................................................................................................................................................................................................................................O.....O.........................................................................................................................
.......................................................................................OOO................................................................................................................................................................................................................................................................................................................................................................................................................................................................................................................................................................................................................................................................................O............................................................................................................................
....................................................................................OOOOO.O.............................................................................................................................................................................................................................................................................................................................................................................................................................................................................................................................................................................................................................................................................O...O..........................................................................................................................
....................................................................OO.............O......OO...OO........................................................................................................................................................................................................................................................................................................................................................................................................................................................................................................................................................................................................................................................................OOO...........................................................................................................................
....................................................................OO............O...O.OOO....OO.........................................................................................................................................................................................................................................................................................................................................................................................................................................................................................................................................................................................................................................................................O............................................................................................................................
...................................................................................O.O..OO.............................................................................................................................................................................................................................................................................................................................................................................................................................................................................................................................................................................................................................................................................................................................................................................................................
.................................................................................................................OO......................................................................................................................................................................................................................................................................................................................................................................................................................................................................................................................................................................................................................................................................................................................OO............................................................
.................................................................................................................OO......................................................................................................................................................................................................................................................................................................................................................................................................................................................................................................................................................................................................................................................OO..............................................................OO............................................................
.........................................................................................................................................................................................................................................................................................................................................................................................................................................................................................................................................................................................................................................................................................................................................................................OO............................................................................................................................
..................................O.O..............OO.O.....O...O......................................................................................................................................................................................................................................................................................................................................................................................................................................................................................................................................................................................................................................................................................................................................................................................................................................
.............................O....O..O............O.O.O....O.....O.........OO..........................................................................................................................................................................................................................................................................................................................................................................................................................................................................................................................................................................................................................................................................................................................................................................................................................
..............................OO.....OO...........O....O.........O.........OO..........................................................................................................................................................................................................................................................................................................................................................................................................................................................................................................................................................................................................................................................................................................................................................................................................................
.........................OO........O...OO.........O.O.O.....O...OO.....................................................................................................................................................................................................................................................................................................................................................................................................................................................................................................................................................................................................................................................................................................................................................................................................................................
.........................OO..........OO............OO.O......OOO.......................................................................................................................................................................................................................................................................................................................................................................................................................................................................................................................................................................................................................................................................................................................................................................................................................................
..................................O..O.................................................................................................................................................................................................................................................................................................................................................................................................................................................................................................................................................................................................................................................................................................................................................................................................................................................................
..................................O.O........................OOO.......................................................................................................................................................................................................................................................................................................................................................................................................................................................................................................................................................................................................................................................................................................................................................................................................................................
............................................................O...OO.....................................................................................................................................................................................................................................................................................................................................................................................................................................................................................................................................................................................................................................................................................................................................................................................................................................
................................................OO...............O.........OO..........................................................................................................................................................................................................................................................................................................................................................................................................................................................................................................................................................................................................................................................................................................................................................................................................................
................................................OO.........O.....O.........OO..........................................................................................................................................................................................................................................................................................................................................................................................................................................................................................................................................................................................................................................................................................................................................................................................................................
............................................................O...O......................................................................................................................................................................................................................................................................................................................................................................................................................................................................................................................................................................................................................................................................................................................................................................................................................................
.........................................O.............................................................................................................................................................................................................................................................................................................................................................................................................................................................................................................................................................................................................................................................................................................................................................................................................................................................
........................................OOO............................................................................................................................................................................................................................................................................................................................................................................................................................................................................................................................................................................................................................................................................................................................................................................................................................................................
.......................................OOOOO...........................................................................................................................................................................................................................................................................................................................................................................................................................................................................................................................................................................................................................................................................................................................................................................................................................................................
......................................O.O.O.O..........................................................................................................................................................................................................................................................................................................................................................................................................................................................................................................................................................................................................................................................................................................................................................................................................................................................
......................................OO...OO..........................................................................................................................................................................................................................................................................................................................................................................................................................................................................................................................................................................................................................................................................................................................................................................................................................................................
.........................................O.............................................................................................................................................................................................................................................................................................................................................................................................................................................................................................................................................................................................................................................................................................................................................................................................................................................................
........................................O.O............................................................................................................................................................................................................................................................................................................................................................................................................................................................................................................................................................................................................................................................................................................................................................................................................................................................
........................................O.O............................................................................................................................................................................................................................................................................................................................................................................................................................................................................................................................................................................................................................................................................................................................................................................................................................................................
.........................................O.............................................................................................................................................................................................................................................................................................................................................................................................................................................................................................................................................................................................................................................................................................................................................................................................................................................................
........................................OO.............................................................................................................................................................................................................................................................................................................................................................................................................................................................................................................................................................................................................................................................................................................................................................................................................................................................
........................................OO.............................................................................................................................................................................................................................................................................................................................................................................................................................................................................................................................................................................................................................................................................................................................................................................................................................................................
........................................OO.............................................................................................................................................................................................................................................................................................................................................................................................................................................................................................................................................................................................................................................................................................................................................................................................................................................................
