!Name: o0030-gun
!CA1: by Bill Gosper et. al., 1970
!CC1: Dieter Leithner, 13 May 1994
!CC2: David Bell, 25 Aug 2002
!
......................................................................................................OO............................................OO....................................................OO....................................................................................
.....................................................................................................O..O...........................................OO....................................................OO....................................................................................
.....................................................................................................O..........................................................................................................................................................................................
OO.O......OO.O.......................................................................................O....................................................................................................O.....................................................................................
O.OO......O.OO...............................................O.......................................O.O.............................................O...................................................O.O....................................................................................
....OO..OO....OO............................................OOOO.....................................O.O............................................OOO..................................................O.O....................................................................................
....O...O.....O............................OO..............OO.O.O.....................................O............................................O...O..................................................O.....................................................................................
.....O...O.....O...................O.......O..O...........OOO.O..O..OO...............................................................................O..........................................................................................................................................
....OO..OO....OO.........O........O...OO.......O...........OO.O.O...OO............................................................................O.....O.......................................................................................................................................
OO.O....O.....O...................O.....O......O............OOOO...................................OO...OO........................................O.....O..............................................OO.O.OO..................................................................................
O.OO.....O.....O........O.O........OOOOO.......O.......O.....O.....................................O.....O.........................................O...O...............................................O.....O..................................................................................
....OO..OO....OO...........................O..O.........O...........................................................................................OOO.................................................O...O...................................................................................
....O...O.....O........O...O...............OO.........OOO...........................................O...O................................................................................................OOO....................................................................................
.....O...O.....O.....................................................................................OOO........................................................................................................................................................................................
....OO..OO....OO.......O.O.O......................................................................................O.............................................O...............................................................................................................................
OO.O......OO.O...................................................................................................OO............................................OO......................................................O........................................................................
O.OO......O.OO.........O...O....................................................................................OO....OO......................................OO....OO..OO............................................O.O.......................................................................
..............................................................................................O.O..............OOO....OO..OO................O................OOO....OO..OO...........................................O...OO.....................................................................
..............................................................................................O..O..............OO....OO..OO...............O.O................OO....OO............................OO.................O...OO...OO................................................................
.....................................................................................OO..........OO..............OO......................OO...O................OO.................................O.O................O...OO...OO................................................................
.....................................................................................OO........O...OO.............O.................OO...OO...O.........O.......O........................OO..OO......O..........O.....O.O.......................................................................
..........................................................................................OO.....OO.................................OO...OO...O..........OO..............................OO.O..O..O..O...........O.....O........................................................................
.........................................................................................O....O..O........O.O..............................O.O..........OO...................................OO......O.........OOO..............................................................................
..............................................................................................O.O..........OO...............................O.....................................................O.O...........................................................................................
...........................................................................................................O......................................................................................OO............................................................................................
.......................................................................OO.......................................................................................................................................................................................................................
.......................................................................O.O......................................................................................................................................................................................................................
.........................................................................O......................................................................................................................................................................................................................
.........................................................................OO.....................................................................................................................................................................................................................
..........................................................................................................................OO.............................................OO.....................................................OO..............................................................
..........................................................................................................................O.O............................................O.O....................................................O.O.............................................................
............................................................................................................................O..............................................O......................................................O.............................................................
............................................................................................................................OO.............................................OO.....................................................OO............................................................
.................................................................................................OO.....................................O..................O...................................................OO...............................................................................
................................................................................................O..O...................................O.O................OO..................................OO..............O...O.............................................................................
................................................................................................O...............................OO...OO...O..............OO....OO.............................O.O............O.....O............................................................................
................................................................................................O...............................OO...OO...O.............OOO....OO..OO....................OO......O...........O...O.OO..OO.......................................................................
................................................................................................O.O..................................OO...O..............OO....OO..OO................OO.O..O..O..O...........O.....O...OO.......................................................................
................................................................................................O.O....................................O.O................OO.........................OO..OO......O............O...O.............................................................................
.................................................................................................O......................................O..................O..................................O.O.........O....OO...............................................................................
..............................................................................................................................................................................................OO...........O....................................................................................
.....................................................................................................................................................O...................................................OOO....................................................................................
.......................O.O....................................................................OO...OO..............................................O.O..........................................................................................................................................
..............................................................................................O.....O...............................................OO..........................................................................................................................................
.......................O...O....................................................................................................................................................................................................................................................................
...............................................................................................O...O............................................................................................................................................................................................
.......................O.O......................................................................OOO.............................................................................................................................................................................................
.............................................................................................................O..................................OOO.............................................................................................................................................
.......................O...O................................................................................O.O................................O...O.................................................OOOOO......................................................................................
...........................................................................................................O...OO.............................O.....O...............................................O.OOO.O.....................................................................................
.......................O.O...............................................................O.O...............O...OO...OO.........................O...O.................................................O...O......................................................................................
.........................................................................................O..O..............O...OO...OO..........................OOO...................................................OOO.......................................................................................
................................................................................OO..........OO..............O.O.................................OOO....................................................O........................................................................................
................................................................................OO........O...OO.............O..................................................................................................................................................................................
.....................................................................................OO.....OO..................................................................................................................................................................................................
....................................................................................O....O..O........O.O........................................................................................................................................................................................
.........................................................................................O.O..........OO........................................OO.....................................................OO.......................................................................................
......................................................................................................O.........................................OO.....................................................OO.......................................................................................
................................................................................................................................................................................................................................OO..............................................................
................................................................................................................................................................................................................................O.O.............................................................
..................................................................................................................................................................................................................................O.............................................................
............................................................................................................................................................................OO....................................................OO............................................................
............................................................................................................................................................................O.O.................................................................................................................
..............................................................................................................................................................................O.................................................................................................................
..............................................................................................................................................................................OO................................................................................................................
.....................................................................................................................OO.........................................................................................................................................................................
.....................................................................................................................O.O........................................................................................................................................................................
.......................................................................................................................O........................................................................................................................................................................
.......................................................................................................................OO.......................................................................................................................................................................
....................................OO.....................O.O..................................................................................................................................................................................................................................
.....................................O.....................O..O.................................................................................................................................................................................................................................
.....................................O.O....O......O..........OO..............................................................................................................................OO................................................................................................
......................................OO...O.O.....O........O...OO............................................................................................................................OO................................................................................................
..........................................O.OO......O.........OO........O.O.....................................................................................................................................................................................................................
.........................................OO.OO.........OO..O..O........O..O...................................................................................................................O.................................................................................................
..........................................O.OO.....OOO..O..O.O........OO..........O......O...................................................................................................O.O................................................................................................
...........................................O.O.......OOOO...........OO...O........O.....O.O..................................................................................................O.O................................................................................................
............................................O.........OO..............OO.........O......OO.O..................................................................................................O.................................................................................................
.......................................................................O..O..OO.........OO.OO...OO..............................................................................................................................................................................................
........................................................................O.O..O..OOO.....OO.O....OO..............................................................................................................................................................................................
.............................................................................OOOO.......O.O................................................................................................OO.O.OO..............................................................................................
..............................................................O...............OO.........O.................................................................................................O.....O..............................................................................................
...............................................................OO...........................................................................................................................O...O...............................................................................................
..............................................................OO.............................................................................................................................OOO................OO..............................................................................
................................................................................................................................................................................................................OO..............................................................................
.......................................................................O........................................................................................................................................................................................................................
.....................................................................OO...............OO........................................................................................................................................................................................................
......................................................................OO.............O..........................................................................................................................OOO.............................................................................
.............................................................OO.....................O............OO.............................................................................................................OOO.............................................................................
.........................O...................................OO...........OO........O.......O....OO.............................................................................................................................................................................................
..........................................................................OO........O........OO.....OO..........................................................................................O...............................................................................................
.......................O...O.........................................................O....OO..O.....OOO.....OO...................................................................................O..............................................................................................
.....................................................................O................OO.OOOOO......OO......OO.................................................................................OOO............OO...OO...........................................................................
.......................O..............................................O.....................O....OO............................................................................................................OOOOO............................................................................
....................................................................OOO..........................OO.............................................................................................................OOO.............................................................................
.......................O...O.....................................................................................................................................................................................O..............................................................................
....................................................................................O...........................................................................................................................................................................................................
.........................O.........................................................O............O.........................................................................................OOOOO.................................................................................................
...................................................................................OOO.........OO........................................................................................O.OOO.O........O.......................................................................................
..............................................................................................OO...........OO.............................................................................O...O.......O.O.......................................................................................
............................................................................O................OOO.......O...OOO.............................................................................OOO.........OO.......................................................................................
...........................................................................O.O................OO.....OOOO....OO.O...........................................................................O...................................................................................................
......................................................................................OO.......OO..O....O....O..O.....OO........................................................................................O...............................................................................
.......................................................................OO..O.........O.O........O..O...O.....OO.O.....OO......................................................................................OO................................................................................
.......................................................................OO..OOO.......O..............O.OO...OOO.................................................................................................OO...............................................................................
...........................................................................O.O......OO.....................OO...................................................................................................................................................................................
............................................................................OO..........................................................................................................OOO........OO...........................................................................................
.......................................................................................................................................................................................OO.OO......O.O...........................................................................................
.............................................................................................O.O.....O.................................................................................OO.OO........O...........................................................................................
.............................................................................................OO....OOO.................................................................................OOOOO....................OO...OO.........................................................................
..............................................................................................O...O...................................................................................OO...OO..............OO.....OOO...........................................................................
..................................................................................O...............OO.......................................................................................................OOO...O...O.......OO.................................................................
...................................................................................OO.....................................................................................................................O.OO....O.O........OO.................................................................
..................................................................................OO........................................................................................................O.............OOO......O............................................................................
...........................................................................................................................................................................................O.OO............O....................................................................................
.......................................................................................O...................................................................................................O....................................................................................................
...............................................................................OO....OO......................................................................................................................................OOO................................................................
...............................................................................OO.....OO...................................................................................................OO.O...................OO.........OOO................................................................
.........................................................................................................................................................................................O..O.....................OO........O...O...............................................................
.............................................................................................OO...OO.....................................................................................O.O...............................O.....O..............................................................
............................................................................................................................................................................................................................O...O...............................................................
..............................................................................................O...O..........................................................................................................................OOO................................................................
.........................................................................................O.....OOO..............................................................................................................................................................................................
..........................................................................................O....OOO..............................................................................................................................................................................................
........................................................................................OOO..........OO......OO...........................................................................OOO...................................................................................................
...................................................................................................O....O..O....O........................................................................O...O............OO....................................................................................
...................................................................................................O....O..O....O.....O.................................................................O.....O..........OOO..................O.O...............................................................
...................................................................................................O....O..O....O...OOO..................................................................O...O...........OO.O................O..O...............................................................
.....................................................................................................OO......OO....O......................................................................OOO.............OOO..............O.OO.................................................................
...................................................................................................................OO.....................................................................OOO..............O....................................................................................
..............................................................................................O.O.............................................................................................................................O.................................................................
...............................................................................................OO................O...........................................................................OO............................OO.O.................................................................
...............................................................................................O................OOO..........................................................................O...............................O..................................................................
...............................................................................................................O...O..........................................................................OOO...............................................................................................
..............................................................................................................O.OOO.O...........................................................................O...............................................................................................
...............................................................................................................OOOOO.........................................................................................................OO...OO............................................................
..............................................................................................................................................................................................................................OOOOO.............................................................
......................................................................................................O..............................................................................................................O........OO.OO.............................................................
.......................................................................................................OO............................................................................................................O.O......OO.OO.............................................................
......................................................................................................OO.............................................................................................................OO........OOO..............................................................
...........................................................................................................................................................................................................OO............................................OO.....................................
...........................................................................................................................................................................................................OOO...........................................O.O....................................
...............................................................................................................O..........................................................................................O.OO......................................OO......O...........O.O.....................
................................................................................................................O....O..O.OO.O..O.........................................................................OOO................OO.................OO.O..O..O..O..........O..O....O................
............................................................................................................O........OOOO.OO.OOOO......O...................................................................OOOO...............O.................OO..OO......O.........OO.....OO.................
...............................................................................................................O.....O..O.OO.O..O....OOO.....................................................................O.............OOO...........................O.O........OO...O........OO............
............................................................................................................OOO.....................O........................................................................OOO...........O.............................OO...........OO..........OO............
....................................................................................................................................OO........................................................................................................................O........O..O.....................
............................................................................................................................................................................................................................................................OO..........O.O.....................
....................................................................................................................................................................................................................................OO.......................OO.................................
....................................................................................................................................................................................................................OO.............OOOO...........OO............................................
...................................................................................................................................................................................................................OO.OO..........OO.OO..........OO.OO..........................................
.....................................................................................................................O..............................................................................................OOOO...........OO.............OOOO...........OO.............................
...................................................................................................................O.O...............................................................................................OO............................OO............O.O............................
....................................................................................................................OO............O..............................................................................................................................O..............................
.................................................................................................................................OOO...............................................................................O............................................................................
................................................................................................................................OOOOO...............................................................................O.......................................OO..................................
...............................................................................................................................OO...OO............................................................................OOO......................................O.O..................................
................................................................................................................................OOOOO........................................................................................................................O..................................
............................................................................................................................O...O...O...........................................................................................................................................................
.............................................................................................................................O...O.O....................................................................................................................................OOO.....................
...........................................................................................................................OOO....O..OO...O..O...OO.....................................................................................................................O............O..........
.....................................................................................................................................OOOOO....OOOOO.....O.......................................................................OO.......................................O........OOOO..........
.....................................................................................................................................OO...O..O...OO...OOO..................................................................O.....O...................................OO..........OOOO.........OO
.....................................................................................................................................................O...................................................................O.O.....O.O.....OO.........OOO..............O.O.........O..O.........OO
.....................................................................................................................................................OO...................................................................OO......OO.....O..O.........O.........OO....OOO........OOOO.....O.....
.............................................................................................................................................................................................................................................O.......O.....O...O..O....OOO........OOOO....O.....
.................................................................................................................................O.O..............O..........................................................................................O............OOOOOOOO....OOO............O..........
..................................................................................................................................OO..............O..........................................................................................O...........OO.O.OO.....O.O........................
..................................................................................................................................O......................................................................................................O..O...........OOO.O..O.....OO.........................
..................................................................................................................................................................................................................................O......OO..............OO.O.O.................................
................................................................................................................................................OO...OO............................................................................O......................OOOO..................................
.................................................................................................................................................OOOOO...........................................................................OOO.......................O....................................
..................................................................................................................................................OOO...........................................................................................................................................
.........................................................................................................................................O.........O............................................................................................................................................
..........................................................................................................................................OO....................................................................................................................................................
.........................................................................................................................................OO.....................................................................................................................................................
..........................................................................................................................................................................................................................................O.....................................................
.........................................................................................................................................................O.O..O.O.......................................................................O.O.....................................................
.....................................................................................................................................................OO.O..O..O..O.OO....O...............................................................OO.....................................................
................................................................................................................................................O........O.O..O.O......OOO......................................................................................................................
.................................................................................................................................................O....................O.........................................................................................................................
...............................................................................................................................................OOO....................OO........................................................................................................................
.................................................................................................................................................................................................................................................O..............................................
..................................................................................................................................................................................................................................................O.............................................
................................................................................................................................................................................................................................................OOO.............................................
....................................................................................................................................................................O...........................................................................................................................
........................................................................................................................................................O..........OOO..........................................................................................................................
......................................................................................................................................................O.O.........OOOOO.........................................................................................................................
.......................................................................................................................................................OO........O.O.O.O........................................................................................................................
.................................................................................................................................................................OO...OO........................................................................................................................
....................................................................................................................................................................O...........................................................................................................................
...............................................................................................................................................................O...OO...........................................................................................................................
................................................................................................................................................................O..O......OOOOOOOO..............................................................................................................
..............................................................................................................................................................OOO...O.....O.OOOO.O........O.....................................................................................................
..........................................................................................................................................................................OOOOOOOO......OOO.....................................................................................................
.......................................................................................................................................................................................O........................................................................................................
.......................................................................................................................................................................................OO.......................................................................................................
....................................................................................................................................................................O.O.........................................................................................................................
.....................................................................................................................................................................OO.........................................................................................................................
.....................................................................................................................................................................O..........................................................................................................................
..................................................................................................................................................................................OO...OO.......................................................................................................
..................................................................................................................................................................................OO...OO.......................................................................................................
....................................................................................................................................................................................OOO.........................................................................................................
............................................................................................................................................................................O.......OOO.........................................................................................................
.............................................................................................................................................................................OO......O..........................................................................................................
............................................................................................................................................................................OO...............OOOO...............................................................................................
............................................................................................................................................................................................OOOOOO..............................................................................................
...........................................................................................................................................................................................OOOOOOOO.............................................................................................
..........................................................................................................................................................................................OO......OO............................................................................................
...........................................................................................................................................................................................OOOOOOOO.............................................................................................
...................................................................................................................................................................................O........OOOOOO..............................................................................................
....................................................................................................................................................................................O........OOOO...............................................................................................
..................................................................................................................................................................................OOO...........................................................................................................
