!Name: o0094-gun
!CTrue p94 gun.
!CThis version by Adam P. Goucher, 2010.
!CBased on a similar pattern by David Bell and Jason
!C  Summers, 2004.
!CBased on a gun by Dean Hickerson, 1990.
!CBased on "AK47" reaction, discovered independently
!Cby Dave Buckingham and Rich Schroeppel.
!
.......................................................................OO.......O...................................OO.......O......................................
.......................................................................OO.....OOO...............O.......OO..........OO.....OOO......................................
.............................................................................O........O.........OOO.....OO................O........O................................
...................................................O.......OO................OO.....OOO...O........O......................OO.....OOO......OO.......O................
...................................................OOO.....OO......................O......OOO.....OO............................O.........OO.....OOO................
.............................................O........O..............O.............OO........O..................................OO..............O........O..........
.............................................OOO.....OO............O..O.....................OO..................................................OO.....OOO..........
................................................O.................O.O..O..............................................................................O.............
...............................................OO..................OO........................................................................OOO......OO............
..OO.O....OO...OO..................................................O....O...................................................................O...O...................
..O.OO....OO...OO......................................................OO..................................................................O.....O..................
OO....OO...................................................OO..............................................................................O.....O..................
O.....O...OO...OO..........................................O....O..........................................................................O.....O..................
.O.....O..O.O.O.O..............................................OO............OOO..........................................OOO...............O...O...................
OO....OO....O.O.............................................O..O.O..........O...O................OOO.....................O...O...............OOO....................
..OO.O.....OO.O..............................................O..O..........O.....O..............O...O...................O.....O.....................................
..O.OO.........OO...................................OOO.......O............O.....O.............O.....O..................O.....O.....................................
......OO........O..................................O...O...................O.....O.............O.....O..................O.....O.....................................
......O........O..................................O.....O...................O...O..............O.....O...................O...O......................................
.......O.......OO........................OO.......O.....O............OO......OOO................O...O.............OO......OOO...............................OO......
......OO........O........................OO.......O.....O.............O..........................OOO......OO.......O........................................OO......
..OO.O.........O...................................O...O...........OOO.....OO.............................O.....OOO.....OO..........................................
..O.OO.........OO...................................OOO............O........O.......................OO.....OOO..O........O..........................................
.........................................OO..............................OOO.....OO.................O........O........OOO.....OO............................OO......
........................................O.O............OO................O.......OO...........OO.....OOO..............O.......OO..............OO............O.O.....
.....................................O..O..............O......................................OO.......O.......................................O..............O..O..
....................................O.O.O........OO.....OOO.................................................................................OOO.....OO........O.O.O.
....................................O.O.OO.......OO.......O.......................................................................O.O.......O.......OO.......OO.O.O.
...................................OO.O...........................................................................................OO............................O.OO
......................................O............................................................................................O............................O...
......................................O.O.....................................................................................................................O.O...
.......................................OO.......OO............................................................................................................OO....
................................................O.O.................................................................................................................
................................................O...................................................................................................................
...............................................................................O....................................................................................
................................................................................O...................................................................................
..............................................................................OOO...................................................................................
.........................................................................................................................................OO.........................
..........................................................................................................................................OO........................
.........................................................................................................................................O..........................
............................................................................................................O.......................................................
..........................................................................................................OO........................................................
...........................................................................................................OO.......................................................
.......................................................................OOO..........................................................................................
.......................................................................O............................................................................................
........................................................................O...........................................................................................
.......................................................................................................O............................................................
.....................................................................................................O.O............................................................
......................................................................................................OO............................................................
..................................................................................................................O.................................................
..................................................................................................................OO................................................
.................................................................................................................O.O................................................
...................................................................................O.O..............................................................................
...................................................................................OO...............................................................................
....................................................................................O...............................................................................
...............................................................................................OO...................................................................
...............................................................................................O.O..................................................................
...............................................................................................O....................................................................
..............................................................................................................................O.....................................
...............................................................................................................................O....................................
.............................................................................................................................OOO....................................
..........................................................................................OO........................................................................
...........................................................................................OO.......................................................................
..........................................................................................O.........................................................................
.............................................................O......................................................................................................
...........................................................OO.......................................................................................................
............................................................OO......................................................................................................
......................................................................................................................OOO...........................................
......................................................................................................................O.............................................
.......................................................................................................................O............................................
......................................................................................................................................................O.............
....................................................................................................................................................O.O.............
.......................................OO............................................................................................................OO.......OO....
......................................O.O.....................................................................................................................O.O...
......................................O............................O............................................................................................O...
...................................OO.O............................OO...........................................................................................O.OO
....................................O.O.OO.......OO.......O.......O.O.......................................................................O.......OO.......OO.O.O.
....................................O.O.O........OO.....OOO.................................................................................OOO.....OO........O.O.O.
.....................................O..O..............O.......................................O.......OO......................................O..............O..O..
........................................O.O............OO..............OO.......O..............OOO.....OO...........OO.......O................OO............O.O.....
.........................................OO............................OO.....OOO........O........O.................OO.....OOO..............................OO......
.............................................................................O........O..OOO.....OO.......................O........O............OOO.................
.............................................................................OO.....OOO.....O.............................OO.....OOO...........O...O................
.........................................OO........................................O.......OO......OOO..........................O.............O.....O.......OO......
.........................................OO...............................OOO......OO.............O...O................OOO......OO............O.....O.......OO......
.........................................................................O...O...................O.....O..............O...O...................O.....O...............
........................................................................O.....O..................O.....O.............O.....O...................O...O................
........................................................................O.....O..................O.....O.............O.....O............O.......OOO.................
........................................................................O.....O...................O...O..............O.....O..........O..O..........................
.......................................................OOO...............O...O.....................OOO................O...O..........O.O..O.........................
......................................................O...O...............OOO..........................................OOO............OO............................
.....................................................O.....O..........................................................................O....O........................
.....................................................O.....O..............................................................................OO........................
.....................................................O.....O..................................................................OO....................................
......................................................O...O...................................................................O....O................................
...............................................OO......OOO........................................................................OO................................
................................................O..............................................................................O..O.O...............................
.............................................OOO.....OO..................................................OO.....................O..O............OO..................
.............................................O........O..............OO..................................O........OO.............O..............O...................
...................................................OOO.....OO.........O............................OO.....OOO......O......................OO.....OOO................
...................................................O.......OO......OOO.....OO......................O........O...OOO.....OO................OO.......O.......O.O......
...................................................................O........O................OO.....OOO.........O........O..................................OO......
.........................................................................OOO.....OO..........OO.......O...............OOO.....OO............................O.......
.........................................................................O.......OO...................................O.......OO....................................
