!Name: o0156-gun
!CJason Summers, 28 Oct 04
!
OO....O.OO......OO.O..........................................................
.O....OO.O......O.OO..........................................................
O...OO........OO..............................................................
OO...O........O...............................................................
....O..........O........................................OO....................
OO..OO........OO........................................OO....................
.O....O.OO......OO.O..........................................................
O.....OO.O......O.OO..........................................................
OO........OO..OO....OO........................................................
...........O..O.....O.........................................................
OO........O....O.....O................................OOO.....................
.O........OO..OO....OO..................................O.....................
O.....O.OO......OO.O..................................OOO.....................
OO....OO.O......O.OO..........................................................
..........................................O.O.................................
..........................................O.O.................................
....................................OO....OOO...............................OO
....................................OO...............................OOO....OO
.....................................................................O.O......
.....................................................................O.O......
.........................................................OOO..................
.........................................................O....................
.........................................................OOO..................
........................................................OO....................
........................................................OO....................
