!Name: o0276-gun
!
..OO.O....O.OO......OO.O...............................................................................................................
..O.OO....OO.O......O.OO...............................................................................................................
......OO......OO..OO..............................................OO.......OO..........................................................
......O........O..O................................................O........O..........................................................
.......O......O....O...............................................O.O......O.O........................................................
......OO......OO..OO................................................OO.......OO........................................................
..OO.O......OO......OO.O...............................................................................................................
..O.OO.......O......O.OO...............................................................................................................
OO..........O.....OO....OO.............................................................................................................
O...........OO....O.....O........................................O..O..................................................................
.O........OO.......O.....O.............................OOO.......O.....................................................................
OO.........O......OO....OO...............OO...........O....O.........O.................................................................
..OO.O....O.........OO.O.................OO..........O.....O........OO.................................................................
..O.OO....OO........O.OO..............................O........O.......................................................................
.......................................................OO........OO....................................................................
.......................................................OO........OO....................................................................
......................................................O........O...O...................................................................
.........................................OO..........O.....O....O..O..........OOO......................................................
.........................................OO...........O....O....O..O..........O..O.....................................................
.......................................................OOO.......OO.........OO..OO.....................................................
...........................................................................O.....O......................................O...OOO........
..............................................................................OOO........................OO............O.O..OOOOO...OO.
...........................................................................OO............................OO............O...OO...OO..OO.
...........................................................................O..OOO.......................................O..O...OO......
............................................................................O..O.........................................OOO...O.......
.................................................OOO...O....................OO.........................................................
..........................................OO...OOOOO..O.O................................................................OOO...O.......
..........................................OO..OO...OO...O...............................................................O..O...OO......
...............................................OO...O..O...........................O...................................O...OO...OO..OO.
................................................O...OOO.............................OO.................................O.O..OOOOO...OO.
...................................................................................OO...................................O...OOO........
................................................O...OOO................................................................................
...............................................OO...O..O...............................................................................
..........................................OO..OO...OO...O............OO................................................................
..........................................OO...OOOOO..O.O............OO................................................................
.................................................OOO...O...............................................................................
.............................................................................................................OO.......OOO..............
............................................................................................................O..O....O....O...........OO
...................................................................................OO.......................O..O....O.....O..........OO
...................................................................................OO.......................O...O........O.............
.............................................................................................................OO........OO..............
.............................................................................................................OO........OO..............
................................................................................................................O........O.............
..........................................................................................................OO........O.....O..........OO
..........................................................................................................O.........O....O...........OO
..............................................................................................................O.......OOO..............
...........................................................................................................O..O........................
..........................................................................................................OO...........................
...................................................................................................O......O.O..........................
....................................................................................................O.......O..........................
..................................................................................................OOO.......OO.........................
