!Name: p52G3to4.rle
!http://conwaylife.com/wiki/Period-52_glider_gun
!http://www.conwaylife.com/patterns/p52G3to4.rle
!
.................................................................................................................................................................................................................OO
................................................................................................................................................................................................................O.O
..................................................................................................................................................................................................................O
.................O.................................................................................................................................................................................................
...............O.O.................................................................................................................................................................................................
................OO.................................................................................................................................................................................................
....................................................................................................................................................................................................OO.............
...................................................................................................................................................................................................O.O.............
.....................................................................................................................................................................................................O.............
.O.................................................................................................................................................................................................................
..O...........................O....................................................................................................................................................................................
OOO.........................O.O....................................................................................................................................................................................
.............................OO....................................................................................................................................................................................
..................................................................................................................................OO.O.............................................................................
..................................................................................................................................O.OO.............................................................................
................................................................................................................................OOOOOO.............................................................................
................................................................................................................................O.....O....O...........................................OO..........................
..................................................................................................................................O.O.O..OOO..........................................O.O..........................
.................................................................................................................................OOOO.O.O...............................................O..........................
.......................................................................................................................OO.......O.....O.O.OO.......................................................................
..............O.......................................................................................................O..O.....O..OOO.O..O.O.......................................................................
...............O...........................O..........................................................................O.O.O...O.OO.O.O.OO..........................................................................
.............OOO.........................O.O...........................................................................O.O.O..O..O.O.O...OO........................................................................
..........................................OO.............................................................................O..O.OO.O....OO...O.......................................................................
........................................................................................................................O..OO....OO.O.O.OO.O.......................................................................
........................................................................................................................O....OO.O.....O.O.O........................................................................
.....................................................................................................................OO.O.OO...OO.OOO...O..........................................................................
...................................................................................................................OOO.O.OO.OO....O....O.O.........................................................................
..................................................................................................................O....O.O..O.OOO.O.OO.O.O.........................................................................
...................................................................................................................OOOO....O....O.O.O..O.O.OO.O...........................OO.......................................
.................................................................................................................O.O..O.O.O.......O......O.O.OO..........................O.O.......................................
................................................................................................................O.O.....O.OO.....O.O..O..O.................................O.......................................
...............................................................................................................O.O.....OO.O......O.O...O.O..OOO....................................................................
...........................O...................................................................................O..........OO..OO.OOOO.OO.O.O..O....................................................................
............................O...........................O.....................................................OO.......OO......O.O.......O..O......................................................................
..........................OOO.........................O.O..............................................OO.OO..........O.O.OO..O...OOOO....O.OO.....................................................................
.......................................................OO...............................................O.O..O........O..O.....OOO.....OOOO...O....................................................................
........................................................................................................O.O..O.O...OO.O..OOO......O....O....OO.....................................................................
......................................................................................................OO..OOO..O..O..O.OO......OO..O.O.OO.OO.......................................................................
.......................................................................................................O.O....OO...O.O.O........O.O.OOOO.O.O.......................................................................
......................................................................................................O..OO...O.OOOO.O.O..OO...O..OOO...OOO........................................................................
.......................................................................................................OO...OO.OO....O.OO...O.O.OO.......O.........................................................................
........................................................................................................O.OO......OO.O...OO.O.O...O...OO.....OO..............OO....................................................
........................................................................................................O..O.O..O.O.O.OO.....O.O.O.OOO.....O..O.............O.O....................................................
.......................................................................................................OO.O..O..O...O..OO.OOO..O.OO.O....OOO.O................O....................................................
........................................................................................................O.OO.OO.O.O..O...OO....O.....O..O....OO....................................................................
........................................O..............................................................O.......O..OO.OOOOOO.....OOOOOOOO..OO.......................................................................
.........................................O...........................O................................O.OOOOO...O...O.....O.OO.....O...O.O.O.OO....................................................................
.......................................OOO.........................O.O................................O...O.OOOO.OO.O..OO....OOOOO...O.....O.O.....................................................................
....................................................................OO..............................OOO.......O..O.OO.O....O.....O..O....O.O..O....................................................................
...................................................................................................O......O.OO..O.....OO..O.OO.OO...O.......OO.....................................................................
...................................................................................................OO....O..OO........O.......OO..OOO...OOOO.......................................................................
.....................................................................................................O......O.O........OOOOOO....O.OO......O.......................................................................
...................................................................................................OO..O.O.O.O.....OO...O.O..OOOOO.O...OO..........................................................................
....................................................................................................O.OO.O.....O...OO...O..O............OO.........................................................................
....................................................................................................O.O..O.OOO.O........OO.O.OOOO.O.OOO.OO......OO.................................................................
...................................................................................................OO.O.O......O........O..O.O...........O.....O.O.................................................................
...................................................................................................O...O.OO.OO.....OOO...O...O.O....OOO.O........O.................................................................
....................................................................................................OO.O..O.OO...O....O..O...O.O.O....O............................................................................
.....................................................O...............................................O.OO...OO..O.....O..O...OO....O...O...........................................................................
......................................................O...........................O..................O.O.O.O.O..O.........OO.O..OO.....O...........................................................................
....................................................OOO.........................O.O.................OO.O.O..OO...O..O......O.O.O...OO.O............................OO..............................................
.................................................................................OO....................O....O.....OOO......O.O..O..................................OO..............................................
.......................................................................................................O....O...............OO...O.................................................................................
........................................................................................................OO..............................................O..........................................................
.........................................................................................................O........................OOO...................OOO........OO..............................................
.............................................................................................O........OOO........................O..O..........O...........O........OO.............................................
.............................................................................................OOO......O............................O.O.........OOO........OO.....O..O..............................................
................................................................................................O.................................O.OOO...........O.............O....O.............................................
...............................................................................OO..............OO...........OO...........O.....OO...OOO..........OO.................OOO............................................
...............................................................................O............................OO.........O.OO....OO.....................O........O......O............................................
.......................................................................OO...OO.O...................OOO................OO.O.....OO..O................OOOO........O.....O............................................
..................................................................O....O....O.O..................OO.....................O........OOO...............OO...OO.......O...O.............................................
...................................................................O....OOO.O....................OO.O.OO.........................OOO..................O...O......OO................................................
.................................................................OOO......O.OO...................OOOO..O..............................................O...O........................................................
..................................................................................................O....O.............................O................O..OO........................................................
...................................................................................................OOOO.............................OOO.............O...O..........................................................
....................................................................................O.OO...........OO...............................OO.O...............................O...........................................
...................................................................................O...O...........................................OO..OO......O........................O..........................................
..................................................................................O...O.................................OO..........OOOO.......O..............OO......OOO..........................................
...................................................................................O.O...................................O..........OOO............O..........O....................................................
......................................................................................................................OOO........................O.............OOO.................................................
......................................................................................................................O......OO..................OOO.....OO......O.................O...............................
.........................................................................OO..................................................O.O.........................O.O.....................O.O...............................
........................................................................O.O.....................................O..........O.O.OOO..........................O.....................OO...............................
..........................................................................O.......................OO.............OO........OO.....O.......................OO.O.OO..................................................
.................................................................................................O.O............OO...............O...O................OOOO...OO.O..................................................
..............................................................................OO.O........OO.OO...O....OOO......................O...O..O............O..O...OO......................................................
..............................................................................OO.OOO.......O.O.O.OOO..O...O............OO.......O.OO.O..O..........O..O..OOO.OOO...................................................
....................................................................................O.....O..O.O..OO..................O..O....OO.OOO.O.............OO.....OO...O...................................................
..............................................................................OO.OOO......O.OO.....OO..OOO............O.O...O..O...O.O......OO.....OOO.....OOOO.....................O..............................
...............................................................................O.O.....OO.O.O.OO.O.....OO..............O....OO.O.OOOOO......OO.....OOO....O....OOO...................O.............................
...............................................................................O.O.....OO.OO........O.O..O...................O.OO......OO..........OOO....OO..O..O.................OOO.............................
................................................................................O.........O.........O......................O....O........O.........OO..........OO..................................................
..........................................................................................O.O..........OO..................OO..OOO...OOOO...OO.....O...............................................................
...........................................................................................OO.......OO.......O.......OOO.....O.O....OO.OO...OO...O.O.O..........................................O..................
............................................................OO...............................................O.O...........OO..O..OOOO.O.........OO.O.O.......................................O.O..................
...........................................................O.O...............................................OO.....O.O.....O.O.OO..................O.O........................................OO..................
.............................................................O......................................................O..O....O.O.O.OO.....O..........OO.............................................................
.................................................................................................................OO.O.OO...OO..O.O.OOO....O.O.O....................................................................
................................................................................................................O....OOO....O....O....OOO..OOO.O...................................................................
...................................................................................................................O......O..OOO.......O.......O...................................................................
...............................................................................................................O.....O...O.OO...O..OO.OO...OOOO....................................................................
...............................................................................................................OO.O.OO...O.O..O....O.......O.....................................................O.................
...............................................................................................................OO.O.....OO.O.OO.O..O...OOOO..OO...................................................O................
..............................................................................................................OO..OO.....O.O....O.O.O.....O.OO..................................................OOO................
...............................................................................................................O......O..O.O.OO....O.OO.O.O....O...................................................................
...............................................................................................................O......OOO..O....O.OO.......OOOOO...................................................................
................................................................................................O........................OOO.O...O.O.OOOOOO..................................................................O.....
...............................................OO...............................................O.O...........OO........O....O.OOO....OO...OOO.............................................................O.O.....
..............................................O.O...............................................OO.....................O.OOOO.....OO.OO...O..O..............................................................OO.....
................................................O.............................................................O.O.......O....OOO.O...O.....O.......................................................................
...............................................................................................................O.........O.O.O.O...O.OO.....OOOO...................................................................
..............................................................................................................O...........OO.OO..O....OOO......O...................................................................
............................................................................................................O.O..................OOOOO...O..OOO....................................................................
...........................................................................................................O..........OO..OO..OOO.......O..O.......................................................................
............................................................................................................O..O......O..O..O.O.OOOOOOO.OOO.O.................................................................O....
..............................................................................................................OO.......OO.O...O..O.O..OOO.OO..OO...............................................................O...
..........................................................................................................................OO.OO......O.........O.............................................................OOO...
.......................................................................................................................OOO..O....OOOO.O.O.....O....................................................................
......................................................................................................................O...OO.O........OOO.OO..OO...................................................................
...................................................................................O..................................O.O..O.O.OOOOO.O..OO..O.O....................................................................
..................................OO...............................................O.O.................................OOO..........OO.O...O..O....................................................................
.................................O.O...............................................OO........................................O..OOO...OO.O.O.O.....................................................................
...................................O..................................................................................O.OO...O.OO..OO....O..O......................................................................
......................................................................................................................OO.O...O.OO..O.OO.O......O...................................................................
.................................................................................................................................O.O..O.O..OOOOO...................................................................
............................................................................................................................O..O.OO.O.O.O.O........................................................................
............................................................................................................................O.O.O...O.O..O.O.O.....................................................................
..............................................................................................................................O.O...O..O.O..OO.....................................................................
......................................................................................................................OO..OO.....OO.O...OO.........................................................................
......................................................................................................................O..O.....OO..O...............................................................................
.......................................................................................................................O.OO..OO...O................................................................................
........................................................................................................................O...OOOOOO.................................................................................
......................................................................O...............................................O.O.OO...OO..................................................................................
.....................OO...............................................O.O.............................................OO.O.O..O..O.................................................................................
....................O.O...............................................OO.................................................O.OOO...O..O..............................................................................
......................O..................................................................................................O.......O.O.O.............................................................................
.......................................................................................................................O.OOO.O...O..O.O............................................................................
......................................................................................................................O.O......O..O.O.O............................................................................
......................................................................................................................O.O.OO...O.OO.OO.............................................................................
.......................................................................................................................O.O.O.O.O...................................................................................
.........................................................................................................................O.OOO.O..OOOO.............................................................................
......................................................................................................................O..OO..O.OOO....O............................................................................
......................................................................................................................OOO...O...O.OO.O.............................................................................
..........................................................................................................................OOOOOOO..O.OO............................................................................
........................................................................................................................OO.......OO...O............................................................................
.........................................................O..............................................................O..O.OO.O..OOO.............................................................................
........OO...............................................O.O..............................................................OO.O.OO..O...............................................................................
.......O.O...............................................OO........................................................................................................................................................
.........O.........................................................................................................................................................................................................
