!Name: p52overunity.rle
!http://conwaylife.com/wiki/Period-52_glider_gun
!http://www.conwaylife.com/patterns/p52overunity.rle
!
..............................................................................................................................................................O...............................................................................................................................................................................................................................................................
.............................................................................................................................................................OO...............................................................................................................................................................................................................................................................
.............................................................................................................................................................O.O..............................................................................................................................................................................................................................................................
.....................................................................................................................................................................................................................................................................OO.......................................................................................................................................................
....................................................................................................................................................................................................................................................................O.O.......................................................................................................................................................
...........................................................................................................................................................................O..........................................................................................O.......................................................................................................................................................
..........................................................................................................................................................................OO..................................................................................................................................................................................................................................................
..........................................................................................................................................................................O.O.................................................................................................................................................................................................................................................
..............................................................................................................................................................................................................................................................................OO..............................................................................................................................................
..............................................................................................................................................................................................................................................................................O...............................................................................................................................................
............................................................................................................................................................................................................................................................................O.O...............................................................................................................................................
...........................................................................................................................................................................................................................................................................O.O................................................................................................................................................
.......................................................................................................................................................................................................................................................................OO..O..................................................................................................................................................
.......................................................................................................................................................................................................................................................................OO..O..O...............................................................................................................................................
..............................................................................................................................................................................................................................................................................O...............................................................................................................................................
.............................................................................................................................................................................................................................................................................O................................................................................................................................................
........................................................................................................................................................................................................................................................OO....................OOO.............................................................................................................................................
.......................................................................................................................................................................................................................................................O.O..............O.......O.............................................................................................................................................
........................................................................................................................................................................................O................................................................O.............O.O....................................................................................................................................................
.......................................................................................................................................................................................OO..............................................................................O..O...................................................................................................................................................
.......................................................................................................................................................................................O.O.........................................................................O....OO....................................................................................................................................................
...................................................................................................................................................................................................................................................................OO.........................................................................................................................................................
..................................................................................................................................................................................................................................................................O.O.........................................................................................................................................................
............................................................................................................................................................................................................................................................................OO................................................................................................................................................
............................................................................................................................................................................................................................................................................O.O...............................................................................................................................................
..............................................................................................................................................................................................................................................................................O...............................................................................................................................................
..............................................................................................................................................................................................................................................................................OO..............................................................................................................................................
...........................................................................................................................................................................................................................................OO.................................................................................................................................................................................
..........................................................................................................................................................................................................................................O.O.................................................................................................................................................................................
.....................................................................................................................................................................................................O......................................O.................................................................................................................................................................................
....................................................................................................................................................................................................OO........................................................................................................................................................................................................................
....................................................................................................................................................................................................O.O...............................................O.......................................................................................................................................................................
...................................................................................................................................................................................................................OO.................................OO......................................................................................................................................................................
...................................................................................................................................................................................................................O.................................O.O......................................................................................................................................................................
.....................................................................................................................................................................................................................O........................................................................................................................................................................................................
.................................................................................................................................................................................................OO..............OOOOO........................................................................................................................................................................................................
..................................................................................................................................................................................................O.............O.............................................................................................................................................................................................................
..................................................................................................................................................................................................O.O............OOO..........................................................................................................................................................................................................
...................................................................................................................................................................................................OO...............O.........................................................................................................................................................................................................
.................................................................................................................................................................................................................OOOO.........................................................................................................................................................................................................
............................................................................................................................................................................................................OO...O...OO.......OO..............................................................................................................................................................................................
......................................................................................................................................................................................................O.....OO....OOO..O.....O.O..............................................................................................................................................................................................
......................................................................................................................................................................................................OO............O.OO.......O..............................................................................................................................................................................................
.....................................................................................................................................................................................................O.O............O.........................................................................................................................................................................................................
...................................................................................................................................................................................................................OO....................O....................................................................................................................................................................................
.........................................................................................................................................................................................................................................OO...................................................................................................................................................................................
........................................................................................................................................................................................................................................O.O...................................................................................................................................................................................
...........................................................................................................................................................................................................OO.................................................................................................................................................................................................................
...........................................................................................................................................................................................................O..................................................................................................................................................................................................................
............................................................................................................................................................................................................OOO...............................................................................................................................................................................................................
..............................................................................................................................................................................................................O...............................................................................................................................................................................................................
.................................................................................................................................................................................................................OO...........................................................................................................................................................................................................
.........................................................................................................................................................................................O......................O.O...........................................................................................................................................................................................................
.........................................................................................................................................................................................OO.......................O...........................................................................................................................................................................................................
........................................................................................................................................................................................O.O...................................................................................................................................................................................................................................
............................................................................................................................................................................................................................O.................................................................................................................................................................................................
............................................................................................................................................................................................................................OO................................................................................................................................................................................................
...........................................................................................................................................................................................................................O.O................................................................................................................................................................................................
....................................................................................................................................................................................................OO........................................................................................................................................................................................................................
............................................................................................................................................................................O......................O.O........................................................................................................................................................................................................................
............................................................................................................................................................................OO.......................O........................................................................................................................................................................................................................
...........................................................................................................................................................................O.O................................................................................................................................................................................................................................................
...............................................................................................................................................................................................................O..............................................................................................................................................................................................................
...............................................................................................................................................................................................................OO.............................................................................................................................................................................................................
..............................................................................................................................................................................................................O.O.............................................................................................................................................................................................................
.......................................................................................................................................................................................OO.....................................................................................................................................................................................................................................
...............................................................................................................................................................O......................O.O.....................................................................................................................................................................................................................................
...............................................................................................................................................................OO.......................O.....................................................................................................................................................................................................................................
..............................................................................................................................................................O.O.............................................................................................................................................................................................................................................................
..................................................................................................................................................................................................O...........................................................................................................................................................................................................................
..................................................................................................................................................................................................OO..........................................................................................................................................................................................................................
.................................................................................................................................................................................................O.O..........................................................................................................................................................................................................................
..............................................................................................OO.O............................................................................................................................................................................................................................................................................................................................
..............................................................................................O.OO............................................................................................................................................................................................................................................................................................................................
............................................................................................OOOOOO............................................................................................................................................................................................................................................................................................................................
............................................................................................O...O.O....O..................................................................OO..................................................................................................................................................................................................................................................
..............................................................................................O..OO..OOO..........................................O......................O.O..................................................................................................................................................................................................................................................
.............................................................................................OOO..O.O.............................................OO.......................O..................................................................................................................................................................................................................................................
...................................................................................OO.......O...O.O.O.OO.........................................O.O..........................................................................................................................................................................................................................................................................
..................................................................................O..O.....O..O...O..O.O.............................................................................O........................................................................................................................................................................................................................................
..................................................................................O.O.O...O.OO.O.O.OO................................................................................OO.......................................................................................................................................................................................................................................
...................................................................................O.O.O..O..O.O.O...OO.............................................................................O.O.......................................................................................................................................................................................................................................
.....................................................................................O..O.OO.O.OO.OO...O......................................................................................................................................................................................................................................................................................................................
....................................................................................OO.OO....OO.O.O.OO.O......................................................................................................................................................................................................................................................................................................................
....................................................................................O.O..OO.O.....O.O.O.......................................................................................................................................................................................................................................................................................................................
.................................................................................OO.O.OO...OO.OOOOO.O.........................................................................................................................................................................................................................................................................................................................
...............................................................................OOO.O....OO....O..O.O.O........................................................................................................................................................................................................................................................................................................................
..............................................................................O....O.O..O.OOO.O..O.O.O........................................................................................................................................................................................................................................................................................................................
...............................................................................OOOO.OO......O.O.O.OO.O.OO.O..................................................OO...............................................................................................................................................................................................................................................................
.............................................................................O.O..O.O.OO......O.OO..OO.O.OO..........................O......................O.O...............................................................................................................................................................................................................................................................
............................................................................O.O.....O........O.O.OO..O...............................OO.......................O...............................................................................................................................................................................................................................................................
...........................................................................O.O.....OO.O......O..O....O..OOO.........................O.O.......................................................................................................................................................................................................................................................................................
...........................................................................O.........OO...OO.O..OOOO.O.O..O.............................................................O.....................................................................................................................................................................................................................................................
..........................................................................OO.......OO.O....O.O..O..OOO..O...............................................................OO....................................................................................................................................................................................................................................................
...................................................................OO.OO..O.......O.O.OO..O...OOO.O...O.OO.............................................................O.O..................................................................................................................................................................................................................................................O.
....................................................................O.O..OOO......O........OOO......OOO...O............................O....................................................................................................................................................................................................................................................................................OO
....................................................................O.O...OO...OO.O...OO......O....O....OO............................O.O...OO.............................................................................................................................................................................................................................................................................O.O
..................................................................OO..OO......O..O.OO.OO...OO.O....O..OO.............................O..O...O.................................................................................................................................................................................................................................................................................
...................................................................O.O..OOO....O.O.O.OO.....O...OOO..O.O..............................OO.OO.O.................................................................................................................................................................................................................................................................................
..................................................................O..OOOO.O.OOOO.O.O..OO...O..OOO...OO.................................O.O.O..................................................................................................................................................................................................................................................................................
...................................................................OO...O...O....O.OO...O.O.OO.....................................O...OO.....................................................................................................................................................................................................................................................................................
....................................................................O.OO......OO.O...OOOO.O...O...OOO....OO.......................O.O.OOO.......OO............................................................................................................................................................................................................................................................................
....................................................................O..O.O..O.O.O.OO..O..O.O.O.O.O.....O..O.............O..........O...........O.O............................................................................................................................................................................................................................................................................
...................................................................OO.O..OOOO...O..O.O.OO..O.OO..O..OOOO.O..............OO.......................O............................................................................................................................................................................................................................................................................
....................................................................O.OO..O.O.O..O.........O.............OO............O.O.......OOO.OO.O.....................................................................................................................................................................................................................................................................................
...................................................................O..........OO.OOOOO......OOOOOO..O.OO.........................OO.O.O....................O..................................................................................................................................................................................................................................................................
..................................................................O.OOOO....O...O...O.OO.O........OO...O.OO......................O..O......................OO.................................................................................................................................................................................................................................................................
..................................................................O...O.OO.O.OO.O..OO....OOOOO...O.O.O.O.O........................O.O.....................O.O..................................................................................................................................................................................................................................................O..............
................................................................OOO.....O..O.O.OO.O...OO.....O...OOO.O.O..O....................................................................................................................................................................................................................................................................................................OO.............
...............................................................O.......OO.........O.....OO.O....O.OOO...OO.......................OOO..........................................................................................................................................................................................................................................................................O.O.............
...............................................................OO....OO.O..O......O...O...OO...O....OOOO......................................................................................................................................................................................................................................................................................................................
.................................................................O...OO.O..........OO..OO.....OO.......O......................................................................................................................................................................................................................................................................................................................
...............................................................OO..O.O.O.OO....OO....O..OOOOOO.O..OOO............................O............................................................................................................................................................................................................................................................................................
................................................................O.OO.O.O.......OO......O......O.....O.........................................................................................................................................................................................................................................................................................................................
................................................................O.O..OOOOOOO........OOO..OOOO.OOOOO.O...............................OO........................................................................................................................................................................................................................................................................................
...............................................................OO.O.O.....OO.........O.O.O..O..O...OO......O........................O.........................................................................................................................................................................................................................................................................................
...............................................................O...O.OOOO......OO.....OO.O.OOO..O..OO......OO....................OOO..........................................................................................................................................................................................................................................................................................
................................................................OO.O..O.O......OO.....OO.O..OO.OO.O.......O.O.....................O...........................................................................................................................................................................................................................................................................................
.................................................................O.OO...O.............O..O.....OOOO...........................................O...............................................................................................................................................................................................................................................................................
.................................................................O.O....O..O..........OO.O..OO...OO.........................OO................OO..............................................................................................................................................................................................................................................................................
................................................................OO.O.OO...O....OOO.....O.O.O.OOOO.O........................O.O...............O.O..................................................................................................................................................................................................................................................O...........................
.........OO........................................................O.OOOO......O.......O.O..OOO............................O......................................................................................................................................................................................................................................................................OO..........................
........O.OOO.O..............O.....................................O..OO........O.......OO................................OO.....................................................................................................................................................................................................................................................................O.O..........................
........O....OO............OOO......................................OO........................................................................................................................................................................................................................................................................................................................................................
.......OO.O.O.............O..........................................O........................................................................................................................................................................................................................................................................................................................................................
..........OO.OOO..........OO.............................O........OOO..........................O...........O..................................OO..............................................................................................................................................................................................................................................................................
.......OOO...OOO.........................................OOO......O...........................OOO..........OOO...............................OO...............................................................................................................................................................................................................................................................................
.......O..OO...OO......OO...................................O...................O..O.............O............O..................O.O...........O..............................................................................................................................................................................................................................................................................
........O.O...OOO.....O.OO.................OO..............OO...........OO.....OO...O........OOO.OO..........OO...........OO.........O.O......................................................................................................................................................................................................................................................................................
.....OOO..OO...OO.....O..O.................O............................OO......O...O.......O...OO........................OO...........O......................................................................................................................................................................................................................................................................................
.....O..OO...OOO.......OOO.........OO...OO.O....................................O...O........O...................................O...O.O......................................................................................................................................................................................................................................................................................
......O...OO.OOO.......OO..........O....O.O...................OO................O..O.........O.O................OOO..............O.OO.........................................................................................................................................................................................................................................................................................
.......OO.O.O.......................OOO.O....................O..O................O..............................O.OO..........................................................................................................................................................................................................................................................................................................
........O....OO.....O.................O.OO.....O................OO...............................................O.OO...........................O....................................................................................................................................................................................................................................O........................................
........O.OOO.O...OO..........................O.O..........O...OO................................................O.O...........................OO....................................................................................................................................................................................................................................OO.......................................
.........OO........OO............................O........O....O.................................OO.........O....OO............................O.O..................................................................................................................................................................................................................................O.O.......................................
.OO............................................OOO........OOO...................................O..O........O.O...............................................................................................................................................................................................................................................................................................................
..O............................................O.O..............................................OOO.........OO................................................................................................................................................................................................................................................................................................................
..O.O..........................................O....................................OO...........OO........................................................OO.................................................................................................................................................................................................................................................................
...OO........................OOO.....................................................O....................................................................OO..................................................................................................................................................................................................................................................................
.......OO....................O....................................................OOO......O................OOO.............................................O.................................................................................................................................................................................................................................................................
.......OOO....................O...................................................O........OOO................O...............................................................................................................................................................................................................................................................................................................
......O..O....................................................................................O..............O................O...............................................................................................................................................................................................................................................................................................
.......OO...........................O........................................................OO................................O..............................................................................................................................................................................................................................................................................................
.............O......................OO...................OOO.............OO.................O....................OO..........OOO..............................................................................................................................................................................................................................................................................................
...........O.O.....................O.O...................O...............O.O................OO.OOO..............O.O..O........................................................................................................................................................................................................................................................................................................
............OO............................................O................O.............OO.O.O...O.............O.O.O.OOO....................................O..........................................................................................................................................................................................................O.....................................................
...........................................................................OO.............O.O....OOO...........OO.O.O...O.OOO...............................OO..........................................................................................................................................................................................................OO....................................................
.......O..................................................................................O.O.....OOO........O....O....O.O..................................O.O........................................................................................................................................................................................................O.O....................................................
.........................................................................................OO.O......OO...OO......OOO.O.........................................................................................................................................................................................................................................................................................................
...OO.....OO............................................................................O...O.OOO.OO....OO..O..OO.O..OO..OOOO.................................................................................................................................................................................................................................................................................................
.OO....O....OO..........................................................................OO.O.O...O.OO.............O..O...OO.OO..........................................OO....................................................................................................................................................................................................................................................
.....OO.OO................................OOO............................................O.O..OOOO............OO..OOO..O..O............................................OO.....................................................................................................................................................................................................................................................
.O.O.......O.O......................OO....O........OO....................................O.OO.O.....O...OO..O.OO......OO......O..........................................O....................................................................................................................................................................................................................................................
.O..O.O.O.O..O...................O....O....O.......O.O..................................OO..O......O....OO....OO..OOOOO.....OO................................................................................................................................................................................................................................................................................................
OOOOO.O.O.OOOOO................OO.O.O.O............O......................................O...OOOO.OO.......O...OO......OO.OO...O..........O..................................................................................................................................................................................................................................................................................
O....O...O....O..........O.....OO...O.OO................................................OO.....O.O.OO......O.O.O...OO...OOOO.OOOO...........O.................................................................................................................................................................................................................................................................................
.OOO.O.O.O.OOO..........OOO.....O.OOO...O.............................OOO...............O.........O........O....OOO.O......O.....OO.......OOO.................................................................................................................................................................................................................................................................................
...O.OO.O..O...........O...O....O....OO..O............................O..................OOO.....O.OOOO.OO.O.O.OO.............OOO..O..........................................................................................................................................................................................................................................................................................
........O.O............O...OO...OOO.O..OOO.............................O...................O...O..O.O.OO.O..O.....OOOOOO.OO.OOO.O.O.......................................O................................................................................................................................................................................O..................................................................
........OO.............O..O.....OO...OO....................................................O.OOO.O.......O...O.OO.O........OO...O.OO.....................................OO................................................................................................................................................................................OO.................................................................
.........................O......OOO.O..O....................................................O........O.OO.OOO...OO...OOOOO....OOO........................................O.O..............................................................................................................................................................................O.O.................................................................
................................O....OOO.....................................................O.OO....O.O..O...O.O...O...O..OO.....OO..........................................................................................................................................................................................................................................................................................
...................OO...........O.OOO.......................................................OO.O..OOO....O..OO..OO..O.OO..OOOOOOO.O...........................................................................................................................................................................................................................................................................................
....................O..........OO...O.OO.....................................................O..O.O..O.O.O.OO.O...O.O.O....O....O..O.................................................OO.......................................................................................................................................................................................................................................
.................OOO...........OO.O.O.O................OOO...................................O.OO....O.OO.O.....OO.O...OO...O..O..OO................................................OO........................................................................................................................................................................................................................................
.................O...............O....O................O........OO..........................OO...O........O.OO.O.O.O.OO.....OO........................................................O.......................................................................................................................................................................................................................................
....................................OO..................O.......O.O........................O..OO.O...OOOO.O.O.......O..OO..OOO.O..............................................................................................................................................................................................................................................................................................
................................................................O...........................O.O...OOOO..O.O.O.OO.....O.O.OOO....O.......................O.....................................................................................................................................................................................................................................................................
...........................................................................................OO..OO...O..O..O.O..O....OO.OO......OO........................O....................................................................................................................................................................................................................................................................
...................................................................................OOO.......O.O....O...OO.O...O.......O.OOOO....OO....................OOO....................................................................................................................................................................................................................................................................
...................................................................................O.........O.O.O.O.......O.O.O....OOO..OO.OOOO...O..........................................................................................................................................................................................................................................................................................
....................................................................................O.......OO.OO..O.......O.O.....O...OOO.O...O.OO....................................................O......................................................................................................................................................O...............................................................................
...................................................................................................OO.......OO.OO...O.O....O.OO..O....................................................OO......................................................................................................................................................OO..............................................................................
....................................................................................................O.........O....OO.O..O....O.O..O..................................................O.O....................................................................................................................................................O.O..............................................................................
....................................................................................................O.O.....OO........O.O.O.O.O..OOO..........................................................................................................................................................................................................................................................................................
.....................................................................................................O.O.....O.OO.....O.......O...........................................................................................................................................................................................................................................................O.O.................................
......................................................................................................O.O..O.O.........O.OO..OO.O.OO..............................................................OO......................................................................................................................................................................................OO..................................
....................................................................OOO.................................OOOO.O..O....O.O.O.O..O.OO.O.............................................................OO........................................................................................................................................................................................O..................................
....................................................................O........OO........................O....O.O..O.OOO.O....O.O....................................................................O..........................................................................................................................................................................................................................
.....................................................................O.......O.O........................OOO.O.OO.OO....O..O.O.O......................................................................................................................................................O.O.OO.OO................................................................................................................................
.............................................................................O............................OO.O.OO...OO.OOOOO.O.......................................O..............................................................................................................O.OO.O.OO.O...............................................................................................................................
.............................................................................................................O....OO.O.......O.O......................................O.......................................................................................................OO....O....O.....O..............................................................................................................................
................................................................................................OOO..........O..OO....OO.O.O.OO.O...................................OOO........................................................................................................O..O.OO.OO.OOOOO...............................................................................................................................
................................................................................................O.............O..O.OO.O.OO.OO...O...........................................................................................................................................OOO...OO....O.O.O..OOO............................................................................................................................
.................................................................................................O..........O.O.O..O..O...O...OO....................................................................O......................................................................O...OOO...OO.O.O.O.O..O...............................O............................................................................................
...........................................................................................................O.O.O...O.OO.O.O.OO.....................................................................OO.......................................................................OO.O..OOO.OO....OO.O.................................OO...........................................................................................
...........................................................................................................O..O.....O..OOO.O..O.O..................................................................O.O....................................................................O.O.OOO........O.O.O.OO.........OO....................O.O...........................................................................................
............................................................................................................OO.......O...O.O.O.OO.........................................................................................................................................OO...O...OOOOOO..O.O..........O..O..................................................................................................................
......................................................................................................................OO...O.O...................................................................................................................................................OOO.....O.OO.OOO.......OO...................................................................O.O..............................................
.......................................................................................................................O...O..OOO..............................................................................OO...............................................................O.O..OOOO...OO...O......OOO..................................................................OO...............................................
.................................................................................OOO.................................O.....O....O.............................................................................OO.................................................................O..O.......O.OO.O........O...................................................................O...............................................
.................................................................................O........OO.........................OOOOOO.....................................................................................O.................................................................O...OO....O.O.O..........OO.................................................................................................................
..................................................................................O.......O.O.................................................................................................................................................................................O.....OO...OOOO..O..............................................................................................................................
..........................................................................................O............................O.OO..................................OO...................O..........................................................................................O.O..O.O.OO.....OO...O.......OO..................................................................................................................
.......................................................................................................................OO.O..........................O.......O.........O...........O........................................................................................O.O.......O.OO..O..OOOO...........................................................................................................................
.............................................................................................................OOO.....................................OOO...O.O.......OOO.........OOO........................................................................................O..OOOO..OO...OOO.O............O..................................................................................................................
.............................................................................................................O..........................................O..OO.......O........................................................................................................OO..O.OO.O..OO...O..OO......O....................................................................................................................
..............................................................................................................O........................................O.O..........OO...........................................O.............................................................OOO.OO.O....OO.O.O.O...O....O........O.........................................................................................................
........................................................................................................................................................OO......................................................OO.........................................................OOO...O.....OOO.O..O.O.....O...O.........OO........................................................................................................
........................................................................................................................................................OO......................................................O.O.......................................................O.O...OO.OO...OO.OO.O.OO...OO...O........O.O........................................................................................................
.........................................................................................................................................................OO...OOO.........................................................................................................O...O.O.....OO...O..O.O..OOO.O.O....................................................................................................................
.........................................................................................................................................................OO..O.OOO.........................................................................................................OOOOOOOOOO.OOOO...OO.O......OO.O.....................................................O.O...........................................................
.........................................................................................................................................................OO..O...O..........................................................OO..................................................O.O......OOOO..O.......OOO......................................................OO............................................................
..............................................................................................OOO.............................................................OOO..........................................................OO.............................................O.OO.O........O....O.....O...OO........................................................O............................................................
..............................................................................................O........OO...........................................................................OO.......................................O............................................OO.O....OO..O..O.O.OO...OO.O.O......................................................................................................................
...............................................................................................O.......O.O..........................................................................O...............................................................................OO.........OOOOOO.OO...O.O......OO........................................................................................................................
.......................................................................................................O..........................................................................O.O..........O...................................................................O.O...........OOOO...OO.O.O.....O.O........................................................................................................................
.................................................................................................................................................................................O.O............O..................................................................O.O.OO...........O.OO..O..OO....OO.........................................................................................................................
..........................................................................................................................OOO................................................OO.OO............OOO...................................................................O.O.O...OO.........O..O.O.....OO................O........OO...............................................................................................
..........................................................................................................................O..................................................OO.......................................................................................O.....OO..OOOOO..OO.OO.OO...................OOOO.......O.O..............................................................................................
...........................................................................................................................O.......................................................OO.........................................O..........................OO..........O..O...........OOOO...O..O........O.........OO.OO.........O.........O....................................................................................
.............................................................................................................................................................................OO....O.........................................OO.........................O..O..OO.....O...........OO.OO.O..O.O..........OO........OO...........OO.OO.....O.O...................................................................................
....................................................................................................................................................................................OOO......................................O.O........................OOO..O.O.....O...O..OO....OOO..OO.O.OO........O.O........O....O.O.O.O..O.OO.....O.O...................................................................................
...........................................................................................................................................................................O...O......O....................................................................OOOO......O......OO...OO.......O..O........................O.OOO..O.O......OOO.OO..................................................................................
.........................................................................................................................................O..........O.....................O...............................................................................O..........O..O........OOO..OOO.OO.....OO............OO.OO..OO.OO.O..O.....O.............O.O........................................................................
.........................................................................................................................................OOO.......O.......................O...O.........................................................OO...............OOO..OO...OO............OOO..O.O......O..OO.......................O.O.......OOO.OO.......OO.........................................................................
...........................................................................................................OOO..............................O......OOO......................O...........................................................OO...................O.OO..OOO........O....O.....O......OO.OO...........OOO....O...OO.OO........O.OO........O.........................................................................
...........................................................................................................O........OO.....................OO................................OO...........................................................O..............O.OO...O.OO........O..O....OO..O........OOO.............O....O.O.....................................................................................................
............................................................................................................O.......O.O..................................................................................................................................OO.O.OO...........O...........O.....OO..................O....OO......................................................................................................
....................................................................................................................O.............................................................OO........................O................................................O.............O............OOO.O.O...............................................................................................................................
..................................................................................................................................................................................O.O........................O................................................O.O..........O..O...........O.O.................................................OO..............................................................................
.......................................................................................................................................OOO..........................................O......................OOO..........................................O......OO...........O.O............OO......O........OO...............................OO...............................................................................
.......................................................................................................................................O............................................OO..................................................................OOO..................O...................OOO........O.O................................O..............................................................................
........................................................................................................................................O..................................................................................................O...............O........OO..OO......................O...........O.............O.............OOO...................................................................................
.....................................................................................................................................................OO...................................................................................OO..............OO........OO..OO.........OO...........OO....................OOOOOO............OOO...................................................................................
.................................................................................................................................O............OO.....O.O........OO........................................................................O.O......................OO......O.......OO................................OO.OO..O..........O...O..................................................................................
................................................................................................................................O.O...........O........O.......O.O..................................................................................................O.......O................OO......................OO...O.OO..........OO.O..................................................................................
................................................................................................................................O.O....................OO........O..................................................................................................OO.OO.OO..........O.......OO.......................OOOO.O...........OOO...................................................................................
.................................................................................................................................O...OO...............................................................................................................OO............OO...O...........OO...OO............................OO....................................................................................................
........................................................................................................................OOO.O........OO...O..........................................................................................................OO.............................OO...OO.................................................OO.O..............................................................................
........................................................................................................................O....O...........O.O.OO........................................................................................................O..OO.........................OO....O.................................................O.OOO............................................................................
.......................................................................................................OO........OO........O.OO..........O.O.O.O.......................................................................................................O..OO..........................OO................OO.................................O.O....O...........................................................................
......................................................................................................O.O....OO...O......O...O..........OO.O...O..O......................................................................O................................OO...........................................O..O....................O..........O.OO...OO...........................................................................
......................................................................................................O.O.OO..O...O.O.....OOO............O..OO.OOOO.......................................................................O.............O..............OOO............................................OO..O...................OO..........O................OO.................................................................
.......................................................................................................O.O.O.O.....OO......O...........O.O....O.........................................................................OOO...........OOO..............OOO.............OO..............................OO..O.............OO...O.O........OO...............OO..................................................................
.........................................................................................................O...OO........................OO.....O.O....................................................................................O.................................O................................OOOO.............O..................................O.................................................................
........................................................................................................O.O.O..O...............................OO....................................................................................OO............OO.........OO........OOO........................................O......OOO.................................................................................................
.......................................................................................................O.....OO.O...............OO................................................................................................................O..O........O...........O.......................O..............OOO........O.................................................................................................
.......................................................................................................OO..OO.O..O..............O.O................OO..............................................................................................OO..........OOO.................................O............O.............................................................................................................
............................................................................................................O...OO................O...............O.O........................................................................................OO..................O...............................OOO............OO............................................................................................................
..................................................................................................................................OO................O.............................................................................OOO.........O.............................................OO................OO..O...........................................................................................................
............................................................................................................O....................................................................................................................O...O........O.OO...OO................................OOO..O.O..............OOOO.O...........................................................................................................
..................................................................................................OO.........OO.....O.O.........................................................................................................O.....O.....OOO..O...OO.....................O.O....O.OOOO.O.O.O............O...OO.O.OO........................................................................................................
.................................................................................................O..O.......O.......O..O........................................................................................................O.....O....O...OO...........................OO.....OO...OO..O.OO..........O..O....O.O.........................................................................................................
.................................................................................................OOO.......OO......O...OO.......................................................................................................O.....O....OOOO..............................O.....OOOO.....O..O.............O...OO.O.........................................................................................................
....................................................................................................OOOOOOO........O.........................................................................................................OO..O...O........O....................................O.OO.OO..O.OO.....OO......O.O..O.OO......................O.................................................................................
...................................................................................................O..OOOOO...................OO............................................................................................O.O...OOO......OOO...................................OO..O..OOO.O.OO.....OO......OOOO.O...O....................OO...........................OO....................................................
...................................................................................................OO..OOO.........O..OOO.....O.O...........................................................................................O.............O......................................OO...O..O..O.O.O.........OO.....O.O.OO....................O.O.........................OO.....................................................
...................................................................................................................OO...........O..........................................................................................OO..............OOOOO.................................O.OOOOO.OOOO..OOO........OOOOOOO..O.O...................................................O....................................................
..............................................................................OO...........OO..OO....................OOO........OO.............................................................................................................O.................................O.....O......O......OO.......O.O.OO.O........................................................................................................
............................................................................O..O..........O..O..O..............O.....OOO..........................O.O.O.OO.....O..OO.OO......................................................................O...................................OOO..O.OOOOOO..O....OO....OO.O.O.O..OO.......................................................................................................
...........................................................................O.OO.......OO..OO.O.O....OO..OO...OO.OO....................OO.........O.OO.OO.O....O.O..O.O.......................................................................OO...............................O.......OO.....OO..OO..........O.OO...O.........................................................................................................
...........................................................................O.O.......O..O.O..O.OO...OO..OO...OO.OO...................O.O.........O............O.OO.O..O.......................................................................................................OOOO....O...OO...O...O......O..O.OO....OO.......................................................................................................
.........................................................................O.O...O....O.O.O...OO.O............OO..OO.....................O.......OO.OOOO.OO...OO....O..OO....OO..OO.OO........................................................................................OO...OOO.O....O.OO.....O.........OO.......O.......................................................................................................
.........................................................................OO.O..O.....O.O.O...O.OO.............O.................................O.O..O.O.O.O.O.OO.........O..O..O.O........................................................................................O..O.O.OOO...O.....OO...O.OO.O.O..O.....OOO........................................................................................................
............................................................................O.O.OO.....O.O..O...OO....O......................................O..O.OO.O.O.......O.OOOOOOOO..O.O.O..O............................................................................O.O..........O.O.O.O.O...OOOOO....OO..O.OO.O.OO.O...O..........................................................................................................
............................................................................O..OO.O...O.O.OO..O..O..O.O....................................O..O.O..O...O..OO...O.O...O...OOO..O.OO.............................................................................OO..........OO.O...OO........O.OO.O...O...O....OOOO.O..........................................................................................................
..........................................................................OO.OO...O........O.O...O......OOOO...........................O..OO..OO...OO.OO.OOO..OO...O...OO...O.O..........................................O......................................O.............OO.O..OOOOOO......OOOOO.OO..........O...........................................................................................................
...........................................................................O.O.O....O.O..OOOOO...O..O...O...O.......OO.................O..O....OOO..O.OOO..OO.O.OO....O..O.OO..OOOOO....................................O..................................................OO.............O.........O..O.O.O..OO.O.......................................O....................................................................
........................................................................OOO..O.O.O......OO.......O..O.OO.....O......OO.................O..OOO...O..O...O....O.OO...O.O..OO...OO.....O.OO................................OOO.................................................O.OOOO..O..OO.O..OO.O.O..O...OOOO..O.OO.....................................OO...........................OO.......................................
.......................................................................O..O.O..O.O.O.O.......O....O....O..O.OO..........OOO.............O.OO...OO..O.O......O.OOO.O..OO..O.OO..OO...O.O....................................................................................O..O.....O.O.O.O.O..O..OO.O.O.O..O.O..O......................................O.O.........................OO........................................
........................................................................O...OO.O.O.O...OOO...O...OOO.......OO...........O..O..........OO.......OO....OO..O.O.O..O..O.....O..O.OO....O..O...................................................................................OO....OOO...O...O.OOOO...O.OO......OO.O....................................................................O.......................................
.......................................................................OO.O..O.O.O.OOO..O....O.O.O...OO....OO.O........O....O.........O.O...OO.....O.O.O.O.OOOO.O....OOOOO.O...O.OO.O.OO................................................................................................OO.O.O...OO.O....O...O...OO...........................................................................................................
..........................................................................OO..O..O..O.OO.OO.O..O..O..O.OOO...O.O..........O...........O...O..OO....O.O.OO.O....O.OOOO......OOOO..O..O...........................................................................................OO...OOO..O...OO..O.O.OOOO.O.OOOO..O..........................................................................................................
.......................................................................OOO...OO..OO.O.O.OOO...O.OOO...OO...OO..O.....................O....OO..O....O.O....O.OO.O......OO.OO...O.O..OO.........................................................................................O.O..OOO...O.....OO.O.O.O....OOO..O.O...........................................................................................................
.......................................................................O..O.OO...OO.O.........O.O..OOO.OOOO....OO.......OO............OO.O..O.O.OO.O..OOO..O.O.O.OO....O.O..O..O..............................................................................................OO..O....O.OO...OO.OO.O..O......OO..OO..........................................................................................................
........................................................................O.O...OOO.O.O.O..OOOO.O.OOO.......O......O.....O..O.................O.O.O..O.....OO.....O.O....O..O.OOO.............................................................................................OO....O....O......OO...O.OO...OO...O.O............................................................................................................
.......................................................................OO.OO.O....OO..O.O..O..O.....O..OO......OOO........O.........OOOOOOOOO.O..O.OO...O...............O.O................................................................................................O...OOO......OOO........O......OOO..O.O............................................................................................................
.......................................................................O..O..OOO.....O.......O.OOOOO.O..OO....O.......O.............O....O.....O.O...O.O.OO............OO..OO.....................................................................O.O.......................OO.O...O.OOO...O..OO.O.O.......O..OO.OO...........................................................................................................
........................................................................O.O.O...O.OO.O.OOOOOOO..O..O.OO.......OO......OOO............OOO.OO....O.OO.OOOO.O.......O..O.O..O.O.O....................................................................OO.........................O..OOO..O..O.O....O.OO.......OO..................................................................................................................
.........................................................................O.O.OO.O.O.O.O.......O........................................O..O.OOO.O.O.O.....O.OOOO.O..O...OO....O....................................................................O.......................O..O.O.OOOO..O.OO...OO.........O...................................................................................................................
...........................................................................O..O.O..O..O..OOOOO.............OO......OO.......................OOO.......O.O...O.....O....OO...OO.O...........................................................................................OOO..O....O..O......O.OO.....O.O...........................................................O.......................................................
...........................................................................OO....OO...O.O..O....O.........O.O.....O.O............O.O....O.......O.O.O..O..O....OOO.OOOO..OOO..O.O...............................................................................................O..OO.O.O........O.....O.O...........................................................OO...........................OO..........................
.....................................................................................OO.OO......O...O.....O..O....O...............OO......O..O.O...O.O.OO.OOOO...O.O...OO....O..O..........................................................................................OO.O.OO..OO.O......OO.O.O..O.O............................................................O.O.........................OO...........................
.............................................................................................O.OO.OOO......OO....OO...............O.............OOO..O..O.....OOO....OO..O....OO...........................................................................................O.OO.O.OO.O.O.O......OO.OOOO............................................................................................O..........................
...........................................................................................OO....O..........O........................................OO..OOOOO........O.OO......................................................................................................O.O.O..O.OOO.O..O.O....O......................................................................................................................
.................................................................................................O.......................................OO..OO...OOO..OO.....O.......O.O.......................................................................................................O.O.O..O....OO....O.OOO.......................................................................................................................
..........................................................................................O..O...O.....O.................................OO..OO...O..O...O.OO.O......OO.O........................................................................................................O.OOOOO.OO...OO.O.OO.........................................................................................................................
.........................................................................................OO.O..........O.O..................OOO....................O.OO.OO.O.O......O..O.......................................................................................................O.O.O.....O.OO..O.O............................................................................................................................
...............................................................................OO........OOO..OOO......OO..................O..O...................OO.......O.......O.O........................................................................................................O.OO.O.O.OO....OO.OO............................................................................................................................
................................................................................O.OO....OOO...O............................O...O..................O..OO.OO.OO.......O.........................................................................................................O...OO.OO.O.OO.O..O.............................................................................................................................
..............................................................................O.......O..OO.OO..............................OOOO........OO.O.O.OO.OO...O....OOO..OOO.................................................................O.O.......................................OO...O.O.O..O..O.O.O...........................................................................................................................
..............................................................................OO..O.O.O.O.....................................O........OOOOO..OOO.O....O....O..OOO...................................................................OO..........................................OO.O.O.OO.O...O.O.O..........................................................................................................................
...................................................................................O..............................OO..................OOO.O......O.O...OO...O.........................................................................O.......................................O.O..O...O..O.....O..O..........................................................................................................................
.................................................................................................................OO..................O.O...OO..OO.O.O.....OO...O..............................................................................................................OO.O.O.O...O.......OO................................................................................O..........................................
...................................................................................................................O.................O....O.O..O......O.OO...O..O................................................................................................................O.O..OOO.........................................................................................OO..........................................
..........................................................................................................OO............OO...........O....O.O..OO..OO.OO.O.O.OOOO.............................................................................................................OOO..OO..O..........................................................................................O.O.........................................
.........................................................................................................O...O....................OO..O...O.OO.O....O......OO.................................................................................................................O....O.O...O....................................................................................................................................
......................................................................................................OO.....O...................O.O.O.....O........O.OOOOO...OOO...................................................................................................................OOOOOO....................................................................................................................................
......................................................................................................O..O...O...................O..OOOOOOO..OO......O.O..O.OO..O.............................................................................................................................................................................................................................................................
..........................................................................................O..........O....OO....................OO.........OOO....OOO......O.O......................................................................................................................OO.O......................................................................................................................................
..........................................................................................O.O........OO...............................OOOO.....O..O.................................................................................................................................O.OO......................................................................................................................................
..........................................................................................OO.........O...............O................O..O.OOOO.O.O...........................................................................................................................................................................................................................................................................
........................................................................................................OO...OO......OO...................OO..O.OO............................................................................................................................................................................................................................................................................
.........................................................................................................OO.O.O.....O..O................................................................................................O.O...................................................................................................................................................................................................
.........................................................................................................O...O.......O.O................................................................................................OO....................................................................................................................................................................................................
.........................................................................................................O..........O..O......OO.........................................................................................O....................................................................................................................................................................................................
........................................................................................................OO..........O..O......O.O.............................................................................................................................................................................................................................................................................................
.........................................................................................................O..O.......O.O.........O.............................................................................................................................................................................................................................................................................................
........................................................................................................O.OOO........OOO........OO............................................................................................................................................................................................................................................................................................
....................................................................................................OO...O....................................................................................................................................................................................................................................................................................................................
....................................................................................................O......OO................OO...............................................................................................................................................................................................................................................................................................
.....................................................................................................OOOOOO.O................O.O..............................................................................................................................................................................................................................................................................................
.............................................................................O...............................................O................................................................................................................................................................................................................................................................................................
.............................................................................O.O.......................OO.....................................................................................................................................................................................................................................................................................................................
.............................................................................OO........................OO.....................................................................................................................................................................................................................................................................................................................
...........................................................................................................................................................................................................O.O................................................................................................................................................................................................................
..........................................................................................................O................................................................................................OO.................................................................................................................................................................................................................
.........................................................................................................O.O................................................................................................O.................................................................................................................................................................................................................
.........................................................................................................O.O.........O........................................................................................................................................................................................................................................................................................................
.......................................................................................................OOO.OO.......O.O.......................................................................................................................................................................................................................................................................................................
......................................................................................................O............OO.OO......O...............................................................................................................................................................................................................................................................................................
.......................................................................................................OOO.OO.......O..O....OOO...............................................................................................................................................................................................................................................................................................
.........................................................................................................O.OO........OO....O..............OO..................................................................................................................................................................................................................................................................................
.........................................................................................................................O..O.............O.O.................................................................................................................................................................................................................................................................................
................................................................O........................................................OOOO.............O...................................................................................................................................................................................................................................................................................
................................................................O.O.............................................OOO...........................................................................................................................................................................................................................................................................................................
................................................................OO..............................................O........OO...................................................................................................................................................................................................................................................................................................
.................................................................................................................O........O...................................................................................................................................................................................................................................................................................................
..........................................................................................................................O.O.................................................................O.O.............................................................................................................................................................................................................................
...........................................................................................................................OO.................................................................OO..............................................................................................................................................................................................................................
..........................................................................................................OO...................................................................................O..............................................................................................................................................................................................................................
.........................................................................................................O.O..................................................................................................................................................................................................................................................................................................................
...........................................................................................................O..................................................................................................................................................................................................................................................................................................................
.......................................................................................................................................................OO.....................................................................................................................................................................................................................................................................
.......................................................................................................................................................O.O....................................................................................................................................................................................................................................................................
...................................................O...................................................................................................O......................................................................................................................................................................................................................................................................
...................................................O.O.......................................................................OOO..............................................................................................................................................................................................................................................................................................
...................................................OO........................................................................O................................................................................................................................................................................................................................................................................................
..............................................................................................................................O...............................................................................................................................................................................................................................................................................................
.............................................................................................OO...............................................................................................................................................................................................................................................................................................................................
............................................................................................O.O...............................................................................................................................................................................................................................................................................................................................
..............................................................................................O...............................................................................................................................................................................................................................................................................................................................
....................................................................................................................................................................OO........................................................................................................................................................................................................................................................
....................................................................................................................................................................O.O.......................................................................................................................................................................................................................................................
......................................O.............................................................................................................................O.........................................................................................................................................................................................................................................................
......................................O.O.................................................................................................OOO.................................................................................................................................................................................................................................................................................
......................................OO..................................................................................................O...................................................................................................................................................................................................................................................................................
...........................................................................................................................................O..................................................................................................................................................................................................................................................................................
................................................................................OO............................................................................................................................................................................................................................................................................................................................................
...............................................................................O.O............................................................................................................................................................................................................................................................................................................................................
.................................................................................O............................................................................................................................................................................................................................................................................................................................................
.................................................................................................................................................................................OO...........................................................................................................................................................................................................................................
.................................................................................................................................................................................O.O..........................................................................................................................................................................................................................................
.........................O.......................................................................................................................................................O............................................................................................................................................................................................................................................
.........................O.O...........................................................................................................................OOO....................................................................................................................................................................................................................................................................
.........................OO............................................................................................................................O......................................................................................................................................................................................................................................................................
........................................................................................................................................................O.....................................................................................................................................................................................................................................................................
...................................................................OO.........................................................................................................................................................................................................................................................................................................................................................
..................................................................O.O.........................................................................................................................................................................................................................................................................................................................................................
....................................................................O.........................................................................................................................................................................................................................................................................................................................................................
............O.................................................................................................................................................................................................................................................................................................................................................................................................................
............O.O.....................................................................................................................................................OOO.......................................................................................................................................................................................................................................................
............OO......................................................................................................................................................O.........................................................................................................................................................................................................................................................
.....................................................................................................................................................................O........................................................................................................................................................................................................................................................
