!Name: P94S2
!Author: David Bell & Jason Summers
!A true period 94 glider gun using the AK47 reaction.
!www.conwaylife.com/wiki/index.php?title=P94S
!Based on a gun by Dean Hickerson, 1990. Based on "AK47" reaction, d
!iscovered independently by Dave Buckingham and Rich Schroeppel.
!Dean Hickerson's eater is essential in making the gun so compact.
!See "P94S" for the original true-period gun.
!
..............................................................................................................................OO.......O......................................
..............................................................................................................................OO.....OOO......................................
....................................................................................................................................O........O................................
..........................................................................................................O.......OO................OO.....OOO......OO.......O................
..........................................................................................................OOO.....OO......................O.........OO.....OOO................
.............................................................O.......OO.............................O........O..............O.............OO..............O........O..........
....................................OO.......O...............OOO.....OO...........OO.......O........OOO.....OO............O..O............................OO.....OOO..........
....................................OO.....OOO..................O.................OO.....OOO...........O.................O.O..O.................................O.............
..........................................O....................OO.......................O........O....OO..................OO...........................OOO......OO............
................O.......OO................OO............................................OO.....OOO........................O....O......................O...O...................
................OOO.....OO....................................................................O...............................OO.....................O.....O..................
..........O........O..............O.....................................O.....................OO..................OO.................................O.....O..................
..........OOO.....OO............O..O....................................O.....OO..................................O....O.............................O.....O..................
.............O.................O.O..O...................................OO...O........................................OO............OOO...............O...O...................
............OO..................OO........................................O..OO....................................O..O.O..........O...O...............OOO....................
................................O....O....................................OO..O.....................................O..O..........O.....O.....................................
....................................OO.....................................O...OO..........................OOO.......O............O.....O.....................................
........................OO...............................................OO.....O.........................O...O...................O.....O.....................................
........................O....O................................OOO...............O........................O.....O...................O...O......................................
............................OO............OOO................O...O......................OOO..............O.....O............OO......OOO...............................OO......
.........................O..O.O..........O...O..............O.....O....................O...O.............O.....O.............O........................................OO......
..........................O..O..........O.....O.............O.....O...................O.....O.............O...O...........OOO.....OO..........................................
.................OOO.......O............O.....O.............O.....O...................O.....O..............OOO......OO....O........O..........................................
................O...O...................O.....O..............O...O....................O.....O.......................O...........OOO.....OO............................OO......
...............O.....O...................O...O................OOO......................O...O..................OO.....OOO........O.......OO..............OO............O.O.....
......OO.......O.....O............OO......OOO...........................................OOO...................O........O.................................O..............O..O..
......OO.......O.....O.............O.............................OO.....................................OO.....OOO....................................OOO.....OO........O.O.O.
................O...O...........OOO.....OO.......................O....................OO................OO.......O..........................O.O.......O.......OO.......OO.O.O.
.................OOO............O........O.................OO.....OOO..................O....................................................OO............................O.OO
......OO..............................OOO.....OO...........OO.......O...............OOO.....OO...............................................O............................O...
.....O.O............OO................O.......OO....................................O.......OO..........................................................................O.O...
..O..O..............O...................................................................................................................................................OO....
.O.O.O........OO.....OOO......................................................................................................................................................
.O.O.OO.......OO.......O......................................................................................................................................................
OO.O..........................................................................................................................................................................
...O..........................................................................................................................................................................
...O.O........................................................................................................................................................................
....OO.......OO...............................................................................................................................................................
.............O.O..............................................................................................................................................................
.............O................................................................................................................................................................
...................................................................................................................................................OO.........................
............................................O.......................................................................................................OO........................
.............................................O.....................................................................................................O..........................
...........................................OOO................................................................................................................................
......................................................................................................................O.......................................................
....................................................................................................................OO........................................................
.....................................................................................................................OO.......................................................
....................................OOO.......................................................................................................................................
....................................O.........................................................................................................................................
.....................................O........................................................................................................................................
............................................................................................................................O.................................................
............................................................................................................................OO................................................
....................................................................O......................................................O.O................................................
..................................................................O.O.........................................................................................................
...................................................................OO.........................................................................................................
.............................................................................................O.O..............................................................................
.............................................................................................OO...............................................................................
..............................................................................................O...............................................................................
............................................................OO................................................................................................................
............................................................O.O...............................................................................................................
............................................................O.................................................................................................................
....................................................................................................OO........................................................................
...........................................................................................O.........OO.......................................................................
............................................................................................O.......O.........................................................................
..........................................................................................OOO.................................................................................
.......................................................................O......................................................................................................
.....................................................................OO.......................................................................................................
......................................................................OO......................................................................................................
...................................................................................OOO........................................................................................
...................................................................................O..........................................................................................
....................................................................................O.........................................................................................
.................................................OO...........................................................................................................................
................................................O.O...........................................................................................................................
................................................O............................O................................................................................................
.............................................OO.O............................OO...............................................................................................
..............................................O.O.OO.......OO.......O.......O.O....................................O..........................................................
..............................................O.O.O........OO.....OOO............................................O.O..........................................................
...............................................O..O..............O................................................OO.......OO.................................................
..................................................O.O............OO........................................................O.O................................................
...................................................OO........................................................................O................................................
.............................................................................................................................O.OO.............................................
.........................................................................................................O.......OO.......OO.O.O..............................................
...................................................OO....................................................OOO.....OO........O.O.O..............................................
...................................................OO.......................................................O..............O..O...............................................
.................................................................................OO.......O................OO............O.O..................................................
.................................................................................OO.....OOO..............................OO...................................................
.......................................................................................O........O............OOO..............................................................
.......................................................................................OO.....OOO...........O...O.............................................................
.................................................................OOO.........................O.............O.....O.......OO...................................................
................................................................O...O...............OOO......OO............O.....O.......OO...................................................
...............................................................O.....O.............O...O...................O.....O............................................................
...............................................................O.....O............O.....O...................O...O.............................................................
...............................................................O.....O............O.....O............O.......OOO..............................................................
................................................................O...O.............O.....O..........O..O.......................................................................
.........................................................OO......OOO...............O...O..........O.O..O......................................................................
..........................................................O.........................OOO............OO.........................................................................
.......................................................OOO.....OO..................................O....O.....................................................................
.......................................................O........O......................................OO.....................................................................
.............................................................OOO.....OO....................OO.................................................................................
.............................................................O.......OO....................O....O.............................................................................
...............................................................................................OO.............................................................................
............................................................................................O..O.O............................................................................
.............................................................................................O..O............OO...............................................................
...............................................................................OO.............O..............O................................................................
................................................................................O......................OO.....OOO.............................................................
.............................................................................OOO.....OO................OO.......O.......O.O...................................................
.............................................................................O........O..................................OO...................................................
...................................................................................OOO.....OO............................O....................................................
...................................................................................O.......OO.................................................................................
