!Name: puffers-2c7
!C Some small puffers based on "Doo-Dah", 6-7 Dec 2020
!C 1. period-21 beehive puffer by "iNoMed"
!C 2. period-21 block puffer by "GUYTU6J"
!C 3. period-42 block puffer by "MathAndCode"
!C 4. period-42 boat puffer by "GUYTU6J"
!C 5. high-period dirty puffer by "GUYTU6J"
!Source: jslife-moving
!
.......O................................................................O.O.O..........................................................O.O.O.......................................................O...O............................................................O.O.O.....................
.......O....................................................................O..............................................................O.......................................................O...O............................................................O.........................
.......O................................................................O.O.O..........................................................O.O.O.......................................................O.O.O............................................................O.O.O.....................
.......O................................................................O..................................................................O...........................................................O................................................................O.....................
.......O................................................................O.O.O..........................................................O.O.O...........................................................O............................................................O.O.O.....................
.O............O..............................................O............O..............................................O............O..............................................O............O........................................................O............O.....................
.O............O..............................................O............O..............................................O............O..............................................O............O........................................................O............O.....................
O.O..........O.O............................................O.O..........O.O............................................O.O..........O.O............................................O.O..........O.O......................................................O.O..........O.O....................
.O............O..............................................O............O..............................................O............O..............................................O............O........................................................O............O.....................
.O............O..............................................O............O..............................................O............O..............................................O............O........................................................O............O.....................
..O...OOOO...O................................................O...OOOO...O................................................O...OOOO...O................................................O...OOOO...O..........................................................O...OOOO...O......................
......OOOO........................................................OOOO........................................................OOOO.........OOO..........OOO...............................OOOO..................................................................OOOO..........................
..OOOO....OOOO................................................OOOO....OOOO................................................OOOO....OOOO....O...O........O...O..........................OOOO....OOOO..........................................................OOOO....OOOO......................
....O......O....................................................O......O....................................................O......O..........O........O................................O......O........O............O........................................O......O........O............O..
.....OO..OO......................................................OO..OO......................................................OO..OO.......O.......OO.......O.............................OO..OO........OOO..........OOO........................................OO..OO........OOO..........OOO.
............................................................................................................................................OOO..O..O..OOO............................................OOOOO........OOOOO....................................................OOOOO........OOOOO
.............................................................................................................................................OO.OO..OO.OO.............................................OOOOO........OOOOO....................................................OOOOO........OOOOO
.......................................................................................................................................................................................................O......OO......O......................................................O......OO......O.
...............................................................................O............O...........................................................................................................OOO...OO...OOO........................................................OOO...OO...OOO..
..............................................................................OOO..........OOO.................................................OOOOOOOO....................................................O.O..O.O..............................................................O.O..O.O.....
...OO......OO..................................................OO......OO.....OOO..........OOO.............................OO......OO...........O.OO.O.................................OO......OO............O..O............................................OO......OO............O..O.......
..O.OO....OO.O................................................O.OO....OO.O................................................O.OO....OO.O................................................O.OO....OO.O.........O......O.........................................O.OO....OO.O.........O......O.....
..O..O....O..O................................................O..O....O..O................................................O..O....O..O................................................O..O....O..O..........OOOOOO..........................................O..O....O..O..........OOOOOO......
...OOO....OOO..................................................OOO....OOO........O...OO...O................................OOO....OOO..........O......O................................OOO....OOO...........O....O...........................................OOO....OOO...........O....O......
...OO......OO..................................................OO......OO......O.OOOO..OOOO.O..............................OO......OO.........OOO....OOO...............................OO......OO............................................................OO......OO.......................
...............................................................................O.OOOO..OOOO.O................................................O.O.O..O.O.O.....................................................................................................................................
O..............O............................................O...........................................................O..............O........OO..OO..............................O..............O......................................................O..............O....................
O..............O............................................O......................OOOOOO...............................O..............O............................................O..............O......OOO....OOO......................................O..............O......OOO....OOO....
.O.............O.............................................O....................OO....OO...............................O...........O.........O......O..............................O.............O.....O...O..O...O......................................O.............O.....O...O..O...O...
.OO..........................................................OO...................OO....OO...............................OO.........OOO....OOOOO......OOOOO..........................OO..................O...O..O...O......................................OO..................O...O..O...O...
O...........................................................O............OO.............................................O..................O...O..OO..O...O.........................O.......................O....O........................................O.......................O....O......
.OO..........................................................OO..........OO..............................................OO.........OO......OOO...OO...OOO...........................OO....................................................................OO.................................
..............OO..................................................................................................................................................................................OO...OO.OO......OO.OO.............................O............O......O....OO.OO......OO.OO.
.............O..O................................................................................................................................................................................O..O..O..OO..OO..OO..O.............................O............O.....O.....O..OO..OO..OO..O.
..............OO..................................................................................................................................................................................OO....OO....OO....OO.............................O.O..........O.O....OO.....OO....OO....OO..
....................................................................................................................................................................................................................................................O............O.....OO.OO..................
.........................................................................OO.........................................................................................................................................................................O............O............................
.........................................................................OO..........................................................................................................................................................................O...OOOO...O.............................
..............OO............................................................................................................................OO...............................................OOO.........................................................OOOO.................................
.............O..O...........................................................................................................................OO...............................................OOO.....................................................OOOO....OOOO............OO...............
..............OO................................................................................................................................................................................O.............................................................................................
..........................................................................................................................................................................................OO...O.......................................................O......O...............................
.........................................................................OO...............................................................................................................O.............................................................OO..OO................................
.........................................................................OO...............................................................................................................OO..................................................................................................
..............OO...............................................................................................................................................................................O..............................................................................................
.............O..O...........................................................................................................................................................................OO.O..............................................................................................
..............OO..............................................................................................................................................................................................................................................................................
.........................................................................OO...................................................................................................................................................................................................................
.........................................................................OO...................................................................................................................................................................................................................
..............OO............................................................................................................................OO................................................................................................................................................
.............O..O...........................................................................................................................OO................................................................................................................................................
..............OO..............................................................................................................................................................................................................................................................................
...............................................................................................................................................................................................O..............................................................................................
.........................................................................OO...................................................................................................................O.O.............................................................................................
.........................................................................OO...................................................................................................................OO..............................................................................................
