!Name: c2-0072
!C 1. Rakes formed by perturbing the period-12 Schick engine
!C 2. By "iNoMed", 2 Mar 2022
!C    Based on a spaceship by "wwei23"
!C 3. By "wwei23", 2 Mar 2022
!Source: jslife-moving
!
...........................................OO..........................................................
..........................................OO.OOO.......................................................
...........................................OOOOO.......................................................
............................................OO.OO......................................................
................................................O...............OOO....................................
..............................................OO.OO...............O....................................
...............................................O.OOOOO...........O.....................................
...........................................OOOO...O.OO.................................................
..........................................OOOO.OOO.....................................................
.........................................OO.OO..OO.....................................................
..........................................OO....O......................................................
................................................O......................................................
...................................OOOO................................................................
...................................O...O...................OOOOOO......................................
...................................O..............OO.......O.....O.....................................
....................................O..O.........OO........O...........................................
...................................................O........O....O.....................................
......................OO...............O......................OO.......................................
.....................OOOO.............O.O..............................................................
....................OO.OO............O..OO.............................................................
.....................OO.....OO.OOO....OO..OO...........................................................
...........................O.....OO....OO..O...........................................................
..........................OO.......O.....OO............................................................
...........................O.....OO......O.............................................................
.....................OO.....OO.OOO.....................................................................
....................OO.OO............O.O..O.O..........................................................
.....................OOOO.............O...O.O..........................................................
......................OO..................OOO..........................................................
..................................OOO..................................................................
.................................OOOOO.................................................................
................................OO.OOO.................................................................
.................................OO....................................................................
.........................................OOOO..........................................................
.........................................O...O.........................................................
.........................................O.............................................................
..........................................O..O.........................................................
..O....................................................................................................
..O....................................................................................................
..O....................................................................................................
..O....................................................................................................
..O....................................................................................................
........................................................................OOOOOO.........................
........................................................................O.....O........................
........................................................................O..............................
.........................................................................O....O........................
...........................................................................OO..........................
...........................................OO..........................................................
..........................................OO.OOO.......................................................
...........................................OOOOO.......................................................
............................................OO.OO......................................................
................................................O......................................................
..............................................OO.OO....................................................
...............................................O.OO.....................OO.........O...................
...........................................OOOO...O............O......O....O......O....................
..........................................OOOO.OOO.............O.....O............OOO..................
.........................................OO.OO..OO............O......O.....O...........................
..........................................OO....O....................OOOOOO............................
................................................O......................................................
...................................OOOO................................................................
...................................O...O...................OOOOOO......................................
...................................O..............OO.......O.....O.....................................
....................................O..O.........OO........O...........................................
...................................................O........O....O.....................................
......................OO...............O......................OO.......................................
.....................OOOO.............O.O..............................................................
....................OO.OO............O..OO.............................................................
.....................OO.....OO.OOO....OO..OO...........................................................
...........................O.....OO....OO..O...........................................................
..........................OO.......O.....OO............................................................
...........................O.....OO......O.............................................................
.....................OO.....OO.OOO...................................................................O.
....................OO.OO............O.O..O.O.......................................................O..
.....................OOOO.............O...O.O.......................................................OOO
......................OO..................OOO..........................................................
..................................OOO..................................................................
.................................OOOOO.................................................................
................................OO.OOO.................................................................
.................................OO....................................................................
.........................................OOOO..........................................................
.........................................O...O.........................................................
.........................................O.............................................................
..........................................O..O.........................................................
.............................O.O......O...........OO...................................................
............................O..O.....O.O........O....O.................................................
...........................OO......O.O.....O...O.......................................................
..........................O.......O......OOO...O.....O.................................................
.........................OOOOOO.OO..OOOO.OO....OOOOOO....O................O.O..........................
......................OO.......OO.O...O...O............O..O.......O......O.............................
O.O.O................O...OOO.OO.........OOO.O........OOO..O..OO.OO.......O..O..........................
....................O...O....OO.........OO...O......OOOO.OO....OO..O..OOO.O............................
....O...............O.....O...OO..........OO....O..OOOO.........O.OO...OO..O....OO.....................
....................OOO...OOOO.O............OOOOO...................OO.OO.O.O...OO.....................
O.O.O...........................................................OOO....OOO...O.........................
....................OOO...OOOO.O............OOOOO...................OO.OO.O.O...OO.....................
O...................O.....O...OO..........OO....O..OOOO.........O.OO...OO..O....OO.....................
....................O...O....OO.........OO...O......OOOO.OO....OO..O..OOO.O............................
O.O.O................O...OOO.OO.........OOO.O........OOO..O..OO.OO.......O..O..........................
......................OO.......OO.O...O...O............O..O.......O......O.............................
.........................OOOOOO.OO..OOOO.OO....OOOOOO....O................O.O..........................
..........................O.......O......OOO...O.....O.................................................
...........................OO......O.O.....O...O.......................................................
............................O..O.....O.O........O....O.................................................
.............................O.O......O...........OO...................................................
....................OOOOOO.............................................................................
O.O.O...............O.....O...OOO......................................................................
....................O........O...OOO...................................................................
....O................O....O..O....OO...................................................................
.......................OO....OO..O.O...................................................................
O.O.O.............................OO...................................................................
.....................OOO..OO...O.OOO...................................................................
....O...............O....OOO...OOOO....................................................................
....................O..OOO..O...OO.....................................................................
O.O.O...............OO.................................................................................
......................O................................................................................
