!Name: c2-0056
!C 1. By Jason Summers
!C 2. By Stephen Silver
!Source: jslife-moving
!
..............................O.O.........................................................................
.............................O..O.........................................................................
............................OO............................................................................
...........................O..............................................................................
.............O.O..........OOOO............................................................................
............O..O.........O....O...........................................................................
...........OO............O..O.............................................................................
..........O..............O..O.............................................................................
.........OOOO.............O...............................................................................
........O....O......O......OOOO.O.........................................................................
........O..O.....OO.O.......O...O.........................................................................
........O..O.....O...........O............................................................................
.........O.......O...........O.O..........................................................................
..........OOOO.O..........................................................................................
...........O...O............OOO...........................................................................
............O...............OO............................................................................
............OOOOO......O....OOO...........................................................................
....................OO.O..................................................................................
..............OOO...O........O.O..........................................................................
..............O.....O.......O..O..........................................................................
..............O...O.........O.............................................................................
...............O...OOO.....O..O...........................................................................
................OO.........OO.............................................................................
...................OOOOO.O.O..............................................................................
....................O....O.O..............................................................................
.....................OO....O...O..........................................................................
......................O..O.O....O....O....................................................................
.......................O.O.O.....O...O....................................................................
...........................O.....O...OO...................................................................
.......................O.O.O.....O........................................................................
......................O..O.O.....O........................................................................
.....................OO....O.....O...OO...................................................................
....................O....O.O.....O...O....................................................................
...................OOOOO.O.O....O....O....................................................................
..................O........O...O..........................................................................
..................OOOOOO.O.O..............................................................................
...............O.O.......O.O..............................................................................
..............OOOOOO.OO....OO.............................................................................
.............OO.....OO.....O..O...........................................................................
............OO....OO....O...O.............................................................................
.............OO....OOOO.O...O..O..........................................................................
.............................O.O..........................................................................
.............OO....OOOOO..................................................................................
............OO....OO........OOO...........................................................................
.............OO.....OO.O....OO............................................................................
..............OOOOOO.O.O....OOO...........................................................................
...............O.O...................O....................................................................
..................OOOOOO.....O.O..OO.O....................................................................
..................O.........O..O..O.......................................................................
....................OO......O.....O.......................................................................
....................OOOO....O...O.........................................................................
.......................O.....O...OOO......................................................................
..............................OO..........................................................................
.................................OOOOO.O..................................................................
..................................O....O..................................................................
...................................OO.....................................................................
....................................O..O..................................................................
.....................................O.O..................................................................
..............................O.O.........................................................................
.............................O..O.........................................................................
............................OO............................................................................
...........................O..............................................................................
.............O.O..........OOOO............................................................................
............O..O.........O....O...........................................................................
...........OO............O..O.............................................................................
..........O..............O..O.............................................................................
.........OOOO.............O...............................................................................
........O....O......O......OOOO.O.........................................................................
........O..O.....OO.O.......O...O.........................................................................
........O..O.....O...........O............................................................................
.........O.......O...........O.O..........OOO.............................................................
..........OOOO.O.........................OOOOO............................................................
...........O...O............OOO.........OO.OOO............................................................
............O...............OO...........OO...............................................................
............OOOOO......O....OOO...........................................................................
....................OO.O........................OOO.......................................................
..............OOO...O........O.O................O.........................................................
..............O.....O.......O..O.................O........................................................
..............O...O.........O.............................................................................
...............O...OOO.....O..O...........................................................................
.....O..........OO.........OO.............................................................................
...................OOOOO.O.O..............................................................................
.....O..............O....O.O..............................................................................
.....................OO....O...O..........................................................................
.....O................O..O.O....O....O....................................................................
.......................O.O.O.....O...O....................................................................
.....O.....................O.....O...OO...................................................................
.......................O.O.O.....O........................................................................
.....O................O..O.O.....O........................................................................
.....................OO....O.....O...OO...................................................................
....................O....O.O.....O...O....................................................................
...................OOOOO.O.O....O....O....................................................................
..................O........O...O..........................................................................
..................OOOOOO.O.O..............................................................................
...............O.O.......O.O..............................................................................
..............OOOOOO.OO....OO.............................................................................
.............OO.....OO.....O..O...........................................................................
............OO....OO....O...O.............................................................................
.............OO....OOOO.O...O..O..........................................................................
.............................O.O..........................................................................
.............OO....OOOOO..................................................................................
............OO....OO........OOO...........................................................................
.............OO.....OO.O....OO............................................................................
..............OOOOOO.O.O....OOO...........................................................................
...............O.O...................O....................................................................
..................OOOOOO.....O.O..OO.O....................................................................
..................O.........O..O..O.......................................................................
....................OO......O.....O.......................................................................
....................OOOO....O...O.........................................................................
.......................O.....O...OOO......................................................................
..............................OO..........................................................................
.................................OOOOO.O..................................................................
..................................O....O..................................................................
...................................OO.....................................................................
....................................O..O..................................................................
.....................................O.O..................................................................
..........................O.O.............................................................................
...................O.....O..O.............................................................................
................OOOO....OO................................................................................
................OO.....O..................................................................................
..............O.......OOOO................................................................................
..............OOOO...O....O...............................................................................
.............O.......O..O.................................................................................
............OOO..O...O..O.................................................................................
.............OOO......O...................................................................................
..............O........OOOO.O.............................................................................
...............OOO.O....O...O.............................................................................
...............O..OO.....O................................................................................
................OOO......O.O..............................................................................
..................O.......................................................................................
................O.......OOO...............................................................................
................O.O.....OO................................................................................
...............O........OOO...............................................................................
................O.O.......................................................................................
................O........O.O..............................................................................
..................O.....O..O..............................................................................
................OOO.....O................................................................OOOOO............
...............OOO.....O..O..............................................................O....O...........
O.O.O...........OO.....OO......................................OO........................O................
.................OO..O.O...............OOO....................OO.OO.......................O...O...........
....O.............OO.O.O..............OOOOO....................OOOO.........................O.............
.......................O.............OO.OOO....OOOO.............OO........................................
O.O.O.............OO.O.O..O...........OO......OOOOOO......................................................
.................OO..O.OO....................OO.OOOO......................................................
O...............OO.....O..O...................OO................................................OO........
...............OO.O..O.O.......................................................................OO.OOO.....
O.O.O.........O..OOO.O.O..O...........OO........................................................OOOOO.....
..............O........O..O...........OOO........................................................OOO......
..............O..OOO.O.O..O...........OO.........................OO.....OO................................
...............OO.O..O.O......OO........................OO........O.O...O.O...............................
................OO.....O..O...OO.......................O..O........O......O.............OO................
.................OO..O.OO..............................O................O.O.............OO................
..................OO.O.O..O..............O..............OOO.............OO................................
.......................O.........O.....O...O..............................................................
..................OO.O.O.......O...O..O...................................................................
.................OO..O.O......O.......O....O.......O...................................................O..
................OO.....OO.....O....O..OOOOO......O...O..................OOOO............................OO
...............OOO.....O..O...OOOOO.............O......................OOOOOO..........................OO.
................OOO.....O.......................O....O................OO.OOOO.............................
..................O.....O..O....................OOOOO..................OO.................................
................O........O.O..............................................................................
................O.O.......................................................................................
...............O........OOO...............................................................................
................O.O.....OO................................................................................
................O.......OOO...............................................................................
..................O.......................................................................................
................OOO......O.O..............................................................................
...............O..OO.....O................................................................................
...............OOO.O....O...O.............................................................................
..............O........OOOO.O.............................................................................
.............OOO......O...................................................................................
............OOO..O...O..O.................................................................................
.............O.......O..O.................................................................................
..............OOOO...O....O...............................................................................
..............O.......OOOO................................................................................
................OO.....O..................................................................................
................OOOO....OO................................................................................
...................O.....O..O.............................................................................
..........................O.O.............................................................................
.......................................O..................................................................
....................................OOOO..................................................................
....................................OO....................................................................
..................................O.......................................................................
..................................OOOO....................................................................
.................................O........................................................................
................................OOO..O....................................................................
.................................OOO......................................................................
..................................O.......................................................................
...................................OOO.O..................................................................
...................................O..OO..................................................................
....................................OOO...................................................................
......................................O...................................................................
....................................O.....................................................................
....................................O.O...................................................................
................OO...OO............O......................................................................
.............OO...O.....O..........O..O...................................................................
............OO.O...OO.OOO......O.O.O......................................................................
.............OOO........O.....O..O.O..O...................................................................
..............OO..OOOOO......OO....OO.....................................................................
.......................OOO.......O.O..O...................................................................
.......OOOOOOO......OO..OOOOOOOO.O.O......................................................................
.......O......O.....O..............O..O.............OO....................................................
.......O.............OO.OO.OOOOO.O.O..O...O........O..O...................................................
........O...........O...OO..O....O.O..O.....O.....OO.OOO.O................................................
..........OO....O...OOOOOO...OO....O..O....O.O....OO..OOO..O..............................................
.............OOOOO.O..O.OO....O..O.O..O.....OO.....OO...OO................................................
............OO.......O..OOO....O.O.O....................O.................................................
.............OOOO.O.OO...OO.........O.O...................................................................
..............OOO.O.O...............O.....................................................................
......................................O...................................................................
....................................OOO...................................................................
...................................O..OO..................................................................
...................................OOO.O..................................................................
..................................O.......................................................................
.................................OOO......................................................................
................................OOO..O....................................................................
.................................O........................................................................
..................................OOOO....................................................................
..................................O.......................................................................
....................................OO....................................................................
....................................OOOO..................................................................
.......................................O..................................................................
