!Name: c2-0144
!Source: jslife-moving
!
.......................OO.................
.....................O....................
....................O......O..............
....................O........O............
....................OOOOOOOO.O............
.........................OO............OO.
.......................................O.O
.......................................O..
.....................OO...................
....................OO.OO.................
.....................OOOO.................
......................OO..................
...............OO.........................
..............OO.OO...........OO..........
...............OOOO...........O.O.........
................OO............O...........
....................O.....................
OOOO..............OO.OO...................
O...O.........O........OO.................
O...........OO...O...O.OOO................
.O..O..OO.....OOOOO..O.OOO................
......OOO......OOO.OO.O.O.................
.O..O..OO.....OOO......O..................
O...........OO............................
O...O.........O...........................
OOOO..................OO.OO...............
......................O...O...............
.......................OOO................
............OOOOO.........................
............O....O........................
............O.............................
.............O...O........................
...............O.....OO...................
....................OO.OO.................
.....................OOOO.................
......................OO..................
...............OOOO.......................
..............OOOOOO......................
.............OO.OOOO......................
..............OO..........................
.................OO.......................
.................OOO......................
..................OO......................
..............OOO.O.......O...OOO.........
..............O...OO....OO.O..O.OO........
..............O...OO.......OO..O.OO.......
...............OO..O..O..O.....O.O........
..................OO..OO.......OO.........
...............OO..O......................
.............O.....O......................
............O.............................
............O......O......................
............OOOOOOO.......................
............OOOO..........................
............O...O.........................
............O.............................
.............O..O.........................
