!Name: c2-0180
!Source: jslife-moving
!
..............O..O....................................
.....OO......O........................................
....OO.OO....O...O....................................
.....OOOO....OOOO.....................................
......OO..............................................
........O.......OOO..............OO...................
.......OO.........O.............OO.OO.................
......OO.O......OOO..............OOOO.................
.......O.O...OOO..................OO..................
........OO............................................
..............................OO.............OO.......
............................................OO.OOOO...
.............................OO..............OOOOOO...
.....OO......................O.....OO.........OOOO....
....OO.OO.........................OO..................
.....OOOO...........................O.................
......OO.......OOOO...................................
...............O...O..................................
...............O......................................
................O..O..................................
..OO..................................................
.OOOO.....................OO..........................
OO.OO...........O........OO...........................
.OO.....O..O...O.OO........O..........................
.......O...O....OOOOO.................................
......OO....O....O..O.................................
.......O...O....OOOOO............O....................
.OO.....O..O...O.OO.............O.O...................
OO.OO...........O...............O.O...................
.OOOO................................OO.OOO...........
..OO................................O.....O.........O.
..............OOO....................O...OO........O..
.............OOOOO.................................OOO
............OO.OOO....................OO..............
.............OO.......................................
.....................OOOO.............................
.....................O...O............................
.....................O................................
......................O..O............................
