!Name: c4o-0120
!C Matthias Merzenich, 29 Sep 2011
!C Improvements by Josh Ball
!Source: jslife-moving
!
........................................................................O.......................OO...........................................................................................................................................................................................................................
.......................................................................O.O....................OO...................O..O......................................................................................................................................................................................................
....................................................................O.O......OOO.........OOO....OO................O...O.OO...................................................................................................................................................................................................
.................................................................O..O....O.O..OO......O..O.OO....O................O...O.OOO..................................................................................................................................................................................................
...............................................................OO...OO....OO.......O..O..OOOO...O...............O.O.O...OOO...........................................................................................OO.....................................................................................................
.................................................................O..OO....OO.......O..O..OOO.O...O.O.O......OO..OOO.OOO..OO...........................................................................................O.O....................................................................................................
...................................................................O..O....OO.....O...O......OO...O...O...OOOO.......OO..O............................................................................................O......................................................................................................
....................................................................OO........OO.OOO.OOO......O........O.O...OO.OO.OO.OO.O.O.................................................................................................................................................................................................
..............................................................................OO..OO..O.............OO.OOO....O.O.....OOO..O.................................................................................................................................................................................................
.....................................................................................OOO.............OO.O..O.O...O....O......................................................................................................................................................................................................
.....................................................................................OOO.............OO.O..O.O...O....O......................................................................................................................................................................................................
..............................................................................OO..OO..O.............OO.OOO....O.O.....OOO..O.................................................................................................................................................................................................
....................................................................OO........OO.OOO.OOO......O........O.O...OO.OO.OO.OO.O.O.................................................................................................................................................................................................
...................................................................O..O....OO.....O...O......OO...O...O...OOOO.......OO..O...................................................................................................................................................................................................
............................................O.O..................O..OO....OO.......O..O..OOO.O...O.O.O......OO..OOO.OOO..OO..................................................................................................................................................................................................
............................................O..O...............OO...OO....OO.......O..O..OOOO...O...............O.O.O...OOO..................................................................................................................................................................................................
............................................O.OOO.OO.............O..O....O.O..OO......O..O.OO....O................O...O.OOO..OOO......O......................................................................................................................................................................................
...........................................OO.O..OO......OO.........O.O......OOO.........OOO....OO................O...O.OO...O.OO..O.O.OO.O..................................................................................................................................................................................
............................................OO...OO....OO...O..O.......O.O....................OO...................O..O......O...OOOO....O.............O.....................................................................................................................................................................
.........................................OO..OO....O.O.....OO.O.O.......O.......................OO...............................OO.OO.O..O..........O.O.....................................................................................................................................................................
..........................................OO.OO......O..O..OO.............................................................OOOO......OO..OOOOO....OOO.O.O.....................................................................................................................................................................
..........................................O.O................O...........................................................OOO..O.......O..O..OOOOO.O..................................................................................................................................................OOO.....................
........................................O....................O.O..........................................................OO............OOO.......O..........................................................................................................................................................................
........................................OO....................O..........................................................................OOO.....O................................................................................................................................................OO.OOO.....................
........................................O........................................................................................................................................................................................................................................................O.O.OO.........OO..OO.O.O...
...................................O.........................O................................................................................O...........................................................................................O..................................................O..O....OO...OOO..O.......O.OO.O
.................................OOOO.......................OOO...................................................................O......................................................................................................OOO.................................................OO.O........OOO..OO............O
................................OO......................O..O.O.O.OO...OO...OO...OO...OO...OO...OO...OO...OO...OO...OO...OO.....OO..O.......................................................................OO...........................OO..O................................................O..OO...OO..O.OO.OO.....OO......
............................OO.O.O...........O........O.O..O.O.O.OO...OO...OO...OO...OO...OO...OO...OO...OO...OO...OO...OO....O............................................................................OO..........................OO..O....................................................O..O..O...O.....OOOOO........
..........................O....OO.OO....O....OO...OOO.O.O...OOO.............................................................OO.O.OO...................OO...............................................OOOO...........................OOOOOO.....................................................OO....OOOOOO................
..........................O.......O...OOO.O...OOOO.O.........O..............................................................OO........................OO.............................OO....................OOOOO...OO.................O...O........OO..................................................OO....................
..........................O.O.OO...OO.....OOO......O........................................................................OO...O....................OO.............................OO........................O...OO..................O..O.......O..........................................................................
.............................OO.O....O..OO.O.O....O...........................................................................OOO..O....OOO........OO.....OO.............................................O....OO.......................OOO.........................................................................O.........
...............................O...OOO..OOO..................OOO...................................................O..............O.O..OOOOO......O...O...OO..........................................OOO..O.O.....................................................................................................OO........
........................................OO.........................................................................OO..................OO...O......O.OO.....................O........................O.....OO...................................................................O.................................O.O........
..........................................................OO.OOO...................O..............................O.O..............O........OO......O.OO...................O.OO...........................OO......................................O....OO......................O.O....O......................................
.........................................................O.O.OO.........OO..O.O.OO.O...............................................OOO...OOOO..........O...................O.OO..................................................................O.O......O....................O..O...O......................................
.....................................................O..O....OO...OOO..O......O.O...................................................OOO..OOO.........OO...................OO....................................................................OO.OO..O..O.....................OO....O......................................
.....................................................OO.O........OOO..OO.........................................................OOO..O..O............OO...O..............O..O.O.O..............................................................OO.OO..................................................O.....................
.....................................................O..OO...OO..O.OO.OO....OO.........................O..........................O....................O....O..............OOOO.OO........................................................OO.....O..O..................................................OO....................
........................................................O..O..O...O.....OOOO...........................OO..................................................OO.................OO...O.....................................................O..O....O.O...O.O............................................O.O....................
.........................................................OO....OOOOOO.................................O.O.....................................................O..................O..O....................................................O..O................................................................................
...............................................................OO............................................................................................OO...............O..O.O................OO............................OO.....OOO.................................................................................
.......................................................................................................................................................OOO....O...............OO..O.................OO............................OO......O.OO...............................................................................
....................................................OO..O.O.O.................................................................................................................OO.O......................OO............................OO...OOO.............................................O.................................
.................O.O....................OO......O..O......O.OO.O...........................O..........................................................O.O.......................O......................O..O..........................O..O...OO.............................................OO................................
.................O....O................OOO....OO..OO...........O...........................OO.........................................................O.O..O............................................OO............................OO.........................OO.......................O.O................................
.................O....O.................O.OOO.O.O.OO....OO................................O.O.........................................................OO..OO.................................................................................................O......OO.O.O...................................................
...................O.O...................OOOO.O.....OOOO................................................................................................O..O............................................................................................O...OO...O.....O.OO.O................................................
....................O.........................O.O.......................................................................................................OOO...........................................................................................OO...O.OO.OO..........O................................................
...............O...OO........................O.O.O......................................................................................................................................................................................................O..OO.....OO.OO........O.............................................
..............OOO..OO......................O...................................O..............................................................................................................................................................................OO..O.O..........OO............................................
.............O.OO.O..O.....................OOO...O.............................OO.................................................................................................................................................OO..O.O.O...............OOOOOO..............O.O............................................
........O.O.OO..OO.OO...........................OO............................O.O..............................................................................................................O.O....................OO......O..O......O.OO.O...............................................................................
......OO...O.OO.O..........................OOO.O...............................................................................................................................................O....O................OOO....OO..OO...........O............O....O.............................................................
........O.OO.OO..O.OO....O.O.O.........O...O..O................................................................................................................................................O....O.................O.OOO.O.O.OO....OO...............OO.O....O.............................................................
.............OO..O.OOO..O.OO..O.O.OOO..OO....O........O..........................................................................................................................................O.O...................OOOO.O.....OOOO................OOO...OO.....O.........................................................
.....................O..O.......O.O....O..O......O..OOO............O..............................................................................................................................O.........................O.O........................OO..........OO........................................................
......OO.................OOO.......OO.....OO.....O..OO.............OO........................................................................................................................O...OO........................O.O.O..................................O.O........................................................
.....O.........................OOOOOO......OO....O................O.O.......................................................................................................................OOO..OO......................O...................................................................................................
....OO...O.O.....OO........O.OOO.............OOOO..........................................................................................................................................O.OO.O..O.....................OOO...O.............................................................................................
....OO....O.O...O.O....O...OOO...O...........OOOO.....................................................................................................................................O.O.OO..OO.OO...........................OO.............................................................................................
.......O........O.OO.O.O..O..O..O.O...........O.....................................................................................................................................OO...O.OO.O..........................OOO.O.........................O.....................................................................
O.OO.....O...O.O.....O.O...OO....OO....................O..............................................................................................................................O.OO.OO..O.OO....O.O.O.........O...O..O..........................OO....................................................................
O....O.O.O.O.O...O................O.......O............OO..................................................................................................................................OO..O.OOO..O.OO..O.O.OOO..OO....O........O.................O.O....................................................................
O.OO.OO.......O.O................OO...O....O..........O.O..........................................................................................................................................O..O.......O.O....O..O......O..OOO........................................................................................
................................OOO...O....O........................................................................................................................................OO.................OOO.......OO.....OO.....O..OO.........................................................................................
O.OO.OO.......O.O................OO...O....O.......................................................................................................................................O.........................OOOOOO......OO....O.............................................................................................
O....O.O.O.O.O...O................O.......O.......................................................................................................................................OO...O.O.....OO........O.OOO.............OOOO............O.................................................................................
O.OO.....O...O.O.....O.O...OO....OO...............................................................................................................................................OO....O.O...O.O....O...OOO...O...........OOOO............OO................................................................................
.......O........O.OO.O.O..O..O..O.O..................................................................................................................................................O........O.OO.O.O..O..O..O.O...........O.............O.O................................................................................
....OO....O.O...O.O....O...OOO...O........O...................................................................................................................................O.OO.....O...O.O.....O.O...OO....OO............................................................................................................
....OO...O.O.....OO........O.OOO........OO....................................................................................................................................O....O.O.O.O.O...O................O............................................................................................................
.....O.........................OOOOOO.....O...................................................................................................................................O.OO.OO.......O.O................OO..........O..OOO............................................................................................
......OO.................OOO.......OO.......OOOOOO............................................................................................................................................................OOO...OOO.........O............................................................................................
.....................O..O.......O.O..........O..O.............................................................................................................................O.OO.OO.......O.O................OO..........O..OO.............................................................................................
.............OO..O.OOO..O.OO..O.O.OOO........O..O.OO..........................................................................................................................O....O.O.O.O.O...O................O..........O..O..............................................................................................
........O.OO.OO..O.OO....O.O.O...............O..OOOOOO..O.....................................................................................................................O.OO.....O...O.O.....O.O...OO....OO...........O................................................................................................
......OO...O.OO.O.........................OO.OOO...O.O...O...........................................................................................................................O........O.OO.O.O..O..O..O.O............O...............................................................................................
........O.O.OO..OO.OO....................OOO..OO......OO.O....O...................................................................................................................OO....O.O...O.O....O...OOO...O........O....................................................................................................
.............O.OO.O..O....................OO...OO.O.....OOO.O.O...................................................................................................................OO...O.O.....OO........O.OOO........OO.....................................................................................................
..............OOO..OO..............................OOO......O.O....................................................................................................................O.........................OOOOOO.....O....................................................................................................
...............O...OO...............................................................................................................................................................OO.................OOO.......OO.......OOOOOO.............................................................................................
....................O..............................................................................................................................................................................O..O.......O.O..........O..O..............................................................................................
...................O.O.....................................................................................................................................................................OO..O.OOO..O.OO..O.O.OOO........O..O.OO...........................................................................................
.................O....O...............................................................................................................................................................O.OO.OO..O.OO....O.O.O...............O..OOOOOO..O......................................................................................
.................O....O.............................................................................................................................................................OO...O.OO.O.........................OO.OOO...O.O...O.....................................................................................
.................O.O..................................................................................................................................................................O.O.OO..OO.OO....................OOO..OO......OO.O....O................................................................................
...........................................................................................................................................................................................O.OO.O..O....................OO...OO.O.....OOO.O.O................................................................................
............................................................................................................................................................................................OOO..OO..............................OOO......O.O................................................................................
.............................................................................................................................................................................................O...OO..........................................................................................................................
..................................................................................................................................................................................................O..........................................................................................................................
.................................................................................................................................................................................................O.O.........................................................................................................................
...............................................................................................................................................................................................O....O........................................................................................................................
...............................................................................................................................................................................................O....O........................................................................................................................
...............................................................................................................................................................................................O.O...........................................................................................................................
