!Name: chickenwire-c2
!C By Hartmut Holzwart, Mar 2006
!C By Hartmut Holzwart, 11 Jan 2021
!C By Arie Paap, Jan 2021
!Source: jslife-moving
!
.......................................................O......................................................................................................................................O.O.O............................................................................................................................................................................................O.O.O.............................................................................................................................................................................................................................................................................................................................O...O.................................................................................................................................................................................
.......................................................O..........................................................................................................................................O................................................................................................................................................................................................O.............................................................................................................................................................................................................................................................................................................................O...O.................................................................................................................................................................................
.......................................................O......................................................................................................................................O.O.O............................................................................................................................................................................................O.O.O.............................................................................................................................................................................................................................................................................................................................O.O.O.................................................................................................................................................................................
.......................................................O......................................................................................................................................O....................................................................................................................................................................................................O.................................................................................................................................................................................................................................................................................................................................O.................................................................................................................................................................................
.......................................................O......................................................................................................................................O.O.O............................................................................................................................................................................................O.O.O.................................................................................................................................................................................................................................................................................................................................O.................................................................................................................................................................................
.........................................................OOO.........OOO...................................................................................................................................................................................................................................................................................................................OOO........OOO............................................................................................................................................................................................................................OOO........OOO......................................................................................................................................................................OOO........OOO................................................................................
.........................................................O..O.......O..O..................................................................................................................................................................................................................................................................................................................O..O.......O..O...........................................................................................................................................................................................................................O..O.......O..O.....................................................................................................................................................................O..O.......O..O................................................................................
.........................................................O.............O.....................................................................................................................................................................................................................................................................................................................O..........O..............................................................................................................................................................................................................................O..........O........................................................................................................................................................................O..........O................................................................................
.........................................................O.............O.................................................................................................................................................................................................................................................................................................................O...O......O...O..........................................................................................................................................................................................................................O...O......O...O....................................................................................................................................................................O...O......O...O................................................................................
..........................................................O.O..OOO..O.O.....................................................................................................................OOO...OOO........................................................................................................................................................................................OOOO.OOO...O..............................................................................................................................................................................................................................OOOO.OOO...O........................................................................................................................................................................OOOO.OOO...O................................................................................
..............................................................O...O........................................................................................................................O..O...O..O....................................................................................................................................................................................O..OOO..OO..OO............................................................................................................................................................................................................................O..OOO..OO..OO......................................................................................................................................................................O..OOO..OO..OO.................................................................................
..............................................................O...O...........................................................................................................................O...O...........................................................................................................................................................................................OOOO......................................................................................................................................................................................................................................OOOO................................................................................................................................................................................OOOO.......................................................................................
.......................................................OOO....OOOOO...........................................................................................................................O...O...............................................................................................................................................................................................OO........................................................................................................................................................................................................................................OO..................................................................................................................................................................................OO.....................................................................................
.......................................................O..O...O...O...........................................................................................................................O...O..............................................................................................................................................................................................O.........................................................................................................................................................................................................................................O...................................................................................................................................................................................O.......................................................................................
......................................................O...O............................................................................................................................................................................................................................................................................................................................OOO......O.OO......OOO.............................................................................................................................................................................................................................O.OO................................................................................................................................................................................O.OO.....................................................................................
......................................................OOO...O...............................................................................................................................OOO...OOO.................................................................................................................................................................................O..O......OO..O....O..O...................................................................................................................................................................................................................OOO.......OO..O......OOO......................................................................................................................................................................OO..O....................................................................................
......................................................OO.O..O................................................................................................................................O.....O.....................................................................................................................................................................................O....O....OO.......O...................................................................................................................................................................................................................O..O....O....OO......O..O...................................................................................................................................................................O....OO....................................................................................
..........................................................O.O................................................................................................................................OOOOOOO.....................................................................................................................................................................................O....OOOO....O.....O...................................................................................................................................................................................................................O.......OOOO....O....O......................................................................................................................................................................OOOO....O..................................................................................
...................................................OOO....O.......................................................................................................................O.........O.......O.........O.......................................................................................................................................................................O.O...O.....OOOOO..O.O....................................................................................................................................................................................................................O.....O.....OOOOO....O...........................................................................................................................................................OOO......O.....OOOOO.......OOO........................................................................
...................................................OO............................................................................................................................OOO........OOOOOOOOO........OOO............................................................................................................................................................................OOOOOO.....O.........................................................................................................................................................................................................................O.O..OOOOOO......O...O.O.......................................................................................................................................................O..O......OOOOOO......O....O..O........................................................................
....................................................OOOOOOO......................................................................................................................O.OO......O.........O......OO.O..................................................................................................................................................................................OOOOOOO............................................................................................................................................................................................................................O......OOOOOOO................................................................................................................................................................O....O.......OOOOOOO.......O........................................................................
.....................................................OOO.OOO......................................................................................................................OOO.....OOOOOOOOOOOOO.....OOO.................................................................................................................................................................OOO......OOOOOOOOO.......OO......OOO................................................................................................................................................................................................................OOOOOOOO.......................................................................................................................................................................O....OOOOOOOO........O.....O........................................................................
..........................................................OO......................................................................................................................OO.....O.............O.....OO................................................................................................................................................................O..O......O........OOOOOOO..O....O..O..............................................................................................................................................................................................................OO........OOOOOOOOOO..........................................................................................................................................................O.O...O.........OOOOOOOOO..O.O.........................................................................
.......................................................................................................................................................................................OOOOOOOOOOOOOOOOOOO........................................................................................................................................................................O....O...OOOOOOO........OO.......O....................................................................................................................................................................................................OOO......O..OOOOOOOO.........O.......OOO......................................................................................................................................................OOOOOOOOOO.........O.............................................................................
...................................................OOO...............................................................................................................................OO...................OO......................................................................................................................................................................O....OOOO.......OOOOOOO....O.....O...................................................................................................................................................................................................O..O......OO.........OOOOOOOO...O....O..O................................................................................................................................................................OOOOOOOOOOO............................................................................
..................................................O..O....................................................................................................................................OOOOOOOOOOOOO........................................................................................................................................................................O.O...O.....OOOOOOO.......OOOOO..O.O.......................................................................................................................................................................................................O....O....OOOOOOOO........OOOO.......O...................................................................................................................................................OOOOOOOOOOOOO...........OO..........................................................................
..................................................O...O.....O........................................................................................................................OOOOO.............OOOOO.........................................................................................................................................................................OOOOOO.......OOOOOOO.....O...........................................................................................................................................................................................................O....OOOOO........OOOOOOOO.....O.....O...................................................................................................................................................O............OOOOOOOOOOO..O.........................................................................
......................................................OO...OOO............................................................................................................................OOOOOOOOOOOOO....................................................................................................................................................................................OOOOOOO.......OOOOOOO.......................................................................................................................................................................................................O.O...O......OOOOOOOO........OOOOOO..O.O..................................................................................................................................................O...OOOOOOOOOOO............OO.........................................................................
......................................................OO...O.OO..........................................................................................................................................................................................................................................................................................................OOO......OOOOOOOOO.......OOOOOOO.......OO......OOO..................................................................................................................................................................................................OOOOOOO........OOOOOOOO......O......................................................................................................................................................OOOO...........OOOOOOOOOOO....O.......................................................................
......................................................O.....OOO............................................................................................................................OOOOOOOOOOO..................................................................................................................................................................O..O......O........OOOOOOO.......OOOOOOO..O....O..O.........................................................................................................................................................................................................OOOOOOOO........OOOOOOOO..........................................................................................................................................OOO......O.....OOOOOOOOOOO...........OOOOO.......OOO.............................................................
........................................................O...OO..............................................................................................................................O.......O......................................................................................................................................................................O....O...OOOOOOO.......OOOOOOO........OO.......O...............................................................................................................................................................................................OOOOOOOOOO........OOOOOOOO........OO.......................................................................................................................................O..O......OOOOOO...........OOOOOOOOOOO......O....O..O.............................................................
.....................................................OO.OO.....................................................................................................................................OOO.........................................................................................................................................................................O....OOOO.......OOOOOOO.......OOOOOOO....O.....O.....................................................................................................................................................................................OOO.......O.........OOOOOOOO........OOOOOOOO..O......OOO................................................................................................................................O....O.......OOOOOOOOOOO...........OOOOOOO.......O.............................................................
.......................................................O.O....................................................................................................................................O...O.....................................................................................................................................................................O.O...O.....OOOOOOO.......OOOOOOO.......OOOOO..O.O......................................................................................................................................................................................O..O....O...OOOOOOOO........OOOOOOOO.........OO......O..O...............................................................................................................................O....OOOOOOOO...........OOOOOOOOOOO........O.....O.............................................................
........................................................O...................................................................................................................OOO................OOO................OOO.........................................................................................................................................................OOOOOO.......OOOOOOO.......OOOOOOO.....O..........................................................................................................................................................................................O.......OOOO........OOOOOOOO........OOOOOOOO....O....O...............................................................................................................................O.O...O.........OOOOOOOOOOO...........OOOOOOOOO..O.O..............................................................
......................................................OOO.O...........................................................................................OOO.............OOO..O...O.............OO...OO.............O...O..OOO.............OOO.........................................................................................................................................OOOOOOO.......OOOOOOO.......OOOOOOO.........................................................................................................................................................................................O.....O.....OOOOOOOO........OOOOOOOO........OOOOO....O.....................................................................................................................................OOOOOOOOOO...........OOOOOOOOOOO.........O..................................................................
.............................................O....................O...................................................................................O..O....OOO....O..O..OO...O...........O..OOO..O...........O...OO..O..O....OOO....O..O.......................................................................................................................OOO......OOOOOOOOO.......OOOOOOO.......OOOOOOO.......OO......OOO...............................................................................................................................................................................O.O..OOOOOO........OOOOOOOO........OOOOOOOO......O...O.O............................................................................................................................................OOOOOOOOOOO...........OOOOOOOOOOO.................................................................
............................................OOO......OOOOOO......OOO..................................................................................O......O..O...O........OO.O.OOO......OOO.....OOO......OOO.O.OO........O...O..O......O......................................................................................................................O..O......O........OOOOOOO.......OOOOOOO.......OOOOOOO..O....O..O...................................................................................................................................................................................O......OOOOOOOO........OOOOOOOO........OOOOOOO.....................................................................................................................................OOOOOOOOOOOOO...........OOOOOOOOOOO...........OO...............................................................
............................................O.OO....O......O....OO.O..................................................................................O...O......O..O..OOOO.OO..O.O.OO....O....OOO....O....OO.O.O..OO.OOOO..O..O......O...O.........................................................................................................................O....O...OOOOOOO.......OOOOOOO.......OOOOOOO........OO.......O..................................................................................................................................................................................OOOOOOOO........OOOOOOOO........OOOOOOOO............................................................................................................................................O............OOOOOOOOOOO...........OOOOOOOOOOO..O..............................................................
.............................................OOO...OOOOOOOOOO...OOO...................................................................................O....O..O.OO....OO..O..O.OO...O.OO..OOOOO...OOOOO..OO.O...OO.O..O..OO....OO.O..O....O.........................................................................................................................O....OOOO.......OOOOOOO.......OOOOOOO.......OOOOOOO....O.....O................................................................................................................................................................................OO........OOOOOOOO........OOOOOOOO........OOOOOOOOOO................................................................................................................................O...OOOOOOOOOOO...........OOOOOOOOOOO............OO..............................................................
.............................................OO...O..........O...OO....................................................................................O...OO...OO.OO.OOO...O.....O.O...O......OOO......O...O.O.....O...OOO.OO.OO...OO...O.......................................................................................................................O.O...O.....OOOOOOO.......OOOOOOO.......OOOOOOO.......OOOOO..O.O.......................................................................................................................................................................OOO......O..OOOOOOOO........OOOOOOOO........OOOOOOOO.........O.......OOO......................................................................................................................OOOO...........OOOOOOOOOOO...........OOOOOOOOOOO....O............................................................
..................................................OOOOOOOOOOOO..............................................................................................OO.....O...OO.........OO.O..OOOOOOO...OOOOOOO..O.OO.........OO...O.....OO..................................................................................................................................OOOOOO.......OOOOOOO.......OOOOOOO.......OOOOOOO.....O..........................................................................................................................................................................O..O......OO.........OOOOOOOO........OOOOOOOO........OOOOOOOO...O....O..O...........................................................................................................OOO......O.....OOOOOOOOOOO...........OOOOOOOOOOO...........OOOOO.......OOO..................................................
................................................O..............O...........................................................................................OO...OO....................OO.......OOO.......OO....................OO...OO.......................................................................................................................................OOOOOOO.......OOOOOOO.......OOOOOOO.......OOOOOOO............................................................................................................................................................................O....O....OOOOOOOO........OOOOOOOO........OOOOOOOO........OOOO.......O..........................................................................................................O..O......OOOOOO...........OOOOOOOOOOO...........OOOOOOOOOOO......O....O..O..................................................
...............................................O..OOOOOOOOOOOO..O............................................................................................O....................OO....O.OOOOO...OOOOO.O....OO....................O.......................................................................................................................OOO......OOOOOOOOO.......OOOOOOO.......OOOOOOO.......OOOOOOO.......OO......OOO.................................................................................................................................................................O....OOOOO........OOOOOOOO........OOOOOOOO........OOOOOOOO.....O.....O.............................................................................................................O....O.......OOOOOOOOOOO...........OOOOOOOOOOO...........OOOOOOO.......O..................................................
................................................O..OO......OO..O.........................................................................................................................O.....OOO.....O..................................................................................................................................................O..O......O........OOOOOOO.......OOOOOOO.......OOOOOOO.......OOOOOOO..O....O..O..............................................................................................................................................................O.O...O......OOOOOOOO........OOOOOOOO........OOOOOOOO........OOOOOO..O.O..............................................................................................................O....OOOOOOOO...........OOOOOOOOOOO...........OOOOOOOOOOO........O.....O..................................................
...............................................OO......OO......OO.........................................................................................................................OOOOO...OOOOO......................................................................................................................................................O....O...OOOOOOO.......OOOOOOO.......OOOOOOO.......OOOOOOO........OO.......O....................................................................................................................................................................OOOOOOO........OOOOOOOO........OOOOOOOO........OOOOOOOO......O...............................................................................................................O.O...O.........OOOOOOOOOOO...........OOOOOOOOOOO...........OOOOOOOOO..O.O...................................................
......................................................O..O.....................................................................................................................................OOO...........................................................................................................................................................O....OOOO.......OOOOOOO.......OOOOOOO.......OOOOOOO.......OOOOOOO....O.....O...........................................................................................................................................................................OOOOOOOO........OOOOOOOO........OOOOOOOO........OOOOOOOO....................................................................................................................OOOOOOOOOO...........OOOOOOOOOOO...........OOOOOOOOOOO.........O.......................................................
.....................................................O.OO.O.................................................................................................................................OOO...OOO.....................................................................................................................................................O.O...O.....OOOOOOO.......OOOOOOO.......OOOOOOO.......OOOOOOO.......OOOOO..O.O..................................................................................................................................................................OOOOOOOOOO........OOOOOOOO........OOOOOOOO........OOOOOOOO........OO............................................................................................................................OOOOOOOOOOO...........OOOOOOOOOOO...........OOOOOOOOOOO......................................................
.....................................................OO..OO................................................................................................................................O...OOO...O..........................................................................................................................................................OOOOOO.......OOOOOOO.......OOOOOOO.......OOOOOOO.......OOOOOOO.....O......................................................................................................................................................................O.........OOOOOOOO........OOOOOOOO........OOOOOOOO........OOOOOOOO..O..............................................................................................................OOOOOOOOOOOOO...........OOOOOOOOOOO...........OOOOOOOOOOO...........OO....................................................
..........................................OOO......O...OO...O......OOO...................................................................................................OOO................OOO...OOO................OOO..............................................................................................................................................OOOOOOO.......OOOOOOO.......OOOOOOO.......OOOOOOO.......OOOOOOO...................................................................................................................................................................O...OOOOOOOO........OOOOOOOO........OOOOOOOO........OOOOOOOO.........OO..............................................................................................................O............OOOOOOOOOOO...........OOOOOOOOOOO...........OOOOOOOOOOO..O...................................................
..........................................O..O.....OOOO..OOOO.....O..O.............................................................................OOO.............OOO..O...O.............OO...OOO...OO.............O...O..OOO.............OOO..............................................................................................O................OOOOOOOOO.......OOOOOOO.......OOOOOOO.......OOOOOOO.......OOOOOOO.......OO................O................................................................................................................................................OOOO........OOOOOOOO........OOOOOOOO........OOOOOOOO........OOOOOOOO....O..........................................................................................................O...OOOOOOOOOOO...........OOOOOOOOOOO...........OOOOOOOOOOO............OO...................................................
..........................................O......O.....OO.....O......O.............................................................................O..O....OOO....O..O..OO...O...........O..OOO...OOO..O...........O...OO..O..O....OOO....O..O........................................................................O...............O....OOO...............O........OOOOOOO.......OOOOOOO.......OOOOOOO.......OOOOOOO.......OOOOOOO..O..............OOO....O...............O........................................................................................................................O.....OOOOOOOO........OOOOOOOO........OOOOOOOO........OOOOOOOO........OOOOO..........................................................................................................OOOO...........OOOOOOOOOOO...........OOOOOOOOOOO...........OOOOOOOOOOO....O.................................................
..........................................O......OOOOOO..OOOOOO......O.............................................................................O......O..O...O........OO.O.OOO......OOO....OOO....OOO......OOO.O.OO........O...O..O......O.......................................................................OOO......O......OOO..OO.OO............O...OOOOOOO.......OOOOOOO.......OOOOOOO.......OOOOOOO.......OOOOOOO........OO.............OO..O..OOO......O......OOO...........................................................................................................OOO.........OOOOOO........OOOOOOOO........OOOOOOOO........OOOOOOOO........OOOOOOOO......O........OOO...........................................................................................O.....OOOOOOOOOOO...........OOOOOOOOOOO...........OOOOOOOOOOO...........OOOOO.................................................
...........................................O.O..O......OO......O..O.O..............................................................................O...O......O..O..OOOO.OO..O.O.OO....O....OOO...OOO....O....OO.O.O..OO.OOOO..O..O......O...O.......................................................................O.OO....OOO....OO........OO.OO........OOOO.......OOOOOOO.......OOOOOOO.......OOOOOOO.......OOOOOOO.......OOOOOOO....O.......O.OO.OOOO..O.OO....OOO.....O.OO.........................................................................................................O..O.......O.......OOOOOOOO........OOOOOOOO........OOOOOOOO........OOOOOOOO........OOOOOOO.......O..O...........................................................................................OOOOOO...........OOOOOOOOOOO...........OOOOOOOOOOO...........OOOOOOOOOOO......O...............................................
...............................................OOOOOOOO..OOOOOOOO..................................................................................O....O..O.OO....OO..O..O.OO...O.OO..OOOOO...OOO...OOOOO..OO.O...OO.O..O..OO....OO.O..O....O........................................................................OOO...OO..O..OO..OOOOO...O.O.OO....O.....OOOOOOO.......OOOOOOO.......OOOOOOO.......OOOOOOO.......OOOOOOO.......OOOOO.....OO.O.O.O...O..O.OO..OO.O......OOO............................................................................................................O.......OOOOOOOO........OOOOOOOO........OOOOOOOO........OOOOOOOO........OOOOOOOO........O........O.........................................................................................O.......OOOOOOOOOOO...........OOOOOOOOOOO...........OOOOOOOOOOO...........OOOOOOO...............................................
...............................................O.......OO.......O...................................................................................O...OO...OO.OO.OOO...O.....O.O...O......OOO...OOO......O...O.O.....O...OOO.OO.OO...OO...O.........................................................................OOO...OO..O..O..O..O.OO..O.O...O...OOOOOO.......OOOOOOO.......OOOOOOO.......OOOOOOO.......OOOOOOO.......OOOOOOO.....O...O...O.O...OOOOOOOO...O.O.......OOO............................................................................................................O......O........OOOOOOOO........OOOOOOOO........OOOOOOOO........OOOOOOOO........OOOOOOOOO........O.........................................................................................OOOOOOOO...........OOOOOOOOOOO...........OOOOOOOOOOO...........OOOOOOOOOOO........O.............................................
.............................................OOOO..OOOO..OOOO..OOOO......................................................................................OO.....O...OO.........OO.O..OOOOOOO...OOO...OOOOOOO..O.OO.........OO...O.....OO..............................................................................OOOOOO....O.OO..OO...O...O...O.OO........OOOOOOO.......OOOOOOO.......OOOOOOO.......OOOOOOO.......OOOOOOO.......OOOOOOO.OO.O...OOOO..O.....OO...O..OOO..OO..........................................................................................................O.O......OOOOOOOOOO........OOOOOOOO........OOOOOOOO........OOOOOOOO........OOOOOOOO..............O.O........................................................................................O.........OOOOOOOOOOO...........OOOOOOOOOOO...........OOOOOOOOOOO...........OOOOOOOOO.............................................
..............................................OOO......OO......OOO......................................................................................OO...OO....................OO.......OOO...OOO.......OO....................OO...OO...............................................................................O..O....O.O...O....O.....OO.OO.OOOOOOOO.......OOOOOOO.......OOOOOOO.......OOOOOOO.......OOOOOOO.......OOOOOOO.......O.O.O.OO.......O...OOO.OOO...O.....................................................................................................................OOO..........OOOOOOOO........OOOOOOOO........OOOOOOOO........OOOOOOOO........OOOOOOOOOOOOO............................................................................................OOOOOOOOOO...........OOOOOOOOOOO...........OOOOOOOOOOO...........OOOOOOOOOOO..........O...........................................
.............................................OO......OO..OO......OO.......................................................................................O....................OO....O.OOOOO...OOO...OOOOO.O....OO....................O..................................................................................O...O....O...............O...O........OOOOOOO.......OOOOOOO.......OOOOOOO.......OOOOOOO.......OOOOOOO.......OOOOOOOO.OOOOO.........O.O.OO.....O......................................................................................................................OO.OOOOOOOOOOO........OOOOOOOO........OOOOOOOO........OOOOOOOO........OOOOOOOO..........OOO..........................................................................................O...........OOOOOOOOOOO...........OOOOOOOOOOO...........OOOOOOOOOOO...........OOOOOOOOOOO...........................................
....................................................O..OO..O..........................................................................................................................O.....OOO...OOO.....O................................................................................................................OO..OO.............O..OO.....OOOOOOO.......OOOOOOO.......OOOOOOO.......OOOOOOO.......OOOOOOO.......OOOOOOO........OO.O........................O....................................................................................................................OO..O.........OOOOOOOO........OOOOOOOO........OOOOOOOO........OOOOOOOO........OOOOOOOOOOO............................................................................................OOOOOOOOOOOO...........OOOOOOOOOOO...........OOOOOOOOOOO...........OOOOOOOOOOO............O.........................................
...................................................O.OO..OO.O..........................................................................................................................OOOOO...OOO...OOOOO............................................................................................................................................O........OOOOOOO.......OOOOOOO.......OOOOOOO.......OOOOOOO.......OOOOOOO.......OOOOOOOOO..........................O...........................................................................................................................OOOOOOOO........OOOOOOOO........OOOOOOOO........OOOOOOOO........OOOOOOOO.........OOOO.............................................................................OOO........O.............OOOOOOOOOOO...........OOOOOOOOOOO...........OOOOOOOOOOO...........OOOOOOOOOOOOO.........OOO.............................
.........................................O........OO...OO...OO........O.....................................................................................................................OOO...OOO....................................................................................................................................................OOOOOO.......OOOOOOO.......OOOOOOO.......OOOOOOO.......OOOOOOO.......OOOOOOO......O.......................................................................................................................................................O........OOOOOOOO........OOOOOOOO........OOOOOOOO........OOOOOOOO........OOOOOOOOOOOOO.............................................................................O..O.......OOOOOOOOOOOOOO...........OOOOOOOOOOO...........OOOOOOOOOOO...........OOOOOOOOOOO..............O.......O..O............................
........................................OOO......O...OO..OO...O......OOO.................................................................................................................OOO...OOO...OOO................................................................................................................................................O......OOOOOOO.......OOOOOOO.......OOOOOOO.......OOOOOOO.......OOOOOOO.......OOOOOO....................................................................................................................................................O.....OOOOOOO........OOOOOOOO........OOOOOOOO........OOOOOOOO........OOOOOOOO........O.................................................................................O........O...............OOOOOOOOOOO...........OOOOOOOOOOO...........OOOOOOOOOOO...........OOOOOOOOOOOOOOO.......O...............................
.......................................OO.O.....OOOOO..OO..OOOOO.....O.OO...............................................................................................................O...OOO...OOO...O.................................................................................................................................................OOOOO.......OOOOOOO.......OOOOOOO.......OOOOOOO.......OOOOOOO.......OOOOOOO...........................................................................................................................................................O...O.......OOOOOOOO........OOOOOOOO........OOOOOOOO........OOOOOOOO........OOOOOOOO..................................................................................O........OOOOOOOOOOOOOOOO...........OOOOOOOOOOO...........OOOOOOOOOOO...........OOOOOOOOOOO...............O......O...............................
.......................................OOO.....O.....OO..OO.....O.....OOO.............................................................................................OOO................OOO...OOO...OOO................OOO....................................................................................................................O...............OOOOOOO.......OOOOOOO.......OOOOOOO.......OOOOOOO.......OOOOOOO.......OOOO...........O..................................................................................................................................................OOOOO........OOOOOOOO........OOOOOOOO........OOOOOOOO........OOOOOOOO......OO...................................................................................O.O.....................OOOOOOOOOOO...........OOOOOOOOOOO...........OOOOOOOOOOO...........OOOOOOOOOOOOOOOOO......O.O............................
........................................OO....OOOOOOO..OO..OOOOOOO....OO........................................................................OOO.............OOO..O...O.............OO...OOO...OOO...OO.............O...O..OOO.............OOO.............................................................................................OOO..........OOOO.......OOOOOOO.......OOOOOOO.......OOOOOOO.......OOOOOOO.......OOOOOOO....O.........OOO......................................................................................................................................O...............OOOOOOOO........OOOOOOOO........OOOOOOOO........OOOOOOOO........OOOO...........O...............................................................................OOOOOOOOOOOOOOOOOOOO...........OOOOOOOOOOO...........OOOOOOOOOOO...........OOOOOOOOOOO.................OOO..................................
.............................................O.......OO..OO.......O.............................................................................O..O....OOO....O..O..OO...O...........O..OOO...OOO...OOO..O...........O...OO..O..O....OOO....O..O.............................................................................................O.OO.....O..O....OOOOOOO.......OOOOOOO.......OOOOOOO.......OOOOOOO.......OOOOOOO.......OOOO..OO......O.OO....................................................................................................................................OOO..........OOOO........OOOOOOOO........OOOOOOOO........OOOOOOOO........OOOOOOOO....O.........OOO..............................................................................OOO.................OOOOOOOOOOO...........OOOOOOOOOOO...........OOOOOOOOOOO...........OOOOOOOOOOOOOOOOOO.OO.................................
............................................OO.OOOOOO..OO..OOOOOO.OO............................................................................O......O..O...O........OO.O.OOO......OOO....OOO...OOO....OOO......OOO.O.OO........O...O..O......O..............................................................................................OOO...OO.OO.OOOO.......OOOOOOO.......OOOOOOO.......OOOOOOO.......OOOOOOO.......OOOOOOO....OOO.OO.....OOO....................................................................................................................................O.OO.....O..O....OOOOOOOO........OOOOOOOO........OOOOOOOO........OOOOOOOO........OOOO..OO......O.OO...............................................................................OOOOOOOOOOOOOOOOOO...........OOOOOOOOOOO...........OOOOOOOOOOO...........OOOOOOOOOOO................O..OO.................................
.....................................................OO..OO.....................................................................................O...O......O..O..OOOO.OO..O.O.OO....O....OOO...OOO...OOO....O....OO.O.O..OO.OOOO..O..O......O...O..............................................................................................OO...O...O.O....OOOOOOO.......OOOOOOO.......OOOOOOO.......OOOOOOO.......OOOOOOO.......OOOOO.....O....OO......................................................................................................................................OOO...OO.OO.OOOO........OOOOOOOO........OOOOOOOO........OOOOOOOO........OOOOOOOO....OOO.OO.....OOO.............................................................................OOOO................OOOOOOOOOOO...........OOOOOOOOOOO...........OOOOOOOOOOO...........OOOOOOOOOOOOOOO.......................................
...........................................O......OOO..OO..OOO......O...........................................................................O....O..O.OO....OO..O..O.OO...O.OO..OOOOO...OOO...OOO...OOOOO..OO.O...OO.O..O..OO....OO.O..O....O..................................................................................................OO.O..O.OOOO.......OOOOOOO.......OOOOOOO.......OOOOOOO.......OOOOOOO.......OOOOOOO......O.O..OO..........................................................................................................................................OO...O...O.O....OOOOOOOO........OOOOOOOO........OOOOOOOO........OOOOOOOO........OOOOO.....O....OO..............................................................................OOOOOOOOOOOOOOOOOOOO...........OOOOOOOOOOO...........OOOOOOOOOOO...........OOOOOOOOOOO...............O......................................
..............................................O......OO..OO......O...............................................................................O...OO...OO.OO.OOO...O.....O.O...O......OOO...OOO...OOO......O...O.O.....O...OOO.OO.OO...OO...O..................................................................................................O..O.........OOOOOOO.......OOOOOOO.......OOOOOOO.......OOOOOOO.......OOOOOOO.......OOOOOO.....................................................................................................................................................OO.O..O.OOOO........OOOOOOOO........OOOOOOOO........OOOOOOOO........OOOOOOOO......O.O..OO......................................................................................O...............OOOOOOOOOOO...........OOOOOOOOOOO...........OOOOOOOOOOO...........OOOOOOOOOOOOOO.....O..................................
...........................................OO......OO..OO..OO......OO.................................................................................OO.....O...OO.........OO.O..OOOOOOO...OOO...OOO...OOOOOOO..O.OO.........OO...O.....OO........................................................................................................O......OOOOO.......OOOOOOO.......OOOOOOO.......OOOOOOO.......OOOOOOO.......OOOOOOO..........OO..............................................................................................................................................O..O.........OOOOOOOO........OOOOOOOO........OOOOOOOO........OOOOOOOO........OOOOOO..............................................................................................OOOOOOOOOOOOOOO...........OOOOOOOOOOO...........OOOOOOOOOOO...........OOOOOOOOOOO..............O...O...................................
..................................................O..OO..OO..O.......................................................................................OO...OO....................OO.......OOO...OOO...OOO.......OO....................OO...OO...................................................................................................O...............OOOOOOO.......OOOOOOO.......OOOOOOO.......OOOOOOO.......OOOOOOO.......OOOO...........O...........................................................................................................................................O......OOOOO........OOOOOOOO........OOOOOOOO........OOOOOOOO........OOOOOOOO..........OO........................................................................................OO.............OOOOOOOOOOO...........OOOOOOOOOOO...........OOOOOOOOOOO...........OOOOOOOOOOOO..........................................
................................................OO.OO..OO..OO.OO.......................................................................................O....................OO....O.OOOOO...OOO...OOO...OOOOO.O....OO....................O....................................................................................................OOO..........OOOO.......OOOOOOO.......OOOOOOO.......OOOOOOO.......OOOOOOO.......OOOOOOO....O.........OOO......................................................................................................................................O...............OOOOOOOO........OOOOOOOO........OOOOOOOO........OOOOOOOO........OOOO...........O............................................................................O...........OOOOOOOOOOO...........OOOOOOOOOOO...........OOOOOOOOOOO...........OOOOOOOOOOO......................O...............................
......................................OOO.......OO...OO..OO...OO.......OOO.........................................................................................................O.....OOO...OOO...OOO.....O................................................................................................................................O.OO.....O..O....OOOOOOO.......OOOOOOO.......OOOOOOO.......OOOOOOO.......OOOOOOO.......OOOO..OO......O.OO....................................................................................................................................OOO..........OOOO........OOOOOOOO........OOOOOOOO........OOOOOOOO........OOOOOOOO....O.........OOO..........................................................................OOO.........O...........OOOOOOOOOOO...........OOOOOOOOOOO...........OOOOOOOOOOO...........OOOOOOOOOOO..........OOO..............................
.....................................O..O.....O....OO..OO..OO....O.....O..O.........................................................................................................OOOOO...OOO...OOO...OOOOO..................................................................................................................................OOO...OO.OO.OOOO.......OOOOOOO.......OOOOOOO.......OOOOOOO.......OOOOOOO.......OOOOOOO....OOO.OO.....OOO....................................................................................................................................O.OO.....O..O....OOOOOOOO........OOOOOOOO........OOOOOOOO........OOOOOOOO........OOOO..OO......O.OO........................................................................OO.O......OO..OOOOOOOOOOO...........OOOOOOOOOOO...........OOOOOOOOOOO...........OOOOOOOOOOO...........O..O.....OO.O..............................
........................................O.....OOOOO..OO..OO..OOOOO.....O.................................................................................................................OOO...OOO...OOO.......................................................................................................................................OO...O...O.O....OOOOOOO.......OOOOOOO.......OOOOOOO.......OOOOOOO.......OOOOOOO.......OOOOO.....O....OO......................................................................................................................................OOO...OO.OO.OOOO........OOOOOOOO........OOOOOOOO........OOOOOOOO........OOOOOOOO....OOO.OO.....OOO........................................................................OOO.....OO.OOO...........OOOOOOOOOOO...........OOOOOOOOOOO...........OOOOOOOOOOO...........OOOOOOOOOOO.OO.OO...OOO...............................
........................................O...O......OO..OO..OO......O...O..............................................................................................................OOO...OOO...OOO...OOO........................................................................................................................................OO.O..O.OOOO.......OOOOOOO.......OOOOOOO.......OOOOOOO.......OOOOOOO.......OOOOOOO......O.O..OO..........................................................................................................................................OO...O...O.O....OOOOOOOO........OOOOOOOO........OOOOOOOO........OOOOOOOO........OOOOO.....O....OO..........................................................................OO....O.....OOOOOOOOOOOO...........OOOOOOOOOOO...........OOOOOOOOOOO...........OOOOOOOOOOO...........O.O...O...OO...............................
.....................................O.O....OOOOOOO..OO..OO..OOOOOOO....O.O..............................................................................................OOO.........O...OOO...OOO...OOO...O.........OOO..........................................................................................................................O..O.........OOOOOOO.......OOOOOOO.......OOOOOOO.......OOOOOOO.......OOOOOOO.......OOOOOO.....................................................................................................................................................OO.O..O.OOOO........OOOOOOOO........OOOOOOOO........OOOOOOOO........OOOOOOOO......O.O..OO..................................................................................OO..O.O.............OOOOOOOOOOO...........OOOOOOOOOOO...........OOOOOOOOOOO...........OOOOOOOOOOO.O..O.OO...................................
..........................................OO.......OO..OO..OO.......OO...................................................................................................O..O.........OOO...OOO...OOO...OOO.........O..O...........................................................................................................................O......OOOOO.......OOOOOOO.......OOOOOOO.......OOOOOOO.......OOOOOOO.......OOOOOOO..........OO..............................................................................................................................................O..O.........OOOOOOOO........OOOOOOOO........OOOOOOOO........OOOOOOOO........OOOOOO................................................................................................OOOOOOOOOOOOO...........OOOOOOOOOOO...........OOOOOOOOOOO...........OOOOOOOOOOO................O..O..................................
..........................................OOO.OOOOO..OO..OO..OOOOO.OOO...................................................................................................O.......OOOOO...OOO...OOO...OOO...OOOOO.......O.......................................................................................................................................OOOOOOO.......OOOOOOO.......OOOOOOO.......OOOOOOO.......OOOOOOO.......OOOO.......................................................................................................................................................O......OOOOO........OOOOOOOO........OOOOOOOO........OOOOOOOO........OOOOOOOO..........OO....................................................................................OO.................OOOOOOOOOOO...........OOOOOOOOOOO...........OOOOOOOOOOO...........OOOOOOOOOOOO......O...................................
..........................................O...O....OO..OO..OO....O...O...................................................................................................O......OO.O..OOO...OOO...OOO...OOO..O.OO......O...................................................................................................................................OOOO.......OOOOOOO.......OOOOOOO.......OOOOOOO.......OOOOOOO.......OOOOOOO....O..................................................................................................................................................O...............OOOOOOOO........OOOOOOOO........OOOOOOOO........OOOOOOOO........OOOO...........O............................................................................O...........OOOOOOOOOOO...........OOOOOOOOOOO...........OOOOOOOOOOO...........OOOOOOOOOOO......................O...............................
.................................................OO..OO..OO..OO...........................................................................................................O.O.OO.O.O.....OOO...OOO...OOO.....O.O.OO.O.O...................................................................................................................................O....OOOOOOO.......OOOOOOO.......OOOOOOO.......OOOOOOO.......OOOOOOO.......OOOO.O................................................................................................................................................OOO..........OOOO........OOOOOOOO........OOOOOOOO........OOOOOOOO........OOOOOOOO....O.........OOO..........................................................................OOO.........O...........OOOOOOOOOOO...........OOOOOOOOOOO...........OOOOOOOOOOO...........OOOOOOOOOOO..........OOO..............................
.........................................OO.....O..OO..OO..OO..O.....OO.......................................................................................................OO....OOOOO...OOO...OOO...OOOOO....OO.....................................................................................................................................OO.OOOO.......OOOOOOO.......OOOOOOO.......OOOOOOO.......OOOOOOO.......OOOOOOO....OO................................................................................................................................................O.OO.....O..O....OOOOOOOO........OOOOOOOO........OOOOOOOO........OOOOOOOO........OOOO..OO......O.OO........................................................................OO.O......OO..OOOOOOOOOOO...........OOOOOOOOOOO...........OOOOOOOOOOO...........OOOOOOOOOOO...........O..O.....OO.O..............................
.................................................OO..OO..OO..OO..............................................................................................................O..O........OOO...OOO...OOO........O..O....................................................................................................................................OO.....OOOOOOO.......OOOOOOO.......OOOOOOO.......OOOOOOO.......OOOOOOO.......OOOO...O...............................................................................................................................................OOO...OO.OO.OOOO........OOOOOOOO........OOOOOOOO........OOOOOOOO........OOOOOOOO....OOO.OO.....OOO........................................................................OOO.....OO.OOO...........OOOOOOOOOOO...........OOOOOOOOOOO...........OOOOOOOOOOO...........OOOOOOOOOOO.OO.OO...OOO...............................
......................................O........OO..OO..OO..OO..OO........O............................................................................................................OOO...OOO...OOO...OOO...........................................................................................................................................O....OOOO.......OOOOOOO.......OOOOOOO.......OOOOOOO.......OOOOOOO.......OOOOOOO....OOOO...............................................................................................................................................OO...O...O.O....OOOOOOOO........OOOOOOOO........OOOOOOOO........OOOOOOOO........OOOOO.....O....OO..........................................................................OO....O.....OOOOOOOOOOOO...........OOOOOOOOOOO...........OOOOOOOOOOO...........OOOOOOOOOOO...........O.O...O...OO...............................
.....................................OOO......O..OO..OO..OO..OO..O......OOO..............................................................................................OOO.........O...OOO...OOO...OOO...O.........OOO..............................................................................................................................OOOOO....OOOOOOO.......OOOOOOO.......OOOOOOO.......OOOOOOO.......OOOOOOO.......OOOO....O..................................................................................................................................................OO.O..O.OOOO........OOOOOOOO........OOOOOOOO........OOOOOOOO........OOOOOOOO......O.O..OO..................................................................................OO..O.O.............OOOOOOOOOOO...........OOOOOOOOOOO...........OOOOOOOOOOO...........OOOOOOOOOOO.O..O.OO...................................
....................................OO.O.....OOO...OO..OO..OO...OOO.....O.OO.............................................................................................O..O.........OOO...OOO...OOO...OOO.........O..O..........................................................................................................................O.OO.....OOOO.......OOOOOOO.......OOOOOOO.......OOOOOOO.......OOOOOOO.......OOOOOOO....OOOOOO.OO.............................................................................................................................................O..O.........OOOOOOOO........OOOOOOOO........OOOOOOOO........OOOOOOOO........OOOOOO................................................................................................OOOOOOOOOOOOO...........OOOOOOOOOOO...........OOOOOOOOOOO...........OOOOOOOOOOO................O..O..................................
....................................OOO.....O....OO..OO..OO..OO....O.....OOO.............................................................................................O.......OOOOO...OOO...OOO...OOO...OOOOO.......O...............................................................................................OOO......................OO.O.OOOOOO....OOOOOOO.......OOOOOOO.......OOOOOOO.......OOOOOOO.......OOOOOOO.......OOOO......OO.OO......................OOO...................................................................................................................O......OOOOO........OOOOOOOO........OOOOOOOO........OOOOOOOO........OOOOOOOO..........OO....................................................................................OO.................OOOOOOOOOOO...........OOOOOOOOOOO...........OOOOOOOOOOO...........OOOOOOOOOOOO......O...................................
.....................................OO....OOOOOO..OO..OO..OO..OOOOOO....OO..............................................................................................O......OO.O..OOO...OOO...OOO...OOO..O.OO......O...............................................................................................O..O.....OOO......OOO...O...O.......OOOO.......OOOOOOO.......OOOOOOO.......OOOOOOO.......OOOOOOO.......OOOOOOO....OOOOOO....O....OOO......OOO......O..O..............................................................................................................O...............OOOOOOOO........OOOOOOOO........OOOOOOOO........OOOOOOOO........OOOO...........O............................................................................O...........OOOOOOOOOOO...........OOOOOOOOOOO...........OOOOOOOOOOO...........OOOOOOOOOOO......................O...............................
..........................................O......OO..OO..OO..OO......O....................................................................................................O.O.OO.O.O.....OOO...OOO...OOO.....O.O.OO.O.O....................................................................................OOO........O...O....O..O......O..O..O.....OOOOOO....OOOOOOO.......OOOOOOO.......OOOOOOO.......OOOOOOO.......OOOOOOO.......OOOO......O.O..O...O..O....O..O.....O...O........OOO..................................................................................................OOO..........OOOO........OOOOOOOO........OOOOOOOO........OOOOOOOO........OOOOOOOO....O.........OOO..........................................................................OOO.........O...........OOOOOOOOOOO...........OOOOOOOOOOO...........OOOOOOOOOOO...........OOOOOOOOOOO..........OOO..............................
.........................................OO.OOOOO..OO..OO..OO..OOOOO.OO.......................................................................................................OO....OOOOO...OOO...OOO...OOOOO....OO........................................................................................O..O.......OOO.........O....O....O....OOOO......OOOO.......OOOOOOO.......OOOOOOO.......OOOOOOO.......OOOOOOO.......OOOOOOO....OOOOOOO...OO...O.OOO......O....O....OO.......O..O.................................................................................................O.OO.....O..O....OOOOOOOO........OOOOOOOO........OOOOOOOO........OOOOOOOO........OOOO..OO......O.OO........................................................................OO.O......OO..OOOOOOOOOOO...........OOOOOOOOOOO...........OOOOOOOOOOO...........OOOOOOOOOOO...........O..O.....OO.O..............................
.................................................OO..OO..OO..OO..............................................................................................................O..O........OOO...OOO...OOO........O..O.......................................................................................O..........OO..OO..O...O...OOOOOOOOOO.O...O.OOO.....OOOOOOO.......OOOOOOO.......OOOOOOO.......OOOOOOO.......OOOOOOO.......OOOO......OOOO.O........O.O...O....O....OO.......O.....................................................................................................OOO...OO.OO.OOOO........OOOOOOOO........OOOOOOOO........OOOOOOOO........OOOOOOOO....OOO.OO.....OOO........................................................................OOO.....OO.OOO...........OOOOOOOOOOO...........OOOOOOOOOOO...........OOOOOOOOOOO...........OOOOOOOOOOO.OO.OO...OOO...............................
........................................O......OO..OO..OO..OO..OO......O..............................................................................................................OOO...OOO...OOO...OOO................................................................................................O...O...........O......O...O.........O.OO...OO.OOOOO.......OOOOOOO.......OOOOOOO.......OOOOOOO.......OOOOOOO.......OOOOOOO......OOO......OOOOOOOO.OO....O..O....OOO........O...O.................................................................................................OO...O...O.O....OOOOOOOO........OOOOOOOO........OOOOOOOO........OOOOOOOO........OOOOO.....O....OO..........................................................................OO....O.....OOOOOOOOOOOO...........OOOOOOOOOOO...........OOOOOOOOOOO...........OOOOOOOOOOO...........O.O...O...OO...............................
...........................................OO.O..OO..OO..OO..OO..O.OO....................................................................................................OOO.........O...OOO...OOO...OOO...O.........OOO...................................................................................O......OOOO.OOO...OO..O.......O.OOOOO....O..........OOOOOOO.......OOOOOOO.......OOOOOOO.......OOOOOOO.......OOOOOOO.......OOOOOOOOOO.OOOO.........O.....O.O.....O..OOO.....O.........................................................................................................OO.O..O.OOOO........OOOOOOOO........OOOOOOOO........OOOOOOOO........OOOOOOOO......O.O..OO..................................................................................OO..O.O.............OOOOOOOOOOO...........OOOOOOOOOOO...........OOOOOOOOOOO...........OOOOOOOOOOO.O..O.OO...................................
........................................OO....OOO..OO..OO..OO..OOO....OO.................................................................................................O..O.........OOO...OOO...OOO...OOO.........O..O....................................................................................O.O.O..OOOOOOO...OOOOO...OO..O.....OOOO........OOOO.......OOOOOOO.......OOOOOOO.......OOOOOOO.......OOOOOOO.......OOOOOOO....O....OO.....O.O.....OO......O....O....O.OOO...O.O.....................................................................................................O..O.........OOOOOOOO........OOOOOOOO........OOOOOOOO........OOOOOOOO........OOOOOO................................................................................................OOOOOOOOOOOOO...........OOOOOOOOOOO...........OOOOOOOOOOO...........OOOOOOOOOOO................O..O..................................
.................................................OO..OO..OO..OO..........................................................................................................O.......OOOOO...OOO...OOO...OOO...OOOOO.......O........................................................................................O....OO.OO...OO.................OO.OO.....O....OOOOOOO.......OOOOOOO.......OOOOOOO.......OOOOOOO.......OOOOOOO.......OOOO.......O......O.........OOO...O.O......O...O...........................................................................................................O......OOOOO........OOOOOOOO........OOOOOOOO........OOOOOOOO........OOOOOOOO..........OO....................................................................................OO.................OOOOOOOOOOO...........OOOOOOOOOOO...........OOOOOOOOOOO...........OOOOOOOOOOOO......O...................................
.............................................O..O..OO..OO..OO..O..O......................................................................................................O......OO.O..OOO...OOO...OOO...OOO..O.OO......O.......................................................................................O..O.............OO..........................OOO.......OOOOOOO.......OOOOOOO.......OOOOOOO.......OOOOOOO.......OOOOOOO...........O.................................OO........................................................................................................O...............OOOOOOOO........OOOOOOOO........OOOOOOOO........OOOOOOOO........OOOO...........O............................................................................O...........OOOOOOOOOOO...........OOOOOOOOOOO...........OOOOOOOOOOO...........OOOOOOOOOOO......................O...............................
.................................................OO..OO..OO..OO...........................................................................................................O.O.OO.O.O.....OOO...OOO...OOO.....O.O.OO.O.O........................................................................................................................................OOOOOOO.......OOOOOOO.......OOOOOOO.......OOOOOOO.......OOOOOOO.......OO....................................................................................................................................................OOO..........OOOO........OOOOOOOO........OOOOOOOO........OOOOOOOO........OOOOOOOO....O.........OOO..........................................................................OOO.........O...........OOOOOOOOOOO...........OOOOOOOOOOO...........OOOOOOOOOOO...........OOOOOOOOOOO..........OOO..............................
..............................................OOO..OO..OO..OO..OOO............................................................................................................OO....OOOOO...OOO...OOO...OOOOO....OO..........................................................................................................................................OO.......OOOOOOO.......OOOOOOO.......OOOOOOO.......OOOOOOO.......OOOOOOO..O...................................................................................................................................................O.OO.....O..O....OOOOOOOO........OOOOOOOO........OOOOOOOO........OOOOOOOO........OOOO..OO......O.OO........................................................................OO.O......OO..OOOOOOOOOOO...........OOOOOOOOOOO...........OOOOOOOOOOO...........OOOOOOOOOOO...........O..O.....OO.O..............................
.......................................O.........OO..OO..OO..OO.........O....................................................................................................O..O........OOO...OOO...OOO........O..O........................................................................................................................................O..OOOOOOO.......OOOOOOO.......OOOOOOO.......OOOOOOO.......OOOOOOO.......OO.O...................................................................................................................................................OOO...OO.OO.OOOO........OOOOOOOO........OOOOOOOO........OOOOOOOO........OOOOOOOO....OOO.OO.....OOO........................................................................OOO.....OO.OOO...........OOOOOOOOOOO...........OOOOOOOOOOO...........OOOOOOOOOOO...........OOOOOOOOOOO.OO.OO...OOO...............................
......................................OOO.......O..OO..OO..OO..O.......OOO......................................................................O.....O...............................OOO...OOO...OOO...OOO...............................O.....O................................................................................................OOO......OO.OO.......OOOOOOO.......OOOOOOO.......OOOOOOO.......OOOOOOO.......OOOOOOO..OO.......OOO.........................................................................................................................................OO...O...O.O....OOOOOOOO........OOOOOOOO........OOOOOOOO........OOOOOOOO........OOOOO.....O....OO..........................................................................OO....O.....OOOOOOOOOOOO...........OOOOOOOOOOO...........OOOOOOOOOOO...........OOOOOOOOOOO...........O.O...O...OO...............................
.....................................OO.O.....O.OOO..OO..OO..OOO.O.....O.OO...........................................................OOO......OOO...OOO......O......................O...OOO...OOO...OOO...O......................O......OOO...OOO......OOO......................................................................................O..O.....OO...OOOOOOO.......OOOOOOO.......OOOOOOO.......OOOOOOO.......OOOOOOO.......OO...O.....O..O............................................................................................................................................OO.O..O.OOOO........OOOOOOOO........OOOOOOOO........OOOOOOOO........OOOOOOOO......O.O..OO..................................................................................OO..O.O.............OOOOOOOOOOO...........OOOOOOOOOOO...........OOOOOOOOOOO...........OOOOOOOOOOO.O..O.OO...................................
.....................................OOO.....OOO...OO..OO..OO...OOO.....OOO...........................................................O..O....O..OO.OO..O....OOO......OOO.....O.......OOO...OOO...OOO...OOO.......O.....OOO......OOO....O..OO.OO..O....O..O......................................................................................O......O....OO.......OOOOOOO.......OOOOOOO.......OOOOOOO.......OOOOOOO.......OOOOOOO..OOOO.....O..............................................................................................................................................O..O.........OOOOOOOO........OOOOOOOO........OOOOOOOO........OOOOOOOO........OOOOOO................................................................................................OOOOOOOOOOOOO...........OOOOOOOOOOO...........OOOOOOOOOOO...........OOOOOOOOOOO................O..O..................................
......................................OO....O...OOO..OO..OO..OOO...O....OO............................................................O......OOO.O..........O..OO....O..O....OOO....O....OOO...OOO...OOO....O....OOO....O..O....OO..O..........O.OOO......O......................................................................................O......OOOOO..OOOOOOO.......OOOOOOO.......OOOOOOO.......OOOOOOO.......OOOOOOO.......OO.....O...O...............................................................................................................................................O......OOOOO........OOOOOOOO........OOOOOOOO........OOOOOOOO........OOOOOOOO..........OO....................................................................................OO.................OOOOOOOOOOO...........OOOOOOOOOOO...........OOOOOOOOOOO...........OOOOOOOOOOOO......O...................................
..........................................OOOOOO...OO..OO..OO...OOOOOO................................................................O......O..O......O....O.O.O....O...O..OO..O.....O.O...OOO...OOO...O.O.....O..OO..O...O....O.O.O....O......O..O......O.......................................................................................O.O..O.....OO.......OOOOOOO.......OOOOOOO.......OOOOOOO.......OOOOOOO.......OOOOOOO..OOOOOO....O.O........................................................................................................................................O...............OOOOOOOO........OOOOOOOO........OOOOOOOO........OOOOOOOO........OOOO...........O............................................................................O...........OOOOOOOOOOO...........OOOOOOOOOOO...........OOOOOOOOOOO...........OOOOOOOOOOO......................O...............................
.........................................O......OOO..OO..OO..OOO......O................................................................O.O.......OOO.O.OOOO.OO..OO..OO....O...O..O.O.....OOO...OOO...OOO.....O.O..O...O....OO..OO..OO.OOOO.O.OOO.......O.O............................................................................................OOOOOOO..OOOOOOO.......OOOOOOO.......OOOOOOO.......OOOOOOO.......OOOOOOO.......OO......OO............................................................................................................................................OOO..........OOOO........OOOOOOOO........OOOOOOOO........OOOOOOOO........OOOOOOOO....O.........OOO..........................................................................OOO.........O...........OOOOOOOOOOO...........OOOOOOOOOOO...........OOOOOOOOOOO...........OOOOOOOOOOO..........OOO..............................
.........................................OO.OOOO...OO..OO..OO...OOOO.OO....................................................................O.OO............OOO......OO....O.O...O..O..OO....OOO...OOO....OO..O..O...O.O....OO......OOO............OO.O................................................................................................O......OO.......OOOOOOO.......OOOOOOO.......OOOOOOO.......OOOOOOO.......OOOOOOO..OOOO.OOO............................................................................................................................................O.OO.....O..O....OOOOOOOO........OOOOOOOO........OOOOOOOO........OOOOOOOO........OOOO..OO......O.OO........................................................................OO.O......OO..OOOOOOOOOOO...........OOOOOOOOOOO...........OOOOOOOOOOO...........OOOOOOOOOOO...........O..O.....OO.O..............................
.......................................OO.......OOO..OO..OO..OOO.......OO..................................................................OOO..O.O....O..OO...O..O.OO.O....OOOO...O....OOOO...OOO...OOOO....O...OOOO....O.OO.O..O...OO..O....O.O..OOO..............................................................................................OOOO..OOO..OOOOOOO.......OOOOOOO.......OOOOOOO.......OOOOOOO.......OOOOOOO.......OO...O...O.............................................................................................................................................OOO...OO.OO.OOOO........OOOOOOOO........OOOOOOOO........OOOOOOOO........OOOOOOOO....OOO.OO.....OOO........................................................................OOO.....OO.OOO...........OOOOOOOOOOO...........OOOOOOOOOOO...........OOOOOOOOOOO...........OOOOOOOOOOO.OO.OO...OOO...............................
.......................................O.OOO...O...OO..OO..OO...O...OOO.O...................................................................O...O.O............O.....O..O.........O...O.....OOO...OOO.....O...O.........O..O.....O............O.O...O................................................................................................OOO.....OO.......OOOOOOO.......OOOOOOO.......OOOOOOO.......OOOOOOO.......OOOOOOO..OO...................................................................................................................................................OO...O...O.O....OOOOOOOO........OOOOOOOO........OOOOOOOO........OOOOOOOO........OOOOO.....O....OO..........................................................................OO....O.....OOOOOOOOOOOO...........OOOOOOOOOOO...........OOOOOOOOOOO...........OOOOOOOOOOO...........O.O...O...OO...............................
.......................................O....O.O.OOO..OO..OO..OOO.O.O....O..................................................................O...................O......O..OOO.O..O..OO..OOOOO...OOO...OOOOO..OO..O..O.OOO..O......O...................O..............................................................................................OO...O..O..OOOOOOO.......OOOOOOO.......OOOOOOO.......OOOOOOO.......OOOOOOO.......OO..OO...OO................................................................................................................................................OO.O..O.OOOO........OOOOOOOO........OOOOOOOO........OOOOOOOO........OOOOOOOO......O.O..OO..................................................................................OO..O.O.............OOOOOOOOOOO...........OOOOOOOOOOO...........OOOOOOOOOOO...........OOOOOOOOOOO.O..O.OO...................................
.......................................O..O...O....OO..OO..OO....O...O..O.......................................................................................O......O...........O..O.....OOO...OOO.....O..O...........O......O.........................................................................................................................OO.OO.......OOOOOOO.......OOOOOOO.......OOOOOOO.......OOOOOOO.......OOOOOOO..OOOO....................................................................................................................................................O..O.........OOOOOOOO........OOOOOOOO........OOOOOOOO........OOOOOOOO........OOOOOO................................................................................................OOOOOOOOOOOOO...........OOOOOOOOOOO...........OOOOOOOOOOO...........OOOOOOOOOOO................O..O..................................
........................................O.....OOOOO..OO..OO..OOOOO.....O............................................................................................O..................OOOOO...OOO...OOOOO..................O............................................................................................................................OO.O..OOOOOOO.......OOOOOOO.......OOOOOOO.......OOOOOOO.......OOOOOOO.......OO..O......................................................................................................................................................O......OOOOO........OOOOOOOO........OOOOOOOO........OOOOOOOO........OOOOOOOO..........OO....................................................................................OO.................OOOOOOOOOOO...........OOOOOOOOOOO...........OOOOOOOOOOO...........OOOOOOOOOOOO......O...................................
.....................O....O....O........OO.........OO..OO..OO.........OO........O....O....O............................................................................O....................OOO...OOO....................O................................................................................................................................O..OO.......OOOOOOO.......OOOOOOO.......OOOOOOO.......OOOOOOO.......OOOOOOO..O....................................................................................................................................................O...............OOOOOOOO........OOOOOOOO........OOOOOOOO........OOOOOOOO........OOOO...........O............................................................................O...........OOOOOOOOOOO...........OOOOOOOOOOO...........OOOOOOOOOOO...........OOOOOOOOOOO......................O...............................
....................OOO.OO.OO.OOO...............OOO..OO..OO..OOO...............OOO.OO.OO.OOO.......................................................O.....O...............................OOO...OOO...OOO...............................O.....O............................................................................................................OOO..OOOOOOO.......OOOOOOO.......OOOOOOO.......OOOOOOO.......OOOOOOO.......OO..O.................................................................................................................................................OOO..........OOOO........OOOOOOOO........OOOOOOOO........OOOOOOOO........OOOOOOOO....O.........OOO..........................................................................OOO.........O...........OOOOOOOOOOO...........OOOOOOOOOOO...........OOOOOOOOOOO...........OOOOOOOOOOO..........OOO..............................
...................OOOO.......OOOO......OO.....O...OO..OO..OO...O.....OO......OOOO.......OOOO............................................OOO......OOO...OOO......O......................O...OOO...OOO...O......................O......OOO...OOO......OOO.....................................................................................................OO.......OOOOOOO.......OOOOOOO.......OOOOOOO.......OOOOOOO.......OOOOOOO..OO..................................................................................................................................................O.OO.....O..O....OOOOOOOO........OOOOOOOO........OOOOOOOO........OOOOOOOO........OOOO..OO......O.OO........................................................................OO.O......OO..OOOOOOOOOOO...........OOOOOOOOOOO...........OOOOOOOOOOO...........OOOOOOOOOOO...........O..O.....OO.O..............................
..................OO..OO.O.O.OO..OO.............OOO..OO..OO..OOO.............OO..OO.O.O.OO..OO...........................................O..O....O..OO.OO..O....OOO......OOO.....O.......OOO...OOO...OOO.......O.....OOO......OOO....O..OO.OO..O....O..O..........................................................................................OOO.......O..OOOOOOO.......OOOOOOO.......OOOOOOO.......OOOOOOO.......OOOOOOO.......OO........OOO..........................................................................................................................................OOO...OO.OO.OOOO........OOOOOOOO........OOOOOOOO........OOOOOOOO........OOOOOOOO....OOO.OO.....OOO........................................................................OOO.....OO.OOO...........OOOOOOOOOOO...........OOOOOOOOOOO...........OOOOOOOOOOO...........OOOOOOOOOOO.OO.OO...OOO...............................
...................O.............O.........OOOOO...OO..OO..OO...OOOOO.........O.............O............................................O......OOO.O..........O..OO....O..O....OOO....O....OOO...OOO....O....OOO....O..O....OO..O..........O.OOO......O..........................................................................................O..O....O..OO.......OOOOOOO.......OOOOOOO.......OOOOOOO.......OOOOOOO.......OOOOOOO..OO......O..O.........................................................................................................................................OO...O...O.O....OOOOOOOO........OOOOOOOO........OOOOOOOO........OOOOOOOO........OOOOO.....O....OO..........................................................................OO....O.....OOOOOOOOOOOO...........OOOOOOOOOOO...........OOOOOOOOOOO...........OOOOOOOOOOO...........O.O...O...OO...............................
..................OO.............OO.......OO.O..OOO..OO..OO..OOO..O.OO.......OO.............OO...........................................O......O..O......O....O.O.O....O...O..OO..O.....O.O...OOO...O.O.....O..OO..O...O....O.O.O....O......O..O......O..........................................................................................O.......OO...OOOOOOO.......OOOOOOO.......OOOOOOO.......OOOOOOO.......OOOOOOO.......OOO.OO....O................................................................................................................................................OO.O..O.OOOO........OOOOOOOO........OOOOOOOO........OOOOOOOO........OOOOOOOO......O.O..OO..................................................................................OO..O.O.............OOOOOOOOOOO...........OOOOOOOOOOO...........OOOOOOOOOOO...........OOOOOOOOOOO.O..O.OO...................................
................OO.O.OO........O.O.OO...OO.O.O.....OO..OO..OO.....O.O.OO...OO.O.O........OO.O.OO..........................................O.O.......OOO.O.OOOO.OO..OO..OO....O...O..O.O.....OOO...OOO.....O.O..O...O....OO..OO..OO.OOOO.O.OOO.......O.O...........................................................................................O......O..OOO.......OOOOOOO.......OOOOOOO.......OOOOOOO.......OOOOOOO.......OOOOOOO....OO....O...............................................................................................................................................O..O.........OOOOOOOO........OOOOOOOO........OOOOOOOO........OOOOOOOO........OOOOOO................................................................................................OOOOOOOOOOOOO...........OOOOOOOOOOO...........OOOOOOOOOOO...........OOOOOOOOOOO................O..O..................................
.................O.O..OO......OO.O.O....O.....OOOOO..OO..OO..OOOOO.....O....O.O.OO......OO..O.O...............................................O.OO............OOO......OO....O.O...O..O..OO....OOO....OO..O..O...O.O....OO......OOO............OO.O................................................................................................O.O..OOOO...OOOOOOO.......OOOOOOO.......OOOOOOO.......OOOOOOO.......OOOOOOO.......OOO........O.O.............................................................................................................................................O......OOOOO........OOOOOOOO........OOOOOOOO........OOOOOOOO........OOOOOOOO..........OO....................................................................................OO.................OOOOOOOOOOO...........OOOOOOOOOOO...........OOOOOOOOOOO...........OOOOOOOOOOOO......O...................................
..............OO.O..O..O.....O...O.O.OO.O.O........OO..OO..OO........O.O.OO.O.O...O.....O..O..O.OO............................................OOO..O.O....O..OO...O..O.OO.O....OOOO...O....OOOO...OOOO....O...OOOO....O.OO.O..O...OO..O....O.O..OOO...................................................................................................OO....OOO.......OOOOOOO.......OOOOOOO.......OOOOOOO.......OOOOOOO.......OOOOOOO...OOOOOO..............................................................................................................................................O...............OOOOOOOO........OOOOOOOO........OOOOOOOO........OOOOOOOO........OOOO...........O............................................................................O...........OOOOOOOOOOO...........OOOOOOOOOOO...........OOOOOOOOOOO...........OOOOOOOOOOO......................O...............................
..............OO.O.....OO........O...OO.O.......OOO..OO..OO..OOO.......O.OO...O........OO.....O.OO.............................................O...O.O............O.....O..O.........O...O.....OOO.....O...O.........O..O.....O............O.O...O....................................................................................................OOOOOO...OOOOOOO.......OOOOOOO.......OOOOOOO.......OOOOOOO.......OOOOOOO.......OOO......O............................................................................................................................................OOO..........OOOO........OOOOOOOO........OOOOOOOO........OOOOOOOO........OOOOOOOO....O.........OOO..........................................................................OOO.........O...........OOOOOOOOOOO...........OOOOOOOOOOO...........OOOOOOOOOOO...........OOOOOOOOOOO..........OOO..............................
..............O.O............OO...O.O...O......O...OO..OO..OO...O......O...O.O...OO............O.O............................................O...................O......O..OOO.O..O..OO..OOOOO...OOOOO..OO..O..O.OOO..O......O...................O.................................................................................................O.......OOO.......OOOOOOO.......OOOOOOO.......OOOOOOO.......OOOOOOO.......OOOOOOO...OOO..OO............................................................................................................................................O.OO.....O..O....OOOOOOOO........OOOOOOOO........OOOOOOOO........OOOOOOOO........OOOO..OO......O.OO........................................................................OO.O......OO..OOOOOOOOOOO...........OOOOOOOOOOO...........OOOOOOOOOOO...........OOOOOOOOOOO...........O..O.....OO.O..............................
.............OO.OO..............................OOO..OO..OO..OOO..............................OO.OO................................................................O......O...........O..O.....OOO.....O..O...........O......O.....................................................................................................................OOOOOO.OO...OOOOOOO.......OOOOOOO.......OOOOOOO.......OOOOOOO.......OOOOOOO.......OOO..OO....O...........................................................................................................................................OOO...OO.OO.OOOO........OOOOOOOO........OOOOOOOO........OOOOOOOO........OOOOOOOO....OOO.OO.....OOO........................................................................OOO.....OO.OOO...........OOOOOOOOOOO...........OOOOOOOOOOO...........OOOOOOOOOOO...........OOOOOOOOOOO.OO.OO...OOO...............................
.......................................OO..OOOOO...OO..OO..OO...OOOOO..OO..............................................................................................O..................OOOOO...OOOOO..................O.........................................................................................................................O........OOO.......OOOOOOO.......OOOOOOO.......OOOOOOO.......OOOOOOO.......OOOOOOO...O...OOO.OO..........................................................................................................................................OO...O...O.O....OOOOOOOO........OOOOOOOO........OOOOOOOO........OOOOOOOO........OOOOO.....O....OO..........................................................................OO....O.....OOOOOOOOOOOO...........OOOOOOOOOOO...........OOOOOOOOOOO...........OOOOOOOOOOO...........O.O...O...OO...............................
......................................O...OO.O..OOO..OO..OO..OOO..O.OO...O................................................................................................O....................OOO....................O.............................................................................................................................OOOO...O...OOOOOOO.......OOOOOOO.......OOOOOOO.......OOOOOOO.......OOOOOOO.......OOO.OO...O.OO..............................................................................................................................................OO.O..O.OOOO........OOOOOOOO........OOOOOOOO........OOOOOOOO........OOOOOOOO......O.O..OO..................................................................................OO..O.O.............OOOOOOOOOOO...........OOOOOOOOOOO...........OOOOOOOOOOO...........OOOOOOOOOOO.O..O.OO...................................
.........................................O.O.O.....OO..OO..OO.....O.O.O...............................................................................O.....O...............................OOO...OOO...............................O.....O.........................................................................................................OO....OOOOO.......OOOOOOO.......OOOOOOO.......OOOOOOO.......OOOOOOO.......OOOOOOO....O.....OO..............................................................................................................................................O..O.........OOOOOOOO........OOOOOOOO........OOOOOOOO........OOOOOOOO........OOOOOO................................................................................................OOOOOOOOOOOOO...........OOOOOOOOOOO...........OOOOOOOOOOO...........OOOOOOOOOOO................O..O..................................
......................................OO......OOOOO..OO..OO..OOOOO......OO..................................................................OOO......OOO...OOO......O......................O...OOO...O......................O......OOO...OOO......OOO....................................................................................................O.....OOOOOOO.......OOOOOOO.......OOOOOOO.......OOOOOOO.......OOOOOOO.......OOOOO.....OO...............................................................................................................................................O......OOOOO........OOOOOOOO........OOOOOOOO........OOOOOOOO........OOOOOOOO..........OO....................................................................................OO.................OOOOOOOOOOO...........OOOOOOOOOOO...........OOOOOOOOOOO...........OOOOOOOOOOOO......O...................................
...................................................OO..OO..OO...............................................................................O..O....O..OO.OO..O....OOO......OOO.....O.......OOO...OOO.......O.....OOO......OOO....O..OO.OO..O....O..O...........................................................................OOO..OOO..OOO........O.....OOOO.......OOOOOOO.......OOOOOOO.......OOOOOOO.......OOOOOOO.......OOOOOOO.........OO.......OOO..OOO..OOO........................................................................................................................................OOOOOOOO........OOOOOOOO........OOOOOOOO........OOOOOOOO........OOOO........................................................................................O...........OOOOOOOOOOO...........OOOOOOOOOOO...........OOOOOOOOOOO...........OOOOOOOOOOO......................O...............................
..........O.....O...............................OOO..OO..OO..OOO...............................O.....O......................................O......OOO.O..........O..OO....O..O....OOO....O....OOO....O....OOO....O..O....OO..O..........O.OOO......O..........................................................................O...O.OOO.O...O......O..........OOOOOOO.......OOOOOOO.......OOOOOOO.......OOOOOOO.......OOOOOOO.......OOO..............O...O.OOO.O...O...................................................................................................................................OOOO........OOOOOOOO........OOOOOOOO........OOOOOOOO........OOOOOOOO....O......................................................................................OOO.........O...........OOOOOOOOOOO...........OOOOOOOOOOO...........OOOOOOOOOOO...........OOOOOOOOOOO..........OOO..............................
OOO......OOO...OOO......O......................O...OO..OO..OO...O......................O......OOO...OOO......OOO............................O......O..O......O....O.O.O....O...O..OO..O.....O.O...O.O.....O..OO..O...O....O.O.O....O......O..O......O.........................................................................O......O.O......O.....O.......OOO.......OOOOOOO.......OOOOOOO.......OOOOOOO.......OOOOOOO.......OOOOOOO...O............O......O.O......O.................................................................................................................................O....OOOOOOOO........OOOOOOOO........OOOOOOOO........OOOOOOOO........OOOO.O....................................................................................OO.O......OO..OOOOOOOOOOO...........OOOOOOOOOOO...........OOOOOOOOOOO...........OOOOOOOOOOO...........O..O.....OO.O..............................
O..O....O..OO.OO..O....OOO......OOO.....O.......OOO..OO..OO..OOO.......O.....OOO......OOO....O..OO.OO..O....O..O.............................O.O.......OOO.O.OOOO.OO..OO..OO....O...O..O.O.....OOO.....O.O..O...O....OO..OO..OO.OOOO.O.OOO.......O.O..........................................................................O...OO.....OO...O.........O..O...OOOOOOO.......OOOOOOO.......OOOOOOO.......OOOOOOO.......OOOOOOO.......OOO..OO.........O...OO.....OO...O...............................................................................................................................OO.OOOO........OOOOOOOO........OOOOOOOO........OOOOOOOO........OOOOOOOO....OO....................................................................................OOO.....OO.OOO...........OOOOOOOOOOO...........OOOOOOOOOOO...........OOOOOOOOOOO...........OOOOOOOOOOO.OO.OO...OOO...............................
O......OOO.O..........O..OO....O..O....OOO....O....OO..OO..OO....O....OOO....O..O....OO..O..........O.OOO......O.................................O.OO............OOO......OO....O.O...O..O..OO.....OO..O..O...O.O....OO......OOO............OO.O................................................................................O...........O.........OO.OO.OOO.......OOOOOOO.......OOOOOOO.......OOOOOOO.......OOOOOOO.......OOOOOOO...OOO.OO.........O...........O.................................................................................................................................OO.....OOOOOOOO........OOOOOOOO........OOOOOOOO........OOOOOOOO........OOOO...O...................................................................................OO....O.....OOOOOOOOOOOO...........OOOOOOOOOOO...........OOOOOOOOOOO...........OOOOOOOOOOO...........O.O...O...OO...............................
O......O..O......O....O.O.O....O...O..OO..O.....O.O..OO..OO..O.O.....O..OO..O...O....O.O.O....O......O..O......O.................................OOO..O.O....O..OO...O..O.OO.O....OOOO...O....OOOOO....O...OOOO....O.OO.O..O...OO..O....O.O..OOO.............................................................................O.O.............O.O.....O...O.O...OOOOOOO.......OOOOOOO.......OOOOOOO.......OOOOOOO.......OOOOOOO.......OOOO.....O.....O.O.............O.O............................................................................................................................O....OOOO........OOOOOOOO........OOOOOOOO........OOOOOOOO........OOOOOOOO....OOOO.......................................................................................OO..O.O.............OOOOOOOOOOO...........OOOOOOOOOOO...........OOOOOOOOOOO...........OOOOOOOOOOO.O..O.OO...................................
.O.O.......OOO.O.OOOO.OO..OO..OO....O...O..O.O.....OO..OO..OO.....O.O..O...O....OO..OO..OO.OOOO.O.OOO.......O.O...................................O...O.O............O.....O..O.........O...O.......O...O.........O..O.....O............O.O...O.............................................................................OO.O.OOO......OO.O.OO...OO.O..O.OOO.......OOOOOOO.......OOOOOOO.......OOOOOOO.......OOOOOOO.......OOOOOOO.....O.O.OO...OO.O.OO......OOO.O.OO...........................................................................................................................OOOOO....OOOOOOOO........OOOOOOOO........OOOOOOOO........OOOOOOOO........OOOO....O.............................................................................................OOOOOOOOOOOOO...........OOOOOOOOOOO...........OOOOOOOOOOO...........OOOOOOOOOOO................O..O..................................
.....O.OO............OOO......OO....O.O...O..O..OO...OO..OO...OO..O..O...O.O....OO......OOO............OO.O......................................O...................O......O..OOO.O..O..OO..OOOOOOO..OO..O..O.OOO..O......O...................O...........................................................................O.O.O...O......OO.O.O.O..O.O........OOOOOOO.......OOOOOOO.......OOOOOOO.......OOOOOOO.......OOOOOOO.......OOOOO...O.O..O.O.O.OO......O...O.O.O......................................................................................................................O.OO.....OOOO........OOOOOOOO........OOOOOOOO........OOOOOOOO........OOOOOOOO....OOOOOO.OO...................................................................................OO.................OOOOOOOOOOO...........OOOOOOOOOOO...........OOOOOOOOOOO...........OOOOOOOOOOOO......O...................................
.....OOO..O.O....O..OO...O..O.OO.O....OOOO...O....OOO..OO..OOO....O...OOOO....O.OO.O..O...OO..O....O.O..OOO...........................................................O......O...........O..O.......O..O...........O......O...............................................................................................OO.O............O..O...OO.O......OOOO.......OOOOOOO.......OOOOOOO.......OOOOOOO.......OOOOOOO.......OOOOOOO..........O.OO...O..O............O.OO...................................................................................................................OO.O.OOOOOO....OOOOOOOO........OOOOOOOO........OOOOOOOO........OOOOOOOO........OOOO......OO.OO.........................................................................................OOOOOOOOOOO...........OOOOOOOOOOO...........OOOOOOOOOOO...........OOOOOOOOOOO......................................................
......O...O.O............O.....O..O.........O...O....OO..OO....O...O.........O..O.....O............O.O...O................................................................O..................OOOOOOO..................O..................................................................................................O...O.....OO....OO..O.O..O.O..........OOOOOOO.......OOOOOOO.......OOOOOOO.......OOOOOOO.......OOOOOOO.......OOO.......O.O..O.O..OO....OO.....O...O...........................................................................................................OOO...O...O.......OOOO........OOOOOOOO........OOOOOOOO........OOOOOOOO........OOOOOOOO....OOOOOO....O....OOO.................................................................................O...........OOOOOOOOOOO...........OOOOOOOOOOO...........OOOOOOOOOOO...........OOOOOOOOOOO...........................................
.....O...................O......O..OOO.O..O..OO..OOOO..OO..OOOO..OO..O..O.OOO..O......O...................O..................................................................O.....................................O.............................................................................................................................O.O........OOO.......OOOOOOO.......OOOOOOO.......OOOOOOO.......OOOOOOO.......OOOOOOO...O.......O.O...................................................................................................................O.......O.......O..O..O.....OOOOOO....OOOOOOOO........OOOOOOOO........OOOOOOOO........OOOOOOOO........OOOO......O.O..O...O..O......O.......O................................................................O.OOOOOOOOOOO...........OOOOOOOOOOO...........OOOOOOOOOOO...........OOOOOOOOOOO...........O..........................................
..........................O......O...........O..O....OO..OO....O..O...........O......O.........................................................................................................OOO.......................................................................................................................OO.OO.....................OO...O..O...OOOOOOO.......OOOOOOO.......OOOOOOO.......OOOOOOO.......OOOOOOO.......OOO..OO...OO.....................OO.OO..........................................................................................OOO.....OOO....O....O....OOOO......OOOO........OOOOOOOO........OOOOOOOO........OOOOOOOO........OOOOOOOO....OOOOOOO...OO...O.OOO....OOO.....OOO...............................................................OO...........OOOOOOOOOOO...........OOOOOOOOOOO...........OOOOOOOOOOO...........OOOOOOOOOOO.OO........................................
..............................O..................OOOO..OO..OOOO..................O............................................................................................................O...O................................................................................................................................................O..OO.OO.OOO.......OOOOOOO.......OOOOOOO.......OOOOOOO.......OOOOOOO.......OOOOOOO...OOO.OO..O....................................................................................................................O.OO...O..OO..OOOOOOOOOO.O...O.OOO.....OOOOOOOO........OOOOOOOO........OOOOOOOO........OOOOOOOO........OOOO......OOOO.O........O..O..OO....O.OO.....................................O.......................O..OOOOOOOOOOO...........OOOOOOOOOOO...........OOOOOOOOOOO...........OOOOOOOOOOO............OO.......................O................
.................................O...................OO..OO...................O................................................................................................................OOO.................................................................................................................................................OOO...O.O...OOOOOOO.......OOOOOOO.......OOOOOOO.......OOOOOOO.......OOOOOOO.......OOOO.....OOO.....................................................................................................................OOO...OO..O..O.........O.OO...OO.OOOOO........OOOOOOOO........OOOOOOOO........OOOOOOOO........OOOOOOOO......OOO......OOOOOOOO.OOOO.O..O....OOO....................................OOO.....................O.O............OOOOOOOOOOO...........OOOOOOOOOOO...........OOOOOOOOOOO...........OOOOOOOOOOO...O.....................OOO...............
...................................................OO..OO..OO................................................................................................................................OO...OO..............................................................................................................................................OO...O..O.OOO.......OOOOOOO.......OOOOOOO.......OOOOOOO.......OOOOOOO.......OOOOOOO.....O.O...OO....................................................................................................................OO..O...O.......O.OOOOO....O..........OOOOOOOO........OOOOOOOO........OOOOOOOO........OOOOOOOO........OOOOOOOOOO.OOOO.........O.O..O..OO...OO.....................................O.OO....................O.O..OOOOOOOOOO...........OOOOOOOOOOO...........OOOOOOOOOOO...........OOOOOOOOOOO............O.O.....................O.OO..............
..................................................O..OO..OO..O..............................................................................................................................O..OOO..O..........................................................................................................................................................OOOOOOO.......OOOOOOO.......OOOOOOO.......OOOOOOO.......OOOOOOO.......OOOOO...............................................................................................................................O...O....OO..O.....OOOO........OOOO........OOOOOOOO........OOOOOOOO........OOOOOOOO........OOOOOOOO....O....OO.....O.O.....OO..OO....O...........................O..............OOO.......OOO.OOO.....OO...O..........OOOOOOOOOOO...........OOOOOOOOOOO...........OOOOOOOOOOO...........OOOOOOOOOO..O.O......OOO.OOO.........OOO............O.
...................................................OO..OO..OO.....................................................................................................................OOO.......OO.....OO.......OOO............................................................................................................................................OOOO.......OOOOOOO.......OOOOOOO.......OOOOOOO.......OOOOOOO.......OOOOOOO......................................................................................................................................OO................OO.OO.....O....OOOOOOOO........OOOOOOOO........OOOOOOOO........OOOOOOOO........OOOO.......O......O..............O...........................OOO.....O.......OO.OOO...O..OOO..O.......O.OOOOOOOOOOO...........OOOOOOOOOOO...........OOOOOOOOOOO...........OOOOOOOOOOO.............O......O..OOO..O...OOO..OO......O.....OOO
........................................O........OO..OO..OO..OO........O.........................................................................................................O..O..........OOO..........O..O.............................................................................................O.......OOO...OOO.................................OOOOOOO.......OOOOOOO.......OOOOOOO.......OOOOOOO.......OOOOOOO.......OOO..............................OOO...OOO.......O.......................................................................................OO.........................OOO........OOOOOOOO........OOOOOOOO........OOOOOOOO........OOOOOOOO...........O.................O..............................OO.O....OOO............O.O...O.....O...O.....O.........OOOOOOOOOOO...........OOOOOOOOOOO...........OOOOOOOOOOO...........OOOOOOOOO..O..OO...O...O.....O.O..O..O.O....OOO...OO.O
.......................................OOO......O..OO..OO..OO..O......OOO...........................................................................................................O....OOOOOO...OOOOOO....O...............................................................................................OOO.....O..O...O..O....OOO.......O..............OOO.......OOOOOOO.......OOOOOOO.......OOOOOOO.......OOOOOOO.......OOOOOOO...O.............O.......OOO.....O..O.O..O......OOO....................................................................................................................OOOOOOOO........OOOOOOOO........OOOOOOOO........OOOOOOOO........OO............................O.............................OOO....OO..O..OOO......O...OO.O....O....O......OOOOOOOO...........OOOOOOOOOOO...........OOOOOOOOOOO...........OOOOOOOOOOO........OOOO......O..OO.O....OO...O..O.O.O.OO.O...OOO.
......................................OO.O.....OOO...OO..OO...OOO.....O.OO..........................................................................................................O...O......OOO......O...O...............................................................................................O.OO....O...O.O...O...O..O......OOO....OOO.....O...OOOOOOO.......OOOOOOO.......OOOOOOO.......OOOOOOO.......OOOOOOO.......OOOO.....OOO....OOO.....O..O.....O.OO.O....O....O.OO......................................................................................................O..........OO........OOOOOOOO........OOOOOOOO........OOOOOOOO........OOOOOOOO..O.........O...............................................OOO....OO.OOO.O........OOOO.........O.....O............OOOOOOOOOOO...........OOOOOOOOOOO...........OOOOOOOOOOO...........OOOOOOO...........OOO............O...O.......O....OOO.
......................................OOO.....O....OO..OO..OO....O.....OOO.......................................................................................................O.O....OO...OO...OO...OO....O.O.............................................................................................OOO...O..O...........O...O....OO..O...O..O...OOO.O.......OOOOOOO.......OOOOOOO.......OOOOOOO.......OOOOOOO.......OOOOOOO..OO.....O..O..OO..O....O...O.........OO.O.O.....OOO.....................................................................................................OOO........O..OOOOOOOO........OOOOOOOO........OOOOOOOO........OOOOOOOO........OO.O.......OOO...............................................OO..OOO.........O..OO...........OOOOO..O..O....OOOOOOO...........OOOOOOOOOOO...........OOOOOOOOOOO...........OOOOOOOOOOO.......O.....OO.OO.........O....O...........OOOO...OO.
.......................................OO....OOOOOO..OO..OO..OOOOOO....OO.............................................................................................................OO.......OOO.......OO..................................................................................................OO.....OO.OOO...OOOO.O.OOO....O.OO...O..OO...OO...OOOOOOO.......OOOOOOO.......OOOOOOO.......OOOOOOO.......OOOOOOO.......O.......O...O..O..OO......O.O..O.OO.....OO.O.....OO......................................................................................................O.OO.....OO.OO........OOOOOOOO........OOOOOOOO........OOOOOOOO........OOOOOOOO..OO.......O.OO...............................................................................OO.O.O.O..O..O.......OOOOOOOOOOO...........OOOOOOOOOOO...........OOOOOOOOOOO...........OOOOOOOO...O..O...O......................O.O.OOOO.....
............................................O......OO..OO..OO......O..................................................................................................................OOO.OO.........OO.OOO.......................................................................................................O.OO...OOOOO...O....O...O..OOOO....OO...OOOOO.......OOOOOOO.......OOOOOOO.......OOOOOOO.......OOOOOOO.......OOOOOOOO.O...OOOO..O.OO..O....OOOO...OOOOO...OO..OOO.............................................................................................................OOO.....OO...OOOOOOOO........OOOOOOOO........OOOOOOOO........OOOOOOOO........OO..O.......OOO..................................................O............................O.O.......OO....OOOOO...........OOOOOOOOOOO...........OOOOOOOOOOO...........OOOOOOOOOOO......OO.OO....................................OO.....
...........................................OO.OOOOO..OO..OO..OOOOO.OO.................................................................................................................O...O.OOOO.OOOO.O...O.....................................................................................................OO....OOO..OO..O..O...OO...O.O.OO.OOO....O....OOOOOOOO.......OOOOOOO.......OOOOOOO.......OOOOOOO.......OOOOOOO........O..OO..O...O..........OO.OO.....OO..O....OO.OO...........................................................................................................OOO........OO........OOOOOOOO........OOOOOOOO........OOOOOOOO........OOOOOOOO..OOOO......OOO...........................................................O.......O..........O.O..OO..OOOO.........OOOOOOOOOOO...........OOOOOOOOOOO...........OOOOOOOOOOO...........OOOO....O...OOOO...OOOO.........O.......O.............
...................................................OO..OO..OO.....................................................................................................................................................................................................................................................O...O.O.......O.....OOO..O..O.OOO.......OOO.........OOOOOOO.......OOOOOOO.......OOOOOOO.......OOOOOOO.......OOOOOOOO.O..OO..OOOOO.......O....O..OO..........OO..O...................................................................................................O........OOO..OOOOOO..OOOOOOOO........OOOOOOOO........OOOOOOOO........OOOOOOOO........OO....OOO...OOO......O...................................................OOO.....OOO........OO.O...............OOOO...........OOOOOOOOOOO...........OOOOOOOOOOO...........OOOOOOOOOOO....O...OOOOOO.................OOO.....OOO............
..........................................O......OO..OO..OO..OO......O...............................................................................................................OO.........O.........OO....................................................................................................OO....................OOOOOO...O...O.O.OO.OO.OOOOOOOOO.......OOOOOOO.......OOOOOOO.......OOOOOOO.......OOOOOOO...........O.O..O...OOOOO.OO...OOO................O....................................................................................................OOO.......OO...O.....OO........OOOOOOOO........OOOOOOOO........OOOOOOOO........OOOOOOOO..OOOO.OO...OO......OOO..................................................O.OO...O..OO......O...O.......O.O....O....OOOOOOOOOOO...........OOOOOOOOOOO...........OOOOOOOOOOO...........OOOO.O....O......O...OOO......O..OO....O.OO...........
.............................................OO.O..OO..OO..OO..O.OO.............................................................................................................................O.....................................................................................................................................OO..O.O......O.O................OOOOOOO.......OOOOOOO.......OOOOOOO.......OOOOOOO.......OOOOOOOOOOOOOO.......OOOOO.....OO....................................................................................................................OO.OOO..............OOO..OOOOOOOO........OOOOOOOO........OOOOOOOO........OOOOOOOO........OO.....O...........OOO.OO.................................................OOO.......O..OO.OOOO..O......O.O..OO.OOOO...........OOOOOOOOOOO...........OOOOOOOOOOO...........OOOOOOOOOOO....OO............OOOO..O.OO.O.O........OOO...........
..........................................OO....OOO..OO..OO..OOO....OO.........................................................................................................................O.O........................................................................................................................................OOOO.........OO....OOOOOOOOO.......OOOOOOO.......OOOOOOO.......OOOOOOO.......OOOOOOO.........O.OO........O................................................................................................................................O..O.OO...........OO..OO........OOOOOOOO........OOOOOOOO........OOOOOOOO........OOOOOOOO..OO.OO.O........OO.O..O..................................................OOO..OO.OOOO.OO...................OO.....OOOOOOOOOOO...........OOOOOOOOOOO...........OOOOOOOOOOO...........OOOO...O..............O...OO...O...OO...OOO...........
...................................................OO..OO..OO...............................................................................................................................................................................................................................................................................OO..............O.........OOOOOOO.......OOOOOOO.......OOOOOOO.......OOOOOOO.......OOOOOOOOO..........................................................................................................................................OO.O....O.O...OOOOOO....O..OOOOOOOO........OOOOOOOO........OOOOOOOO........OOOOOOOO........OO......O.OOO...O.O....O.OO...............................................OOO.O.O..O.OO..O...O..O.........O....OOOO...........OOOOOOOOOOO...........OOOOOOOOOOO...........OOOOOOOOOOO....OOOO..................OOO...........OOO...........
...............................................O..O..OO..OO..O..O..............................................................................................................................O.O............................................................................................................................................................OOOOOOOO.......OOOOOOO.......OOOOOOO.......OOOOOOO.......OOOOOOO...................................................................................................................................................OO.O.O..O.OO.OO.O.O..O...OO........OOOOOOOO........OOOOOOOO........OOOOOOOO........OOOOOOOO..OOO.OOO.O.OO.OO.O..O.O.OO...............................................OO...........O......O...........OOOOO....OOOOOOOOOOO...........OOOOOOOOOOO...........OOOOOOOOOOO...........OOOO....O......................O...O....OO............
...................................................OO..OO..OO...................................................................................................................................O..................................................................................................................................................O..................OOOOOOO.......OOOOOOO.......OOOOOOO.......OOOOOOO.......OOOOOOO...........O................................................................................................................................O........O.O.O.O..O.......OOOOOOOOO........OOOOOOOO........OOOOOOOO........OOOOOOOO.........OOOO.O.O.O..O.O.O........O............................................................O..............O.OO.....OOOO...........OOOOOOOOOOO...........OOOOOOOOOOO...........OOOOOOOOOOO....OOOOOO.OO...................OO....................
................................................OOO..OO..OO..OOO..................................................................................................................................................................................................................................................................................OOO..........OOOOOOO.......OOOOOOO.......OOOOOOO.......OOOOOOO.......OOOOOOO.......O.........OOO..............................................................................................................................OO.......OO.O.....O....OO...........OOOOOOOO........OOOOOOOO........OOOOOOOO........OOOOOOOOOO..........O..O.OO.......OO........................................................................OO.O.OOOOOO....OOOOOOOOOOO...........OOOOOOOOOOO...........OOOOOOOOOOO...........OOOO......OO.OO.......................................
.........................................O.........OO..OO..OO.........O...........................................................................................................................................................................................................................................................................O.OO.....O..O.......OOOOOOO.......OOOOOOO.......OOOOOOO.......OOOOOOO.......OOOOOOO..OO......O.OO.........................................................................................................................................O..............OOOOOOOOO........OOOOOOOO........OOOOOOOO........OOOOOOOO.......................O.............................................................................OOO...O...O.......OOOO...........OOOOOOOOOOO...........OOOOOOOOOOO...........OOOOOOOOOOO....OOOOOO....O....OOO................................
........................................OOO.......O..OO..OO..O.......OOO...........................................................................................................................................................................................................................................................................OOO...OO.OO.OOOOOOO.......OOOOOOO.......OOOOOOO.......OOOOOOO.......OOOOOOO.......OOO.OO.....OOO....................................................................................................................................OOO.O........................OOOOOOOO........OOOOOOOO........OOOOOOOO........OOOOOOOO................O.OOO........................................................O.......O.......O..O..O.....OOOOOO....OOOOOOOOOOO...........OOOOOOOOOOO...........OOOOOOOOOOO...........OOOO......O.O..O...O..O......O.......O................
.......................................OO.O.....O.OOO..OO..OOO.O.....O.OO..........................................................................................................................................................................................................................................................................OO...O...O.O.......OOOOOOO.......OOOOOOO.......OOOOOOO.......OOOOOOO.......OOOOOOOO.....O....OO....................................................................................................................................OO....................OOOOOOOO........OOOOOOOO........OOOOOOOO........OOOOOOOO........O...................OO......................................................OOO.....OOO....O....O....OOOO......OOOO...........OOOOOOOOOOO...........OOOOOOOOOOO...........OOOOOOOOOOO....OOOOOOO...OO...O.OOO....OOO.....OOO...............
.......................................OOO.....OOO...OO..OO...OOO.....OOO..............................................................................................................................................................................................................................................................................OO.O..O.OOOOOOO.......OOOOOOO.......OOOOOOO.......OOOOOOO.......OOOOOOO.........O.O..OO........................................................................................................................................O....................O........OOOOOOOO........OOOOOOOO........OOOOOOOO........OOOOOOOO.O...................O......................................................O.OO...O..OO..OOOOOOOOOO.O...O.OOO.....OOOOOOOOOOO...........OOOOOOOOOOO...........OOOOOOOOOOO...........OOOO......OOOO.O........O..O..OO....O.OO..............
........................................OO....O...OOO..OO..OOO...O....OO..............................................................................................................................................................................................................................................................................O..O............OOOOOOO.......OOOOOOO.......OOOOOOO.......OOOOOOO.......OOOOOOOOO..............................................................................................................................................OO..................OO.OOOOOOOO........OOOOOOOO........OOOOOOOO........OOOOOOOO........OO...................OO......................................................OOO...OO..O..O.........O.OO...OO.OOOOO...........OOOOOOOOOOO...........OOOOOOOOOOO...........OOOOOOOOOOO......OOO......OOOOOOOO.OOOO.O..O....OOO..............
............................................OOOOOO...OO..OO...OOOOOO...................................................................................................................................................................................................................................................................................O......OOOOOOOO.......OOOOOOO.......OOOOOOO.......OOOOOOO.......OOOOOOO.............OO............................................................................................................................................................OO.........OOOOOOOO........OOOOOOOO........OOOOOOOO........OOOOOOOO...O.........................................................................OO..O...O.......O.OOOOO....O..........OOOOOOOOOOO...........OOOOOOOOOOO...........OOOOOOOOOOO...........OOOOOOOOOO.OOOO.........O.O..O..OO...OO...............
...........................................O......OOO..OO..OOO......O.................................................................................................................................................................................................................................................................................................OOOOOOO.......OOOOOOO.......OOOOOOO.......OOOOOOO.......OOOOOOO..................................................................................................................................................................O....OOOOOOOO........OOOOOOOO........OOOOOOOO........OOOOOOOO........OOOO............................................................................O...O....OO..O.....OOOO........OOOO...........OOOOOOOOOOO...........OOOOOOOOOOO...........OOOOOOOOOOO....O....OO.....O.O.....OO..OO....O...................
...........................................OO.OOOO...OO..OO...OOOO.OO..........................................................................................................................................................................................................................................................................................OOOOOOO.......OOOOOOO.......OOOOOOO.......OOOOOOO.......OOOOOOO.......O.................................................................................................................................................................OOOOO........OOOOOOOO........OOOOOOOO........OOOOOOOO........OOOOOOOO....O.............................................................................OO................OO.OO.....O....OOOOOOOOOOO...........OOOOOOOOOOO...........OOOOOOOOOOO...........OOOO.......O......O..............O....................
.........................................OO.......OOO..OO..OOO.......OO.......................................................................................................................................................................................................................................................................................O.......OOOOOOO.......OOOOOOO.......OOOOOOO.......OOOOOOO.......OOOOOOO.O............................................................................................................................................................O.OO.....OOOOOOOO........OOOOOOOO........OOOOOOOO........OOOOOOOO........OOOOOO.OO............................................................................OO.........................OOO...........OOOOOOOOOOO...........OOOOOOOOOOO...........OOOOOOOOOOO...........O.................O........................
.........................................O.OOO...O...OO..OO...O...OOO.O.....................................................................................................................................................................................................................................................................................OO.OOOOOOO.......OOOOOOO.......OOOOOOO.......OOOOOOO.......OOOOOOO.......OO..........................................................................................................................................................OO.O.OOOOOO........OOOOOOOO........OOOOOOOO........OOOOOOOO........OOOOOOOO......OO.OO........................................................................................................OOOOOOOOOOO...........OOOOOOOOOOO...........OOOOOOOOOOO...........OO............................O.......................
.........................................O....O.O.OOO..OO..OOO.O.O....O.....................................................................................................................................................................................................................................................................................OO........OOOOOOO.......OOOOOOO.......OOOOOOO.......OOOOOOO.......OOOOOOO..O..................................................................................................................................................OOO...O...O.......OOOOOOOO........OOOOOOOO........OOOOOOOO........OOOOOOOO........OOOOOO....O....OOO....................................................................................O..........OO...........OOOOOOOOOOO...........OOOOOOOOOOO...........OOOOOOOOOOO..O.........O.........................................
.........................................O..O...O....OO..OO....O...O..O....................................................................................................................................................................................................................................................................................O...OOOOOOO.......OOOOOOO.......OOOOOOO.......OOOOOOO.......OOOOOOO........O.O.................................................................................................................................O.......O.......O..O..O.....OOOOOO........OOOOOOOO........OOOOOOOO........OOOOOOOO........OOOOOOOO......O.O..O...O..O......O.......O...................................................................OOO........O..OOOOOOOOOOO...........OOOOOOOOOOO...........OOOOOOOOOOO...........OO.O.......OOO........................................
..........................................O.....OOOOO..OO..OOOOO.....O.....................................................................................................................................................................................................................................................................................O.O........OOOOOOO.......OOOOOOO.......OOOOOOO.......OOOOOOO.......OOOOOO..O.O................................................................................................................................OOO.....OOO....O....O....OOOO......OOOOOOOO........OOOOOOOO........OOOOOOOO........OOOOOOOO........OOOOOOO...OO...O.OOO....OOO.....OOO..................................................................O.OO.....OO.OO...........OOOOOOOOOOO...........OOOOOOOOOOO...........OOOOOOOOOOO..OO.......O.OO.......................................
.......................O....O....O........OO.........OO..OO.........OO........O....O....O..................................................................................................................................................................................................................................................................O.O..OOOOOO.......OOOOOOO.......OOOOOOO.......OOOOOOO.......OOOOOOO......O...OO...............................................................................................................................O.OO...O..OO..OOOOOOOOOO.O...O.OOO.........OOOOOOOO........OOOOOOOO........OOOOOOOO........OOOOOOOO......OOOO.O........O..O..OO....O.OO..................................................................OOO.....OO...OOOOOOOOOOO...........OOOOOOOOOOO...........OOOOOOOOOOO...........OO..O.......OOO.......................................
......................OOO.OO.OO.OOO...............OOO..OO..OOO...............OOO.OO.OO.OOO..................................................................................................................................................................................................................................................................O.........OOOOOOO.......OOOOOOO.......OOOOOOO.......OOOOOOO.......OOOOOOO.O...................................................................................................................................OOO...OO..O..O.........O.OO...OO.OOOOOOOOO........OOOOOOOO........OOOOOOOO........OOOOOOOO..........OOO......OOOOOOOO.OOOO.O..O....OOO..................................................................OOO........OO...........OOOOOOOOOOO...........OOOOOOOOOOO...........OOOOOOOOOOO..OOOO......OOO.......................................
.....................OOOO.......OOOO......OO.....O...OO..OO...O.....OO......OOOO.......OOOO...............................................................................................................................................................................................................................................................OO..O..OOOOO.......OOOOOOO.......OOOOOOO.......OOOOOOO.......OOOOOOO.....O.....O................................................................................................................................OO..O...O.......O.OOOOO....O..............OOOOOOOO........OOOOOOOO........OOOOOOOO........OOOOOOOOOOOOOO.OOOO.........O.O..O..OO...OO..........................................................O........OOO..OOOOOO..OOOOOOOOOOO...........OOOOOOOOOOO...........OOOOOOOOOOO...........OO....OOO...OOO......O................................
....................OO..OO.O.O.OO..OO.............OOO..OO..OOO.............OO..OO.O.O.OO..OO..................................................................................................................................................................................................................................................................OOOO....OOOOOOO.......OOOOOOO.......OOOOOOO.......OOOOOOO.......OOOO......O....................................................................................................................................O...O....OO..O.....OOOO........OOOOOOOO........OOOOOOOO........OOOOOOOO........OOOOOOOO........O....OO.....O.O.....OO..OO....O.............................................................OOO.......OO...O.....OO...........OOOOOOOOOOO...........OOOOOOOOOOO...........OOOOOOOOOOO..OOOO.OO...OO......OOO...............................
.....................O.............O.........OOOOO...OO..OO...OOOOO.........O.............O.........................................................................................................................................................................................................................................................................OO.......OOOOOOO.......OOOOOOO.......OOOOOOO.......OOOOOOO........O........................................................................................................................................OO................OO.OO.....O........OOOOOOOO........OOOOOOOO........OOOOOOOO........OOOOOOOO.......O......O..............O............................................................OO.OOO..............OOO..OOOOOOOOOOO...........OOOOOOOOOOO...........OOOOOOOOOOO...........OO.....O...........OOO.OO.............................
....................OO.............OO.......OO.O..OOO..OO..OOO..O.OO.......OO.............OO........................................................................................................................................................................................................................................................................O.OOOOOOO.......OOOOOOO.......OOOOOOO.......OOOOOOO........OO.O..O............................................................................................................................................OO.........................OOOOOOO........OOOOOOOO........OOOOOOOO........OOOOOOOO...............O.................O.................................................................O..O.OO...........OO..OO...........OOOOOOOOOOO...........OOOOOOOOOOO...........OOOOOOOOOOO..OO.OO.O........OO.O..O..............................
..................OO.O.OO........O.O.OO...OO.O.O.....OO..OO.....O.O.OO...OO.O.O........OO.O.OO.....................................................................................................................................................................................................................................................................O.........OOOOOOO.......OOOOOOO.......OOOOOOO.......OOOOOO.......................................................................................................................................................................................OOOOOOOO........OOOOOOOO........OOOOOOOO........OOOOOO............................O.............................................................OO.O....O.O...OOOOOO....O..OOOOOOOOOOO...........OOOOOOOOOOO...........OOOOOOOOOOO...........OO......O.OOO...O.O....O.OO...........................
...................O.O..OO......OO.O.O....O.....OOOOO..OO..OOOOO.....O....O.O.OO......OO..O.O......................................................................................................................................................................................................................................................................O....OOOOO.......OOOOOOO.......OOOOOOO.......OOOOOOO.....O.O..O............................................................................................................................................................................OOOOOO........OOOOOOOO........OOOOOOOO........OOOOOOOO......O.........................................................................................OO.O.O..O.OO.OO.O.O..O...OO...........OOOOOOOOOOO...........OOOOOOOOOOO...........OOOOOOOOOOO..OOO.OOO.O.OO.OO.O..O.O.OO...........................
................OO.O..O..O.....O...O.O.OO.O.O........OO..OO........O.O.OO.O.O...O.....O..O..O.OO..................................................................................................................................................................................................................................................................OO.OO......OOOOOOO.......OOOOOOO.......OOOOOOO.......OOO...................................................................................................................................................................................O......OOOOOOOO........OOOOOOOO........OOOOOOOO........OOOOOO.O........................................................................................O........O.O.O.O..O.......OOOOOOOOOOOO...........OOOOOOOOOOO...........OOOOOOOOOOO............OOOO.O.O.O..O.O.O........O...........................
................OO.O.....OO........O...OO.O.......OOO..OO..OOO.......O.OO...O........OO.....O.OO................................................................................................................................................................................................................................................................OO....O.OO..O.......OOOOOOO.......OOOOOOO.......OOOOOOO....OOO....OO.......................................................................................................................................................................OO.OOOOOO........OOOOOOOO........OOOOOOOO........OOOOOOOO......OO.......................................................................................OO.......OO.O.....O....OO..............OOOOOOOOOOO...........OOOOOOOOOOO...........OOOOOOOOOOOOO..........O..O.OO.......OO..........................
................O.O............OO...O.O...O......O...OO..OO...O......O...O.O...OO............O.O...............................................................................................................................................................................................................................................................O..O.....OO.O.OOOOOOO.......OOOOOOO.......OOOOOOO.......O...O.O.....O.......................................................................................................................................................................OO.......OOOOOOOO........OOOOOOOO........OOOOOOOO........OOOOOO...O.................................................................................................O..............OOOOOOOOOOOO...........OOOOOOOOOOO...........OOOOOOOOOOO..........................O......................................
...............OO.OO..............................OOO..OO..OOO..............................OO.OO..............................................................................................................................................................................................................................................................O..O...O.....O.......OOOOOOO.......OOOOOOO.......OOOOOOO.....O...O...O....................................................................................................................................................................O....OOOOOO........OOOOOOOO........OOOOOOOO........OOOOOOOO......OOOO............................................................................................OOO.O...........................OOOOOOOOOOO...........OOOOOOOOOOO...........OOOOOOOOOOO................O.OOO.................................
.........................................OO..OOOOO...OO..OO...OOOOO..OO..........................................................................................................................................................................................................................................................................................O.....OO...OOOOOOOO.......OOOOOOO.......OOOOOOO........O.O......O.OO....................................................................................................................................................................OOOOO......OOOOOOOO........OOOOOOOO........OOOOOOOO........OOOOOO....O..........................................................................................OO....................OOOOOOOOOOO...........OOOOOOOOOOO...........OOOOOOOOOOO...........O...................OO................................
........................................O...OO.O..OOO..OO..OOO..O.OO...O......................................................................................................................................................................................................................................................................................OOO...................OOOOOOO.......OOOOOOO.......OOOOOOOO............O................................................................................................................................................................O.OO.....OOOOOO........OOOOOOOO........OOOOOOOO........OOOOOOOO......OOOOOO.OO......................................................................................O....................O...........OOOOOOOOOOO...........OOOOOOOOOOO...........OOOOOOOOOOO.O...................O................................
...........................................O.O.O.....OO..OO.....O.O.O..........................................................................................................................................................................................................................................................................................OO.........OOOOOOOOOO.......OOOOOOO.......OOOOOOO........O.........OO.OO............................................................................................................................................................OO.O.OOOOOO......OOOOOOOO........OOOOOOOO........OOOOOOOO........OOOOOO......OO.OO...................................................................................OO..................OO.OOOOOOOOOOO...........OOOOOOOOOOO...........OOOOOOOOOOO...........OO...................OO...............................
........................................OO......OOOOO..OO..OOOOO......OO..................................................................................................................................................................................................................................................................................OOO.......................OOOOOOO.......OOOOOOO.......OOOOOOOOO.........OO.OOOOO..................................................................................................................................................OOO...O...O.......OOOOOO........OOOOOOOO........OOOOOOOO........OOOOOOOO......OOOOOO....O....OOO........................................................................O.......................OO............OOOOOOOOOOO...........OOOOOOOOOOO...........OOOOOOOOOOO..O.......................O...........................
.....................................................OO..OO..............................................................................................................................................................................................................................................................................................O..O...OO.........OOOOOOOOO.......OOOOOOO.......OOOOOOO...................OOO...O..................................................................................................................................O.......O.......O..O..O.....OOOOOO......OOOOOOOO........OOOOOOOO........OOOOOOOO........OOOOOO......O.O..O...O..O......O.......O.......................................................OOO.....................O...OOOOOOOOOOO...........OOOOOOOOOOO...........OOOOOOOOOOO............O.O.....................OOO..........................
............O.....O...............................OOO..OO..OOO...............................O.....O.....................................................................................................................................................................................................................................................O...O......................OOOOOOO.......OOOOOOO.......OOOOOOO..............OO...O................................................................................................................................OOO.....OOO....O....O....OOOO......OOOOOO........OOOOOOOO........OOOOOOOO........OOOOOOOO......OOOOOOO...OO...O.OOO....OOO.....OOO.....................................................OO.O.....................O.O............OOOOOOOOOOO...........OOOOOOOOOOO...........OOOOOOOOOO..O.O....................OO.O..........................
..OOO......OOO...OOO......O......................O...OO..OO...O......................O......OOO...OOO......OOO..........................................................................................................................................................................................................................................OO.OOOO..............OOOOOOO.......OOOOOOO.......OOOOOOO.......O..............O.O.O................................................................................................................................O.OO...O..OO..OOOOOOOOOO.O...O.OOO.......OOOOOOOO........OOOOOOOO........OOOOOOOO........OOOOOO......OOOO.O........O..O..OO....O.OO.......................................O............OOO.........OOO.OOO......O.O..OOOOOOOOOO...........OOOOOOOOOOO...........OOOOOOOOOOO..........O...OO.....OOO.OOO.......OOO..............O............
..O..O....O..OO.OO..O....OOO......OOO.....O.......OOO..OO..OOO.......O.....OOO......OOO....O..OO.OO..O....O..O...........................................................................................................................................................................................................................................O.O.OO.............O.......OOOOOOO.......OOOOOOO.......OOOOOOO................OO.OO................................................................................................................................OOO...OO..O..O.........O.OO...OO.OOOOOOO........OOOOOOOO........OOOOOOOO........OOOOOOOO........OOO......OOOOOOOO.OOOO.O..O....OOO......................................OOO.....O......OO..OOO...O..OOO..O......O.............OOOOOOOOOOO...........OOOOOOOOOOO...........OOOOOOOOOOO.O.......O..OOO..O...OOO.OO.......O.....OOO...........
..O......OOO.O..........O..OO....O..O....OOO....O....OO..OO....O....OOO....O..O....OO..O..........O.OOO......O..........................................................................................................................................................................................................................................OO.O...............O.OOOOOOO.......OOOOOOO.......OOOOOOO.......OO...............O...................................................................................................................................OO..O...O.......O.OOOOO....O............OOOOOOOO........OOOOOOOO........OOOOOOOO........OOOOOOOOOOOO.OOOO.........O.O..O..OO...OO.......................................O.OO...OOO....O.O..O..O.O.....O...O...OO..O..OOOOOOOOO...........OOOOOOOOOOO...........OOOOOOOOOOO.........O.....O...O.....O...O.O............OOO....O.OO..........
..O......O..O......O....O.O.O....O...O..OO..O.....O.O..OO..O.O.....O..OO..O...O....O.O.O....O......O..O......O.............................................................................................................................................................................................................................................OO.............OO........OOOOOOO.......OOOOOOO.......OOOOOOO..O............O.O.OO...................................................................................................................................O...O....OO..O.....OOOO........OOOOOO........OOOOOOOO........OOOOOOOO........OOOOOOOO......O....OO.....O.O.....OO..OO....O............................................OOO...O.OO.O.O.O..O...OO....O.OO..O......OOOO........OOOOOOOOOOO...........OOOOOOOOOOO...........OOOOOOOO......O....O....O.OO...O......OOO..O..OO....OOO..........
...O.O.......OOO.O.OOOO.OO..OO..OO....O...O..O.O.....OO..OO.....O.O..O...O....OO..OO..OO.OOOO.O.OOO.......O.O..........................................................................................................................................................................................................................................OO..O..............O..OOOOOOO.......OOOOOOO.......OOOOOOO........O.O............OO.O.O....................................................................................................................................OO................OO.OO.....O......OOOOOOOO........OOOOOOOO........OOOOOOOO........OOOOOO.......O......O..............O.............................................OOO....O.......O...O............OOO...........OOOOOOO...........OOOOOOOOOOO...........OOOOOOOOOOO............O.....O.........OOOO........O.OOO.OO....OOO..........
.......O.OO............OOO......OO....O.O...O..O..OO...OO...OO..O..O...O.O....OO......OOO............OO.O.............................................................................................................................................................................................................................................O..O.OO............O.OOO......OOOOOOO.......OOOOOOO.......OOOOOO.OO.O..............OO.OO......................................................................................................................................OO.........................OOOOO........OOOOOOOO........OOOOOOOO........OOOOOOOO.............O.................O.................................................OO...OOOO...........O....O.........OO.OO.....O.......OOOOOOOOOOO...........OOOOOOOOOOO...........OOOOOOO....O..O..OOOOO...........OO..O.........OOO..OO...........
.......OOO..O.O....O..OO...O..O.OO.O....OOOO...O....OOO..OOO....O...OOOO....O.OO.O..O...OO..O....O.O..OOO............................................................................................................................................................................................................................................O.OO.OOO............O..O.OOOOOO.......OOOOOOO.......OOOOOOO......OO..OO..............O...O.....................................................................................................................................................................OOOOOOOO........OOOOOOOO........OOOOOOOO........OOOO............................O....................................................OOOO.O.O......................O...O..O...OOOOOOOO...........OOOOOOOOOOO...........OOOOOOOOOOO.......O..O..O.O.O.OO............................................
........O...O.O............O.....O..O.........O...O....OO....O...O.........O..O.....O............O.O...O............................................................................................................................................................................................................................................O....OO.............OO...O......OOOOOOO.......OOOOOOO.......OOOOO...O.O...............OOOOO.................................................................................................................................................................OOOO........OOOOOOOO........OOOOOOOO........OOOOOOOO....O................................................................................OO....................................OO.OO......OOOOOOOOOOO...........OOOOOOOOOOO...........OOOOO....OO.......O.O............................O...............
.......O...................O......O..OOO.O..O..OO..OOOO..OOOO..OO..O..O.OOO..O......O...................O...........................................................................................................................................................................................................................................O.OOO...............OO..OO.OOOOO.......OOOOOOO.......OOOOOOO.....O..OO.O...................O...............................................................................................................................................................O....OOOOOOOO........OOOOOOOO........OOOOOOOO........OOOO.O.......................................................................................O.......O.........OOOO...OOOO...O....OOOO...........OOOOOOOOOOO...........OOOOOOOOOOO.........OOOO..OO..O.O..........O.......O........................
............................O......O...........O..O....OO....O..O...........O......O...............................................................................................................................................................................................................................................................OO.OOO....................OO.....OOOOOOO.......OOOOOOO.......OOOOO..OO.O.................O..O.............................................................................................................................................................OO.OOOO........OOOOOOOO........OOOOOOOO........OOOOOOOO....OO......................................................................................OOO.....OOO.................OOOOOO...O....OOOOOOOOOOO...........OOOOOOOOOOO...........OOOO...............O.OO........OOO.....OOO.......................
................................O..................OOOO..OOOO..................O....................................................................................................................................................................................................................................................................O............................OOO.......OOOOOOO.......OOOOOOO....OOOO.....................O.OO............................................................................................................................................................OO.....OOOOOOOO........OOOOOOOO........OOOOOOOO........OOOO...O...................................................................................OO.O....OO..O......OOO...O......O....O.OOOO...........OOOOOOOOOOO...........OOOOOOOOOOO....O....O.O.......O...O......OO..O...OO.O.......................
...................................O...................OO...................O......................................................................................................................................................................................................................................................................OOO..............................OOOOOOO.......OOOOOOO........O...OO.....................OO.............................................................................................................................................................O....OOOO........OOOOOOOO........OOOOOOOO........OOOOOOOO....OOOO...................................................................................OOO........O.O.OO.O..OOOO............OO....OOOOOOOOOOO...........OOOOOOOOOOO...........OOOO.OO..O.O......O..OOOO.OO..O.......OOO........................
.....................................................OO..OO............................................................................................................................................................................................................................................................................................O............................O......OOOOOOO.......OOOOOOO.OO..........................OOOO..........................................................................................................................................................OOOOO....OOOOOOOO........OOOOOOOO........OOOOOOOO........OOOO....O..................................................................................OOO...OO...O...OO...O..............O...OOOO...........OOOOOOOOOOO...........OOOOOOOOOOO.....OO...................OO.OOOO.OO..OOO........................
....................................................O..OO..O.......................................................................................................................................................................................................................................................................................O....O.......................OOO.OOOOOOO.......OOOOOOO........OO........................O....O......................................................................................................................................................O.OO.....OOOO........OOOOOOOO........OOOOOOOO........OOOOOOOO....OOOOOO.OO..............................................................................OOO...........OOO..................OOOO....OOOOOOOOOOO...........OOOOOOOOOOO...........OOOO....O.........O..O...O..OO.O..O.O.OOO........................
.....................................................OO..OO........................................................................................................................................................................................................................................................................................O....OO..........................OO.....OOOOOOO.......OOOO.....O.......................OOO........................................................................................................................................................OO.O.OOOOOO....OOOOOOOO........OOOOOOOO........OOOOOOOO........OOOO......OO.OO.............................................................................OO....O...O......................O....OOOO...........OOOOOOOOOOO...........OOOOOOOOOOO....OOOOO...........O......O...........OO........................
...................................................OO..OO..OO........................................................................................................................................................................................................................................................................................O.O.OO....................O......O..OO.......OOOOOOO......OOOOOO.....................O...................................................................................................................................................OOO...O...O.......OOOO........OOOOOOOO........OOOOOOOO........OOOOOOOO....OOOOOO....O....OOO..............................................................................OO...................OO.OOOOOO....OOOOOOOOOOO...........OOOOOOOOOOO...........OOOO.....OO.O..............O.....................................
..................................................O..O....O..O........................................................................................................................................................................................................................................................................................O..OO...................OO....O.OO...OOOOOOO.......O.OOO.OO.O.OO.....................OOO................................................................................................................................O.......O.......O..O..O.....OOOOOO....OOOOOOOO........OOOOOOOO........OOOOOOOO........OOOO......O.O..O...O..O......O.......O.................................................................................OO.OO......OOOO...........OOOOOOOOOOO...........OOOOOOOOOOO....OOOOOO.O.OO..................................................
.....................................................O.OO.O..........................................................................................................................................................................................................................................................................................OO..O...................OOO....O.O...O.......OOOOOOO.OOOO.....O..O....................O..O..............................................................................................................................OOO.....OOO....O....O....OOOO......OOOO........OOOOOOOO........OOOOOOOO........OOOOOOOO....OOOOOOO...OO...O.OOO....OOO.....OOO.........................................................................OOO....O....OOOOOO....OOOOOOOOOOO...........OOOOOOOOOOO...........OOOO.......O...O...OOO...........................................
.....................................................O.OO.O.........................................................................................................................................................................................................................................................................................O...OO...................O.O.....OO...OOOOOOOO........O.O......OOO........................O..............................................................................................................................O.OO...O..OO..OOOOOOOOOO.O...O.OOO.....OOOOOOOO........OOOOOOOO........OOOOOOOO........OOOO......OOOO.O........O..O..OO....O.OO........................................................O.......O......O..O...O..O.O......OOOO...........OOOOOOOOOOO...........OOOOOOOOOOO....OOOOOO.....O..O..O.......O.......O...........................
..................................................OO........OO.........................................................................................................................................................................................................................................................................................O....................OOO...................OOOOOOOO....O.....O..O..................O...O...............................................................................................................................OOO...OO..O..O.........O.OO...OO.OOOOO........OOOOOOOO........OOOOOOOO........OOOOOOOO......OOO......OOOOOOOO.OOOO.O..O....OOO.......................................................OOO.....OOO....OOO.O...OO...OOOOOOO....OOOOOOOOOOO...........OOOOOOOOOOO...........OOOO......OOOO....O....O....OOO.....OOO..........................
..................................................OOOO....OOOO......................................................................................................................................................................................................................................................................................O...................................OOOOOOOOOO..................O..O..................O...O...............................................................................................................................OO..O...O.......O.OOOOO....O..........OOOOOOOO........OOOOOOOO........OOOOOOOO........OOOOOOOOOO.OOOO.........O.O..O..OO...OO.......................................................OO.O....OO..O..O........O.OOOO......OOOO...........OOOOOOOOOOO...........OOOOOOOOOOO.....OOO.O...O.OOOOOOOOOO..OO..O...OO.O..........................
.......................................................OO.............................................................................................................................................................................................................................................................................................OO.................O.....O.........O........OOOOOOOOO..........O.O..O.................O....................................................................................................................................O...O....OO..O.....OOOO........OOOO........OOOOOOOO........OOOOOOOO........OOOOOOOO....O....OO.....O.O.....OO..OO....O...........................................................OOO....O..O.OOOO.OOOOOOOO......OOO......OOOOOOOOOOO...........OOOOOOOOOOO...........OOOOO.OO...OO.O.........O..O..OO...OOO...........................
.....................................................O....O.............................................................................................................................................................................................................................................................................................................OOO..............OOOOOOOOO.........O........O.O..OOO.......................................................................................................................................................OO................OO.OO.....O....OOOOOOOO........OOOOOOOO........OOOOOOOO........OOOO.......O......O..............O.............................................................OO...OO..O..O.O.........OOOO.OOOOOOOOOO...........OOOOOOOOOOO...........OOOOOOOOOOO..........O....OOOOO.O.......O...O..OO...........................
.................................................OOO.O....O.OOO........................................................................................................................................................................................................................................................................................................OO.....OO..................OOOOOOOO..............OO..O.........................................................................................................................................................OO.........................OOO........OOOOOOOO........OOOOOOOO........OOOOOOOO...........O.................O.....................................................................O....OO..OO.....O.O.....OO....O....OOOOOOOOOOO...........OOOOOOOOOOO...........OOOO........OOOO.....O..OO....O...O..............................
.....................................................O....O............................................................................................................................................................................................................................................................................................................O..OO...............OOOOOOO.....................O..O.O.......................................................................................................................................................................................OOOOOOOO........OOOOOOOO........OOOOOOOO........OO............................O.....................................................................O..............O......O.......OOOO...........OOOOOOOOOOO...........OOOOOOOOOOO....O.....OO.OO................OO................................
.....................................................OO..OO............................................................................................................................................................................................................................................................................................................O.O.OO.............O.......OOOOOOO.................O.OO.........................................................................................................................................................................O..........OO........OOOOOOOO........OOOOOOOO........OOOOOOOO..O.........O...........................................................................................O.................O...........OOOOOOOOOOO...........OOOOOOOOOOO...........OOO.........................OO...................................
................................................O..............O......................................................................................................................................................................................................................................................................................................OO.O...............O.OOOOOOO.......O.............O..O...........................................................................................................................................................................OOO........O..OOOOOOOO........OOOOOOOO........OOOOOOOO........OO.O.......OOO.........................................................................................O............................OO...........OOOOOOOOOOO...........OOOOOOOOOOO.................................................................
................................................OO....O..O....OO.........................................................................................................................................................................................................................................................................................................O...............OO.......OOOOOOO.OO............O.O.OO........................................................................................................................................................................O.OO.....OO.OO........OOOOOOOO........OOOOOOOO........OOOOOOOO..OO.......O.OO..........................................................................................................O.........O..OOOOOOOOOOO...........OOOOOOOOOOO...........OO..........O....................................................
..................................................OO...OO...OO........................................................................................................................................................................................................................................................................................................OO.O..............O..OOOOOOO........OO.............OO.O.O........................................................................................................................................................................OOO.....OO...OOOOOOOO........OOOOOOOO........OOOOOOOO........OO..O.......OOO.........................................................................................................OOO.......O.OO...........OOOOOOOOOOO...........OOOOOOOOOOO..O........OOO...................................................
.......................................................OO...........................................................................................................................................................................................................................................................................................................OO...OO............O.O........OOOOOOO...O................OO........................................................................................................................................................................OOO........OO........OOOOOOOO........OOOOOOOO........OOOOOOOO..OOOO......OOO........................................................................................................OO.O.......OO..OOOOOOOOOOO...........OOOOOOOOOOO...........OO.OO.....OO.O...................................................
......................................................O..O..........................................................................................................................................................................................................................................................................................................OO.O.O.............O.O..OOOOOO........O.O...............O..O..............................................................................................................................................................O........OOO..OOOOOO..OOOOOOOO........OOOOOOOO........OOOOOOOO........OO....OOO...OOO......O.................................................................................................OOO.......O..OO...........OOOOOOOOOOO...........OOOOOOOOOOO...OO.....OOO....................................................
.....................................................OO..OO........................................................................................................................................................................................................................................................................................................O..................OO...O......OOOOOO..O.O............O...OOOO............................................................................................................................................................OOO.......OO...O.....OO........OOOOOOOO........OOOOOOOO........OOOOOOOO..OOOO.OO...OO......OOO................................................................................................OOO......OOOO..OOOOOOOOOOO...........OOOOOOOOOOO...........OO........OOO....................................................
....................................................OOO..OOO......................................................................................................................................................................................................................................................................................................OOOOOO.................O.OOOOOOO.........O...............O.....O.........................................................................................................................................................OO.OOO..............OOO..OOOOOOOO........OOOOOOOO........OOOOOOOO........OO.....O...........OOO.OO.......................................................................................O......OOO...OOO....OO...........OOOOOOOOOOO...........OOOOOOOOOOO..OOOOOO..OOO........O...........................................
....................................................O.O..O.O......................................................................................................................................................................................................................................................................................................O...................O.....O.....OOOOO..O..OO.................O.O..........................................................................................................................................................O..O.OO...........OO..OO........OOOOOOOO........OOOOOOOO........OOOOOOOO..OO.OO.O........OO.O..O.......................................................................................OOO......OO...OO.OOOO..OOOOOOOOOOO...........OOOOOOOOOOO...........OO.....O...OO.......OOO..........................................
.....................................................O....O.......................................................................................................................................................................................................................................................................................................O....................O......OOO.....OOOO...................O.O.OO......................................................................................................................................................OO.O....O.O...OOOOOO....O..OOOOOOOO........OOOOOOOO........OOOOOOOO........OO......O.OOO...O.O....O.OO..................................................................................OO.OOO...........O.....OO...........OOOOOOOOOOO...........OOOOOOOOOOO..OOO..............OOO.OO........................................
.....................................................OO..OO......................................................................................................................................................................................................................................................................................................OO.O....................O.......O..O.........................OO.........................................................................................................................................................OO.O.O..O.OO.OO.O.O..O...OO........OOOOOOOO........OOOOOOOO........OOOOOOOO..OOO.OOO.O.OO.OO.O..O.O.OO...................................................................................O..O.OO........O.OO.OO..OOOOOOOOOOO...........OOOOOOOOOOO...........OO..OO...........OO.O..O.........................................
...................................................OO......OO........................................................................................................................................................................................................................................................................................................O....................O.........O...........................OOO......................................................................................................................................................O........O.O.O.O..O.......OOOOOOOOO........OOOOOOOO........OOOOOOOO.........OOOO.O.O.O..O.O.O........O................................................................................OO.O....O.O...OOO.O......OO...........OOOOOOOOOOO...........OOOOOOOOOOO..O....OOOOOO...O.O....O.OO......................................
.................................................................................................................................................................................................................................................................................................................................................................OOOO.............................................................O.....................................................................................................................................................OO.......OO.O.....O....OO...........OOOOOOOO........OOOOOOOO........OOOOOOOOOO..........O..O.OO.......OO...............................................................................OO.O.O..O.OO.OO.O.OOO.OOO..OOOOOOOOOOO...........OOOOOOOOOOO...........OO...O..O.O.OO.OO.O..O.O.OO......................................
...................................................OO......OO....................................................................................................................................................................................................................................................................................................O.OO.OO....................................................OOO.....................................................................................................................................................................O..............OOOOOOOOO........OOOOOOOO........OOOOOOOO.......................O...........................................................................................O........O.O.O..O.O.O.OOOO............OOOOOOOOOOO...........OOOOOOOOOOOO.......O..O.O.O.O........O......................................
...................................................OO.O..O.OO........................................................................................................................................................................................................................................................................................................O.O...................................................O..O..O.............................................................................................................................................................OOO.O........................OOOOOOOO........OOOOOOOO........OOOOOOOO................O.OOO.....................................................................................OO.......OO.O..O..........OOOOOOOOOOOOO...........OOOOOOOOOOO..............OO....O.....O.OO.......OO.....................................
.................................................OO..........OO.....................................................................................................................................................................................................................................................................................................O..O......................................................OO..............................................................................................................................................................OO....................OOOOOOOO........OOOOOOOO........OOOOOOOO........O...................OO................................................................................................O..........................OOOOOOOOOOO...........OOOOOOOOOOOO..............O.................................................
................................................OO............OO....................................................................................................................................................................................................................................................................................................OOOO......................................................O...............................................................................................................................................................O....................O........OOOOOOOO........OOOOOOOO........OOOOOOOO.O...................O...........................................................................................OOO.O................OOOOOOOOOOO...........OOOOOOOOOOO...........................O.OOO............................................
...............................................OO...OO....OO...OO..................................................................................................................................................................................................................................................................................................O..O.......................................................OOO............................................................................................................................................................OO..................OO.OOOOOOOO........OOOOOOOO........OOOOOOOO........OO...................OO.........................................................................................OO...................O...........OOOOOOOOOOO...........OOOOOOOOOOO....................OO...........................................
................................................OO............OO..................................................................................................................................................................................................................................................................................................OOO.......................................................OOOOO................................................................................................................................................................................OO.........OOOOOOOO........OOOOOOOO........OOOOOOOO...O............................................................................................................O...................O.OOOOOOOOOOO...........OOOOOOOOOOO...........O....................O...........................................
................................................OOO..........OOO..................................................................................................................................................................................................................................................................................................OOO........................................................O.................................................................................................................................................................................O....OOOOOOOO........OOOOOOOO........OOOOOOOO........OOOO...........................................................................................................OO...................OO...........OOOOOOOOOOO...........OOOOOOOOOOO.OO..................OO..........................................
...................................................OO......OO.......................................................................................................................................................................................................................................................................................................O.O.......................................................OO...............................................................................................................................................................................OOOOO........OOOOOOOO........OOOOOOOO........OOOOOOOO....O......................................................................................................O.......................O..OOOOOOOOOOO...........OOOOOOOOOOO............OO.......................O......................................
...................................................OO......OO..............................................................................................................................................................................................................................................................................................................................................................................................................................................................................................................................................O.OO.....OOOOOOOO........OOOOOOOO........OOOOOOOO........OOOOOO.OO.................................................................................................OOO.....................O.O............OOOOOOOOOOO...........OOOOOOOOOOO...O.....................OOO.....................................
................................................OO....O..O....OO.........................................................................................................................................................................................................................................................................................................................................................................................................................................................................................................................................OO.O.OOOOOO........OOOOOOOO........OOOOOOOO........OOOOOOOO......OO.OO...............................................................................................O.OO....................O.O..OOOOOOOOOO...........OOOOOOOOOOO............O.O.....................O.OO....................................
...................................................OO.O..O.OO.....................................................................................................................................................................................................................................................................................................................................................................................................................................................................................................................................OOO...O...O.......OOOOOOOO........OOOOOOOO........OOOOOOOO........OOOOOO....O....OOO..........................................................................O..............OOO.......OOO.OOO.....OO...O..........OOOOOOOOOOO...........OOOOOOOOOO..O.O......OOO.OOO.........OOO............O.......................
...................................................O...OO...O.....................................................................................................................................................................................................................................................................................................................................................................................................................................................................................................................O.......O.......O..O..O.....OOOOOO........OOOOOOOO........OOOOOOOO........OOOOOOOO......O.O..O...O..O......O.......O.........................................................OOO.....O.......OO.OOO...O..OOO..O.......O.OOOOOOOOOOO...........OOOOOOOOOOO.............O......O..OOO..O...OOO..OO......O.....OOO......................
..................................................O..OOOOOO..O...................................................................................................................................................................................................................................................................................................................................................................................................................................................................................................................OOO.....OOO....O....O....OOOO......OOOOOOOO........OOOOOOOO........OOOOOOOO........OOOOOOO...OO...O.OOO....OOO.....OOO.......................................................OO.O....OOO............O.O...O.....O...O.....O.........OOOOOOOOOOO...........OOOOOOOOO..O..OO...O...O.....O.O..O..O.O....OOO...OO.O......................
................................................O....OO..OO....O.................................................................................................................................................................................................................................................................................................................................................................................................................................................................................................................O.OO...O..OO..OOOOOOOOOO.O...O.OOO.........OOOOOOOO........OOOOOOOO........OOOOOOOO......OOOO.O........O..O..OO....O.OO......................................................OOO....OO..O..OOO......O...OO.O....O....O......OOOOOOOO...........OOOOOOOOOOO........OOOO......O..OO.O....OO...O..O.O.O.OO.O...OOO.......................
...............................................OO......OO......OO.................................................................................................................................................................................................................................................................................................................................................................................................................................................................................................................OOO...OO..O..O.........O.OO...OO.OOOOOOOOO........OOOOOOOO........OOOOOOOO..........OOO......OOOOOOOO.OOOO.O..O....OOO......................................................OOO....OO.OOO.O........OOOO.........O.....O............OOOOOOOOOOO...........OOOOOOO...........OOO............O...O.......O....OOO.......................
..................................................................................................................................................................................................................................................................................................................................................................................................................................................................................................................................................................................OO..O...O.......O.OOOOO....O..............OOOOOOOO........OOOOOOOO........OOOOOOOOOOOOOO.OOOO.........O.O..O..OO...OO........................................................OO..OOO.........O..OO...........OOOOO..O..O....OOOOOOO...........OOOOOOOOOOO.......O.....OO.OO.........O....O...........OOOO...OO.......................
.....................................................................................................................................................................................................................................................................................................................................................................................................................................................................................................................................................................................O...O....OO..O.....OOOO........OOOOOOOO........OOOOOOOO........OOOOOOOO........O....OO.....O.O.....OO..OO....O.............................................................................................OO.O.O.O..O..O.......OOOOOOOOOOO...........OOOOOOOO...O..O...O......................O.O.OOOO...........................
.......................................................................................................................................................................................................................................................................................................................................................................................................................................................................................................................................................................................OO................OO.OO.....O........OOOOOOOO........OOOOOOOO........OOOOOOOO.......O......O..............O.................................................................O............................O.O.......OO....OOOOO...........OOOOOOOOOOO......OO.OO....................................OO...........................
..........................................................................................................................................................................................................................................................................................................................................................................................................................................................................................................................................................................................OO.........................OOOOOOO........OOOOOOOO........OOOOOOOO...............O.................O..............................................................................O.......O..........O.O..OO..OOOO.........OOOOOOOOOOO...........OOOO....O...OOOO...OOOO.........O.......O...................................
............................................................................................................................................................................................................................................................................................................................................................................................................................................................................................................................................................................................................................OOOOOOOO........OOOOOOOO........OOOOOO............................O............................................................................OOO.....OOO........OO.O...............OOOO...........OOOOOOOOOOO....O...OOOOOO.................OOO.....OOO..................................
......................................................................................................................................................................................................................................................................................................................................................................................................................................................................................................................................................................................................................OOOOOO........OOOOOOOO........OOOOOOOO......O........................................................................................................O.OO...O..OO......O...O.......O.O....O....OOOOOOOOOOO...........OOOO.O....O......O...OOO......O..OO....O.OO.................................
.....................................................................................................................................................................................................................................................................................................................................................................................................................................................................................................................................................................................................................O......OOOOOOOO........OOOOOOOO........OOOOOO.O........................................................................................................OOO.......O..OO.OOOO..O......O.O..OO.OOOO...........OOOOOOOOOOO....OO............OOOO..O.OO.O.O........OOO.................................
...................................................................................................................................................................................................................................................................................................................................................................................................................................................................................................................................................................................................................OO.OOOOOO........OOOOOOOO........OOOOOOOO......OO........................................................................................................OOO..OO.OOOO.OO...................OO.....OOOOOOOOOOO...........OOOO...O..............O...OO...O...OO...OOO.................................
...................................................................................................................................................................................................................................................................................................................................................................................................................................................................................................................................................................................................................OO.......OOOOOOOO........OOOOOOOO........OOOOOO...O......................................................................................................OOO.O.O..O.OO..O...O..O.........O....OOOO...........OOOOOOOOOOO....OOOO..................OOO...........OOO.................................
.................................................................................................................................................................................................................................................................................................................................................................................................................................................................................................................................................................................................................O....OOOOOO........OOOOOOOO........OOOOOOOO......OOOO......................................................................................................OO...........O......O...........OOOOO....OOOOOOOOOOO...........OOOO....O......................O...O....OO..................................
.................................................................................................................................................................................................................................................................................................................................................................................................................................................................................................................................................................................................................OOOOO......OOOOOOOO........OOOOOOOO........OOOOOO....O..................................................................................................................O..............O.OO.....OOOO...........OOOOOOOOOOO....OOOOOO.OO...................OO..........................................
.............................................................................................................................................................................................................................................................................................................................................................................................................................................................................................................................................................................................................O.OO.....OOOOOO........OOOOOOOO........OOOOOOOO......OOOOOO.OO...........................................................................................................................OO.O.OOOOOO....OOOOOOOOOOO...........OOOO......OO.OO.............................................................
...........................................................................................................................................................................................................................................................................................................................................................................................................................................................................................................................................................................................................OO.O.OOOOOO......OOOOOOOO........OOOOOOOO........OOOOOO......OO.OO..................................................................................................................OOO...O...O.......OOOO...........OOOOOOOOOOO....OOOOOO....O....OOO......................................................
....................................................................................................................................................................................................................................................................................................................................................................................................................................................................................................................................................................................................OOO...O...O.......OOOOOO........OOOOOOOO........OOOOOOOO......OOOOOO....O....OOO...........................................................................................O.......O.......O..O..O.....OOOOOO....OOOOOOOOOOO...........OOOO......O.O..O...O..O......O.......O......................................
....................................................................................................................................................................................................................................................................................................................................................................................................................................................................................................................................................................................O.......O.......O..O..O.....OOOOOO......OOOOOOOO........OOOOOOOO........OOOOOO......O.O..O...O..O......O.......O..........................................................................OOO.....OOO....O....O....OOOO......OOOO...........OOOOOOOOOOO....OOOOOOO...OO...O.OOO....OOO.....OOO.....................................
...................................................................................................................................................................................................................................................................................................................................................................................................................................................................................................................................................................................OOO.....OOO....O....O....OOOO......OOOOOO........OOOOOOOO........OOOOOOOO......OOOOOOO...OO...O.OOO....OOO.....OOO.........................................................................O.OO...O..OO..OOOOOOOOOO.O...O.OOO.....OOOOOOOOOOO...........OOOO......OOOO.O........O..O..OO....O.OO....................................
...................................................................................................................................................................................................................................................................................................................................................................................................................................................................................................................................................................................O.OO...O..OO..OOOOOOOOOO.O...O.OOO.......OOOOOOOO........OOOOOOOO........OOOOOO......OOOO.O........O..O..OO....O.OO.........................................................................OOO...OO..O..O.........O.OO...OO.OOOOO...........OOOOOOOOOOO......OOO......OOOOOOOO.OOOO.O..O....OOO....................................
....................................................................................................................................................................................................................................................................................................................................................................................................................................................................................................................................................................................OOO...OO..O..O.........O.OO...OO.OOOOOOO........OOOOOOOO........OOOOOOOO........OOO......OOOOOOOO.OOOO.O..O....OOO.........................................................................OO..O...O.......O.OOOOO....O..........OOOOOOOOOOO...........OOOOOOOOOO.OOOO.........O.O..O..OO...OO.....................................
....................................................................................................................................................................................................................................................................................................................................................................................................................................................................................................................................................................................OO..O...O.......O.OOOOO....O............OOOOOOOO........OOOOOOOO........OOOOOOOOOOOO.OOOO.........O.O..O..OO...OO.............................................................................O...O....OO..O.....OOOO........OOOO...........OOOOOOOOOOO....O....OO.....O.O.....OO..OO....O.........................................
.......................................................................................................................................................................................................................................................................................................................................................................................................................................................................................................................................................................................O...O....OO..O.....OOOO........OOOOOO........OOOOOOOO........OOOOOOOO......O....OO.....O.O.....OO..OO....O...................................................................................OO................OO.OO.....O....OOOOOOOOOOO...........OOOO.......O......O..............O..........................................
.........................................................................................................................................................................................................................................................................................................................................................................................................................................................................................................................................................................................OO................OO.OO.....O......OOOOOOOO........OOOOOOOO........OOOOOO.......O......O..............O.......................................................................................OO.........................OOO...........OOOOOOOOOOO...........O.................O..............................................
............................................................................................................................................................................................................................................................................................................................................................................................................................................................................................................................................................................................OO.........................OOOOO........OOOOOOOO........OOOOOOOO.............O.................O.........................................................................................................................OOOOOOOOOOO...........OO............................O.............................................
............................................................................................................................................................................................................................................................................................................................................................................................................................................................................................................................................................................................................................OOOOOOOO........OOOOOOOO........OOOO............................O...........................................................................................................O..........OO...........OOOOOOOOOOO..O.........O...............................................................
........................................................................................................................................................................................................................................................................................................................................................................................................................................................................................................................................................................................................................OOOO........OOOOOOOO........OOOOOOOO....O......................................................................................................................................OOO........O..OOOOOOOOOOO...........OO.O.......OOO..............................................................
.......................................................................................................................................................................................................................................................................................................................................................................................................................................................................................................................................................................................................................O....OOOOOOOO........OOOOOOOO........OOOO.O.....................................................................................................................................O.OO.....OO.OO...........OOOOOOOOOOO..OO.......O.OO.............................................................
.....................................................................................................................................................................................................................................................................................................................................................................................................................................................................................................................................................................................................................OO.OOOO........OOOOOOOO........OOOOOOOO....OO......................................................................................................................................OOO.....OO...OOOOOOOOOOO...........OO..O.......OOO.............................................................
.....................................................................................................................................................................................................................................................................................................................................................................................................................................................................................................................................................................................................................OO.....OOOOOOOO........OOOOOOOO........OOOO...O....................................................................................................................................OOO........OO...........OOOOOOOOOOO..OOOO......OOO.............................................................
...................................................................................................................................................................................................................................................................................................................................................................................................................................................................................................................................................................................................................O....OOOO........OOOOOOOO........OOOOOOOO....OOOO...........................................................................................................................O........OOO..OOOOOO..OOOOOOOOOOO...........OO....OOO...OOO......O......................................................
...................................................................................................................................................................................................................................................................................................................................................................................................................................................................................................................................................................................................................OOOOO....OOOOOOOO........OOOOOOOO........OOOO....O.........................................................................................................................OOO.......OO...O.....OO...........OOOOOOOOOOO..OOOO.OO...OO......OOO.....................................................
...............................................................................................................................................................................................................................................................................................................................................................................................................................................................................................................................................................................................................O.OO.....OOOO........OOOOOOOO........OOOOOOOO....OOOOOO.OO...................................................................................................................OO.OOO..............OOO..OOOOOOOOOOO...........OO.....O...........OOO.OO...................................................
.............................................................................................................................................................................................................................................................................................................................................................................................................................................................................................................................................................................................................OO.O.OOOOOO....OOOOOOOO........OOOOOOOO........OOOO......OO.OO..................................................................................................................O..O.OO...........OO..OO...........OOOOOOOOOOO..OO.OO.O........OO.O..O....................................................
......................................................................................................................................................................................................................................................................................................................................................................................................................................................................................................................................................................................................OOO...O...O.......OOOO........OOOOOOOO........OOOOOOOO....OOOOOO....O....OOO........................................................................................................OO.O....O.O...OOOOOO....O..OOOOOOOOOOO...........OO......O.OOO...O.O....O.OO.................................................
......................................................................................................................................................................................................................................................................................................................................................................................................................................................................................................................................................................................O.......O.......O..O..O.....OOOOOO....OOOOOOOO........OOOOOOOO........OOOO......O.O..O...O..O......O.......O........................................................................................OO.O.O..O.OO.OO.O.O..O...OO...........OOOOOOOOOOO..OOO.OOO.O.OO.OO.O..O.O.OO.................................................
.....................................................................................................................................................................................................................................................................................................................................................................................................................................................................................................................................................................................OOO.....OOO....O....O....OOOO......OOOO........OOOOOOOO........OOOOOOOO....OOOOOOO...OO...O.OOO....OOO.....OOO.......................................................................................O........O.O.O.O..O.......OOOOOOOOOOOO............OOOO.O.O.O..O.O.O........O.................................................
.....................................................................................................................................................................................................................................................................................................................................................................................................................................................................................................................................................................................O.OO...O..OO..OOOOOOOOOO.O...O.OOO.....OOOOOOOO........OOOOOOOO........OOOO......OOOO.O........O..O..OO....O.OO.....................................................................................OO.......OO.O.....O....OO..............OOOOOOOOOOOOO..........O..O.OO.......OO................................................
......................................................................................................................................................................................................................................................................................................................................................................................................................................................................................................................................................................................OOO...OO..O..O.........O.OO...OO.OOOOO........OOOOOOOO........OOOOOOOO......OOO......OOOOOOOO.OOOO.O..O....OOO.................................................................................................O..............OOOOOOOOOOOO..........................O............................................................
......................................................................................................................................................................................................................................................................................................................................................................................................................................................................................................................................................................................OO..O...O.......O.OOOOO....O..........OOOOOOOO........OOOOOOOO........OOOOOOOOOO.OOOO.........O.O..O..OO...OO.............................................................................................OOO.O...........................OOOOOOOOOOO................O.OOO.......................................................
.........................................................................................................................................................................................................................................................................................................................................................................................................................................................................................................................................................................................O...O....OO..O.....OOOO........OOOO........OOOOOOOO........OOOOOOOO....O....OO.....O.O.....OO..OO....O................................................................................................OO....................OOOOOOOOOOO...........O...................OO......................................................
...........................................................................................................................................................................................................................................................................................................................................................................................................................................................................................................................................................................................OO................OO.OO.....O....OOOOOOOO........OOOOOOOO........OOOO.......O......O..............O.................................................................................................O....................O...........OOOOOOOOOOO.O...................O......................................................
..............................................................................................................................................................................................................................................................................................................................................................................................................................................................................................................................................................................................OO.........................OOO........OOOOOOOO........OOOOOOOO...........O.................O....................................................................................................OO..................OO.OOOOOOOOOOO...........OO...................OO.....................................................
............................................................................................................................................................................................................................................................................................................................................................................................................................................................................................................................................................................................................................OOOOOOOO........OOOOOOOO........OO............................O...............................................................................................O.......................OO............OOOOOOOOOOO..O.......................O.................................................
...............................................................................................................................................................................................................................................................................................................................................................................................................................................................................................................................................................................................................O..........OO........OOOOOOOO........OOOOOOOO..O.........O................................................................................................................OOO.....................O...OOOOOOOOOOO............O.O.....................OOO................................................
..............................................................................................................................................................................................................................................................................................................................................................................................................................................................................................................................................................................................................OOO........O..OOOOOOOO........OOOOOOOO........OO.O.......OOO..............................................................................................................OO.O.....................O.O............OOOOOOOOOO..O.O....................OO.O................................................
..............................................................................................................................................................................................................................................................................................................................................................................................................................................................................................................................................................................................................O.OO.....OO.OO........OOOOOOOO........OOOOOOOO..OO.......O.OO................................................................................................O............OOO.........OOO.OOO......O.O..OOOOOOOOOO..........O...OO.....OOO.OOO.......OOO..............O..................................
...............................................................................................................................................................................................................................................................................................................................................................................................................................................................................................................................................................................................................OOO.....OO...OOOOOOOO........OOOOOOOO........OO..O.......OOO...............................................................................................OOO.....O......OO..OOO...O..OOO..O......O.............OOOOOOOOOOO.O.......O..OOO..O...OOO.OO.......O.....OOO.................................
...............................................................................................................................................................................................................................................................................................................................................................................................................................................................................................................................................................................................................OOO........OO........OOOOOOOO........OOOOOOOO..OOOO......OOO...............................................................................................O.OO...OOO....O.O..O..O.O.....O...O...OO..O..OOOOOOOOO.........O.....O...O.....O...O.O............OOO....O.OO................................
......................................................................................................................................................................................................................................................................................................................................................................................................................................................................................................................................................................................................O........OOO..OOOOOO..OOOOOOOO........OOOOOOOO........OO....OOO...OOO......O.........................................................................................OOO...O.OO.O.O.O..O...OO....O.OO..O......OOOO........OOOOOOOO......O....O....O.OO...O......OOO..O..OO....OOO................................
.....................................................................................................................................................................................................................................................................................................................................................................................................................................................................................................................................................................................................OOO.......OO...O.....OO........OOOOOOOO........OOOOOOOO..OOOO.OO...OO......OOO........................................................................................OOO....O.......O...O............OOO...........OOOOOOO............O.....O.........OOOO........O.OOO.OO....OOO................................
...................................................................................................................................................................................................................................................................................................................................................................................................................................................................................................................................................................................................OO.OOO..............OOO..OOOOOOOO........OOOOOOOO........OO.....O...........OOO.OO......................................................................................OO...OOOO...........O....O.........OO.OO.....O.......OOOOOOO....O..O..OOOOO...........OO..O.........OOO..OO.................................
....................................................................................................................................................................................................................................................................................................................................................................................................................................................................................................................................................................................................O..O.OO...........OO..OO........OOOOOOOO........OOOOOOOO..OO.OO.O........OO.O..O...........................................................................................OOOO.O.O......................O...O..O...OOOOOOOO.......O..O..O.O.O.OO..................................................................
.................................................................................................................................................................................................................................................................................................................................................................................................................................................................................................................................................................................................OO.O....O.O...OOOOOO....O..OOOOOOOO........OOOOOOOO........OO......O.OOO...O.O....O.OO........................................................................................OO....................................OO.OO......OOOOO....OO.......O.O............................O.....................................
.................................................................................................................................................................................................................................................................................................................................................................................................................................................................................................................................................................................................OO.O.O..O.OO.OO.O.O..O...OO........OOOOOOOO........OOOOOOOO..OOO.OOO.O.OO.OO.O..O.O.OO................................................................................................O.......O.........OOOO...OOOO...O....OOOO.........OOOO..OO..O.O..........O.......O..............................................
.................................................................................................................................................................................................................................................................................................................................................................................................................................................................................................................................................................................................O........O.O.O.O..O.......OOOOOOOOO........OOOOOOOO.........OOOO.O.O.O..O.O.O........O...............................................................................................OOO.....OOO.................OOOOOO...O....OOOO...............O.OO........OOO.....OOO.............................................
................................................................................................................................................................................................................................................................................................................................................................................................................................................................................................................................................................................................OO.......OO.O.....O....OO...........OOOOOOOO........OOOOOOOOOO..........O..O.OO.......OO.............................................................................................OO.O....OO..O......OOO...O......O....O.OOOO....O....O.O.......O...O......OO..O...OO.O.............................................
............................................................................................................................................................................................................................................................................................................................................................................................................................................................................................................................................................................................................O..............OOOOOOOOO........OOOOOOOO.......................O.........................................................................................................OOO........O.O.OO.O..OOOO............OO....OOOO.OO..O.O......O..OOOO.OO..O.......OOO..............................................
.......................................................................................................................................................................................................................................................................................................................................................................................................................................................................................................................................................................................................OOO.O........................OOOOOOOO........OOOOOOOO................O.OOO....................................................................................................OOO...OO...O...OO...O..............O...OOOO.....OO...................OO.OOOO.OO..OOO..............................................
......................................................................................................................................................................................................................................................................................................................................................................................................................................................................................................................................................................................................OO....................OOOOOOOO........OOOOOOOO........O...................OO...................................................................................................OOO...........OOO..................OOOO....OOOO....O.........O..O...O..OO.O..O.O.OOO..............................................
......................................................................................................................................................................................................................................................................................................................................................................................................................................................................................................................................................................................................O....................O........OOOOOOOO........OOOOOOOO.O...................O....................................................................................................OO....O...O......................O....OOOO....OOOOO...........O......O...........OO..............................................
.....................................................................................................................................................................................................................................................................................................................................................................................................................................................................................................................................................................................................OO..................OO.OOOOOOOO........OOOOOOOO........OO...................OO...........................................................................................................OO...................OO.OOOOOO....OOOO.....OO.O..............O...........................................................
.........................................................................................................................................................................................................................................................................................................................................................................................................................................................................................................................................................................................................................OO.........OOOOOOOO........OOOOOOOO...O.................................................................................................................................................OO.OO......OOOO....OOOOOO.O.OO........................................................................
.......................................................................................................................................................................................................................................................................................................................................................................................................................................................................................................................................................................................................................O....OOOOOOOO........OOOOOOOO........OOOO..........................................................................................................................................OOO....O....OOOOOO....OOOO.......O...O...OOO.................................................................
.......................................................................................................................................................................................................................................................................................................................................................................................................................................................................................................................................................................................................................OOOOO........OOOOOOOO........OOOOOOOO....O.........................................................................................................................O.......O......O..O...O..O.O......OOOO....OOOOOO.....O..O..O.......O.......O.................................................
...................................................................................................................................................................................................................................................................................................................................................................................................................................................................................................................................................................................................................O.OO.....OOOOOOOO........OOOOOOOO........OOOOOO.OO....................................................................................................................OOO.....OOO....OOO.O...OO...OOOOOOO....OOOO......OOOO....O....O....OOO.....OOO................................................
.................................................................................................................................................................................................................................................................................................................................................................................................................................................................................................................................................................................................................OO.O.OOOOOO........OOOOOOOO........OOOOOOOO......OO.OO.................................................................................................................OO.O....OO..O..O........O.OOOO......OOOO.....OOO.O...O.OOOOOOOOOO..OO..O...OO.O................................................
..........................................................................................................................................................................................................................................................................................................................................................................................................................................................................................................................................................................................................OOO...O...O.......OOOOOOOO........OOOOOOOO........OOOOOO....O....OOO..........................................................................................................OOO....O..O.OOOO.OOOOOOOO......OOO......OOOOO.OO...OO.O.........O..O..OO...OOO.................................................
..........................................................................................................................................................................................................................................................................................................................................................................................................................................................................................................................................................................................O.......O.......O..O..O.....OOOOOO........OOOOOOOO........OOOOOOOO......O.O..O...O..O......O.......O...........................................................................................OO...OO..O..O.O.........OOOO.OOOOOOOOOO..........O....OOOOO.O.......O...O..OO.................................................
.........................................................................................................................................................................................................................................................................................................................................................................................................................................................................................................................................................................................OOO.....OOO....O....O....OOOO......OOOOOOOO........OOOOOOOO........OOOOOOO...OO...O.OOO....OOO.....OOO..............................................................................................O....OO..OO.....O.O.....OO....O....OOOO........OOOO.....O..OO....O...O....................................................
.........................................................................................................................................................................................................................................................................................................................................................................................................................................................................................................................................................................................O.OO...O..OO..OOOOOOOOOO.O...O.OOO.........OOOOOOOO........OOOOOOOO......OOOO.O........O..O..OO....O.OO..............................................................................................O..............O......O.......OOOO....O.....OO.OO................OO......................................................
..........................................................................................................................................................................................................................................................................................................................................................................................................................................................................................................................................................................................OOO...OO..O..O.........O.OO...OO.OOOOOOOOO........OOOOOOOO..........OOO......OOOOOOOO.OOOO.O..O....OOO..................................................................................................O.................O...........OOO.........................OO.........................................................
..........................................................................................................................................................................................................................................................................................................................................................................................................................................................................................................................................................................................OO..O...O.......O.OOOOO....O..............OOOOOOOO........OOOOOOOOOOOOOO.OOOO.........O.O..O..OO...OO..................................................................................................O............................OO.......................................................................................
.............................................................................................................................................................................................................................................................................................................................................................................................................................................................................................................................................................................................O...O....OO..O.....OOOO........OOOOOOOO........OOOOOOOO........O....OO.....O.O.....OO..OO....O............................................................................................................................OOO...O..OO....OOO..............................................................................
...............................................................................................................................................................................................................................................................................................................................................................................................................................................................................................................................................................................................OO................OO.OO.....O........OOOOOOOO........OOOOOOOO.......O......O..............O............................................................................................................................O..O....OO.O...O..O..............................................................................
..................................................................................................................................................................................................................................................................................................................................................................................................................................................................................................................................................................................................OO.........................OOOOOOO........OOOOOOOO...............O.................O...................................................................................................................................O...OOO.O......O..............................................................................
....................................................................................................................................................................................................................................................................................................................................................................................................................................................................................................................................................................................................................................OOOOOOOO........OOOOOO............................O..................................................................................................................................O...O......O...O..............................................................................
..............................................................................................................................................................................................................................................................................................................................................................................................................................................................................................................................................................................................................................OOOOOO........OOOOOOOO......O...........................................................................................................................................................O.O..OO.OOOOOO...O...............................................................................
.............................................................................................................................................................................................................................................................................................................................................................................................................................................................................................................................................................................................................................O......OOOOOOOO........OOOOOO.O...............................................................................................................................................................O..O.O..O...................................................................................
...........................................................................................................................................................................................................................................................................................................................................................................................................................................................................................................................................................................................................................OO.OOOOOO........OOOOOOOO......OO..................................................................................................................................................................O.O..O.O.................................................................................
...........................................................................................................................................................................................................................................................................................................................................................................................................................................................................................................................................................................................................................OO.......OOOOOOOO........OOOOOO...O.........................................................................................................................................................................................................................................................
.........................................................................................................................................................................................................................................................................................................................................................................................................................................................................................................................................................................................................................O....OOOOOO........OOOOOOOO......OOOO.........................................................................................................................................................................................................................................................
.........................................................................................................................................................................................................................................................................................................................................................................................................................................................................................................................................................................................................................OOOOO......OOOOOOOO........OOOOOO....O........................................................................................................................................................................................................................................................
.....................................................................................................................................................................................................................................................................................................................................................................................................................................................................................................................................................................................................................O.OO.....OOOOOO........OOOOOOOO......OOOOOO.OO....................................................................................................................................................................................................................................................
...................................................................................................................................................................................................................................................................................................................................................................................................................................................................................................................................................................................................................OO.O.OOOOOO......OOOOOOOO........OOOOOO......OO.OO..................................................................................................................................................................................................................................................
............................................................................................................................................................................................................................................................................................................................................................................................................................................................................................................................................................................................................OOO...O...O.......OOOOOO........OOOOOOOO......OOOOOO....O....OOO...........................................................................................................................................................................................................................................
............................................................................................................................................................................................................................................................................................................................................................................................................................................................................................................................................................................................O.......O.......O..O..O.....OOOOOO......OOOOOOOO........OOOOOO......O.O..O...O..O......O.......O...........................................................................................................................................................................................................................
...........................................................................................................................................................................................................................................................................................................................................................................................................................................................................................................................................................................................OOO.....OOO....O....O....OOOO......OOOOOO........OOOOOOOO......OOOOOOO...OO...O.OOO....OOO.....OOO..........................................................................................................................................................................................................................
...........................................................................................................................................................................................................................................................................................................................................................................................................................................................................................................................................................................................O.OO...O..OO..OOOOOOOOOO.O...O.OOO.......OOOOOOOO........OOOOOO......OOOO.O........O..O..OO....O.OO.........................................................................................................................................................................................................................
............................................................................................................................................................................................................................................................................................................................................................................................................................................................................................................................................................................................OOO...OO..O..O.........O.OO...OO.OOOOOOO........OOOOOOOO........OOO......OOOOOOOO.OOOO.O..O....OOO.........................................................................................................................................................................................................................
............................................................................................................................................................................................................................................................................................................................................................................................................................................................................................................................................................................................OO..O...O.......O.OOOOO....O............OOOOOOOO........OOOOOOOOOOOO.OOOO.........O.O..O..OO...OO..........................................................................................................................................................................................................................
...............................................................................................................................................................................................................................................................................................................................................................................................................................................................................................................................................................................................O...O....OO..O.....OOOO........OOOOOO........OOOOOOOO......O....OO.....O.O.....OO..OO....O..............................................................................................................................................................................................................................
.................................................................................................................................................................................................................................................................................................................................................................................................................................................................................................................................................................................................OO................OO.OO.....O......OOOOOOOO........OOOOOO.......O......O..............O...............................................................................................................................................................................................................................
....................................................................................................................................................................................................................................................................................................................................................................................................................................................................................................................................................................................................OO.........................OOOOO........OOOOOOOO.............O.................O...................................................................................................................................................................................................................................
....................................................................................................................................................................................................................................................................................................................................................................................................................................................................................................................................................................................................................................OOOOOOOO........OOOO............................O..................................................................................................................................................................................................................................
................................................................................................................................................................................................................................................................................................................................................................................................................................................................................................................................................................................................................................OOOO........OOOOOOOO....O..............................................................................................................................................................................................................................................................
...............................................................................................................................................................................................................................................................................................................................................................................................................................................................................................................................................................................................................................O....OOOOOOOO........OOOO.O.............................................................................................................................................................................................................................................................
.............................................................................................................................................................................................................................................................................................................................................................................................................................................................................................................................................................................................................................OO.OOOO........OOOOOOOO....OO.............................................................................................................................................................................................................................................................
.............................................................................................................................................................................................................................................................................................................................................................................................................................................................................................................................................................................................................................OO.....OOOOOOOO........OOOO...O...........................................................................................................................................................................................................................................................
...........................................................................................................................................................................................................................................................................................................................................................................................................................................................................................................................................................................................................................O....OOOO........OOOOOOOO....OOOO...........................................................................................................................................................................................................................................................
...........................................................................................................................................................................................................................................................................................................................................................................................................................................................................................................................................................................................................................OOOOO....OOOOOOOO........OOOO....O..........................................................................................................................................................................................................................................................
.......................................................................................................................................................................................................................................................................................................................................................................................................................................................................................................................................................................................................................O.OO.....OOOO........OOOOOOOO....OOOOOO.OO......................................................................................................................................................................................................................................................
.....................................................................................................................................................................................................................................................................................................................................................................................................................................................................................................................................................................................................................OO.O.OOOOOO....OOOOOOOO........OOOO......OO.OO....................................................................................................................................................................................................................................................
..............................................................................................................................................................................................................................................................................................................................................................................................................................................................................................................................................................................................................OOO...O...O.......OOOO........OOOOOOOO....OOOOOO....O....OOO.............................................................................................................................................................................................................................................
..............................................................................................................................................................................................................................................................................................................................................................................................................................................................................................................................................................................................O.......O.......O..O..O.....OOOOOO....OOOOOOOO........OOOO......O.O..O...O..O......O.......O.............................................................................................................................................................................................................................
.............................................................................................................................................................................................................................................................................................................................................................................................................................................................................................................................................................................................OOO.....OOO....O....O....OOOO......OOOO........OOOOOOOO....OOOOOOO...OO...O.OOO....OOO.....OOO............................................................................................................................................................................................................................
.............................................................................................................................................................................................................................................................................................................................................................................................................................................................................................................................................................................................O.OO...O..OO..OOOOOOOOOO.O...O.OOO.....OOOOOOOO........OOOO......OOOO.O........O..O..OO....O.OO...........................................................................................................................................................................................................................
..............................................................................................................................................................................................................................................................................................................................................................................................................................................................................................................................................................................................OOO...OO..O..O.........O.OO...OO.OOOOO........OOOOOOOO......OOO......OOOOOOOO.OOOO.O..O....OOO...........................................................................................................................................................................................................................
..............................................................................................................................................................................................................................................................................................................................................................................................................................................................................................................................................................................................OO..O...O.......O.OOOOO....O..........OOOOOOOO........OOOOOOOOOO.OOOO.........O.O..O..OO...OO............................................................................................................................................................................................................................
.................................................................................................................................................................................................................................................................................................................................................................................................................................................................................................................................................................................................O...O....OO..O.....OOOO........OOOO........OOOOOOOO....O....OO.....O.O.....OO..OO....O................................................................................................................................................................................................................................
...................................................................................................................................................................................................................................................................................................................................................................................................................................................................................................................................................................................................OO................OO.OO.....O....OOOOOOOO........OOOO.......O......O..............O.................................................................................................................................................................................................................................
......................................................................................................................................................................................................................................................................................................................................................................................................................................................................................................................................................................................................OO.........................OOO........OOOOOOOO...........O.................O.....................................................................................................................................................................................................................................
....................................................................................................................................................................................................................................................................................................................................................................................................................................................................................................................................................................................................................................OOOOOOOO........OO............................O....................................................................................................................................................................................................................................
.......................................................................................................................................................................................................................................................................................................................................................................................................................................................................................................................................................................................................................O..........OO........OOOOOOOO..O.........O......................................................................................................................................................................................................................................................
......................................................................................................................................................................................................................................................................................................................................................................................................................................................................................................................................................................................................................OOO........O..OOOOOOOO........OO.O.......OOO.....................................................................................................................................................................................................................................................
......................................................................................................................................................................................................................................................................................................................................................................................................................................................................................................................................................................................................................O.OO.....OO.OO........OOOOOOOO..OO.......O.OO....................................................................................................................................................................................................................................................
.......................................................................................................................................................................................................................................................................................................................................................................................................................................................................................................................................................................................................................OOO.....OO...OOOOOOOO........OO..O.......OOO....................................................................................................................................................................................................................................................
.......................................................................................................................................................................................................................................................................................................................................................................................................................................................................................................................................................................................................................OOO........OO........OOOOOOOO..OOOO......OOO....................................................................................................................................................................................................................................................
..............................................................................................................................................................................................................................................................................................................................................................................................................................................................................................................................................................................................................O........OOO..OOOOOO..OOOOOOOO........OO....OOO...OOO......O.............................................................................................................................................................................................................................................
.............................................................................................................................................................................................................................................................................................................................................................................................................................................................................................................................................................................................................OOO.......OO...O.....OO........OOOOOOOO..OOOO.OO...OO......OOO............................................................................................................................................................................................................................................
...........................................................................................................................................................................................................................................................................................................................................................................................................................................................................................................................................................................................................OO.OOO..............OOO..OOOOOOOO........OO.....O...........OOO.OO..........................................................................................................................................................................................................................................
............................................................................................................................................................................................................................................................................................................................................................................................................................................................................................................................................................................................................O..O.OO...........OO..OO........OOOOOOOO..OO.OO.O........OO.O..O...........................................................................................................................................................................................................................................
.........................................................................................................................................................................................................................................................................................................................................................................................................................................................................................................................................................................................................OO.O....O.O...OOOOOO....O..OOOOOOOO........OO......O.OOO...O.O....O.OO........................................................................................................................................................................................................................................
.........................................................................................................................................................................................................................................................................................................................................................................................................................................................................................................................................................................................................OO.O.O..O.OO.OO.O.O..O...OO........OOOOOOOO..OOO.OOO.O.OO.OO.O..O.O.OO........................................................................................................................................................................................................................................
.........................................................................................................................................................................................................................................................................................................................................................................................................................................................................................................................................................................................................O........O.O.O.O..O.......OOOOOOOOO.........OOOO.O.O.O..O.O.O........O........................................................................................................................................................................................................................................
........................................................................................................................................................................................................................................................................................................................................................................................................................................................................................................................................................................................................OO.......OO.O.....O....OO...........OOOOOOOOOO..........O..O.OO.......OO.......................................................................................................................................................................................................................................
....................................................................................................................................................................................................................................................................................................................................................................................................................................................................................................................................................................................................................O..............OOOOOOOOO.......................O...................................................................................................................................................................................................................................................
...............................................................................................................................................................................................................................................................................................................................................................................................................................................................................................................................................................................................................OOO.O........................OOOOOOOO................O.OOO..............................................................................................................................................................................................................................................
..............................................................................................................................................................................................................................................................................................................................................................................................................................................................................................................................................................................................................OO....................OOOOOOOO........O...................OO.............................................................................................................................................................................................................................................
..............................................................................................................................................................................................................................................................................................................................................................................................................................................................................................................................................................................................................O....................O........OOOOOOOO.O...................O.............................................................................................................................................................................................................................................
.............................................................................................................................................................................................................................................................................................................................................................................................................................................................................................................................................................................................................OO..................OO.OOOOOOOO........OO...................OO............................................................................................................................................................................................................................................
.................................................................................................................................................................................................................................................................................................................................................................................................................................................................................................................................................................................................................................OO.........OOOOOOOO...O...............................................................................................................................................................................................................................................................
...............................................................................................................................................................................................................................................................................................................................................................................................................................................................................................................................................................................................................................O....OOOOOOOO........OOOO...............................................................................................................................................................................................................................................................
...............................................................................................................................................................................................................................................................................................................................................................................................................................................................................................................................................................................................................................OOOOO........OOOOOOOO....O..............................................................................................................................................................................................................................................................
...........................................................................................................................................................................................................................................................................................................................................................................................................................................................................................................................................................................................................................O.OO.....OOOOOOOO........OOOOOO.OO..........................................................................................................................................................................................................................................................
.........................................................................................................................................................................................................................................................................................................................................................................................................................................................................................................................................................................................................................OO.O.OOOOOO........OOOOOOOO......OO.OO........................................................................................................................................................................................................................................................
..................................................................................................................................................................................................................................................................................................................................................................................................................................................................................................................................................................................................................OOO...O...O.......OOOOOOOO........OOOOOO....O....OOO.................................................................................................................................................................................................................................................
..................................................................................................................................................................................................................................................................................................................................................................................................................................................................................................................................................................................................O.......O.......O..O..O.....OOOOOO........OOOOOOOO......O.O..O...O..O......O.......O.................................................................................................................................................................................................................................
.................................................................................................................................................................................................................................................................................................................................................................................................................................................................................................................................................................................................OOO.....OOO....O....O....OOOO......OOOOOOOO........OOOOOOO...OO...O.OOO....OOO.....OOO................................................................................................................................................................................................................................
.................................................................................................................................................................................................................................................................................................................................................................................................................................................................................................................................................................................................O.OO...O..OO..OOOOOOOOOO.O...O.OOO.........OOOOOOOO......OOOO.O........O..O..OO....O.OO...............................................................................................................................................................................................................................
..................................................................................................................................................................................................................................................................................................................................................................................................................................................................................................................................................................................................OOO...OO..O..O.........O.OO...OO.OOOOOOOOO..........OOO......OOOOOOOO.OOOO.O..O....OOO...............................................................................................................................................................................................................................
..................................................................................................................................................................................................................................................................................................................................................................................................................................................................................................................................................................................................OO..O...O.......O.OOOOO....O..............OOOOOOOOOOOOOO.OOOO.........O.O..O..OO...OO................................................................................................................................................................................................................................
.....................................................................................................................................................................................................................................................................................................................................................................................................................................................................................................................................................................................................O...O....OO..O.....OOOO........OOOOOOOO........O....OO.....O.O.....OO..OO....O....................................................................................................................................................................................................................................
.......................................................................................................................................................................................................................................................................................................................................................................................................................................................................................................................................................................................................OO................OO.OO.....O........OOOOOOOO.......O......O..............O.....................................................................................................................................................................................................................................
..........................................................................................................................................................................................................................................................................................................................................................................................................................................................................................................................................................................................................OO.........................OOOOOOO...............O.................O.........................................................................................................................................................................................................................................
............................................................................................................................................................................................................................................................................................................................................................................................................................................................................................................................................................................................................................................OOOOOO............................O........................................................................................................................................................................................................................................
......................................................................................................................................................................................................................................................................................................................................................................................................................................................................................................................................................................................................................................OOOOOO......O....................................................................................................................................................................................................................................................................
.....................................................................................................................................................................................................................................................................................................................................................................................................................................................................................................................................................................................................................................O......OOOOOO.O...................................................................................................................................................................................................................................................................
...................................................................................................................................................................................................................................................................................................................................................................................................................................................................................................................................................................................................................................OO.OOOOOO......OO...................................................................................................................................................................................................................................................................
...................................................................................................................................................................................................................................................................................................................................................................................................................................................................................................................................................................................................................................OO.......OOOOOO...O.................................................................................................................................................................................................................................................................
.................................................................................................................................................................................................................................................................................................................................................................................................................................................................................................................................................................................................................................O....OOOOOO......OOOO.................................................................................................................................................................................................................................................................
.................................................................................................................................................................................................................................................................................................................................................................................................................................................................................................................................................................................................................................OOOOO......OOOOOO....O................................................................................................................................................................................................................................................................
.............................................................................................................................................................................................................................................................................................................................................................................................................................................................................................................................................................................................................................O.OO.....OOOOOO......OOOOOO.OO............................................................................................................................................................................................................................................................
...........................................................................................................................................................................................................................................................................................................................................................................................................................................................................................................................................................................................................................OO.O.OOOOOO......OOOOOO......OO.OO..........................................................................................................................................................................................................................................................
....................................................................................................................................................................................................................................................................................................................................................................................................................................................................................................................................................................................................................OOO...O...O.......OOOOOO......OOOOOO....O....OOO...................................................................................................................................................................................................................................................
....................................................................................................................................................................................................................................................................................................................................................................................................................................................................................................................................................................................................O.......O.......O..O..O.....OOOOOO......OOOOOO......O.O..O...O..O......O.......O...................................................................................................................................................................................................................................
...................................................................................................................................................................................................................................................................................................................................................................................................................................................................................................................................................................................................OOO.....OOO....O....O....OOOO......OOOOOO......OOOOOOO...OO...O.OOO....OOO.....OOO..................................................................................................................................................................................................................................
...................................................................................................................................................................................................................................................................................................................................................................................................................................................................................................................................................................................................O.OO...O..OO..OOOOOOOOOO.O...O.OOO.......OOOOOO......OOOO.O........O..O..OO....O.OO.................................................................................................................................................................................................................................
....................................................................................................................................................................................................................................................................................................................................................................................................................................................................................................................................................................................................OOO...OO..O..O.........O.OO...OO.OOOOOOO........OOO......OOOOOOOO.OOOO.O..O....OOO.................................................................................................................................................................................................................................
....................................................................................................................................................................................................................................................................................................................................................................................................................................................................................................................................................................................................OO..O...O.......O.OOOOO....O............OOOOOOOOOOOO.OOOO.........O.O..O..OO...OO..................................................................................................................................................................................................................................
.......................................................................................................................................................................................................................................................................................................................................................................................................................................................................................................................................................................................................O...O....OO..O.....OOOO........OOOOOO......O....OO.....O.O.....OO..OO....O......................................................................................................................................................................................................................................
.........................................................................................................................................................................................................................................................................................................................................................................................................................................................................................................................................................................................................OO................OO.OO.....O......OOOOOO.......O......O..............O.......................................................................................................................................................................................................................................
............................................................................................................................................................................................................................................................................................................................................................................................................................................................................................................................................................................................................OO.........................OOOOO.............O.................O...........................................................................................................................................................................................................................................
............................................................................................................................................................................................................................................................................................................................................................................................................................................................................................................................................................................................................................................OOOO............................O..........................................................................................................................................................................................................................................
........................................................................................................................................................................................................................................................................................................................................................................................................................................................................................................................................................................................................................................OOOO....O......................................................................................................................................................................................................................................................................
.......................................................................................................................................................................................................................................................................................................................................................................................................................................................................................................................................................................................................................................O....OOOO.O.....................................................................................................................................................................................................................................................................
.....................................................................................................................................................................................................................................................................................................................................................................................................................................................................................................................................................................................................................................OO.OOOO....OO.....................................................................................................................................................................................................................................................................
.....................................................................................................................................................................................................................................................................................................................................................................................................................................................................................................................................................................................................................................OO.....OOOO...O...................................................................................................................................................................................................................................................................
...................................................................................................................................................................................................................................................................................................................................................................................................................................................................................................................................................................................................................................O....OOOO....OOOO...................................................................................................................................................................................................................................................................
...................................................................................................................................................................................................................................................................................................................................................................................................................................................................................................................................................................................................................................OOOOO....OOOO....O..................................................................................................................................................................................................................................................................
...............................................................................................................................................................................................................................................................................................................................................................................................................................................................................................................................................................................................................................O.OO.....OOOO....OOOOOO.OO..............................................................................................................................................................................................................................................................
.............................................................................................................................................................................................................................................................................................................................................................................................................................................................................................................................................................................................................................OO.O.OOOOOO....OOOO......OO.OO............................................................................................................................................................................................................................................................
......................................................................................................................................................................................................................................................................................................................................................................................................................................................................................................................................................................................................................OOO...O...O.......OOOO....OOOOOO....O....OOO.....................................................................................................................................................................................................................................................
......................................................................................................................................................................................................................................................................................................................................................................................................................................................................................................................................................................................................O.......O.......O..O..O.....OOOOOO....OOOO......O.O..O...O..O......O.......O.....................................................................................................................................................................................................................................
.....................................................................................................................................................................................................................................................................................................................................................................................................................................................................................................................................................................................................OOO.....OOO....O....O....OOOO......OOOO....OOOOOOO...OO...O.OOO....OOO.....OOO....................................................................................................................................................................................................................................
.....................................................................................................................................................................................................................................................................................................................................................................................................................................................................................................................................................................................................O.OO...O..OO..OOOOOOOOOO.O...O.OOO.....OOOO......OOOO.O........O..O..OO....O.OO...................................................................................................................................................................................................................................
......................................................................................................................................................................................................................................................................................................................................................................................................................................................................................................................................................................................................OOO...OO..O..O.........O.OO...OO.OOOOO......OOO......OOOOOOOO.OOOO.O..O....OOO...................................................................................................................................................................................................................................
......................................................................................................................................................................................................................................................................................................................................................................................................................................................................................................................................................................................................OO..O...O.......O.OOOOO....O..........OOOOOOOOOO.OOOO.........O.O..O..OO...OO....................................................................................................................................................................................................................................
.........................................................................................................................................................................................................................................................................................................................................................................................................................................................................................................................................................................................................O...O....OO..O.....OOOO........OOOO....O....OO.....O.O.....OO..OO....O........................................................................................................................................................................................................................................
...........................................................................................................................................................................................................................................................................................................................................................................................................................................................................................................................................................................................................OO................OO.OO.....O....OOOO.......O......O..............O.........................................................................................................................................................................................................................................
..............................................................................................................................................................................................................................................................................................................................................................................................................................................................................................................................................................................................................OO.........................OOO...........O.................O.............................................................................................................................................................................................................................................
............................................................................................................................................................................................................................................................................................................................................................................................................................................................................................................................................................................................................................................OO............................O............................................................................................................................................................................................................................................
...................................................................................................................................................................................................................................................................................................................................................................................................................................................................................................................................................................................................................................OOO....OO..O...OOO..................................................................................................................................................................................................................................................................
...................................................................................................................................................................................................................................................................................................................................................................................................................................................................................................................................................................................................................................O..O...O.OO....O..O.................................................................................................................................................................................................................................................................
...................................................................................................................................................................................................................................................................................................................................................................................................................................................................................................................................................................................................................................O......O.OOO...O....................................................................................................................................................................................................................................................................
...................................................................................................................................................................................................................................................................................................................................................................................................................................................................................................................................................................................................................................O...O......O...O....................................................................................................................................................................................................................................................................
....................................................................................................................................................................................................................................................................................................................................................................................................................................................................................................................................................................................................................................O...OOOOOO.OO..O.O.................................................................................................................................................................................................................................................................
........................................................................................................................................................................................................................................................................................................................................................................................................................................................................................................................................................................................................................................O..O.O..O......................................................................................................................................................................................................................................................................
......................................................................................................................................................................................................................................................................................................................................................................................................................................................................................................................................................................................................................................O.O..O.O.........................................................................................................................................................................................................................................................................
