!Name: cleaners-k6
!C (2,1)c/6 spaceships capable of clearing some common objects
!Source: jslife-moving
!
..............................................................OO.................................................................................................................................................................................................................................................................................................................................................................................................................................................................................................................
.............................................................O..O................................................................................................................................................................................................................................................................................................................................................................................................................................................................................................................
.............................................................O..O................................................................................................................................................................................................................................................................................................................................................................................................................................................................................................................
..............................................................OO.................................................................................................................................................................................................................................................................................................................................................................................................................................................................................................................
....................................................................O............................................................................................................................................................................................................................................................................................................................................................................................................................................................................................................
...................................................................O.O...........................................................................................................................................................................................................................................................................................................................................................................................................................................................................................................
...................................................................O..O..........................................................................................................................................................................................................................................................................................................................................................................................................................................................................................................
....................................................................OO...........................................................................................................................................................................................................................................................................................................................................................................................................................................................................................................
........................................................................OOO......................................................................................................................................................................................................................................................................................................................................................................................................................................................................................................
..............................................................................O..................................................................................................................................................................................................................................................................................................................................................................................................................................................................................................
..............................................................................O..................................................................................................................................................................................................................................................................................................................................................................................................................................................................................................
..............................................................................O..................................................................................................................................................................................................................................................................................................................................................................................................................................................................................................
....................................................................................OO...........................................................................................................................................................................................................................................................................................................................................................................................................................................................................................
....................................................................................OO...........................................................................................................................................................................................................................................................................................................................................................................................................................................................................................
.................................................................................................................................................................................................................................................................................................................................................................................O...............................................................................................................................................................................................
OO.................................................................................................................................................OO..........................................................................................................OO...............................................................................................................O.O..............................................................................................................................................................................................
OO.................................................................................................................................................O.O........................................................................................................O..O.............................................................................................................O..O..............................................................................................................................................................................................
....................................................................................................................................................O..........................................................................................................OO...............................................................................................................OO...............................................................................................................................................................................................
.......................OO...............................................OOO................................................................................................OO..........................................................................................................OO........................................................................................................................................................................................................................................................................................
.......................O..O............................................O..OO...OOOOO.......................................................................................O..O........................................................................................................O..O.................................................................................................................OO...................................................................................................................................................................
.......................O...O...........................................O....O.OOOO...O.....................................................................................O...O.......................................................................................................O...O................................................................................................................O..O.................................................................................................................................................................
.........................OOO..............................................O...O..............................................................................................OOO.........................................................................................................OOO................................................................................................................O...O................................................................................................................................................................
.....................OO......OOOO......................................O..........O...O..................................................................................OO......OOOO................................................................................................OO......OOOO.............................................................................................................OOO................................................................................................................................................................
.....................O.OO....OOOO......................................OO.O..O..OO....O..................................................................................O.OO....OOOO................................................................................................O.OO....OOOO.........................................................................................................OO......OOOO...........................................................................................................................................................
....................O....O......OOO....................................O....O..O........................................................................................O....O......OOO.............................................................................................O....O......OOO.......................................................................................................O.OO....OOOO...........................................................................................................................................................
.....................OOOO....OO...O...............................O.OO..........O....O...................................................................................OOOO....OO...O..............................................................................................OOOO....OO...O......................................................................................................O....O......OOO.........................................................................................................................................................
...................O.........OO..................................OO.....O...O.....O....................................................................................O.........OO................................................................................................O.........OO...........................................................................................................OOOO....OO...O.........................................................................................................................................................
....................O...O.......................................O...O...OO..O...........................................................................................O...O.......................................................................................................O...O...............................................................................................................O.........OO.............................................................................................................................................................
.........................OOO..OO..O............................OOOO...O.....O................................................................................................OOO..OO..O..................................................................................................OOO..OO..O......................................................................................................O...O...................................................................................................................................................................
.....................OO.......O....O..........................O....OO..OOOO..............................................................................................OO.......O....O.............................................................................................OO.......O....O..........................................................................................................OOO..OO..O.........................................................................................................................................................
................................O.OO..........................O..OOOOO..............................................................................................................O.OO........................................................................................................O.OO......................................................................................................OO.......O....O........................................................................................................................................................
.............................OO......O........................O...OOO.OOOO.OO....................................................................................................OO......O...................................................................................................OO......O...............................................................................................................O.OO........................................................................................................................................................
..............................OO.OOO.O..........................O.......O.O.OO....................................................................................................OO.OOO.O....................................................................................................OO.OOO.O............................................................................................................OO......O......................................................................................................................................................
.............................OO...O..O...............................OO...OO.....................................................................................................OO...O..O...................................................................................................OO...O..O.............................................................................................................OO.OOO.O......................................................................................................................................................
.............................O.O..OO.................................OO...O..OOO.................................................................................................O.O..OO.....................................................................................................O.O..OO..............................................................................................................OO...O..O......................................................................................................................................................
.............................O..O.O.O...............................O......O.OOO.................................................................................................O..O.O.O....................................................................................................O..O.O.O.............................................................................................................O.O..OO........................................................................................................................................................
.............................OOO......O..............................O.......OO.O................................................................................................OOO......O..................................................................................................OOO......O...........................................................................................................O..O.O.O.......................................................................................................................................................
..............................O.O.O...O......................................O.O..................................................................................................O.O.O...O...................................................................................................O.O.O...O...........................................................................................................OOO......O.....................................................................................................................................................
.................................OO.O.O.....................................O..OO....................................................................................................OO.O.O......................................................................................................OO.O.O............................................................................................................O.O.O...O.....................................................................................................................................................
..............................O......OOO...................................O......................................................................................................O......OOO..................................................................................................O......OOO..............................................................................................................OO.O.O.....................................................................................................................................................
..........................................................................OOO......................................................................................................................................................................................................................................................................................................................................O......OOO....................................................................................................................................................
..............................O.........O................................O..O.O...................................................................................................O.........O.................................................................................................O.........O........................................................................................................................................................................................................................................................................
..............................O...O......O...............................OOO..OO..................................................................................................O...O......O................................................................................................O...O......O.........................................................................................................O.........O...................................................................................................................................................
...............................O.....OOOOO.................................O.....OO................................................................................................O.....OOOOO.................................................................................................O.....OOOOO.........................................................................................................O...O......O..................................................................................................................................................
...............................OOO.............................................O.OO................................................................................................OOO.........................................................................................................OOO..................................................................................................................O.....OOOOO..................................................................................................................................................
...................................OO...........................................O..O...................................................................................................OO..........................................................................................................OO...............................................................................................................OOO..........................................................................................................................................................
................................OOO..O..........................................OOOO................................................................................................OOO..O......................................................................................................OOO..O..................................................................................................................OO.......................................................................................................................................................
..............................O.OOO.O...........................................OO..O.............................................................................................O.OOO.O.....................................................................................................O.OOO.O................................................................................................................OOO..O......................................................................................................................................................
.............................O...O..O............................................O..O............................................................................................O...O..O....................................................................................................O...O..O..............................................................................................................O.OOO.O.......................................................................................................................................................
..............................O....OO.OOO....................................OO..O................................................................................................O....OO.OOO.................................................................................................O....OO.OOO.........................................................................................................O...O..O.......................................................................................................................................................
................................OOOO.O....OO................................OO..O...O.OO............................................................................................OOOO.O....OO................................................................................................OOOO.O....OO.......................................................................................................O....OO.OOO...................................................................................................................................................
................................O.OOOO....OO..................................O..OOO..OO............................................................................................O.OOOO....OO................................................................................................O.OOOO....OO.........................................................................................................OOOO.O....OO................................................................................................................................................
......................................O.....................................O..O.OO..OO...................................................................................................O...........................................................................................................O..............................................................................................................O.OOOO....OO................................................................................................................................................
.......................................O..OO................................O....O...OO....................................................................................................O..OO.......................................................................................................O..OO...............................................................................................................O.....................................................................................................................................................
.......................................OO..................................O....O....OOO...................................................................................................OO..........................................................................................................OO...................................................................................................................O..OO................................................................................................................................................
........................................OOOOO...............................O.OO.....OOO....................................................................................................OOOOO.......................................................................................................OOOOO...............................................................................................................OO...................................................................................................................................................
............................................OO................................O....O............................................................................................................OO..........................................................................................................OO...............................................................................................................OOOOO...............................................................................................................................................
......................................OOO......O............................OOO....O......................................................................................................OOO......O..................................................................................................OOO......O.................................................................................................................OO..............................................................................................................................................
.......................................O.O...O.O............................OO.OOO.........................................................................................................O.O...O.O...................................................................................................O.O...O.O...........................................................................................................OOO......O............................................................................................................................................
......................................O...O...O................................OO.OO......................................................................................................O...O...O...................................................................................................O...O...O.............................................................................................................O.O...O.O............................................................................................................................................
......................................O...OO....................................O.OO......................................................................................................O...OO......................................................................................................O...OO...............................................................................................................O...O...O.............................................................................................................................................
.....................................O......O.OOO..............................OOO.O.....................................................................................................O......O.OOO................................................................................................O......O.OOO..........................................................................................................O...OO................................................................................................................................................
......................................OO...O...OO.........................................................................................................................................OO...O...OO.................................................................................................OO...O...OO.........................................................................................................O......O.OOO...........................................................................................................................................
.......................................OOOO..O..O..................................OO......................................................................................................OOOO..O..O..................................................................................................OOOO..O..O..........................................................................................................OO...O...OO...........................................................................................................................................
.........................................OO...O.................................OOOO.........................................................................................................OO...O......................................................................................................OO...O.............................................................................................................OOOO..O..O...........................................................................................................................................
........................................O.......................................OO.O........................................................................................................O...........................................................................................................O.....................................................................................................................OO...O.............................................................................................................................................
........................................OO.O...................................O...O........................................................................................................OO.O........................................................................................................OO.O.................................................................................................................O...................................................................................................................................................
.......................................O......................................OO....O......................................................................................................O...........................................................................................................O.....................................................................................................................OO.O................................................................................................................................................
......................................OOOOO...................................OOO...O.....................................................................................................OOOOO.......................................................................................................OOOOO.................................................................................................................O....................................................................................................................................................
......................................O....O.................................O..O.........................................................................................................O....O......................................................................................................O....O...............................................................................................................OOOOO.................................................................................................................................................
.....................................OOO.OOO................................OOO...O......................................................................................................OOO.OOO.....................................................................................................OOO.OOO...............................................................................................................O....O................................................................................................................................................
.....................................O.OOOOO...............................O..OO..O.O....................................................................................................O.OOOOO.....................................................................................................O.OOOOO..............................................................................................................OOO.OOO................................................................................................................................................
.....................................O........................................O.OOOO.O...................................................................................................O...........................................................................................................O....................................................................................................................O.OOOOO................................................................................................................................................
.......................................O...................................O..OOO..O.O.....................................................................................................O...........................................................................................................O..................................................................................................................O......................................................................................................................................................
...................................O....OOOO................................O.O.....OOO..O.............................................................................................O....OOOO...................................................................................................O....OOOO................................................................................................................O....................................................................................................................................................
.......................................OOOO.OO................................OOO...O...OO.................................................................................................OOOO.OO.....................................................................................................OOOO.OO..........................................................................................................O....OOOO................................................................................................................................................
....................................OOO....O..................................O...OOO...................................................................................................OOO....O....................................................................................................OOO....O................................................................................................................OOOO.OO..............................................................................................................................................
...........................................O.O.................................O.........O.....................................................................................................O.O.........................................................................................................O.O...........................................................................................................OOO....O................................................................................................................................................
...............................................O.....................................O..O.O........................................................................................................O...........................................................................................................O................................................................................................................O.O..............................................................................................................................................
...........................................O..OO.................................O.OOO..OO.....................................................................................................O..OO.......................................................................................................O..OO....................................................................................................................O............................................................................................................................................
............................................OOO...................................O...OO.OO.....................................................................................................OOO.........................................................................................................OOO.................................................................................................................O..OO............................................................................................................................................
.........................................OO..............................................O..O................................................................................................OO..........................................................................................................OO......................................................................................................................OOO.............................................................................................................................................
........................................OOO.....O........................................O.OOO..............................................................................................OOO.....O...................................................................................................OOO.....O.............................................................................................................OO.................................................................................................................................................
...........................................OO..O.O......................................OO..O..................................................................................................OO..O.O.....................................................................................................OO..O.O...........................................................................................................OOO.....O...........................................................................................................................................
........................................O..OOO.O.O......................................OO..OO.O............................................................................................O..OOO.O.O..................................................................................................O..OOO.O.O..............................................................................................................OO..O.O..........................................................................................................................................
.........................................OO.O..O........................................OOOOO..O.............................................................................................OO.O..O.....................................................................................................OO.O..O.............................................................................................................O..OOO.O.O..........................................................................................................................................
...........................................O.O..OO......................................OOOOO..................................................................................................O.O..OO.....................................................................................................O.O..OO............................................................................................................OO.O..O............................................................................................................................................
.............................................OO........................................O.O...OOO.................................................................................................OO..........................................................................................................OO.................................................................................................................O.O..OO..........................................................................................................................................
.........................................OOO....O.....................................OOO....O...............................................................................................OOO....O....................................................................................................OOO....O.................................................................................................................OO.............................................................................................................................................
.........................................OOO....O....................................OOO.....OOO.............................................................................................OOO....O....................................................................................................OOO....O.............................................................................................................OOO....O...........................................................................................................................................
..........................................OO...OOO............................................O...............................................................................................OO...OOO....................................................................................................OO...OOO............................................................................................................OOO....O...........................................................................................................................................
...........................................OO.OO....................................O...OO.O.O.................................................................................................OO.OO.......................................................................................................OO.OO...............................................................................................................OO...OOO..........................................................................................................................................
............................................OO......................................O......O.O.O................................................................................................OO..........................................................................................................OO..................................................................................................................OO.OO............................................................................................................................................
............................................O............................................OO.O..OOO..............................................................................................O...........................................................................................................O....................................................................................................................OO..............................................................................................................................................
.....................................................................................OO.OOO.O.O..................................................................................................................................................................................................................................................................................................................................O...............................................................................................................................................
...........................................OO.........................................O...O.O.O..O.............................................................................................OO...OOO....................................................................................................OO...OOO..............................................................................................................................................................................................................................................................
.............................................O...........................................OO....O.................................................................................................O..OO.O.....................................................................................................O..OO.O............................................................................................................OO...OOO.........................................................................................................................................
.....................................................................................O..O....O.O...................................................................................................O...OO......................................................................................................O...OO.............................................................................................................O..OO.O........................................................................................................................................
......................................................................................OOOOO.OO.O....................................................................................................O..OO.......................................................................................................O..OO...............................................................................................................O...OO.......................................................................................................................................
........................................................................................OO....OO........................................................................................................O.O.........................................................................................................O.O..............................................................................................................O..OO.......................................................................................................................................
.............................................................................................OO..O...................................................................................................OO..OO......................................................................................................OO..OO..................................................................................................................O.O.....................................................................................................................................
...........................................................................................OOOO...O.....................................................................................................OO..........................................................................................................OO................................................................................................................OO..OO.....................................................................................................................................
..........................................................................................OO.....O......................................................................................................O.O.........................................................................................................O.O..................................................................................................................OO......................................................................................................................................
.............................................................................................O............................................................................................................OO..........................................................................................................OO.................................................................................................................O.O.....................................................................................................................................
...............................................................................................OO..OO...................................................................................................O.OO........................................................................................................O.OO...................................................................................................................OO....................................................................................................................................
..............................................................................................OOO.OOO...................................................................................................OOO...O.....................................................................................................OOO...O..............................................................................................................O.OO....................................................................................................................................
...................................................................................................O.OO................................................................................................OO....OO....................................................................................................OO....OO..............................................................................................................OOO...O.................................................................................................................................
..................................................................................................O..O.O...............................................................................................OOO.........................................................................................................OOO..................................................................................................................OO....OO.................................................................................................................................
..................................................................................................OO.O..................................................................................................O.O.........................................................................................................O.O.................................................................................................................OOO......................................................................................................................................
......................................................................................................O..................................................................................................O.O...OOO...................................................................................................O.O...OOO...........................................................................................................O.O.....................................................................................................................................
..................................................................................................O.O.OO.................................................................................................O......O.OO.................................................................................................O......O.OO..........................................................................................................O.O...OOO..............................................................................................................................
.................................................................................................O..O.OO.....................................................................................................O......O....................................................................................................O......O.........................................................................................................O......O.OO............................................................................................................................
.................................................................................................O...........................................................................................................O...OO......................................................................................................O...OO...............................................................................................................O......O...........................................................................................................................
.......................................................................................................O..................................................................................................OO..........................................................................................................OO......................................................................................................................O...OO.............................................................................................................................
................................................................................................OO.O.O.O......................................................................................................OOO.........................................................................................................OOO..............................................................................................................OO....................................................................................................................................
..................................................................................................OO.OO.......................................................................................................OOO................................................................................OOO......................OOO..................................................................................................................OOO...............................................................................................................................
...................................................................................................OO.........................................................................................................O.................................................................................O..OO...OOOOO.............O....................................................................................................................OOO...............................................................................................................................
..................................................................................................O..O.................................................................................OOO......................................................................................................O....O.OOOO...O................................................................................................................................O.................................................................................................................................
...................................................................................................O.O................................................................................O..OO...OOOOO...........OOO..................................................................................O...O..................OOO....................................................................................................................................................................................................................................................
..................................................................................................O..O................................................................................O....O.OOOO...O.........OOO...............................................................................O..........O...O..........OOO..................................................................................................................OOO...............................................................................................................................
.................................................................................................O....O..................................................................................O...O................OOO...............................................................................OO.O..O..OO....O..........OOO..................................................................................................................OO..OOO...........................................................................................................................
.................................................................................................O...OO...............................................................................O..........O...O........OO................................................................................O....O..O.................OO.......................................................................................................................OOO...........................................................................................................................
................................................................................................O....O................................................................................OO.O..O..OO....O.....................................................................................O.OO..........O....O....................................................................................................................................O.............................................................................................................................
................................................................................................OO...O................................................................................O....O..O...........................................................................................OO.....O...O.....O..........................................................................................................................................OOO........................................................................................................................
.................................................................................................O.O.O.OOO.......................................................................O.OO..........O....O....................................................................................O...O...OO..O................................................................................................................................................OOO........................................................................................................................
...................................................................................................O.OOOO.O.O...................................................................OO.....O...O.....O......................................................................................OOOO...O.....O................................................................................................................................................O..O.......................................................................................................................
...................................................................................................OOO...OO.O..................................................................O...O...OO..O...........................................................................................O....OO..OOOO..............................................................................................................................................OOO..O..OO.....................................................................................................................
..........................................................................................................O.O.................................................................OOOO...O.....O...........................................................................................O..OOOOO.......................................................................................................................................................O.O........................................................................................................................
......................................................................................................O.O....................................................................O....OO..OOOO.............................................................................................O...OOO.OOOO.OO..............................................................................................................................................O............................................................................................................................
...................................................................................................O.....OO..................................................................O..OOOOO....................................................................................................O.......O.O.OO..................................................................................................................................................O.......................................................................................................................
...................................................................................................OO..O..O..................................................................O...OOO.OOOO.OO..................................................................................................OO...OO..............................................................................................................................................O.O...O.......................................................................................................................
..................................................................................................O..OO...O....................................................................O.......O.O.OO.................................................................................................OO...O..OOO.........................................................................................................................................OOOOOOO........................................................................................................................
....................................................................................................OOOOO.O.........................................................................OO...OO..................................................................................................O......O.OOO.................................................................................................................OOO...O..O.O...........O..OO...........................................................................................................................
....................................................................................................OO..OOOO........................................................................OO...O..OOO...............................................................................................O.......OO.O................................................................................................................O..O.O.O.O..O.............OO...........................................................................................................................
......................................................................................................O....O.......................................................................O......O.OOO.......................................................................................................O.O.................................................................................................................O..O...O.O..O..........OO.OO...........................................................................................................................
......................................................................................................OO............................................................................O.......OO.O.....................................................................................................O..OO.................................................................................................................O..........O...........O..O...........................................................................................................................
......................................................................................................O..OO.................................................................................O.O.....................................................................................................O.....................................................................................................................O...OOOOO...O............O..O..........................................................................................................................
......................................................................................................O..OOOO..............................................................................O..OO...................................................................................................OOO....................................................................................................................O.OO.OO.O...O............OOOOOOO.......................................................................................................................
.......................................................................................................OO.O.O.............................................................................O.......................................................................................................O..O.O..............................................................................................................O..OO........O..O............O.OOO.O.......................................................................................................................
...................................................................................................OO......O.............................................................................OOO......................................................................................................OOO..OO...........................................................................................................OO.O.OOO.......O.O..............OO...........................................................................................................................
..................................................................................................OO.......OO...........................................................................O..O.O......................................................................................................O.....OO.......................................................................................................O.....O..OOO......................OOOOO.......................................................................................................................
...................................................................................................OO...................................................................................OOO..OO.........................................................................................................O.OO......................................................................................................OO...O.....O........................OOOO.......................................................................................................................
....................................................................................................O.....................................................................................O.....OO.......................................................................................................O..O....................................................................................................O......OOOOOO.O.................................................................................................................................................
....................................................................................................OOO.O.....................................................................................O.OO.......................................................................................................OOOO...................................................................................................OOOOOOOO......O..................................................................................................................................................
.......................................................................................................O.O.....................................................................................O..O......................................................................................................OO..O.........................................................................................................OOOO..OOO.................................................................................................................................................
.......................................................................................................O.......................................................................................OOOO.......................................................................................................O..O......................................................................................................O....O.......................................................................................................................................................
...........................................................................................................OO..................................................................................OO..O..................................................................................................OO..O......................................................................................................O..O.......OOO.O................................................................................................................................................
......................................................................................................OO..OO.O..................................................................................O..O.................................................................................................OO..O...O.OO.................................................................................................O....OO...OOOOO................................................................................................................................................
............................................................................................................O...............................................................................OO..O......................................................................................................O..OOO..OO......................................................................................................OO.......OO...............................................................................................................................................
..............................................................................................................O............................................................................OO..O...O.OO..............................................................................................O..O.OO..OO.......................................................................................................O.........................................................................................................................................................
..............................................................................................................OOOOO..........................................................................O..OOO..OO..............................................................................................O....O...OO.................................................................................................................OO..............................................................................................................................................
................................................................................................................OO..O......................................................................O..O.OO..OO..............................................................................................O....O....OOO..............................................................................................................OOOO..............................................................................................................................................
...............................................................................................................O..O..O.....................................................................O....O...OO...............................................................................................O.OO.....OOO.............................................................................................................OO.O...............................................................................................................................................
...............................................................................................................O..O.......................................................................O....O....OOO................................................................................................O....O................................................................................................................OOO.................................................................................................................................................
.............................................................................................................OO........O...................................................................O.OO.....OOO..............................................................................................OOO....O...............................................................................................................O..O.................................................................................................................................................
...............................................................................................................O.O..O.OOO....................................................................O....O..................................................................................................OO.OOO.................................................................................................................O....................................................................................................................................................
...................................................................................................................OO.OO.O.................................................................OOO....O.....................................................................................................OO.OO...............................................................................................................O...OOO..............................................................................................................................................
.....................................................................................................................OOO.O.................................................................OO.OOO........................................................................................................O.OO......................................................................................................................OO............................................................................................................................................
......................................................................................................................OOO.....................................................................OO.OO.....................................................................................................OOO.O................................................................................................................OO..O..O............................................................................................................................................
.......................................................................................................................O.......................................................................O.OO..............................................................................................................................................................................................................................O.O.O...........................................................................................................................................
.........................................................................................................................O....................................................................OOO.O.........................................................................................................OO....................................................................................................................O...O..........................................................................................................................................
.........................................................................................................................OO..............................................................................................................................................................................OOOO....................................................................................................................................................................................................................................................................
........................................................................................................................OO.O......................................................................OO.....................................................................................................OO.O...................................................................................................................O...OO.O.........................................................................................................................................
............................................................................................................................O..................................................................OOOO.....................................................................................................O...O..................................................................................................................OOOO.OO...O.......................................................................................................................................
........................................................................................................................O.O.O...O..............................................................OO.O....................................................................................................OO....O................................................................................................................O..O.O.....O.......................................................................................................................................
.........................................................................................................................OO.O.O.OO............................................................O...O....................................................................................................OOO...O...................................................................................................................O.......OO......................................................................................................................................
.........................................................................................................................OO.O.O..............................................................OO....O..................................................................................................O..O........................................................................................................................OO.....OO......................................................................................................................................
............................................................................................................................OO...............................................................OOO...O.................................................................................................OOO...O.................................................................................................................OOOO........O.......................................................................................................................................
............................................................................................................................O.O.............................................................O..O....................................................................................................O..OO..O.O..................................................................................................................OO...O...O.......................................................................................................................................
...........................................................................................................................OOO.............................................................OOO...O.....................................................................................................O.OOOO.O..................................................................................................................O..O..O.........................................................................................................................................
..........................................................................................................................O...............................................................O..OO..O.O................................................................................................O..OOO..O.O..............................................................................................................O.O.OOOOO...........................................................................................................................................
..............................................................................................................................O..............................................................O.OOOO.O................................................................................................O.O.....OOO..O...........................................................................................................OO..O..............................................................................................................................................
..........................................................................................................................OO.O............................................................O..OOO..O.O..................................................................................................OOO...O...OO..............................................................................................................OO.OO...........................................................................................................................................
..........................................................................................................................OOOOO............................................................O.O.....OOO..O..............................................................................................O...OOO......................................................................................................................O............................................................................................................................................
..........................................................................................................................OO.................................................................OOO...O...OO...............................................................................................O.........O................................................................................................................O.............................................................................................................................................
.............................................................................................................................................................................................O...OOO..........................................................................................................O..O.O..............................................................................................................OOOOO..........................................................................................................................................
...............................................................................................................................O..............................................................O.........O.................................................................................................O.OOO..OO..............................................................................................................OOO.OO..........................................................................................................................................
..............................................................................................................................O.OO..................................................................O..O.O.................................................................................................O...OO.OO.............................................................................................................OO..............................................................................................................................................
.............................................................................................................................OO.O.OO......O.....................................................O.OOO..OO.........................................................................................................O..O............................................................................................................OOO............................................................................................................................................
................................................................................................................................O...O...OO.O.....................................................O...OO.OO........................................................................................................O.OOO..............................................................................................................O...........................................................................................................................................
...............................................................................................................................O.OOOO..O...O............................................................O..O.....................................................................................................OO..O...............................................................................................................O...........................................................................................................................................
...................................................................................................................................O..O...O.............................................................O.OOO....................................................................................................OO..OO.O.......................................................................................................OOO..O.O.........................................................................................................................................
...................................................................................................................................OOOO................................................................OO..O.....................................................................................................OOOOO..O........................................................................................................O...O...........................................................................................................................................
....................................................................................................................................OOO.OO.O...........................................................OO..OO.O..................................................................................................OOOOO.........................................................................................................OOO...OO..........................................................................................................................................
.......................................................................................................................................OOOOO...........................................................OOOOO..O.................................................................................................O.O...OOO.......................................................................................................O.O..OO..........................................................................................................................................
......................................................................................................................................O...O.O..........................................................OOOOO...................................................................................................OOO....O......................................................................................................OO......OO..........................................................................................................................................
...........................................................................................................................................O..........................................................O.O...OOO...............................................................................................OOO.....OOO.....................................................................................................O..OO..............................................................................................................................................
.........................................................................................................................................O..O........................................................OOO....O..........................................................................................................O.......................................................................................................OOO....OO.........................................................................................................................................
........................................................................................................................................O.OO........................................................OOO.....OOO..............................................................................................O...OO.O.O..........................................................................................................O......O..OO....................................................................................................................................
........................................................................................................................................O....................................................................O...............................................................................................O......O.O.O........................................................................................................O....OO..OO.....................................................................................................................................
.........................................................................................................................................O.........................................................O...OO.O.O.....................................................................................................OO.O..OOO.......................................................................................................O..O..O..O..O..................................................................................................................................
.......................................................................................................................................OO..........................................................O......O.O.O...............................................................................................OO.OOO.O.O..........................................................................................................O.OO..O..O..O..................................................................................................................................
.......................................................................................................................................OOOOO............................................................OO.O..OOO..............................................................................................O...O.O.O..O.........................................................................................................O...OO.......................................................................................................................................
........................................................................................................................................OOOO........................................................OO.OOO.O.O....................................................................................................OO....O................................................................................................................O.O.O...................................................................................................................................
..........................................................................................................................................O..........................................................O...O.O.O..O.............................................................................................O..O....O.O...........................................................................................................O....O.O..O..................................................................................................................................
........................................................................................................................................................................................................OO....O................................................................................................OOOOO.OO.O...........................................................................................................O..........O.................................................................................................................................
....................................................................................................................................................................................................O..O....O.O..................................................................................................OO....OO.................................................................................................................O....O.O...............................................................................................................................
.....................................................................................................................................................................................................OOOOO.OO.O.......................................................................................................OO..O...........................................................................................................O....OO....O...............................................................................................................................
.......................................................................................................................................................................................................OO....OO.....................................................................................................OOOO...O..................................................................................................................O.O................................................................................................................................
............................................................................................................................................................................................................OO..O..................................................................................................OO.....O...............................................................................................................O...OOO................................................................................................................................
..........................................................................................................................................................................................................OOOO...O....................................................................................................O..................................................................................................................O.O.....................................................................................................................................
.........................................................................................................................................................................................................OO.....O.......................................................................................................OO..OO............................................................................................................O.....O.O...........................................OOO................................................................................
............................................................................................................................................................................................................O..........................................................................................................OOO.OOO..........................................................................................................OOO..................................................O..OO...............................................................................
..............................................................................................................................................................................................................OO..OO........................................................................................................O.OO........................................................................................................O.OO.OOOO............................................O....O..............................................................................
.............................................................................................................................................................................................................OOO.OOO.......................................................................................................O..O.O.....................................................................................................OO..OOO.OO.................................................................................................................................
..................................................................................................................................................................................................................O.OO.....................................................................................................OO.O........................................................................................................O....O.O..............................................OOO...OO.OOO........................................................................
.................................................................................................................................................................................................................O..O.O........................................................................................................O........................................................................................................OO....O..O.........................................OO.O.O....O.OO........................................................................
.................................................................................................................................................................................................................OO.O......................................................................................................O.O.OO........................................................................................................OOO..O.O.OO.........................................O..O....O..OO.......................................................................
.....................................................................................................................................................................................................................O....................................................................................................O..O.OO.........................................................................................................O.O.O.O..O......................................O..O........O..........................................................................
.................................................................................................................................................................................................................O.O.OO...................................................................................................O............................................................................................................OO.O..OO...........................................O....O..OO..O..O.......................................................................
................................................................................................................................................................................................................O..O.OO.........................................................................................................O......................................................................................................OO.OO...OOO.........................................O.OOO..OO...OO........................................................................
................................................................................................................................................................................................................O........................................................................................................OO.O.O.O.........................................................................................................OOO..O.............................................OO.O.OO.O...O.......................................................................
......................................................................................................................................................................................................................O....................................................................................................OO.OO.................................................................................................................O.................................................OO.OOO........................................................................
...............................................................................................................................................................................................................OO.O.O.O.....................................................................................................OO..................................................................................................................O.O................................................O.....O.......................................................................
.................................................................................................................................................................................................................OO.OO.....................................................................................................O..O...............................................................................................................O...OO..................................................OOO..OOO...................................................................
..................................................................................................................................................................................................................OO........................................................................................................O.O..............................................................................................................OOOO..O.....................................................O.OO....................................................................
.................................................................................................................................................................................................................O..O......................................................................................................O..O.............................................................................................................O..O.O..................................................OO.O...OOO...................................................................
..................................................................................................................................................................................................................O.O.....................................................................................................O....O.............................................................................................................O...OO..O..............................................OO..O..OO....................................................................
.................................................................................................................................................................................................................O..O.....................................................................................................O...OO..................................................................................................................OOOO................................................OOOO...O...................................................................
................................................................................................................................................................................................................O....O...................................................................................................O....O....................................................................................................................O...OO..............................................OO.O..O...................................................................
................................................................................................................................................................................................................O...OO...................................................................................................OO...O.....................................................................................................................O....O...........................................OO.O.O.O....................................................................
...............................................................................................................................................................................................................O....O.....................................................................................................O.O.O.OOO....................................................................................................................O.O..............................................O........................................................................
...............................................................................................................................................................................................................OO...O.......................................................................................................O.OOOO.O.O..............................................................................................................OO.OO............................................O.......OO..................................................................
................................................................................................................................................................................................................O.O.O.OOO...................................................................................................OOO...OO.O................................................................................................................OO..............................................OO.....O...................................................................
..................................................................................................................................................................................................................O.OOOO.O.O.......................................................................................................O.O...............................................................................................................OO.OO.............................................O.OO..O.OO................................................................
..................................................................................................................................................................................................................OOO...OO.O...................................................................................................O.O..................................................................................................................O...O....................................................O...O...............................................................
.........................................................................................................................................................................................................................O.O................................................................................................O.....OO...............................................................................................................OO.O..O............................................OOO.....O..................................................................
.....................................................................................................................................................................................................................O.O....................................................................................................OO..O..O...............................................................................................................O....OO.......................................................................................................................
..................................................................................................................................................................................................................O.....OO.................................................................................................O..OO...O...............................................................................................................O..O...................................................OOO...O................................................................
..................................................................................................................................................................................................................OO..O..O...................................................................................................OOOOO.O..................................................................................................................................................................O..O.......................................................................
.................................................................................................................................................................................................................O..OO...O...................................................................................................OO..OOOO................................................................................................................OO..............................................OO.O........................................................................
...................................................................................................................................................................................................................OOOOO.O.....................................................................................................O....O...............................................................................................................O....O............................................O.OO...OO..................................................................
...................................................................................................................................................................................................................OO..OOOO....................................................................................................OO......................................................................................................................OOO..............................................OO.OOOO..................................................................
.....................................................................................................................................................................................................................O....O....................................................................................................O..OO................................................................................................................O...O.......................................................OOO..............................................................
.....................................................................................................................................................................................................................OO........................................................................................................O..OOOO..............................................................................................................OO.O.O............................................OO.OO...O..O...............................................................
.....................................................................................................................................................................................................................O..OO......................................................................................................OO.O.O..............................................................................................................O..O.......................................................O.OO..............................................................
.....................................................................................................................................................................................................................O..OOOO................................................................................................OO......O.............................................................................................................OO.O.O.OO....................................................OO................................................................
......................................................................................................................................................................................................................OO.O.O...............................................................................................OO.......OO...........................................................................................................O...O.O.........................................................................................................................
..................................................................................................................................................................................................................OO......O.................................................................................................OO....................................................................................................................O....O..O....................................................OOOOO.............................................................
.................................................................................................................................................................................................................OO.......OO.................................................................................................O......................................................................................................................O.O...OOOOO...............................................OOOOO.OO...........................................................
..................................................................................................................................................................................................................OO.........................................................................................................OOO.O....................................................................................................................OOOOOO..O...............................................O......OO..........................................................
...................................................................................................................................................................................................................O............................................................................................................O.O..................................................................................................................OO..OOO...................................................OO................................................................
...................................................................................................................................................................................................................OOO.O........................................................................................................O....................................................................................................................OOO......O..................................................OO..............................................................
......................................................................................................................................................................................................................O.O...........................................................................................................OO....................................................................................................................O.................................................OOO..................................................................
......................................................................................................................................................................................................................O........................................................................................................OO..OO.O.............................................................................................................O.....OO.....................................................OO.OOOO.........................................................
..........................................................................................................................................................................................................................OO.........................................................................................................O..............................................................................................................O...OO...O..............................................O..OOO..O.O..........................................................
.....................................................................................................................................................................................................................OO..OO.O..........................................................................................................O.............................................................................................................O.OO....O...................................................OO..OO..........................................................
...........................................................................................................................................................................................................................O...........................................................................................................OOOOO.............................................................................................................O...O................................................O..O...............................................................
.............................................................................................................................................................................................................................O...........................................................................................................OO..O...........................................................................................................O.......................................................O...............................................................
.............................................................................................................................................................................................................................OOOOO......................................................................................................O..O..O...........................................................................................................OO..................................................O..O...............................................................
...............................................................................................................................................................................................................................OO..O....................................................................................................O..O..............................................................................................................O..OO...............................................OOOOO..............................................................
..............................................................................................................................................................................................................................O..O..O.................................................................................................OO........O........................................................................................................O....O..................................................................................................................
..............................................................................................................................................................................................................................O..O......................................................................................................O.O..O.OOO....................................................................................................O.OOO..O...............................................OO.O................................................................
............................................................................................................................................................................................................................OO........O.....................................................................................................OO.OO.O..................................................................................................OOO.OO..OO..............................................OO.OO...............................................................
..............................................................................................................................................................................................................................O.O..O.OOO......................................................................................................OOO.O.................................................................................................O..O....................................................O.OO.O.O.............................................................
..................................................................................................................................................................................................................................OO.OO.O......................................................................................................OOO.....................................................................................................OO...................................................O...O.O..............................................................
....................................................................................................................................................................................................................................OOO.O.......................................................................................................O......................................................................................................OOOO.................................................OOOOOOOO.............................................................
.....................................................................................................................................................................................................................................OOO..........................................................................................................O......................................................................................................O.O................................................O.......O............................................................
......................................................................................................................................................................................................................................O...........................................................................................................OO...................................................................................................O....O...............................................O..O...OOO...........................................................
........................................................................................................................................................................................................................................O........................................................................................................OO.O...................................................................................................OO...................................................O.......OO..........................................................
........................................................................................................................................................................................................................................OO...........................................................................................................O..................................................................................................OO...OOO..................................................OOOOO..........................................................
.......................................................................................................................................................................................................................................OO.O......................................................................................................O.O.O...O....................................................................................................OO...............................................O.......O.........................................................
...........................................................................................................................................................................................................................................O......................................................................................................OO.O.O.OO................................................................................................OO....................................................O...............................................................
.......................................................................................................................................................................................................................................O.O.O...O..................................................................................................OO.O.O.........................................................................................................O.OO............................................O..O...O........................................................
........................................................................................................................................................................................................................................OO.O.O.OO....................................................................................................OO.........................................................................................................OOOO.O...........................................................................................................
........................................................................................................................................................................................................................................OO.O.O.......................................................................................................O.O........................................................................................................O.....O........................................OO.O..O.O.........................................................
...........................................................................................................................................................................................................................................OO.......................................................................................................OOO.........................................................................................................O.OO..O........................................OO.O....OO........................................................
...........................................................................................................................................................................................................................................O.O.....................................................................................................O............................................................................................................OOOOOOO............................................O.O...........................................................
..........................................................................................................................................................................................................................................OOO..........................................................................................................O.........................................................................................................O....O...........................................OO.O.OO........................................................
.........................................................................................................................................................................................................................................O.........................................................................................................OO.O..........................................................................................................OO....OOOOO......................................OO.O.O.........................................................
.............................................................................................................................................................................................................................................O.....................................................................................................OOOOO...............................................................................................................OOOOO......................................OO.OO..........................................................
.........................................................................................................................................................................................................................................OO.O......................................................................................................OO.............................................................................................................................................................OO...O.........................................................
.........................................................................................................................................................................................................................................OOOOO....................................................................................................................................................................................................................................................................OOOO.O.........................................................
.........................................................................................................................................................................................................................................OO.............................................................................................................O.........................................................................................................................................................OOOO.O.........................................................
.......................................................................................................................................................................................................................................................................................................................................................O.OO................................................................................................................OO.........................................OOO........................................................
..............................................................................................................................................................................................................................................O.......................................................................................................OO.O.OO......O.....................................................................................................O.O...........................................OO........................................................
.............................................................................................................................................................................................................................................O.OO........................................................................................................O...O...OO.O.....................................................................................................OOOO......................................OOOO.........................................................
............................................................................................................................................................................................................................................OO.O.OO......O..............................................................................................O.OOOO..O...O.....................................................................................................OO.OOO...................................OOOOOO........................................................
...............................................................................................................................................................................................................................................O...O...OO.O.................................................................................................O..O...O.......................................................................................................O.O.OOOOO...............................O.............................................................
..............................................................................................................................................................................................................................................O.OOOO..O...O.................................................................................................OOOO............................................................................................................O..O.OO.O...................................O.O......................................................
..................................................................................................................................................................................................................................................O..O...O...................................................................................................OOO.OO.O..........................................................................................................O.O..O.....................................OOO....................................................
..................................................................................................................................................................................................................................................OOOO..........................................................................................................OOOOO........................................................................................................O.O..O....................................OO..OO....................................................
...................................................................................................................................................................................................................................................OOO.OO.O....................................................................................................O...O.O......................................................................................................O............................................O..O....................................................
......................................................................................................................................................................................................................................................OOOOO.........................................................................................................O........................................................................................................O....O.........................................O....................................................
.....................................................................................................................................................................................................................................................O...O.O......................................................................................................O..O............................................................................................................O.......................................O.OOO..................................................
..........................................................................................................................................................................................................................................................O......................................................................................................O.OO........................................................................................................OOOO.........................................OOOOO..................................................
........................................................................................................................................................................................................................................................O..O.....................................................................................................O...........................................................................................................OO.............................................O....................................................
.......................................................................................................................................................................................................................................................O.OO.......................................................................................................O.........................................................................................................O...O...........................................O.O.O................................................
.......................................................................................................................................................................................................................................................O........................................................................................................OO...........................................................................................................OO..O..........................................OO..OO...............................................
........................................................................................................................................................................................................................................................O.......................................................................................................OOOOO.......................................................................................................................................................OO..O.O..............................................
......................................................................................................................................................................................................................................................OO.........................................................................................................OOOO...........................................................................................................O.O.........................................OO.OO................................................
......................................................................................................................................................................................................................................................OOOOO........................................................................................................O............................................................................................................OOO.........................................O..OOOOO.............................................
.......................................................................................................................................................................................................................................................OOOO........................................................................................................................................................................................................................OOOO....OOO..................................OO...OO..........................................
.........................................................................................................................................................................................................................................................O......................................................................................................................................................................................................................O...OOO....OOO..............................O.OO....OO.O.........................................
.........................................................................................................................................................................................................................................................................................................................................................................................................................................................................................O...................................OO........O.........................................
.................................................................................................................................................................................................................................................................................................................................................................................................................................................................................OO.....O.O..................................O....O...O..........................................
.....................................................................................................................................................................................................................................................................................................................................................................................................................................................................................OOO.O........................................O..............................................
.....................................................................................................................................................................................................................................................................................................................................................................................................................................................................................OOOOO...OO..................................OO..O...........................................
......................................................................................................................................................................................................................................................................................................................................................................................................................................................................................OOO...OO.O................................OO...............................................
.............................................................................................................................................................................................................................................................................................................................................................................................................................................................................................O.................................OOO...............................................
...........................................................................................................................................................................................................................................................................................................................................................................................................................................................................................O..O...........OOO...O..O.O.........OOO...............................................
...........................................................................................................................................................................................................................................................................................................................................................................................................................................................................................O.OO...........O..O.O.O.O..O........OOO...............................................
..........................................................................................................................................................................................................................................................................................................................................................................................................................................................................................O...OOO.........O..O...O.O..O........OOO...............................................
..........................................................................................................................................................................................................................................................................................................................................................................................................................................................................................OO..OOO..........O..........O.........O.O..............................................
.........................................................................................................................................................................................................................................................................................................................................................................................................................................................................................OO.OOO...........O...OOOOO...O..........O...............................................
..........................................................................................................................................................................................................................................................................................................................................................................................................................................................................................O.OO............O.OO.OO.O...O..........................................................
...........................................................................................................................................................................................................................................................................................................................................................................................................................................................................................OO.........O..OO........O..O..........................................................
....................................................................................................................................................................................................................................................................................................................................................................................................................................................................................................OO.O.OOO.......O.O...........................................................
...................................................................................................................................................................................................................................................................................................................................................................................................................................................................................................O.....O..OOO..................................................................
..................................................................................................................................................................................................................................................................................................................................................................................................................................................................................................OO...O.....O...................................................................
.................................................................................................................................................................................................................................................................................................................................................................................................................................................................................................O......OOOOOO.O.................................................................
................................................................................................................................................................................................................................................................................................................................................................................................................................................................................................OOOOOOOO......O..................................................................
.......................................................................................................................................................................................................................................................................................................................................................................................................................................................................................................OOOO..OOO.................................................................
....................................................................................................................................................................................................................................................................................................................................................................................................................................................................................................O....O.......................................................................
.................................................................................................................................................................................................................................................................................................................................................................................................................................................................................................O..O.......OOO.O................................................................
..................................................................................................................................................................................................................................................................................................................................................................................................................................................................................................O....OO...OOOOO................................................................
.......................................................................................................................................................................................................................................................................................................................................................................................................................................................................................................OO.......OO...............................................................
.......................................................................................................................................................................................................................................................................................................................................................................................................................................................................................................O.........................................................................
.................................................................................................................................................................................................................................................................................................................................................................................................................................................................................................................OO..............................................................
...............................................................................................................................................................................................................................................................................................................................................................................................................................................................................................................OOOO..............................................................
..............................................................................................................................................................................................................................................................................................................................................................................................................................................................................................................OO.O...............................................................
.............................................................................................................................................................................................................................................................................................................................................................................................................................................................................................................OOO.................................................................
............................................................................................................................................................................................................................................................................................................................................................................................................................................................................................................O..O.................................................................
............................................................................................................................................................................................................................................................................................................................................................................................................................................................................................................O....................................................................
............................................................................................................................................................................................................................................................................................................................................................................................................................................................................................................O...OOO..............................................................
...................................................................................................................................................................................................................................................................................................................................................................................................................................................................................................................OO............................................................
.............................................................................................................................................................................................................................................................................................................................................................................................................................................................................................................OO..O..O............................................................
.................................................................................................................................................................................................................................................................................................................................................................................................................................................................................................................O.O.O...........................................................
..................................................................................................................................................................................................................................................................................................................................................................................................................................................................................................................O...O..........................................................
................................................................................................................................................................................................................................................................................................................................................................................................................................................................................................................O...OO.O.........................................................
...............................................................................................................................................................................................................................................................................................................................................................................................................................................................................................................OOOO.OO...O.......................................................
..............................................................................................................................................................................................................................................................................................................................................................................................................................................................................................................O..O.O.....O.......................................................
.................................................................................................................................................................................................................................................................................................................................................................................................................................................................................................................O.......OO......................................................
..................................................................................................................................................................................................................................................................................................................................................................................................................................................................................................................OO.....OO......................................................
.............................................................................................................................................................................................................................................................................................................................................................................................................................................................................................................OOOO........O.......................................................
................................................................................................................................................................................................................................................................................................................................................................................................................................................................................................................OO...O...O.......................................................
.................................................................................................................................................................................................................................................................................................................................................................................................................................................................................................................O..O..O.........................................................
.............................................................................................................................................................................................................................................................................................................................................................................................................................................................................................................O.O.OOOOO...........................................................
..............................................................................................................................................................................................................................................................................................................................................................................................................................................................................................................OO..O..............................................................
.................................................................................................................................................................................................................................................................................................................................................................................................................................................................................................................OO.OO...........................................................
....................................................................................................................................................................................................................................................................................................................................................................................................................................................................................................................O............................................................
...................................................................................................................................................................................................................................................................................................................................................................................................................................................................................................................O.............................................................
..................................................................................................................................................................................................................................................................................................................................................................................................................................................................................................................OOOOO..........................................................
.................................................................................................................................................................................................................................................................................................................................................................................................................................................................................................................OOO.OO..........................................................
.................................................................................................................................................................................................................................................................................................................................................................................................................................................................................................................OO..............................................................
..................................................................................................................................................................................................................................................................................................................................................................................................................................................................................................................OOO............................................................
.....................................................................................................................................................................................................................................................................................................................................................................................................................................................................................................................O...........................................................
.....................................................................................................................................................................................................................................................................................................................................................................................................................................................................................................................O...........................................................
................................................................................................................................................................................................................................................................................................................................................................................................................................................................................................................OOO..O.O.........................................................
.................................................................................................................................................................................................................................................................................................................................................................................................................................................................................................................O...O...........................................................
...............................................................................................................................................................................................................................................................................................................................................................................................................................................................................................................OOO...OO..........................................................
................................................................................................................................................................................................................................................................................................................................................................................................................................................................................................................O.O..OO..........................................................
.............................................................................................................................................................................................................................................................................................................................................................................................................................................................................................................OO......OO..........................................................
..............................................................................................................................................................................................................................................................................................................................................................................................................................................................................................................O..OO..............................................................
...............................................................................................................................................................................................................................................................................................................................................................................................................................................................................................................OOO....OO.........................................................
.................................................................................................................................................................................................................................................................................................................................................................................................................................................................................................................O......O..OO....................................................
.................................................................................................................................................................................................................................................................................................................................................................................................................................................................................................................O....OO..OO.....................................................
..................................................................................................................................................................................................................................................................................................................................................................................................................................................................................................................O..O..O..O..O..................................................
..................................................................................................................................................................................................................................................................................................................................................................................................................................................................................................................O.OO..O..O..O..................................................
....................................................................................................................................................................................................................................................................................................................................................................................................................................................................................................................O...OO.......................................................
.........................................................................................................................................................................................................................................................................................................................................................................................................................................................................................................................O.O.O...................................................
....................................................................................................................................................................................................................................................................................................................................................................................................................................................................................................................O....O.O..O..................................................
....................................................................................................................................................................................................................................................................................................................................................................................................................................................................................................................O..........O.................................................
..........................................................................................................................................................................................................................................................................................................................................................................................................................................................................................................................O....O.O...............................................
......................................................................................................................................................................................................................................................................................................................................................................................................................................................................................................................O....OO....O...............................................
..............................................................................................................................................................................................................................................................................................................................................................................................................................................................................................................................O.O................................................
..........................................................................................................................................................................................................................................................................................................................................................................................................................................................................................................................O...OOO................................................
.........................................................................................................................................................................................................................................................................................................................................................................................................................................................................................................................O.O.....................................................
..........................................................................................................................................................................................................................................................................................................................................................................................................................................................................................................................O.....O.O..............................................
........................................................................................................................................................................................................................................................................................................................................................................................................................................................................................................................OOO......................................................
........................................................................................................................................................................................................................................................................................................................................................................................................................................................................................................................O.OO.OOOO................................................
......................................................................................................................................................................................................................................................................................................................................................................................................................................................................................................................OO..OOO.OO.................................................
.......................................................................................................................................................................................................................................................................................................................................................................................................................................................................................................................O....O.O..................................................
........................................................................................................................................................................................................................................................................................................................................................................................................................................................................................................................OO....O..O...............................................
.........................................................................................................................................................................................................................................................................................................................................................................................................................................................................................................................OOO..O.O.OO.............................................
..........................................................................................................................................................................................................................................................................................................................................................................................................................................................................................................................O.O.O.O..O.............................................
.......................................................................................................................................................................................................................................................................................................................................................................................................................................................................................................................OO.O..OO..................................................
.......................................................................................................................................................................................................................................................................................................................................................................................................................................................................................................................OO.OO...OOO...............................................
..........................................................................................................................................................................................................................................................................................................................................................................................................................................................................................................................OOO..O.................................................
.................................................................................................................................................................................................................................................................................................................................................................................................................................................................................................................................O...............................................
................................................................................................................................................................................................................................................................................................................................................................................................................................................................................................................................O.O..............................................
..............................................................................................................................................................................................................................................................................................................................................................................................................................................................................................................................O...OO.............................................
.............................................................................................................................................................................................................................................................................................................................................................................................................................................................................................................................OOOO..O.............................................
............................................................................................................................................................................................................................................................................................................................................................................................................................................................................................................................O..O.O...............................................
.............................................................................................................................................................................................................................................................................................................................................................................................................................................................................................................................O...OO..O...........................................
..................................................................................................................................................................................................................................................................................................................................................................................................................................................................................................................................OOOO...........................................
...................................................................................................................................................................................................................................................................................................................................................................................................................................................................................................................................O...OO........................................
....................................................................................................................................................................................................................................................................................................................................................................................................................................................................................................................................O....O.......................................
.......................................................................................................................................................................................................................................................................................................................................................................................................................................................................................................................................O.O.......................................
....................................................................................................................................................................................................................................................................................................................................................................................................................................................................................................................................OO.OO........................................
......................................................................................................................................................................................................................................................................................................................................................................................................................................................................................................................................OO.........................................
.....................................................................................................................................................................................................................................................................................................................................................................................................................................................................................................................................OO.OO.......................................
....................................................................................................................................................................................................................................................................................................................................................................................................................................................................................................................................O...O........................................
...................................................................................................................................................................................................................................................................................................................................................................................................................................................................................................................................OO.O..O.......................................
...................................................................................................................................................................................................................................................................................................................................................................................................................................................................................................................................O....OO.......................................
...................................................................................................................................................................................................................................................................................................................................................................................................................................................................................................................................O..O..........................................
.....................................................................................................................................................................................................................................................................................................................................................................................................................................................................................................................................OO..........................................
....................................................................................................................................................................................................................................................................................................................................................................................................................................................................................................................................O....O.......................................
.......................................................................................................................................................................................................................................................................................................................................................................................................................................................................................................................................OOO.......................................
....................................................................................................................................................................................................................................................................................................................................................................................................................................................................................................................................O...O........................................
....................................................................................................................................................................................................................................................................................................................................................................................................................................................................................................................................OO.O.O.......................................
....................................................................................................................................................................................................................................................................................................................................................................................................................................................................................................................................O..O.........................................
..................................................................................................................................................................................................................................................................................................................................................................................................................................................................................................................................OO.O.O.OO......................................
.................................................................................................................................................................................................................................................................................................................................................................................................................................................................................................................................O...O.O.........................................
..................................................................................................................................................................................................................................................................................................................................................................................................................................................................................................................................O....O..O......................................
....................................................................................................................................................................................................................................................................................................................................................................................................................................................................................................................................O.O...OOOOO..................................
......................................................................................................................................................................................................................................................................................................................................................................................................................................................................................................................................OOOOOO..O..................................
.....................................................................................................................................................................................................................................................................................................................................................................................................................................................................................................................................OO..OOO.....................................
.....................................................................................................................................................................................................................................................................................................................................................................................................................................................................................................................................OOO......O..................................
..........................................................................................................................................................................................................................................................................................................................................................................................................................................................................................................................................O......................................
....................................................................................................................................................................................................................................................................................................................................................................................................................................................................................................................................O.....OO.....................................
....................................................................................................................................................................................................................................................................................................................................................................................................................................................................................................................................O...OO...O...................................
.....................................................................................................................................................................................................................................................................................................................................................................................................................................................................................................................................O.OO....O...................................
.........................................................................................................................................................................................................................................................................................................................................................................................................................................................................................................................................O...O...................................
.........................................................................................................................................................................................................................................................................................................................................................................................................................................................................................................................................O.......................................
..........................................................................................................................................................................................................................................................................................................................................................................................................................................................................................................................................OO.....................................
..........................................................................................................................................................................................................................................................................................................................................................................................................................................................................................................................................O..OO..................................
.........................................................................................................................................................................................................................................................................................................................................................................................................................................................................................................................................O....O..................................
......................................................................................................................................................................................................................................................................................................................................................................................................................................................................................................................................O.OOO..O...................................
.....................................................................................................................................................................................................................................................................................................................................................................................................................................................................................................................................OOO.OO..OO..................................
....................................................................................................................................................................................................................................................................................................................................................................................................................................................................................................................................O..O.........................................
.......................................................................................................................................................................................................................................................................................................................................................................................................................................................................................................................................OO........................................
.......................................................................................................................................................................................................................................................................................................................................................................................................................................................................................................................................OOOO......................................
.........................................................................................................................................................................................................................................................................................................................................................................................................................................................................................................................................O.O.....................................
.......................................................................................................................................................................................................................................................................................................................................................................................................................................................................................................................................O....O....................................
........................................................................................................................................................................................................................................................................................................................................................................................................................................................................................................................................OO.......................................
........................................................................................................................................................................................................................................................................................................................................................................................................................................................................................................................................OO...OOO.................................
..............................................................................................................................................................................................................................................................................................................................................................................................................................................................................................................................................OO.................................
...........................................................................................................................................................................................................................................................................................................................................................................................................................................................................................................................................OO....................................
.................................................................................................................................................................................................................................................................................................................................................................................................................................................................................................................................................O.OO............................
................................................................................................................................................................................................................................................................................................................................................................................................................................................................................................................................................OOOO.O...........................
................................................................................................................................................................................................................................................................................................................................................................................................................................................................................................................................................O.....O..........................
................................................................................................................................................................................................................................................................................................................................................................................................................................................................................................................................................O.OO..O..........................
................................................................................................................................................................................................................................................................................................................................................................................................................................................................................................................................................OOOOOOO..........................
.................................................................................................................................................................................................................................................................................................................................................................................................................................................................................................................................................O....O..........................
.................................................................................................................................................................................................................................................................................................................................................................................................................................................................................................................................................OO....OOOOO.....................
.......................................................................................................................................................................................................................................................................................................................................................................................................................................................................................................................................................OOOOO.....................
...........................................................................................................................................................................................................................................................................................................................................................................................................................................................................................................................................................OO....................
.........................................................................................................................................................................................................................................................................................................................................................................................................................................................................................................................................................O.O.....................
..........................................................................................................................................................................................................................................................................................................................................................................................................................................................................................................................................................OOOO...................
..........................................................................................................................................................................................................................................................................................................................................................................................................................................................................................................................................................OO.OOO.................
...........................................................................................................................................................................................................................................................................................................................................................................................................................................................................................................................................................O.O.OOOOO.............
............................................................................................................................................................................................................................................................................................................................................................................................................................................................................................................................................................O..O.OO.O............
...............................................................................................................................................................................................................................................................................................................................................................................................................................................................................................................................................................O.O..O............
.............................................................................................................................................................................................................................................................................................................................................................................................................................................................................................................................................................O.O..O..............
............................................................................................................................................................................................................................................................................................................................................................................................................................................................................................................................................................O....................
.............................................................................................................................................................................................................................................................................................................................................................................................................................................................................................................................................................O....O..............
..................................................................................................................................................................................................................................................................................................................................................................................................................................................................................................................................................................O..............
.............................................................................................................................................................................................................................................................................................................................................................................................................................................................................................................................................................OOOO................
.............................................................................................................................................................................................................................................................................................................................................................................................................................................................................................................................................................OO..................
............................................................................................................................................................................................................................................................................................................................................................................................................................................................................................................................................................O...O................
.............................................................................................................................................................................................................................................................................................................................................................................................................................................................................................................................................................OO..O...............
................................................................................................................................................................................................................................................................................................................................................................................................................................................................................................................................................................O.O..............
................................................................................................................................................................................................................................................................................................................................................................................................................................................................................................................................................................OOO..............
...................................................................................................................................................................................................................................................................................................................................................................................................................................................................................................................................................................OOOO....OOO...
................................................................................................................................................................................................................................................................................................................................................................................................................................................................................................................................................................O...OOO....OOO...
.........................................................................................................................................................................................................................................................................................................................................................................................................................................................................................................................................................................O.......
.................................................................................................................................................................................................................................................................................................................................................................................................................................................................................................................................................................OO.....O.O......
.....................................................................................................................................................................................................................................................................................................................................................................................................................................................................................................................................................................OOO.O.......
.....................................................................................................................................................................................................................................................................................................................................................................................................................................................................................................................................................................OOOOO...OO..
......................................................................................................................................................................................................................................................................................................................................................................................................................................................................................................................................................................OOO...OO.O.
.............................................................................................................................................................................................................................................................................................................................................................................................................................................................................................................................................................................O...
...........................................................................................................................................................................................................................................................................................................................................................................................................................................................................................................................................................................O..O..
...........................................................................................................................................................................................................................................................................................................................................................................................................................................................................................................................................................................O.OO..
..........................................................................................................................................................................................................................................................................................................................................................................................................................................................................................................................................................................O...OOO
..........................................................................................................................................................................................................................................................................................................................................................................................................................................................................................................................................................................OO..OOO
.........................................................................................................................................................................................................................................................................................................................................................................................................................................................................................................................................................................OO.OOO..
..........................................................................................................................................................................................................................................................................................................................................................................................................................................................................................................................................................................O.OO...
...........................................................................................................................................................................................................................................................................................................................................................................................................................................................................................................................................................................OO....
