!Name: g2mwss-c12d
!C Converts a glider to a MWSS.
!C David Bell, 23 Sep '06
!Source: jslife-moving
!
.......................................OO.O.........................................................................................................
......................................OOO.O......O.O................................................................................................
.....................................O....O.O....O..................................................................................................
......................................OO......O.O...O...............................................................................................
.......................................O...O..O..OO...........................OOO...................................................................
..........................................O.OO...O...........................O...O..................................................................
.........................................O.O................OO..............O....O..................................................................
.........................................O.O................OO.............O...O....................................................................
...........................................................................O..O.OOO.................................................................
...........................................................................O.......O................................................................
.............................................................................O...O.O................................................................
............................O...OO..OO.O.....................................O...O.OO...............................................................
............................O...OO....O.OO.....................................OOO.OO...............................................................
............................O...OO..OO.OO......................................................OO...................................................
................................OO..................................OO.........................OO...................................................
..............................O..O.........................OO.......OO..............................................................................
..............................O.O.............O.........O.OOOO......................................................................................
...............................O.........O...OOOOO.....OO.O...OO...............OO......................................O............................
........................................O.O.......OO....O..OO.OO...............OO......................................O.....OOO....................
........................................O.......O.OO.....OOOOOO.................O.....................................O.O...OO..O...................
.........................................O........OO......O............................................................O...O.....O..................
..........................................O...OOOO..............................O......................OO..............O...O........................
...............................................OOO.....................................................OO...................O..OO...................
.............................................................................................................................OO...........OO........
..............................................................................O.....OOO...................................................OO........
...............................................OO.............................O.......O.............................................................
...............................................OOO......................O.....O.....O.O.............................................................
..............................................O.OOO....................OOO..........OO..............................................................
...............................OO..OOOOO.......O.OOO..................OOO.O.........................................................................
...............................O.......O.......OOOO..................O...O..........................................................................
...............................O....O.OO........OO..................OO..O..O........................................................................
...................................OOO.............................OOO..OOOO......................................................................OO
.....................................................................O...O..O.......................................................O.............OO
.....................................................................O......O.............................................OO.........OO.............
.......................................................O...............O..O..............................................O.OOO........OO............
......................................................O.O................OO.OO...........................................O...O..........O...........
......................................OO..............O..O...............O................................................OO.O.....OOOOO............
......................................OO...............OO..................................................................O..........O.............
........................O...OO..OO.O.....................................O..........................................................................
........................O...OO....O.OO..................................OOO............................................O............................
........................O...OO..OO.OO..................................O.O.O...................................OOO...OOOO...........................
............................OO.................................O......OOO.OOO..................................O.O...OO.OO..........................
..........................O..O................................O.O......O.O.O...................................OOO..O...............................
..........................O.O.................................O..O......OOO.........................................OO...O..........................
.....O.....................O...................................OO........O...........................................OOOO...........................
......O.OO.O.O..............................................................OO........................................OOO...........................
OOO...OOOO...O............................................................OO.OO.....................................................................
......O..OO.OO.........................................................O..OO...O....................................................................
.....O.................................................................O.O...OO.....................................................................
...OOO....................................................................OOOO......................................................................
...OOO....................................................................OOO.......................................................................
........................OOO.........................................................................................................................
.......................O..O.........................................................................................................................
.......................O............................................................................................................................
.......................O..O.........................................................................................................................
.......................O..O.........................................................................................................................
.........................OOO........................................................................................................................
........................O.O.........................................................................................................................
........................O...........................................................................................................................
..........................O.........................................................................................................................
....................OOO....OO.......................................................................................................................
...................O.OO......O......................................................................................................................
.....O.OO.OO.......O.OO.....OO......................................................................................................................
....OOOOO..OO.......OOO.O...O.......................................................................................................................
....O..OOO.O........OO.....O........................................................................................................................
..........O............O..OO........................................................................................................................
.......................OO.O...OO....................................................................................................................
.........................O..........................................................................................................................
...........OO.......................................................................................................................................
...........OO.......................................................................................................................................
......................O.............................................................................................................................
......................O.............................................................................................................................
.......................O............................................................................................................................
......................OO............................................................................................................................
....................O..O.O..........................................................................................................................
....................O....O..........................................................................................................................
....................O...............................................................................................................................
.....................OOO............................................................................................................................
..........................OOO.......................................................................................................................
............................O.......................................................................................................................
...........................O........................................................................................................................
