!Name: p035
!Source: jslife-moving
!
.....O.......O.....
....OOO.....OOO....
....O..O...O..O....
.....OOOO.OOOO.....
.....O..O.O..O.....
....OO.......OO....
....OO.......OO....
....OOO.O.O.OOO....
.......OO.OO.......
...O.....O.....O...
..O.OOO.....OOO.O..
.OO.............OO.
.OO.OOOOO.OOOOO.OO.
O.O.OOOO.O.OOOO.O.O
OOOOOO.O...O.OOOOOO
...O....O.O....O...
.OO......O......OO.
....OOO.....OOO....
...O..O.....O..O...
..O..O.......O..O..
...OOO.......OOO...
....O.OO...OO.O....
.....OOOOOOOOO.....
....O.........O....
.....O.OO.OO.O.....
........O.O........
....OOOO...OOOO....
........O.O........
...O..O.O.O.O..O...
...OO.........OO...
.......OO.OO.......
...OO.........OO...
...OO.........OO...
..O.O.........O.O..
..O.............O..
..O...O.....O...O..
..O..OOO...OOO..O..
..O.O...O.O...O.O..
........O.O........
.....O..O.O..O.....
.......OO.OO.......
.....O.O...O.O.....
....O.O..O..O.O....
...OO..O...O..OO...
...OOOO.O.O.OOOO...
......OOO.OOO......
...OO..OO.OO..OO...
......OO...OO......
......O.....O......
...O...O...O...O...
...O...OO.OO...O...
...O....O.O....O...
.....O.O...O.O.....
...O..O.....O..O...
...O.O.......O.O...
..O..O.......O..O..
.OO.............OO.
.OO.............OO.
.OO...OO...OO...OO.
..OO.OO.O.O.OO.OO..
...O.O..O.O..O.O...
....OOO.....OOO....
...O.O.......O.O...
....OO.......OO....
..O..O.......O..O..
..O.O.........O.O..
...OOOO.....OOOO...
.....OOO...OOO.....
........O.O........
.....OO.O.O.OO.....
......O.O.O.O......
......O.O.O.O......
....OOOOO.OOOOO....
...O...........O...
...O...........O...
...O...........O...
..OOO.........OOO..
...O...........O...
...O...........O...
...O...........O...
