!Name: p062
!Source: jslife-moving
!
............................................................................................................................................................................................................O...O..........................
...........................................................................................................................................................................................................OOO.OOO.........................
..........................................................................................................................................................................................................OO.O.O.OO........................
.......................................OOO..OOO..OOO.....................................................................................................................................................OO.......OO.......................
......................................O...O.OOO.O...O.....................................................................................................................................................O.......O........................
.....................................O......O.O......O...................................................................................................................................................OO.......OO.......................
.....................................O...OO.....OO...O.................................................................................................................................................OO.O.O...O.O.OO.....................
.......................................O...........O....................................................................................................................................................O.O.OO.OO.O.O......................
....................................O.O.............O.O..............................................................................................................................................OO.O..O.O.O.O..O.OO...................
...................................OO.O.OOO.....OOO.O.OO.............................................................................................................................................OO.O.OO.O.O.OO.O.OO...................
..................................O.O.O...O.....O...O.O.O............................................................................................................................................O..O.O..O.O..O.O..O...................
.................................OO.O.................O.OO..........................................................................................................................................OO..O...........O..OO..................
................................O...O.....OO...OO.....O...O.................................................................................................................................................OO.OO..........................
....................................................................................................................................................................................................OO..OO.........OO..OO..................
................................OO.OO.................OO.OO........................................................................................................................................O.....................O.................
............................................OOO...................................................................................................................................................OO.....................OO................
.................................O...OOO...O...O...OOO...O........................................................................................................................................O.OO.................OO.O................
.................................O.....O..O.....O..O.....O.......................................................................................................................................OO.O.OO.............OO.O.OO...............
........................................OOO.....OOO.................................................................................................................................................O...O...........O...O..................
.................................OO..OO.O.O.OOO.O.O.OO..OO.......................................................................................................................................OO.O.O.OO.........OO.O.O.OO...............
................................O.O..OO.O...O.O...O.OO..O.O........................................................................................................................................O.O..O.O.......O.O..O.O.................
.................................OOOO.O.O.O.O.O.O.O.O.OOOO.........................................................................................................................................OOO.O..OO.....OO..O.OOO.................
................................OO.......................OO.........................................................................................................................................O.....O.O...O.O.....O..................
...................................OOO...............OOO.............................................................................................................................................OO.....OO.OO.....OO...................
...........................................................................................................................................................................................................O.....O.........................
...................................OOO...............OOO...........................................................................................................................................OOO.......O.O.......OOO.................
..................................OO.OO.............OO.OO.........................................................................................................................................OO........O...O........OO................
.................................O......OOO.....OOO......O........................................................................................................................................O..........O.O..........O................
....................................O.O.O..O...O..O.O.O..........................................................................................................................................OO......OOO.O.O.OOO......OO...............
.................................OO.....O...O.O...O.....OO.......................................................................................................................................O.......O...O.O...O.......O...............
............................................O.O.................................................................................................................................................O.O.........O...O.........O.O..............
......................................O...O.....O...O...................................................................................................................................................OO.........OO......................
.....................................OO....O.O.O....OO.............................................................................................................................................OOO....O.......O....OOO.................
...................................OO.O.OO.O.O.O.OO.O.OO.............................................................................................................................................O...O.........O...O...................
....................................O.O.OO.......OO.O.O.............................................................................................................................................O.O...............O.O..................
.................................OO.O.O.O.........O.O.O.OO............................................................................................................................................OO.....OOO.....OO....................
.................................OO.O.O..O.......O..O.O.OO........................................................................................................................................OO..OOOOOO.OOO.OOOOOO..OO................
.................................O.O...OOO...O...OOO...O.O........................................................................................................................................OO.....O...O.O...O.....OO................
................................OO.OO.OO.O.OO.OO.O.OO.OO.OO.......................................................................................................................................O...O.OO.O.....O.OO.O...O................
.................................................................................................................................................................................................OO..O..O.OO.....OO.O..O..OO...............
................................OOO.OOO.OO..O.O..OO.OOO.OOO......................................................................................................................................O....O.O.O.......O.O.O....O...............
............................................O.O.................................................................................................................................................O.O..OOO..O.OO.OO.O..OOO..O.O..............
..................................OOO...O..OO.OO..O...OOO...........................................................................................................................................O..OO.O.OO.OO.O.OO..O..................
...................................O...O....O.O....O...O............................................................................................................................................O.....O.O.O.O.O.....O..................
...................................O.....OO.O.O.OO.....O..................................................................................................................................................O.......O........................
............................................O.O....................................................................................................................................................OO......O.....O......OO.................
...................................OO..OO.........OO..OO..........................................................................................................................................O..O.................O..O................
...................................OOOO...O.....O...OOOO..........................................................................................................................................O.O....OO.......OO....O.O................
..................................OO..O.O.........O.O..OO........................................................................................................................................OO......OO.......OO......OO...............
.....................................OO.O.O.....O.O.OO...........................................................................................................................................O.O.....O....O....O.....O.O...............
.......................................O..OO...OO..O...............................................................................................................................................OO...OO...OOO...OO...OO.................
.....................................OO.O...O.O...O.OO.............................................................................................................................................O.O......OOOOO......O.O.................
.......................................OO...O.O...OO.................................................................................................................................................OO....OO...OO....OO...................
.......................................O.O.OO.OO.O.O.................................................................................................................................................O.OOO.O..O..O.OOO.O...................
.........................................O.O.O.O.O.....................................................................................................................................................O.O.O.O.O.O.O.O.....................
.........................................O.O.O.O.O....................................................................................................................................................O..O...O.O...O..O....................
............................................OOO..........................................................................................................................................................O...O.O...O.......................
............................................................................................................................................................................................................OO.OO..........................
.......................................O..O..O..O..O.......................................................................................................................................................................................
.......................................OO.OO.O.OO.OO........................................................................................................................................................OO.OO..........................
..........................................O.....O..........................................................................................................................................................................................
........................................OO.......OO........................................................................................................................................................................................
........................................OO.......OO........................................................................................................................................................................................
...................................................................................................................................................................................................OO...................OO.................
.................................................................................................................................................................................................O...OO...............OO...O...............
.................................................................................................................................................................................................O.........................O...............
...........................................O...O.................................................................................................................................................O.....O.............O.....O...............
.........................................O.O...O.O................................................................................................................................................O...O...............O...O................
.......................................OOO..O.O..OOO...............................................................................................................................................OOO.................OOO.................
......................................OO.OO.O.O.OO.OO......................................................................................................................................................................................
......................................OO...........OO......................................................................................................................................................................................
.......................................O....O.O....O.......................................................................................................................................................................................
........................................OO..O.O..OO........................................................................................................................................................................................
..........................................OO...OO..........................................................................................................................................................................................
....................................O.................O....................................................................................................................................................................................
...................................OOO...............OOO...................................................................................................................................................................................
..................................OOO.O.............O.OOO..................................................................................................................................................................................
.................................O....O.............O....O.................................................................................................................................................................................
................................OO...O...............O...OO................................................................................................................................................................................
................................O...OO...............OO...O.................................................................................................................................OO...OO....OO...........OO....OO...OO..........
.................................OO.....................OO..................................................................................................................................OO...OO....OO...........OO....OO...OO..........
.................................OOOOO...............OOOOO.................................................................................................................................................................................
................................O.........................O....................................................................................................................................OO...........................OO.............
...............................O...........................O..........................................................................................................................O.......O..O....O...............O....O..O.......O....
...............................OOO.......................OOO........................................................................................................................OO.........OO...O..O.............O..O...OO.........OO..
....................................................................................................................................................................................OOOO...OO.......O..O.............O..O.......OO...OOOO..
..................................................................................................................................................................................OOOOO.OOOO.O.......O.................O.......O.OOOO.OOOOO
..................................................................................................................................................................................O..O.......O.................................O.......O..O
..................................................................................................................................................................................OOOO...OOOOO.................................OOOOO...OOOO
.....................................................................................................................................................................................OO.....O...................................O.....OO...
.....................................................................................................................................................................................O...OO.......................................OO...O...
......................................................................................................................................................................................OO.OO.......................................OO.OO....
..................................OO...................OO..................................................................................................................................................................................
..................................OO...................OO..................................................................................................................................................................................
................................O.........................O................................................................................................................................................................................
................................O.........................O................................................................................................................................................................................
..................................O..O...............O..O...................................................................................................................................OO...OO....OO...........OO....OO...OO..........
..................................O.O.................O.O...................................................................................................................................OO...OO....OO...........OO....OO...OO..........
..................................OOO.................OOO..................................................................................................................................................................................
.......................OO.........................................OO.......................................................................................................................................................................
.......................OO.............O....OO.OO....O.............OO.......................................................................................................................................................................
......................................O....OO.OO....O......................................................................................................................................................................................
......................................O.............O......................................................................................................................................................................................
..........................................................................................................................................................................................OOO...................................OOO........
................O.........................................................O................................................................................................................................................................
................O.O.....................................................O.O................................................................................................................................................................
................OO.......................................................OO................................................................................................................................................................
............................................................................................................................................................................................OO...OO....OO...........OO....OO...OO..........
............................................................................................................................................................................................OO...OO....OO...........OO....OO...OO..........
.......................OO.........................................OO.......................................................................................................................................................................
.......................OO..................OO.OO..................OO.......................................................................................................................................................................
...........................................OO.OO...........................................................................................................................................................................................
..........................................................................................................................................................................................OOO...................................OOO........
.O.......................................................................................O.................................................................................................................................................
O.........................................................................................O................................................................................................................................................
OOO.....................................................................................OOO................................................................................................................................................
