!Name: p072-bh8
!Source: jslife-moving
!
...............O...............
..............OOO..............
.........O...OOOOO...O.........
........OOO.OO...OO.OOO........
.......OO.O.O..O..O.O.OO.......
......OO......O.O......OO......
.......O.....OO.OO.....O.......
......OO.....OO.OO.....OO......
....OO.O.O...........O.O.OO....
.....O.O.OO.........OO.O.O.....
..OO.O.O...O.......O...O.O.OO..
..OO.O.........O.........O.OO..
..O..O.OO.OO.OO.OO.OO.OO.O..O..
.OO..O...................O..OO.
.........O...O.O.O...O.........
.....O...O...........O...O.....
....OO...................OO....
....O.OOO.............OOO.O....
...OO.O.O.............O.O.OO...
......O.OO...........OO.O......
......O.................O......
.......O.OOO.......OOO.O.......
...........OO.....OO...........
.........OO.O.....O.OO.........
.........OO.O.....O.OO.........
..........OOO.....OOO..........
...........O.......O...........
........O.............O........
.......OO.............OO.......
......OO.O...........O.OO......
.....O...................O.....
.....O.O..OOO.....OOO..O.O.....
.....O.O..O.........O..O.O.....
......OO...OO.....OO...OO......
..........O.O.....O.O..........
..........OO.......OO..........
..........OO.......OO..........
.............O...O.............
..............O.O..............
.............OO.OO.............
......OO...............OO......
.....O.O...............O.O.....
.......O...............O.......
.............OO.OO.............
.............OO.OO.............
......OO...............OO......
.....O..O.............O..O.....
......O.O.............O.O......
.O.....O...............O.....O.
O.O.........................O.O
.OO.........................OO.
.............OO.OO.............
.............OO.OO.............
......OO...............OO......
.....O..O.............O..O.....
......O.O.............O.O......
.O.....O...............O.....O.
O.O.........................O.O
.OO.........................OO.
.............OO.OO.............
.............OO.OO.............
......OO...............OO......
.....O..O.............O..O.....
......O.O.............O.O......
.O.....O...............O.....O.
O.O.........................O.O
.OO.........................OO.
