!Name: p130
!Source: jslife-moving
!
..................................................O............................................................................................................................................
.................................................OOOO..........................................................................................................................................
................................................O..OO..........................................................................................................................................
................................................O.....O........................................................................................................................................
................................................O....O.........................................................................................................................................
.................................................O.............................................................................................................................................
..................................................O.O..........................................................................................................................................
..................................................OO...........................................................................................................................................
...............................................O.OO............................................................................................................................................
.............................................OO...O............................................................................................................................................
.............................................O......O..........................................................................................................................................
.............................................OOOOOOO...........................................................................................................................................
.......................................................O.......................................................................................................................................
.................................................O.......O.....................................................................................................................................
................................................OOO............................................................................................................................................
...............................................O...O.....O.....................................................................................................................................
................................................OO.O.OO.O......................................................................................................................................
......O..........................................OO.OO..O.........................................................OO...........................................................................
.....OOOOO.........................................OO..OO................................................OO.......OO...........................................................................
....O.....O...............OO.......................O...O..........................O......................OO...........................O...................................................O....
.....OO.................OOOOO..........................................OO.........O....................................O...OO.........O...................................................O....
......O..O.......OO....OOOOOOO.........OO..............................OO.........O....................................OO..OO.........O...................................................O....
.OO...............O....O.....OO.......OO.O.OO.O...........O.....O.....................................................O.O......................................................................
OO.OO.....O..O....OO.O.......OO.O.O..O...O...OOO...OOO...OO......O..................................OOO........................................................................................
.O.OO....OO..O.OO......O.....OO.O..OOO.O........O.O.OO..OO.O..O.O.....................................O........................................................................................
..O...O.......O.OO.....OOOOOOO.OO............OOO..O..O...O.O....O.................OO.................O................................OO..................................................OO...
...OOOOOOOOOOOO.OO......OOOOO....OOOOOOOOOOOOOO...........OO...OO..OO.............OO..................................................OO..................................................OO...
..........................................................OOOO.OO.O..O.........................................................................................................................
...OOOOOOOOOOOO.OO......OOOOO....OOOOOOOOOOOOOO...........O...OO...OO..........................................................................................................................
..O...O.......O.OO.....OOOOOOO.OO............OOO..O..O...OOO..........................OO.......................................................................................................
.O.OO....OO..O.OO......O.....OO.O..OOO.O........O.O.OO..OO.OO.........................O.O...O..................................................................................................
OO.OO.....O..O....OO.O.......OO.O.O..O...O...OOO...OOO...OOO...........................O...O.O.................................................................................................
.OO...............O....O.....OO.......OO.O.OO.O...........O............................O.O....O.........................................OO..................................................OO.
......O..O.......OO....OOOOOOO.........OO..............................................O....O.O........................................O..O................................................O..O
.....OO.................OOOOO..........................................................O..O..OO.........................................OO..................................................OO.
....O.....O...............OO.............................................................O.....................................................................................................
.....OOOOO............................................O...O.......................OO.................................................OO..................................................OO....
......O...............................................O...O......................O..O....O....................OO.....................O.O..........................OO.....................O.O...
.....................................................O.O..........................OO.....O....................OO......................O...........................OO......................O....
....................................................OOO..OO..............................................OOO....................................OO...........OOO...............................
...............................................................................................................................................O..O............................................
.......................................................OO.......................................................................................OO.............................................
.......................................................OO......................................................................................................................................
......................................................O........................................................................................................................................
...................................................O...........................................................................................................................................
..................................................O..OOOO......................................................................................................................................
..................................................O..OOOO......................................................................................................................................
..................................................OO...........................................................................................................................................
.....................................................OO..OOOOO.................................................................................................................................
....................................................OO..OO....O................................................................................................................................
.....................................................O.O.......................................................................................................................................
......................................................OOO....O.................................................................................................................................
.......................................................O....O..................................................................................................................................
..........................................................O.O..................................................................................................................................
