!Name: p155
!Source: jslife-moving
!
................................OOO.....OOO.......................................
................................O.O.....O.O.......................................
................................O..O...O..O.......................................
................................O...O.O...O.......................................
.............................O...OO.O.O.OO...O....................................
...........................OO.OO..O.O.O.O..OO.OO..................................
...........................OO.OO...OO.OO...OO.OO..................................
............................O.......O.O.......O...................................
...........................OOO......O.O......OOO..................................
............................OO.....OO.OO.....OO...................................
............................OOO.............OOO...................................
.............................OO.............OO....................................
.............................O.OO.........OO.O....................................
............................O.O.............O.O...................................
............................O.O..OO.....OO..O.O...................................
.................................OOO...OOO........................................
................................O.O.....O.O.......................................
...............................OOOO.....OOOO......................................
...............................OO.........OO......................................
...............................OO..OO.OO..OO......................................
...............................O.OO.O.O.OO.O......................................
.................................O.OO.OO.O........................................
.................................O.OO.OO.O........................................
................................OO.......OO.......................................
.................................O.O...O.O........................................
...................................O...O..........................................
...................................O...O..........................................
.................................OO.O.O.OO........................................
............................OOO..OO.O.O.OO..OOO...................................
............................O..OO...O.O...OO..O...................................
.............................OOO...........OOO....................................
..............................O.O.........O.O.....................................
...............................OO.........OO......................................
...............................OO.........OO......................................
.................................OOO...OOO........................................
..................................O.....O.........................................
.................................OOO...OOO........................................
.................................OOO.O.OOO........................................
....................................OOO...........................................
.....................................O............................................
.................................O.O...O.O........................................
.................................OO.....OO........................................
................................OO.......OO.......................................
...................................O...O..........................................
..............................OO...........OO.....................................
..............................OO...O...O...OO.....................................
..............................O..O.OO.OO.O..O.....................................
.................................O.OO.OO.O........................................
.................................O.O...O.O........................................
....................................O.O...........................................
................................O...O.O...O.............O.........................
.........O.......................O...O...O.............OOO........................
........OOO...........................................OO.OO.......................
........O.O....O...................O...O..........................................
.OO.....OO....OOO...................O.O...........O..O.O.O.O......................
O.OO...OOO....O.O....................O...........OOO...O...OO.....................
O.OO.O....O....OO.....OO.............O..........O......O...OO.....................
OO.OO.O...O....OOO...OO.O.......OOO.OOO.OOO.....O.O...............................
...OOO..OO....O....O.OO.O......O.OO.OO.O.O.O......O.O.............................
.O.O..........O...O.OO.OO.....O.................O..O..............................
.O.............OO..OOO........O..OO.....OOO.O...O.......................O.........
.....................O.O........O.O.......O.O..........................OOO........
.......................O....OOOO..........O.OOOO..................O....O.O........
............................O............O......O................OOO....OO.....OO.
................................O.OOO........O.O.................O.O....OOO...OO.O
.............................O..O.O.O.....OO.O............OO.....OO....O....O.OO.O
..............................OO..OOO.......O............O.OO...OOO....O...O.OO.OO
.........................................................O.OO.O....O....OO..OOO...
.........................................................OO.OO.O...O..........O.O.
............................................................OOO..OO.............O.
............................O.............................O.O.....................
..........................OO.OO...........................O.......................
..........................OO..O....O..............................................
...........................OO.OO..O.O.......OO....................................
............................O.OO...O.O.....O......................................
............................OO......O.....O.......................................
..............................OOO..........O.O....................................
...............................OO...........OO....................................
..............................OO..................................................
.....................................OO...........................................
.........................OOO........OO............................................
......................................O..............O............................
......................................OOO...OO.OO...O.O...........................
.......................................OO...OO.OO..O.O............................
.......................................OO..........OO.............................
....................................OOO...........................................
.................................O..OOO...........................................
..................................OO..O...........................................
.....................................O..OO........................................
...................................O...O.O........................................
....................................O....O........................................
........................................O.........................................
.................................OO....O..........................................
..................................OO..............................................
..............................OO...O..............................................
..............................OO...O..............................................
..................................O...............................................
.................................OOO..OO..........................................
..................................O..OOO..........................................
..................................O.OOOO..........................................
......................................O...........................................
.......................................O......O...................................
....................................OO.O......O...................................
......................................O.......O...................................
...................O..............................................................
..................O.O.............................................................
..................O.O.............................................................
...................O..............................................................
..............OO.......OO.........................................................
.............O..O.....O..O........................................................
..............OO.......OO.........................................................
...................O..............................................................
..................O.O.............................................................
..................O.O.............................................................
...................O..........................O...................................
..............................................O...................................
..............................................O...................................
..........................................O.......................................
..........................................O.......................................
..........................................O.......................................
.................................OO...OOO...OOO...................................
.................................OO...............................................
..........................................O.......................................
..........................................O.......................................
................................O.........O.......................................
.........................O.....O.O................................................
.........................O....O..O................................................
.........................O.....OO.................................................
...............................O.O................................................
................................OO................................................
................................OO..........O.....O...............................
............................OOO......O.....O.OO..O.O..............................
....................................O.....OO....O..O..............................
................................O...O.....O.OO...OO...............................
................................O....OO.O.O.......................................
................................O.......O...OO....................................
........................................O..O......................................
........................................OO..O.....................................
.........................................OOO......................................
..........................................O.......................................
...................................O..............................................
..................................O.O.............................................
..................................O.O.............................................
...................................O..............................................
......................................OO..........................................
......................................OO..........................................
...................O..............................................................
..................O.O.............................................................
..................O.O.............................................................
...................O..............................................................
..............OO.......OO.........................................................
.............O..O.....O..O........................................................
..............OO.......OO.........................................................
...................O..............................................................
..................O.O.............................................................
..................O.O.............................................................
...................O..............................................................
.............................................OOO..................................
.........................................OOO......................................
.......................................O.....O....................................
.................................OO....O.....O....................................
.................................OO....O.....O....................................
.........................................OOO......................................
................................O.................................................
...............................O.O................................................
........................OOO...O..O......................O.........................
...............................OO......................O.O........................
.......................................................O..O.......................
........................................................OO........................
......................................OO..........................................
......................................O.O.........................................
.......................................O.....OO...................................
.............................................OO...................................
.......................................................O..........................
......................................................O.O.........................
......................................................O.O.........................
.......................................................O..........................
..................................OO..............................................
..................................OO..............................................
.........................................OO.......................................
.........................................OO.......................................
...................................O.........OO...................................
..................................O.O........OO...................................
..................................O.O.............................................
...................................O..............................................
