!Name: p18-2
!C This is a period 18 c/3 puffer which produces two boats in each period.
!C David I. Bell, July 1996
!Source: jslife-moving
!
.......OO........................................................................................................................................OO.......
.....OOO.O...OO............................................................................................................................OO...O.OOO.....
.OO.OO...OO.O.OO..........................................................................................................................OO.O.OO...OO.OO.
.OO..O..O.OO..OO..........................................................................................................................OO..OO.O..O..OO.
O..O......O.O.O.OOO....................................................................................................................OOO.O.O.O......O..O
..........OO...O..........................................................................................................................O...OO..........
.........O...O.O....O................................................................................................................O....O.O...O.........
..........O.....O..OOOO.............................O...........O........................O...........O.............................OOOO..O.....O..........
.................O....O.OOO........................O.O....OOO..OO........................OO..OOO....O.O........................OOO.O....O.................
................OO..O......O....................OO.O.O.OO...OOO.O........................O.OOO...OO.O.O.OO....................O......O..OO................
.....................OO.O.O.....................OO..OOOOO.........OO.OOO..........OOO.OO.........OOOOO..OO.....................O.O.OO.....................
.........................OOO...................O..O........OOO....OO....OO......OO....OO....OOO........O..O...................OOO.........................
......................O...O..O......................O.OOO.OOO.OOOOO.OOO...O....O...OOO.OOOOO.OOO.OOO.O......................O..O...O......................
....................OO.......O.........................OO.O.O.OOO...OOO.O...OO...O.OOO...OOO.O.O.OO.........................O.......OO....................
...............OO.........O...O.......OOO.........................O.O...O...OO...O...O.O.........................OOO.......O...O.........OO...............
............OO.OO............O..O....O.O.OO.OO......................O...O........O...O......................OO.OO.O.O....O..O............OO.OO............
............OO...O..............O....O.O....OO.........OO...............OO.O..O.OO...............OO.........OO....O.O....O..............O...OO............
........OOO..O...................O.O.OO.O.O...OO..OOO.OO.O................OO..OO................O.OO.OOO..OO...O.O.OO.O.O...................O..OOO........
........OO..OOO.....OOO...OOO..O..O...O.O.O.O..OOO.O.OOO.OOOOO...OOO........OO........OOO...OOOOO.OOO.O.OOO..O.O.O.O...O..O..OOO...OOO.....OOO..OO........
........OOO.........OOO..O.O.OOOOOOOO.O..O..O..O.O.OO.O..O.OO.O.....O...OO......OO...O.....O.OO.O..O.OO.O.O..O..O..O.OOOOOOOO.O.O..OOO.........OOO........
.........O.........O...O..OO...O..OOO.O..OO.OO...........O.O...O....O.O............O.O....O...O.O...........OO.OO..O.OOO..O...OO..O...O.........O.........
..........O..O...........O...O....O....O..O.O..OO........O.O...OO......O..........O......OO...O.O........OO..O.O..O....O....O...O...........O..O..........
.........OO.OO....O....O..........O......O...O...OOOOOOO.O.O.....O...O.OOOOOOOOOOOO.O...O.....O.O.OOOOOOO...O...O......O..........O....O....OO.OO.........
.............OOOOOOO.............OO..............O.OO......O.OO.O........................O.OO.O......OO.O..............OO.............OOOOOOO.............
............O.O.O.................O...................OOO........................................OOO...................O.................O.O.O............
..................................O....................................................................................O..................................
