!Name: p180backrake-1
!C A c/3 period 180 backward rake.
!C This uses a period 180 forward rake whose gliders are turned using
!C a period 15 spaceship.  The p15 spaceship can be moved inwards if
!C the block deleting spaceships are also moved downwards.
!C David I. Bell, November 2002
!Source: jslife-moving
!
.......................................................................................O..................................
......................................................................................O.O.................................
......................................................................O..............O...O..............O.................
..................................................................OOO.OOO.............OOO.............OOO.OOO.............
.................................................................O......O.OOO.....................OOO.O......O............
..................................................................OO...O.....O......OO...OO......O.....O...OO.............
..........................................................................OOOOOOO...OO...OO...OOOOOOO.....................
........................................................................O..OO...OO..OOO.OOO..OO...OO..O...................
.........................................................................OO.O....OO.........OO....O.OO....................
...............................................................................OOOO..OO.OO..OOOO..........................
.......................................................................OO.OOOO.......OO.OO.......OOOO.OO..................
......................................................................O.O.OO.....OO.O.OOO.O.OO.....OO.O.O.................
...................................................................OO.O..........OO.O.....O.OO..........O.OO..............
...................................................................OO.O.........O.O.O.....O.O.O.........O.OO..............
...................................................................O.O..........O...O.....O...O..........O.O..............
......................................................................................O.O.................................
................................................................................O...OOO.OOO...O...........................
................................................................................O.OOOOO.OOOOO.O...........................
................................................................................O.O.........O.O...........................
..................................................................................O.OO.O.OO.O.............................
.................................................................................OO.O.OOO.O.OO............................
..................................................................................O.O.OOO.O.O.............................
...............................................................................OO.O.OO...OO.O.OO..........................
...............................................................................OO.O.O.....O.O.OO..........................
................................................................................O.O.O.....O.O.O...........................
.............................................................O.....................OO.....OO.....................O........
......................................................OO.OOO.OOO....................OOOOOOO....................OOO.OOO.OO.
......................................................OO....O..OO.OO...................O...................OO.OO..O....OO.
.....................................................O..O.OO...O..OO..............O.O..O..O.O..............OO..O...OO.O..O
.................................................................O..O.....O......OO.O.....O.OO......O.....O..O............
.....................................................................O..OOOO.....OO...O.O...OO.....OOOO..O................
........................................................................O...O......OO.....OO......O...O...................
...................................................................OOO..O.O.OO.....OOOOOOOOO.....OO.O.O..OOO..............
......................................................................O..OO.O.OO...............OO.O.OO..O.................
........................................................................OO.O...O.OO.........OO.O...O.OO...................
...............................................................................O.O.OOOOOOOOO.O.O..........................
................................................................................OOOOOOOOOOOOOOO...........................
..................................................................................OOOOOOOOOOO.............................
....................................................................................OO.O.OO...............................
......................................................................O..............O.O.O................................
.....................................................................O.O.OO..........O...O................................
....................................................................O....OO........OOOOOOOOO..............................
.................................................................O.OO...O..O.....OO.O.....O.OO............................
................................................................OO.OO.O.............O.OOO.O...............................
...............................................................O..OOOOOO........O.............O...........................
...........................................................OO.........O..O......O.OO.......OO.O...........................
................................................OO.OOO....OO.O...O...O...O.......OOO.......OOO............................
................................................OO....OO..OO.OOO.OO..O..OO........OOO.....OOO.............................
...............................................O..O.O...O.OO.....OO...O..O......O.OO.......OO.O...........................
......................................................OOO.....OO.....O..........OOO.........OOO...........................
........................................................OOO.O....................OOO.......OOO............................
........................................................OO........................OOO.....OOO.............................
..................................................................................O.........O.............................
..................................................................................OO..O.O..OO.............................
...................................................................................O.O...O.O..............................
....................................................................................O..O..O....O.O........................
.....................................................................................O...O.....O.O........................
................................................................................................O.........................
....................................................................................OO...OO....O..........................
....................................................................................OO...OO...O.O.........................
................................................................................O.............O.O.........................
..............................................................................O.O.........................................
...............................................................................OO.........................................
....................................................................................OO...OO...............................
....................................................................................OO...OO...............................
....................................................................................OO...OO...............................
....................................................................................OO...OO...............................
...................................................................................OO.....................................
..................................................................................O.O.....................................
.................................................................................O.O......................................
.................................................................................OO.......................................
..................................................................................O.OO....................................
..................................................................................O...O...................................
...................................................................................O...O.O.O..............................
....................................................................................O....O.O..............................
................................................................................OOO..OO....O..............................
.......................................................................................OOOOOO.............................
..............................................................................O.....O...OOO...............................
..............................................................................O.....O.....................................
..............................................................................O.....O.....................................
................................................................................OOO.......................................
.............................................................................O................................OO.O........
..............................................................................O.....OO.........O...........OO.OO.OO.......
.............................................................................OOO..OO..O........OO..........O..O.O..O......
..........................................................................O...OOOO.O......OO....O....OO....OO.....O.......
..........................................................................O.....OO.O......OO...O.....OO.OO................
..........................................................................................OO.OO.....O...OO................
.................................................................................OO..........OO.........OO................
..................................................................................O........OOO............................
.................................................................................OO.......................................
................................................................................OOO.......................................
..............................................................................O..O........................................
..............................................................................OOO.........................................
....................................................O...O.....................OOO.........................................
..................................................OOO.OO.O.O..............................................................
..............................................OO.OO......O..O.............................................................
..............................................OO..O..O...O..OO..OO........................................................
.............................................O..O....O..O..OO.O.OO........................................................
........................................................OO....O...O.......................................................
.......................................................OO..O..O.O.O.......................................................
.........................................................O............OOO.................................................
...............................................................OOO.......O.................O..............................
....................................................................OO....O...............O.O.............................
....................................................................O..O.OO.................O.............................
....................................................................O.....O...............................................
.....................................................................OO.OO..............O..O..............................
........................................................................................O...O.............................
.........................................................................................O..O.............................
.........................................................................................OO...............................
...................................................O.OO...................................................................
..................................................OO.OO.OO................................................................
.................................................O..O.O..O..........................OOOO..................................
..................................................O.....OO....OO.......................OO.................................
.................................OO.........OO.............OO.OO...................O..O.OO................................
..............................OO.OO.........OO.OO..........OO...O.......O..........OO.O.O.................................
...........................OOOO..O.O.......O.O..OOOO.......OO.........OOOO..........O.OO..................................
..........................O....O....O.....O....O....O.............OO.OO...O...O......OO...................................
...........................OO.......O.....O.......OO..............OO..O.....OOOO..........................................
....................................O.....O......................O..O.......O...O.........................................
................................OOO.........OOO...........................O..O.O..........................................
...............................O...............O...........................O..............................................
................................O.OO.......OO.O...........................................................................
....................................O.....O...............................................................................
................................OO...........OO...........................................................................
...............................O...O.......O...O..........................................................................
..................................O.........O.............................................................................
................................O.............O...........................................................................
................................O.............O...........................................................................
......................................OOO.................................................................................
................................OO....OOO....OO...........................................................................
.....................................O...O................................................................................
...............................OOO...........OOO..........................................................................
.................................O..O.....O..O............................................................................
................................O...OO...OO...O...........................................................................
......................................O.O.................................................................................
...............................OOO.....O.....OOO..........................................................................
...............................OOOO.OO.O.OO.OOOO..........................................................................
.................................O..OOOOOOO..O............................................................................
..................................OOOO...OOOO.............................................................................
.................................OOO.......OOO............................................................................
................................O....O...O....O...........................................................................
...............................O...O...O...O...O..........................................................................
....................................O.OOO.O...............................................................................
...............................O.OOOO.....OOOO.O..........................................................................
...............................O....OOO.OOO....O..........................................................................
..................................OO...O...OO.............................................................................
.....................................O...O................................................................................
.................................OO..OO.OO..OO..............................................OO............................
................................O.O..OO.OO..O.O.............................................OO............................
................................O......O......O...............................................................OOO.OO......
...............................OO......O......OO............................................................OO....OO......
...............................O.OOO..O.O..OOO.O...........................................................O...O.O..O.....
...................................O.......O..........................................................OOO..OOO............
..................................O.O.....O.O............................................OO..........O.O.OOO..............
...............................OOO..O.OOO.O..OOO........................................OO............O....O..............
..............................O.O.O.OO...OO.O.O.O.........................................O..............OO...............
..............................O.O.O.OO...OO.O.O.O.................................................................OO.O....
...............................OO.OOO.O.O.OOO.OO...............................................................OO.OO.OO...
................................OO...OO.OO...OO................................................................O..O.O..O..
..................................OOO.O.O.OOO............................................................OO....OO.....O...
...............................O....O.O.O.O....O...................O................................O....OO.OO............
....................................O.O.O.O.......................OO..............................OO.OO.O...OO............
...................................OO.O.O.OO......................O.O..................................O....OO............
.....................................O...O........................................................O...O...................
...................................................................................................OOO....................
............................................OO............................................................................
...........................................OO.................................O.OO......................OO.O..............
.............................................O...............................OO.OO.OO................OO.OO.OO.............
............................................................................O..O.O..O................O..O.O..O............
.............................................................................O.....OO....OO....OO....OO.....O.............
......................................................................................OO.OO....OO.OO......................
..............OOO.....................................................................OO...O..O...OO......................
.................O....................................................................OO..........OO......................
.................OO.......................................................................................................
............OOO..OO..OO.O.................................................................................................
......OO....O.....OO.OO.OO................................................................................................
......OO.OO....OO.O...OO..O...............................................................................................
.....O...OO......OOOO.....................................................................................................
.........OO........OO.O.O.................................................................................................
......................O...................................................................................................
........................OO................................................................................................
......................O..OO...............................................................................................
...................OO.OOO.................................................................................................
.................OOO.....O..O.............................................................................................
................O...O.OOOO.O..............................................................................................
.......O......O....OO.....................................................................................................
...OOO.OO....OO....O......................................................................................................
..O.....OO..OO..O...O.....................................................................................................
...OO.....O..O.O..O.......................................................................................................
........O....OOO.O........................................................................................................
.......O.OOO..OOO.........................................................................................................
..........OOO...OO........................................................................................................
.......O..O............................................................................O..........OOO.....................
.........O.........................................................................OOO.OOO......OO.O..O...OO.O............
..................................................................................O......OO......O.O.OO.OO.O..O...........
...................................................................................O.O.O...O..OO.OO..O.O...O..OO..OO.O....
.........................................................................................O.O..O.O...O...O.O.OOO.O.OO.OO...
..............................................................................OO....OO.....OO.O.O.O...O.........O.O.O..O..
.............................................OO..............................O.OO..OO....OO.O.O...O.OOOO.......O......O...
.............................................OO..............................O.OO..OOO.OO...........O.....................
.............................................................................OO.O.O.O.O....O..OOO.O...O.O.................
......................OOO.O..................................................O............O......O..OO...OO.OO.OOO........
.......................OO.OO.............................................OOO............OO.O..O.......O...O..OO.OO........
.....................OOO.O..O...........................................O..................OOOO....O...O..O....OOO........
.................OOO.OO....O.............................................O..OO........OO...OO......OO.....OOOO....OO.OO...
................O..........................................................O.O........O.O..O.............OOO.....O...OO...
............O....O..O..OOO.......................OO..........................O..OOOO..O........................OOO.O...O..
..O.OO......OO......O...OOO.......................OO.........................O........O.......................OO.O........
.OO.OO.OO...O.OO..OOOOO....O.....................O...............................OO..........................O...O........
O..O.O..O...O..O.O...O......................................................OOOOOOOOOOOO..................................
.O.....OO...OOOO......OO.O.O...............................................OO..........OO.................................
..........OO.O............................................................................................................
..........O.....................................................................O..O......................................
..........O.....................................................................OOOO......................................
...............................................................................OO..OO.....................................
...............................................................................OOOOOO.....................................
...............................................................................OO..OO.....................................
...................OO.....................................................................................................
................OO.OO.....................................................................................................
.............OOOO..OO....OO...............................................................................................
............O....O....OO.OO...............................................................................................
.............OO.......OO...O..............................................................................................
......................OO..................................................................................................
..................................O......................O................................................................
..............................OOO.OOO..................OOO.OOO............................................................
.............................O......OO................OO......O...........................................................
..............................OO...O..O...O......O...O..O...OO............................................................
........................................OOOO....OOOO......................................................................
........................................O...O..O...O......................................................................
......................................O..O.O....O.O..O....................................................................
.......................................O............O.....................................................................
...........................................................O..............................................................
..........................................................O...............................................................
..........................................................OOO.............................................................
..............O...........................................................................................................
.............O............................................................................................................
.............OOO..........................................................................................................
