!Name: p210-1
!Source: jslife-moving
!
..........................................................O.O....................................................................................................................................
.......................................................O....O....................................................................................................................................
......................................................OOO....O...................................................................................................................................
.....................................................O.O.........................................................................................................................................
....................................................OO..OO....O......................................................O...........................................................................
.....................................................OO..OOOOO.......................................................OO..........................................................................
..................................................OO....................................................................OO.......................................................................
..................................................O..OOOO...............................................................O..O.....................................................................
..................................................O..OOOO..........................................................O........O........O...........................................................
...................................................O..............................................................OOO..OO...........OOO..........................................................
......................................................O..............................................................O..O...O.......OOOO........................................OOO..............
.......................................................OO...............................................O..............O.OOO.......OO............................................................
.......................................................OO...............................................OO................OO.......OO.........................................O.....O............
...............................................................................................O.......O.OO.........OOO............OOO........................................O.....O............
....................................................OOO..OO...................................OO.........OOOO.............O..........O..OO....................................O.....O............
.....................................................O.O.....................................OOO.........OO..O...........O..........O..OO.O......................................................
......................................................O...O.................................O.............O.OO...........O..........OOO.O.......................................OOO..............
..OO.O...................................O.O.O........O...O................................OO..............OOO.......................OO.O........................OO..............................
.OOO.O.................................OOOO..O...................OO..........OOO...OOO....OO...................O...........OOO..........O.....OO.................OO..................OO..........
O......O..........O...................O.....O....................OOO..O......O.....OOO......O........O.......OO...O...................O.O.O..OO.O....................................OO..........
.OO.O..OO.....OO..OOO.................OOO...............O........OO..O.O.....O.O...OO...............O.O........OOOO......O............O.....O..OOO...............................................
..OOO.O..OO...OO..OOOOO..............O.O.OO.............OO......O.OOO..O.....OOO.....................O...........O.......O..........O....OO.O..OO................................................
....O.O.O.....O....OO.OOO....O...OOOOO........OO.........OO.....OO...OO.......OO.........................................O..........O......O...O.............................................OO..
.....OO.O.OO..O.OO.O.O.OOOO.O.O.O.OO..O...OO....O....O...OOO....O.....................OOOOO.O...OO...................................O.O..OOO................................................OOO.
.....OO.O...OO..O.O..O.O......O.O.OO.OO...OO.O.OO...O....OO..........................O.OOOO..OO.......................................O....O.............................OO...........OO....O..O.
...........OO.O...OO.O..O..O.O.OOO....O....OO..O....OOO.OO.............................O.O.O.O....O......................................................................OO...........OO....O.OO.
.......O.............O.O....O.O.............OOOO........O.............OO..............O..O.OO.....O..........................................................................................OO..
..................OO.O.OO.............................................OO...............O.OOO......O.................O.O..........................................................................
..................OO.O.OO...............................................................OO.........................O.O.O.........................................................................
.......O.............O.O....O.O.............OOOO........O.........O..............................................................................................................................
...........OO.O...OO.O..O..O.O.OOO....O....OO..O....OOO.OO.......O.O.............................................O.......O.......................................................................
.....OO.O...OO..O.O..O.O......O.O.OO.OO...OO.O.OO...O....OO......O.O............................................O.........O......................................................................
.....OO.O.OO..O.OO.O.O.OOOO.O.O.O.OO..O...OO....O....O...OOO.....OOO.............................................O...........O...................................................................
....O.O.O.....O....OO.OOO....O...OOOOO........OO.........OO.......O.OOOOOO......................................O.............O..................................................................
..OOO.O..OO...OO..OOOOO..............O.O.OO.............OO.......OO..OO..........................................O............O......................................OO........................OO
.OO.O..OO.....OO..OOO.................OOO...............O.......O..O.O.........................O.............................O.......................................OO........................OO
O......O..........O...................O.....O...................OO............................O.O..................O....OOOOO....................................................................
.OOO.O.................................OOOO..O.......O...........O..O.O.OOO...............O..O..O...................OOO.........................................................OO...............
..OO.O...................................O.O.O......OOOO.........OOOOO...O................O...OO......................................................................OO........OO...............
...................................................O..OO...........OOO.O..O...............O...........................................................................OO.........................
...................................................O.....O.......................................................................................................................................
...................................................O....O.....................................................................................OO...............................O.................
....................................................O...........................................................................OO...........O..O............................OO.OO...............
.....................................................O.O........................................................................O.OO..........OO.................................................
.....................................................OO...........................................................................OO............................................O.O..............
..................................................O.OO..........................................................................O.OO..........................................O...O..............
................................................OO...O...................................................................OO.....OO............................................O..OO..............
................................................O......O.................................................................O.O...................................................OOO...............
................................................OOOOOOO...................................................................O.....................................................O................
..........................................................O......................................................................................................................................
....................................................O.......O....................................................................................................................................
...................................................OOO...........................................................................................................................................
..................................................O...O.....O....................................................................................................................................
...................................................OO.O.OO.O.....................................................................................................................................
....................................................OO.OO..O.....................................................................................................................................
......................................................OO..OO.....................................................................................................................................
......................................................O...O......................................................................................................................................
