!Name: p210-2
!Source: jslife-moving
!
..O................O..
.OOO..............OOO.
.O..O............O..O.
..OOO............OOO..
.O..................O.
OO.OOOOO......OOOOO.OO
OO.OO...O....O...OO.OO
......O..O..O..O......
.....O..O....O..O.....
...O.O.OO....OO.O.O...
...O..............O...
........O....O........
........O....O........
....O.OO......OO.O....
...OO.O........O.OO...
....OO..........OO....
....OO..........OO....
....OOO.O....O.OOO....
....O...OOOOOO...O....
....OOO.O....O.OOO....
.....O.O.OOOO.O.O.....
......O........O......
......OOOOOOOOOO......
......O........O......
.......O.O..O.O.......
.........O..O.........
......OO......OO......
........O....O........
.....O..........O.....
......OOO.OO.OOO......
......OOO....OOO......
......O........O......
......OO......OO......
....OO..........OO....
....OO...O..O...OO....
.....O..........O.....
...O.O.OO....OO.O.O...
..OO.OO........OO.OO..
..O..OOO......OOO..O..
.O.OO.OO......OO.OO.O.
.O.O.O.O......O.O.O.O.
OO.O.O..........O.O.OO
.......OO....OO.......
..O......O..O......O..
OO...OO.OO..OO.OO...OO
.....OOO......OOO.....
.....OO........OO.....
....O..O......O..O....
....O..O......O..O....
....O..O......O..O....
.....O..........O.....
.....OO.O....O.OO.....
.....OOOO....OOOO.....
...O.....O..O.....O...
..O.....O....O.....O..
....O..O......O..O....
..OOOOO...OO...OOOOO..
.........O..O.........
.....O..........O.....
.....OOOO....OOOO.....
........O....O........
....OOO.O.OO.O.OOO....
....OOOO......OOOO....
.....O..........O.....
........O....O........
........O....O........
........OOOOOO........
..........OO..........
........OO..OO........
......OO.O..O.OO......
.....O....OO....O.....
........O....O........
......OOO....OOO......
...OO.OOO....OOO.OO...
...O.O.OOO..OOO.O.O...
.....O..........O.....
..O................O..
..OOO............OOO..
....OOOOOOOOOOOOOO....
.....O...OOOO...O.....
.....O..OOOOOO..O.....
......OO......OO......
