!Name: p225forwrake-3
!C A c/3 period 225 forward rake.
!C This is produced by a period quintupling reaction on two period 45
!C glider streams.  The period multiplying reaction uses a period 21
!C frothing spaceship whose period is modified by the impacts to be
!C compatible with the glider streams.
!C David I. Bell, October 2002
!Source: jslife-moving
!
....................................................................O.................................................................................................................................................O................................................
...................................................................O.O...............................................................................................................................................O.O...............................................
...................................................O..............O...O..............O...............................................................................................................O..............O...O..............O...............................
...............................................OOO.OOO.............OOO.............OOO.OOO.......................................................................................................OOO.OOO.............OOO.............OOO.OOO...........................
..............................................O......O.OOO.....................OOO.O......O.....................................................................................................O......O.OOO.....................OOO.O......O..........................
...............................................OO...O.....O......OO...OO......O.....O...OO.......................................................................................................OO...O.....O......OO...OO......O.....O...OO...........................
.......................................................OOOOOOO...OO...OO...OOOOOOO.......................................................................................................................OOOOOOO...OO...OO...OOOOOOO...................................
.....................................................O..OO...OO..OOO.OOO..OO...OO..O...................................................................................................................O..OO...OO..OOO.OOO..OO...OO..O.................................
......................................................OO.O....OO.........OO....O.OO.....................................................................................................................OO.O....OO.........OO....O.OO..................................
............................................................OOOO..OO.OO..OOOO.................................................................................................................................OOOO..OO.OO..OOOO........................................
....................................................OO.OOOO.......OO.OO.......OOOO.OO.................................................................................................................OO.OOOO.......OO.OO.......OOOO.OO................................
...................................................O.O.OO.....OO.O.OOO.O.OO.....OO.O.O...............................................................................................................O.O.OO.....OO.O.OOO.O.OO.....OO.O.O...............................
................................................OO.O..........OO.O.....O.OO..........O.OO.........................................................................................................OO.O..........OO.O.....O.OO..........O.OO............................
................................................OO.O.........O.O.O.....O.O.O.........O.OO.........................................................................................................OO.O.........O.O.O.....O.O.O.........O.OO............................
................................................O.O..........O...O.....O...O..........O.O.........................................................................................................O.O..........O...O.....O...O..........O.O............................
...................................................................O.O...............................................................................................................................................O.O...............................................
.............................................................O...OOO.OOO...O...................................................................................................................................O...OOO.OOO...O.........................................
.............................................................O.OOOOO.OOOOO.O...................................................................................................................................O.OOOOO.OOOOO.O.........................................
.............................................................O.O.........O.O...................................................................................................................................O.O.........O.O.........................................
...............................................................O.OO.O.OO.O.......................................................................................................................................O.OO.O.OO.O...........................................
..............................................................OO.O.OOO.O.OO.....................................................................................................................................OO.O.OOO.O.OO..........................................
...............................................................O.O.OOO.O.O.......................................................................................................................................O.O.OOO.O.O...........................................
............................................................OO.O.OO...OO.O.OO.................................................................................................................................OO.O.OO...OO.O.OO........................................
............................................................OO.O.O.....O.O.OO.................................................................................................................................OO.O.O.....O.O.OO........................................
.............................................................O.O.O.....O.O.O...................................................................................................................................O.O.O.....O.O.O.........................................
..........................................O.....................OO.....OO.....................O.............................................................................................O.....................OO.....OO.....................O......................
...................................OO.OOO.OOO....................OOOOOOO....................OOO.OOO.OO...............................................................................OO.OOO.OOO....................OOOOOOO....................OOO.OOO.OO...............
...................................OO....O..OO.OO...................O...................OO.OO..O....OO...............................................................................OO....O..OO.OO...................O...................OO.OO..O....OO...............
..................................O..O.OO...O..OO..............O.O..O..O.O..............OO..O...OO.O..O.............................................................................O..O.OO...O..OO..............O.O..O..O.O..............OO..O...OO.O..O..............
..............................................O..O.....O......OO.O.....O.OO......O.....O..O.....................................................................................................O..O.....O......OO.O.....O.OO......O.....O..O..........................
..................................................O..OOOO.....OO...O.O...OO.....OOOO..O.............................................................................................................O..OOOO.....OO...O.O...OO.....OOOO..O..............................
.....................................................O...O......OO.....OO......O...O...................................................................................................................O...O......OO.....OO......O...O.................................
................................................OOO..O.O.OO.....OOOOOOOOO.....OO.O.O..OOO.........................................................................................................OOO..O.O.OO.....OOOOOOOOO.....OO.O.O..OOO............................
...................................................O..OO.O.OO...............OO.O.OO..O...............................................................................................................O..OO.O.OO...............OO.O.OO..O...............................
.....................................................OO.O...O.OO.........OO.O...O.OO...................................................................................................................OO.O...O.OO.........OO.O...O.OO.................................
............................................OOO.............O.O.OOOOOOOOO.O.O.................................................................................................................................O.O.OOOOOOOOO.O.O.............OOO........................
...............................................O.............OOOOOOOOOOOOOOO...................................................................................................................................OOOOOOOOOOOOOOO.............O...........................
...............................................OO..............OOOO...OOOO.......................................................................................................................................OOOO...OOOO..............OO...........................
..........................................OOO..OO..OO.O.............O.................................................................................................................................................O.............O.OO..OO..OOO......................
....................................OO....O.....OO.OO.OO..........OO.OO.............................................................................................................................................OO.OO..........OO.OO.OO.....O....OO................
....................................OO.OO....OO.O...OO..O.......OO.....OO.........................................................................................................................................OO.....OO.......O..OO...O.OO....OO.OO................
...................................O...OO......OOOO..............O.....O...........................................................................................................................................O.....O..............OOOO......OO...O...............
.......................................OO........OO.O.O..........O.OOO.O...........................................................................................................................................O.OOO.O..........O.O.OO........OO...................
....................................................O.........OOO.......OOO.....................................................................................................................................OOO.......OOO.........O................................
...................................O..................OO......OO.........OO.....................................................................................................................................OO.........OO......OO..................O...............
...............................OOO.OO...O...O.OO....O..OO....O.O.........O.O...................................................................................................................................O.O.........O.O....OO..O....OO.O...O...OO.OOO...........
.......................OOO...O..OOO.O.OO.OO.OO.O.OO.OOO.......O...........O.....................................................................................................................................O...........O.......OOO.OO.O.OO.OO.OO.O.OOO..O...OOO...
.....................OO.O.O..O.........O......OO.O.....O..O....OO.......OO.......................................................................................................................................OO.......OO....O..O.....O.OO......O.........O..O.O.OO.
....................O...O.O..O.O...O..O.O...OOO...O.OOOO.O...O.O.........O.O...................................................................................................................................O.O.........O.O...O.OOOO.O...OOO...O.O..O...O.O..O.O...O
.....................O.O..O..OO....O..........OO..OOO........OO...........OO...................................................................................................................................OO...........OO........OOO..OO..........O....OO..O..O.O.
.........................OOOOO................O....OO.................................................................................................................................................................................OO....O................OOOOO.....
...........................OO.................O.OO.O............O.......O.........................................................................................................................................O.......O............O.OO.O.................OO.......
................................................................OO.....OO.........................................................................................................................................OO.....OO............................................
...............................................O..O..............OO.O.OO...........................................................................................................................................OO.O.OO..............O..O...........................
...............................................O..O...............OO.OO.........O.........................................................................................................................O.........OO.OO...............O..O...........................
................................................................................O.........................................................................................................................O............................................................
...................................................................OOO...............................................................................................................................................OOO...............................................
......................................................................OO...........................................................................................................................................OO..................................................
......................................................................OO...........................................................................................................................................OO..................................................
................................................OOO.OOO..................OO.....................................................................................................................................OO..................OOO.OOO............................
............................................O.OO....O.OOOO..............O..O...................................................................................................................................O..O..............OOOO.O....OO.O........................
...........................................OOO...O.OO...OO...O...........O.O...................................................................................................................................O.O...........O...OO...OO.O...OOO.......................
..........................................O...O...O.OO.....OOOO...........O.....................................................................................................................................O...........OOOO.....OO.O...O...O......................
...........................................O.........O...O.O...O...........................................................................................................................................................O...O.O...O.........O.......................
.....................................................O...O.O.O.O...........................................................................................................................................................O.O.O.O...O.................................
.....................................................O.O....OOO.............................................................................................................................................................OOO....O.O.................................
.........................................OOO.OOO.............O.....O...................................................................................................................................................O.....O.............OOO.OOO.....................
.....................................O.OO....O.OOOO...............OOO.................................................................................................................................................OOO...............OOOO.O....OO.O.................
....................................OOO...O.OO...OO...O..........OOOOO...............................................................................................................................................OOOOO..........O...OO...OO.O...OOO................
...................................O...O...O.OO.....OOOO........OO...OO.....................O..........................................OO.........OO..........................................O.....................OO...OO........OOOO.....OO.O...O...O...............
....................................O.........O...O.O...O........OOOOO....O...............OOO.OOO...................................OO.OO.........OO.OO...................................OOO.OOO...............O....OOOOO........O...O.O...O.........O................
..............................................O...O.O.O.O.........OOO....OOO.............OO......O...............................OOOO..O.O.......O.O..OOOO...............................O......OO.............OOO....OOO.........O.O.O.O...O..........................
..............................................O.O....OOO...........O....OOOOO.......O...O..O...OO...............................O....O....O.....O....O....O...............................OO...O..O...O.......OOOOO....O...........OOO....O.O..........................
......................................................O................O.....O.....OOOO..........................................OO.......O.....O.......OO..........................................OOOO.....O.....O................O..................................
.....................................OO.OOO...........................OO..O..OO...O...O...................................................O.....O...................................................O...O...OO..O..OO...........................OOO.OO.................
.....................................OO....OO........................OOO.O.O.OOO...O.O..O.............................................OOO.........OOO.............................................O..O.O...OOO.O.O.OOO........................OO....OO.................
....................................O..O.O...O..................OOO...OO..O..OO........O.............................................O...............O.............................................O........OO..O..OO...OOO..................O...O.O..O................
...........................................OOO..OOO.....OOO.....OOO....O.....O........................................................O.OO.......OO.O........................................................O.....O....OOO.....OOO.....OOO..OOO.......................
.............................................OOO.O.O..OOOOO...OO.O......OOOOO.............................................................O.....O.............................................................OOOOO......O.OO...OOOOO..O.O.OOO.........................
.............................................O....O..OO..OOOO..OO.OOO....OOO..........................................................OO...........OO..........................................................OOO....OOO.OO..OOOO..OO..O....O.........................
..............................................OO......OO.O..OO....OOO.....O..........................................................O...O.......O...O..........................................................O.....OOO....OO..O.OO......OO..........................
........................................................O...OO.....OO...................................................................O.........O...................................................................OO.....OO...O....................................
......................................................................................................................................O.............O..................................................................................................................
......................................................................................................................................O.............O..................................................................................................................
............................................................................................................................................OOO........................................................................................................................
.......................................................................OO.............................................................OO....OOO....OO.............................................................OO...................................................
..............................................................O........OO..................................................................O...O..................................................................OO........O..........................................
.....................................................................................................................................OOO...........OOO.................................................................................................................
............................................................OOO........................................................................O..O.....O..O........................................................................OOO........................................
......................................................................................................................................O...OO...OO...O..................................................................................................................
............................................................................................................................................O.O........................................................................................................................
..................................................................................................O..........................O.......OOO.....O.....OOO.......O..........................O..............................................................................
.................................................................................................OOOO.....O.OOOO...........OOO.OOO...OOOO.OO.O.OO.OOOO...OOO.OOO...........OOOO.O.....OOOO.............................................................................
................................................................................................O...OO...OO..O.O.......OOO.O......O....O..OOOOOOO..O....O......O.OOO.......O.O..OO...OO...O............................................................................
...............................................................................................OO.O.....O....O..O.OO..O.....O...OO......OOOO...OOOO......OO...O.....O..OO.O..O....O.....O.OO...........................................................................
..............................................................................................O.O.OOO...O..O.OO..O.O..O.OO.............OOO.......OOO.............OO.O..O.O..OO.O..O...OOO.O.O..........................................................................
.........................................................................................O.OO.O.O.O....O..O..O..OO.O..OO..............O....O...O....O..............OO..O.OO..O..O..O....O.O.O.OO.O.....................................................................
...................................................................O....................OO.OO.O.O.O.O..O.OO.OO..OOO...OO.............O...O...O...O...O.............OO...OOO..OO.OO.O..O.O.O.O.OO.OO....................O...............................................
..................................................................O.O..OO.O............O....O.O.O.O.O.O...O.O..O..OOO.....................O.OOO.O.....................OOO..O..O.O...O.O.O.O.O.O....O............O.OO..O.O..............................................
................................................OO.OOO...........O....OO.O.OO.........OOO.....O.O.O.O....O...O.....O..O..............O.OOOO.....OOOO.O..............O..O.....O...O....O.O.O.O.....OOO.........OO.O.OO....O...........OOO.OO............................
................................................OO....OO..................O..........OOOO..OO.O.O.O.................O................O....OOO.OOO....O................O.................O.O.O.OO..OOOO..........O..................OO....OO............................
...............................................O..O.O...O........O....OOO............O..OOO.....O.......................................OO...O...OO.......................................O.....OOO..O............OOO....O........O...O.O..O...........................
......................................................OOO..OOO...OOOOOOO.............O....O.......O........................................O...O........................................O.......O....O.............OOOOOOO...OOO..OOO..................................
........................................................OOO.O.O......................OO.O..OOOO...O....OO..............................OO..OO.OO..OO..............................OO....O...OOOO..O.OO......................O.O.OOO....................................
........................................................O....O.......................OO.OO.O.O.O..OO.OO..O........OO.O................O.O..OO.OO..O.O................O.OO........O..OO.OO..O.O.O.OO.OO.......................O....O....................................
.........................................................OO............................O........O.OO..O...O....OO.OO.OO...............O......O......O...............OO.OO.OO....O...O..OO.O........O............................OO.....................................
.......................................................................................OO.............OOOO.....O..O.O..O.............OO......O......OO.............O..O.O..O.....OOOO.............OO...................................................................
.................................................................................................OO..O.O..O....OO.....O..............O.OOO..O.O..OOO.O..............O.....OO....O..O.O..OO.............................................................................
.................................................................................................OO..O.O..O.OO...........................O.......O...........................OO.O..O.O..OO.............................................................................
................................................................................................O....O.O....OO..........................O.O.....O.O..........................OO....O.O....O............................................................................
........................................................................................O........O.O.O.O.O.O.........................OOO..O.OOO.O..OOO.........................O.O.O.O.O.O........O....................................................................
........................................................................................OO..........................................O.O.O.OO...OO.O.O.O..........................................OO....................................................................
.......................................................................................O.O..........................................O.O.O.OO...OO.O.O.O..........................................O.O...................................................................
.....................................................................................................................................OO.OOO.O.O.OOO.OO.................................................................................................................
...................................................................................................OO.................................OO...OO.OO...OO.................................OO...............................................................................
..................................................................................................O.O...................................OOO.O.O.OOO...................................O.O..............................................................................
....................................................................................................O................................O....O.O.O.O....O................................O................................................................................
..........................................................................................................................................O.O.O.O...................................................................OOO................................................
..............................................................................................................OO.........................OO.O.O.OO.........................OO.......................................OOO................................................
...............................................................................................................OO..........................O...O..........................OO....................OO.OOO.............O...O.............OOO.OO............................
..............................................................................................................O.............................................................O...................OO....OO.OO.....................OO.OO....OO............................
...............................................................................................................................................................................................O..O.O....OO.......O.....O.......OO....O.O..O...........................
.........................................................................................................................OOO...................................OOO....................................OO.O..OO....OO.O.OO....OO..O.OO..................................
...........................................................................................................................O...................................O............................................O.OO...........OO.O........................................
..........................................................................................................................O.....................................O......................................OOO.OO..O...O...O...O..OO.OOO...................................
.....................................................................................................................................O...............O.................................................O...OOO.O....O.O....O.OOO...O...................................
.....................................................................................................................................OO.............OO...............................................OO.O.OO....O..O...O..O....OO.O.OO.................................
....................................................................................................................................O.O.............O.O.............................................O.O..O........O.O.O.O........O..O.O................................
..................................................................................................................................................................................................OOO.O..O.....OO.O..O..O.OO.....O..O.OOO..............................
.................................................................................................................................................................................................OO.O.........O.O.O.OOO.O.O.O.........O.OO.............................
................................................................................................................................................................................................O...O.........O.O..OO.OO..O.O.........O...O............................
...............................................................................................................................................................................................................OOO..O.O..OOO...........................................
................................................................................................................................................................................................................O.OO...OO.O............................................
..............................................................................................................................................................................................................OO...O...O...OO..........................................
..........................................................................................................................................OO...OO.............................................................O.O....O....O.O..........................................
..........................................................................................................................................OO...OO...............................................................O..O.O.O..O............................................
................................................................................................................................................................................................................O.OOO.OOO.O............................................
................................................................................................................................................................................................................O.O.....O.O............................................
.............................................................................................................................................................................................................OO.O.O..O..O.O.OO.........................................
.............................................................................................................................................................................................................OO.O.O..O..O.O.OO.........................................
................................................................................................................................................................................................................O.O.OOO.O.O............................................
...............................................................................................................................................................................................................O..OOOOOOO..O...........................................
.....................................................................................................................................................................................O.OO.OOO.................................................OOO.OO.O.................
....................................................................................................................................................................................OO.OO....OO.O................O.......O................O.OO....OO.OO................
...................................................................................................................................................................................O..O.O..O...OOO..................OOO..................OOO...O..O.O..O...............
....................................................................................................................................................................................O.....O...O...O.............OOO.....OOO.............O...O...O.....O................
.................................................................................................................................................................................................OO....OOO.....OO.OOO.OOO.OO.....OOO....OO.............................
.................................................................................................................................................................................................OO..OO.O.........OOO.OOO.........O.OO..OO.............................
..................................................................................................................................................................................................OO....O.OO.........O.........OO.O....OO..............................
...........................................................................................................................................OO.OO.......................................................O..O.O...OO.......OO...O.O..O...................................
...........................................................................................................................................OO.OO..................................................OO.O..O.O.O.O.............O.O.O.O..O.OO..............................
......................................................................................................................................................................................................O........O...........O........O......OO..........................
.............................................................................................................................................................................................................O.OOOOOOOOOOOOO.O............O.OO.........................
..........................................................................................................................................................................................................................................O.OO.........................
..................................................................................................................................................................................................................OOOOOOO.............O...OO.OOO.......................
..................................................................................................................................................................................................................OOOOOOO.........OOO.OOO..O....O...O..................
................................................................................................................................................................................................................O.........O......O.....OO..OOO....OOOO.................
...............................................................................................................................................................................................................OO.O.....O.OO......O..O.OO.........O...O................
..............................................................................................................................................................................................................O....O...O....O........O....OO....O..O.O.................
.............................................................................................................................................................................................................O...............O.....OOO.O.........O.....................
..............................................................................................................................................................................................................OO.O.......O.OO....O...O................O................
..............................................................................................................................................................................................................OO.O.......O.OO....O..O.O...O......O..OOO................
.................................................................................................................................................................................................................OO.....OO......OO......OOO.OOO.O.O....OOOOO....OO.....
..............................................................................................................................................................................................................OO.OO.....OO.OO...OO.OO...O..OO...O.O....O..OOO...OO.OO..
...........................................................................................................................................OO.OO..............................................................OO.O.......O.OO...O............OO...O.O.OOOOO....O...OO..
...........................................................................................................................................OO.OO................................................................OO.O...O.OO......O..O.OO..O............OO...O..O..O.O..
................................................................................................................................................................................................................OO...O...OO........O..OO..OO................OOOO.O.....
..................................................................................................................................................................................................................OO...OO...............OO.O...........................
...................................................................................................................................................................................................................O...O..............O................................
....................................................................................................................................................................................................................OOO................OOOO............................
.........................................................................................................................................................................................................OO.............................OO.............................
........................................................................................................................................................................................................OO.O...........................................................
..................................................................................................................................................................................................................OO...................................................
..................................................................................................................................................................................................................OO...................................................
...............................................................................................................................................................................................................OO......................................................
..............................................................................................................................................................................................................O..O..................OO.OO..............................
..............................................................................................................................................................................................................O.O.................OO.O.OO.OO...........................
...............................................................................................................................................................................................................O...............OOO.O..OOO..OOOO........................
...........................................................................................................................................................................................................................OOO....OOO.....O....O.......................
......................................................................................................................................OO...........OO.....................................................................O.O.O.OOO.O........OO........................
......................................................................................................................................OO...........OO.....................................................................O.O.O.OOOO...................................
...........................................................................................................................................................................................................................O.O....O..O.................................
...............................................................................................................................................................................................................O.....OO.............O......OO.OO.......................
................................................................................................................................................................................................................O...O..O....O............OO.O.OO.OO....................
...............................................................................................................................................................................................................O.....O.O....O.........OOO.O..OOO..OOOO.................
.....................................................................................................................................................................................................................OOO..........OOO....OOO.....O....O................
.........................................................................................................................................................................................OO.OOO..................................O.O.O.OOO.O........OO.................
.........................................................................................................................................................................................OO....OO..............O.................O.O.O.OOOO............................
........................................................................................................................................................................................O..O.O...O............OOO.................O.O....O..O..........................
...............................................................................................................................................................................................OOO..OOO......OOOOO.......OO................O...........................
...........................................................................................................................................OO.OO.................................................OOO.O.O....OO...OO.....OO.OO.O....O............OO.O...................
...........................................................................................................................................OO.OO.................................................O....O......OOOOO.....O.OO.O.O....O.........OO.OO.OO..................
..................................................................................................................................................................................................OO..........OOO.......OOO.....O............O..O.O..O.................
...............................................................................................................................................................................................................O........OOO.....OOO....OO....OO.....O..................
........................................................................................................................................................................................................................O.O.......O....OO.OO...........................
.........................................................................................................................................................................................................................O..O....OO...O...OO...........................
.....................................................................................................................................................................................................................OOO..OOO...O.........OO...........................
.....................................................................................................................................................................................................................OO...O.O..........................................
.....................................................................................................................................................................................................................OOO.O..O..........................................
......................................................................................................................................................................................................................OO..O..O.........................................
.................................................................................................................................................................................................................OO....OOOO..O.........................................
.................................................................................................................................................................................................................OO....OO...OO.........................................
.........................................................................................................................................................................................................................O.O...........................................
..........................................................................................................................................OO...OO......................................................................................................................
..........................................................................................................................................OO...OO......................................................................................................................
........................................................................................................................................................OO.OOO.............OO.OO......OOO..............................................................................
........................................................................................................................................................OO....OO.OO......OO.O...O...OO.O...............................................................................
.......................................................................................................................................................O..O.O....OO....O....O....O.O...O.OO............................................................................
..............................................................................................................................................................OO.O.O..OOO...OOO...OOOOO..O.O...........................O...............................................
..................................................................................................................................................................OO....O...O..O..OO...O.O.OOO..................OO.....O...............................................
......................................................................................................................................................................O..O...OOO....O..O.O.O.O.OOO..............OOOO.O.O...............................................
..................................................................................................................................................................O...O..O...O.O...OOO.O.O.O......O............O...O...................................................
..................................................................................................................................................................O...O....O.O.O.O...O.O.O.O.OO.OO..............OOO....O.............OO.O..............................
....................................................................................................................................................................OO...............O.O.O.O.......OO...........OOO....OO.........OO.OO.OO.............................
........................................................................................................................................................................................OO.OO..OO..OO.............O....O..........O..O.O..O............................
.........................................................................................................................................................................................O.OO..O.OO.........................OO....OO.....O.............................
..................................................................................................................................................................................O....OOO..OO.O.OOO..O.....................OO.OO......................................
...........................................................................................................................................OO.OO.......................O........OO.O...OOO.........O.O.....................O...OO......................................
...........................................................................................................................................OO.OO...................OOO.OOO......OO.O.O...O..O.O..O.............................OO......................................
..................................................................................................................................................................O......OO....O..OO...O..........O....................................................................
...................................................................................................................................................................OO...O..O........O............O.....................................................................
.............................................................................................................................................................................OOO..O.O..OO..............................................................................
.............................................................................................................................................................................O.OOOO.OOOO.O.............................................................................
...........................................................................................................................................................................O..O.O.O.O.O.O.........O....................................................................
.................................................................................................................................................................................................OO....................................................................
.................................................................................................................................................................................................O.O...................................................................
......................................................................................................................................................................................OO...............................................................................
......................................................................................................................................................................................O.O..............................................................................
......................................................................................................................................................................................O................................................................................
...........................................................................................................................................................................OO.......................................OOO................................................
...........................................................................................................................................OO.OO..........................OO........................................OOO................................................
...........................................................................................................................................OO.OO............................O...................OO.OOO.............O...O.............OOO.OO............................
................................................................................................................................................................................................OO....OO.OO.....................OO.OO....OO............................
...............................................................................................................................................................OOO.............................O..O.O....OO.......O.....O.......OO....O.O..O...........................
...............................................................................................................................................................O......................................OO.O..OO....OO.O.OO....OO..O.OO..................................
................................................................................................................................................................O...........................................O.OO...........OO.O........................................
.....................................................................................................................................................O.................................................OOO.OO..O...O...O...O..OO.OOO...................................
....................................................................................................................................................OO.................................................O...OOO.O....O.O....O.OOO...O...................................
....................................................................................................................................................O.O..............................................OO.O.OO....O..O...O..O....OO.O.OO.................................
....................................................................................................................................................................................................O.O..O........O.O.O.O........O..O.O................................
..................................................................................................................................................................................................OOO.O..O.....OO.O..O..O.OO.....O..O.OOO..............................
.................................................................................................................................................................................................OO.O.........O.O.O.OOO.O.O.O.........O.OO.............................
................................................................................................................................................................................................O...O.........O.O..OO.OO..O.O.........O...O............................
...............................................................................................................................................................................................................OOO..O.O..OOO...........................................
................................................................................................................................................................................................................O.OO...OO.O............................................
..............................................................................................................................................................................................................OO...O...O...OO..........................................
..............................................................................................................................................................................................................O.O....O....O.O..........................................
................................................................................................................................................................................................................O..O.O.O..O............................................
................................................................................................................................................................................................................O.OOO.OOO.O............................................
......................................................................................................................................OO........................................................................O.O.....O.O............................................
......................................................................................................................................OO.....................................................................OO.O.O..O..O.O.OO.........................................
.............................................................................................................................................................................................................OO.O.O..O..O.O.OO.........................................
................................................................................................................................................................................................................O.O.OOO.O.O............................................
...............................................................................................................................................................................................................O..OOOOOOO..O...........................................
.....................................................................................................................................................................................O.OO.OOO.................................................OOO.OO.O.................
....................................................................................................................................................................................OO.OO....OO.O................O.......O................O.OO....OO.OO................
...................................................................................................................................................................................O..O.O..O...OOO..................OOO..................OOO...O..O.O..O...............
....................................................................................................................................................................................O.....O...O...O.............OOO.....OOO.............O...O...O.....O................
.................................................................................................................................................................................................OO....OOO.....OO.OOO.OOO.OO.....OOO....OO.............................
..........................................................................................................................................O......................................................OO..OO.O.........OOO.OOO.........O.OO..OO.............................
..........................................................................................................................................O.......................................................OO....O.OO.........O.........OO.O....OO..............................
..........................................................................................................................................O............................................................O..O.O...OO.......OO...O.O..O...................................
..................................................................................................................................................................................................OO.O..O.O.O.O.............O.O.O.O..O.OO..............................
......................................................................................................................................................................................................O........O...........O........O......OO..........................
.............................................................................................................................................................................................................O.OOOOOOOOOOOOO.O............O.OO.........................
..........................................................................................................................................................................................................................................O.OO.........................
......................................................................................................................................................................................................................................O...OO.OOO.......................
..................................................................................................................................................................................................................OO.O.OO.........OOO.OOO..O....O...O..................
...................................................................................................................................................................................................................OOOOO.........O.....OO..OOO....OOOO.................
.................................................................................................................................................................................................................O.......O........O..O.OO.........O...O................
....................................................................................................................................................................................................................O.O..............O....OO....O..O.O.................
................................................................................................................................................................................................................O.OO.O.OO.O........OOO.O.........O.....................
...............................................................................................................................................................................................................OOOO.O.O.OOOO.....O...O................O................
..............................................................................................................................................................................................................O.O.........O.O....O..O.O...O......O..OOO................
..............................................................................................................................................................................................................O.O.........O.O...OO......OOO.OOO.O.O....OOOOO....OO.....
..........................................................................................................................................OO...................................................................O.O.......O.O....OO.OO...O..OO...O.O....O..OOO...OO.OO..
..........................................................................................................................................OO......................................................................O.....O.......O............OO...O.O.OOOOO....O...OO..
..............................................................................................................................................................................................................O..O.......O..O....O..O.OO..O............OO...O..O..O.O..
..............................................................................................................................................................................................................OOO.........OOO......O..OO..OO................OOOO.O.....
........................................................................................................................................................................................................................................OO.O...........................
.................................................................................................................................................................................................................OO.....OO............O................................
................................................................................................................................................................................................................OO.......OO............OOOO............................
.................................................................................................................................................................................................................O...O...O..............OO.............................
..................................................................................................................................................................................................................OO.O.OO..............................................
..................................................................................................................................................................................................................OO...OO..............................................
....................................................................................................................................................................................................................O.O................................................
..................................................................................................................................................................................................................OO...................................................
..........................................................................................................................................O.......................................................................OO...................................................
..........................................................................................................................................O............................................................................................................................
..........................................................................................................................................O.........................................................................................OO.OO..............................
...............................................................................................................................................................................................................OO.................OO.O.OO.OO...........................
..............................................................................................................................................................................................................O..O.............OOO.O..OOO..OOOO........................
..............................................................................................................................................................................................................O.O..........OOO....OOO.....O....O.......................
...............................................................................................................................................................................................................O..........O.O.O.OOO.O........OO........................
..........................................................................................................................................................................................................................O.O.O.OOOO...................................
...........................................................................................................................................................................................................................O.O....O..O.................................
......................................................................................................................................................................................................................O.............O......OO.OO.......................
.....................................................................................................................................................................................................................OOO....O............OO.O.OO.OO....................
....................................................................................................................................................................................................................OOOOO...O.........OOO.O..OOO..OOOO.................
...................................................................................................................................................................................................................OO...OO........OOO....OOO.....O....O................
.........................................................................................................................................................................................OO.OOO................O..OOO...OOO......O.O.O.OOO.O........OO.................
.........................................................................................................................................................................................OO....OO.............OOO.OOO...OO.......O.O.O.OOOO............................
........................................................................................................................................................................................O..O.O...O...........O.O.OO.OOOOO.........O.O....O..O..........................
.........................................................................................................................................OOO...................................................OOO..OOO......O...O.OOOOO...................O...........................
.................................................................................................................................................................................................OOO.O.O...OO.....OOOOO............O............OO.O...................
.................................................................................................................................................................................................O....O...O....O....O..............O.........OO.OO.OO..................
..................................................................................................................................................................................................OO.....OOO..O.O..OOO..O....................O..O.O..O.................
..........................................................................................................................................................................................................O....O....O...O..............OO....OO.....O..................
...........................................................................................................................................................................................................OO.....OO...................OO.OO...........................
.............................................................................................................................................................................................................O...O........O........OOOO...OO...........................
.............................................................................................................................................................................................................O.O.O.......OOOO.....O.......OO...........................
..............................................................................................................................................................................................................OOO...OOO.OOOO.O....O.O..................................
...............................................................................................................................................................................................................O............O....OO....................................
.................................................................................................................................................................................................................OO....................................................
.................................................................................................................................................................................................................OO....................................................
...........................................................................................................................................................................................................................OO..........................................
......................................................................................................................................OO................OO.OOO.............OO.OO......OOO..............................................................................
......................................................................................................................................OO................OO....OO.OO......OO.O...O...OO.O...............................................................................
.......................................................................................................................................................O..O.O....OO....O....O....O.O...O.OO............................................................................
..............................................................................................................................................................OO.O.O..OOO...OOO...OOOOO..O.O...........................................................................
..................................................................................................................................................................OO....O...O..O..OO...O.O.OOO.........................................................................
......................................................................................................................................................................O..O...OOO....O..O.O.O.O.OOO.....................................................................
..................................................................................................................................................................O...O..O...O.O...OOO.O.O.O......O............OOOO...OO...............................................
..................................................................................................................................................................O...O....O.O.O.O...O.O.O.O.OO.OO............O.O..O..OO.............OO.O..............................
....................................................................................................................................................................OO...............O.O.O.O.......OO........O.....O..............OO.OO.OO.............................
........................................................................................................................................................................................OO.OO..OO..OO.........O.O.O...............O..O.O..O............................
.........................................................................................................................................................................................O.OO..O.OO............O.O..O...O...OO....OO.....O.............................
.........................................................................................................................................OOO......................................O....OOO..OO.O.OOO..O...........OO....O...OO.OO......................................
.......................................................................................................................................................................O........OO.O...OOO.........O.O.............O....O..O...OO......................................
...................................................................................................................................................................OOO.OOO......OO.O.O...O..O.O..O..................OOO........OO......................................
..................................................................................................................................................................O......OO....O..OO...O..........O....................................................................
...................................................................................................................................................................OO...O..O........O............O.....................................................................
.............................................................................................................................................................................OOO..O.O..OO..............................................................................
.............................................................................................................................................................................O.OOOO.OOOO.O.............................................................................
...........................................................................................................................................................................O..O.O.O.O.O.O..............................................................................
................................................................................................................................................................................................OO.....................................................................
...............................................................................................................................................................................................OO......................................................................
.................................................................................................................................................................................................O.....................................................................
....................................................................................................................................................................................OOO................................................................................
....................................................................................................................................................................................O..................................................................................
.....................................................................................................................................................................................O.................................................................................
..........................................................................................................................................OO..............................O............................................................................................
..........................................................................................................................................OO.............................OO............................................................................................
.........................................................................................................................................................................O.O...........................................................................................
..............................................................................................................................................................OO.......................................................................................................
..............................................................................................................................................................O.O......................................................................................................
..............................................................................................................................................................O........................................................................................................
...................................................................................................................................................OO..................................................................................................................
..................................................................................................................................................OO...................................................................................................................
....................................................................................................................................................O..................................................................................................................
.................................................................................................................OO....................................................................................................................................................
.................................................................................................................O.O...................................................................................................................................................
.................................................................................................................O..........OOO................OOO.....................................................................................................................
........................................................................................................................O.OO...O..............O...OO.O.................................................................................................................
.......................................................................................................................OOO...OOO..OOO....OOO..OOO...OOO................................................................................................................
......................................................................................................................O...O....OOO.O.O..O.O.OOO....O...O...............................................................................................................
.......................................................................................................................O.......O....O....O....O.......O................................................................................................................
................................................................................................................................OO..........OO.........................................................................................................................
.........................................................OO............................................................................................................................................................................................................
........................................................OO.............................................................................................................................................................................................................
..........................................................O............................................................................................................................................................................................................
OOO....................................................................................................................................................................................................................................................................
O......................................................................................................................................................................................................................................................................
.O.....................................................................................................................................................................................................................................................................
