!Name: p24turner
!C A glider turning reaction using a period 24 c/3 spaceship.
!C A forward glider is turned into a reversed forwards glider.
!C David I. Bell, February 1999
!Source: jslife-moving
!
...........OO...OO..............................................OO...OO...........
........OO.OO...OO.OO........................................OO.OO...OO.OO........
........OO...O.O...OO...OOO............................OOO...OO...O.O...OO........
..O.OOO..O.O.O.O.O.O..OO......OO..................OO......OO..O.O.O.O.O.O..OOO.O..
.OO.OOO......O.O......OO....OO.O.OO............OO.O.OO....OO......O.O......OOO.OO.
O..O.OOO.O...O.O...O.OOOO..OO..O.OO............OO.O..OO..OOOO.O...O.O...O.OOO.O..O
.O...........O.O.........O..O.O.OO.O..........O.OO.O.O..O.........O.O...........O.
..........OO.O.O.OO.....OO.........O..........O.........OO.....OO.O.O.OO..........
........................OO....O..O.O..........O.O..O....OO........................
................................O..O.O......O.O..O................................
..................................O.OOO....OOO.O..................................
....................................O........O....................................
....................................O........O....................................
.....................................O......O.....................................
................O...................O.O....O.O...................O................
.........OO.OOO.OOO..................OO....OO..................OOO.OOO.OO.........
.........OO....O..OO.OO..............O.O..O.O..............OO.OO..O....OO.........
........O..O.OO...O..OO................O..O................OO..O...OO.O..O........
....................O..O.....O........O....O........O.....O..O....................
........................O..OOOO.......O.OO.O.......OOOO..O....................OOO.
...........................O...O.......OOOO.......O...O.......................O...
......................OOO..O.O.OO.....OOOOOO.....OO.O.O..OOO...................O..
.........................O..OO.O.OO............OO.O.OO..O.........................
...........................OO.O...O.OO......OO.O...O.OO...........................
..................................O.O.OOOOOO.O.O..................................
...................................OOOOOOOOOOOO...................................
.....................................OOOOOOOO.....................................
...............O...........O......................................................
.............OOOO.........OOOO....................................................
............OO...O.......O...OO...................................................
.........O.O....O.........O....O.O................................................
........OO...O.......O.......O...OO...............................................
.........O...OO.....OOO.....OO...O................................................
...........O.OO....O...O....OO.O..................................................
.........OO..O......OOO......O..OO................................................
.............O.....OOOOO.....O....................................................
.........O...O.OO.OO...OO.OO.O...O................................................
...........OO...O.........O...OO..................................................
...............O..OO...OO..O......................................................
