!Name: p3sidetagalong
!C This shows a small period 3 tagalong component which needs a
!C single spark to maintain it.
!C David I. Bell, December 2000
!Source: jslife-moving
!
........................OOO..................
...........................O.................
...........................OO................
......................OOO..OO..OO.O..........
................OO....O.....OO.OO.OO.........
................OO.OO....OO.O...OO..O........
...............O...OO......OOOO..............
...................OO........OO.O.O..........
................................O.........O..
...............O..................OO.....O.O.
...........OOO.OO...O...O.OO....O..OO...O...O
...OOO...O..OOO.O.OO.OO.OO.O.OO.OOO.....O.OO.
.OO.O.O..O.........O......OO.O.....O..O......
O...O.O..O.O...O..O.O...OOO...O.OOOO.O.......
.O.O..O..OO....O..........OO..OOO............
.....OOOOO................O....OO............
.......OO.................O.OO.O.............
...........................O..O..............
...........................O..O..............
