!Name: p45-2
!C A period 45 c/3 puffer which produces four blocks every period.
!C This was the first puffer found which has an odd period.  The exhaust
!C of this puffer can easily be perturbed by c/3 edge spark spaceships to
!C produce much dirtier puffers, or to produce clean rakes.
!C David I. Bell, May 1996
!Source: jslife-moving
!
........O.......O...................................................O.......O........
.OO.OOO.OOO.....OO.O........O...........................O........O.OO.....OOO.OOO.OO.
.OO....O..OO.OO..OOOO.....OOOO.........................OOOO.....OOOO..OO.OO..O....OO.
O..O.OO...O..OO..O...O...OO...O..........OOO..........O...OO...O...O..OO..O...OO.O..O
............O........O...O....O..........OOO..........O....O...O........O............
.......................O.OO.O.O.O.......O...O.......O.O.O.OO.O.......................
.......................O.OO......O.................O......OO.O.......................
..................OO.O.....O...O.OO....O.....O....OO.O...O.....O.OO..................
..........O.......OO..........OO.O.O...OO.O.OO...O.O.OO..........OO.......O..........
...OO.OOO.OOO.....OO................O...........O................OO.....OOO.OOO.OO...
...OO....O..OO.OO...................O...O...O...O...................OO.OO..O....OO...
..O..O.OO...O..OO...................O....O.O....O...................OO..O...OO.O..O..
..............O......................O..O...O..O......................O..............
.......................................O.O.O.O.......................................
....................................OO.O..O..O.OO....................................
...................................O.O.O.OOO.O.O.O...................................
...................................O.O..OO.OO..O.O...................................
....................................OOO..O.O..OOO....................................
.....................................O.OO...OO.O.....................................
...................................OO...O...O...OO...................................
...................................O.O....O....O.O...................................
.....................................O..O.O.O..O.....................................
.....................................O.OOO.OOO.O.....................................
.....................................O.O.....O.O.....................................
..................................OO.O.O..O..O.O.OO..................................
..................................OO.O.O..O..O.O.OO..................................
.....................................O.O.OOO.O.O.....................................
....................................O..OOOOOOO..O....................................
..........O.OO.OOO.................................................OOO.OO.O..........
.........OO.OO....OO.O................O.......O................O.OO....OO.OO.........
........O..O.O..O...OOO..................OOO..................OOO...O..O.O..O........
.........O.....O...O...O.............OOO.....OOO.............O...O...O.....O.........
......................OO....OOO.....OO.OOO.OOO.OO.....OOO....OO......................
......................OO..OO.O.........OOO.OOO.........O.OO..OO......................
.......................OO....O.OO.........O.........OO.O....OO.......................
............................O..O.O...OO.......OO...O.O..O............................
.......................OO.O..O.O.O.O.............O.O.O.O..O.OO.......................
...........................O........O...........O........O...........................
..................................O.OOOOOOOOOOOOO.O..................................
