!Name: p45boat
!C Period 45 c/3 boat puffer.
!C This uses a period 45 backwards rake whose output is converted into
!C boats by a c/3 period 15 spaceship.
!C David I. Bell, July 1997
!Source: jslife-moving
!
...................................O.......O...........................O.......O...........................................................
..................................OOOO...OOOO.........................OOOO...OOOO..........................................................
.................................O...OO.OO...O..........OOO..........O...OO.OO...O.........................................................
.................................O....O.O....O..........OOO..........O....O.O....O.........................................................
...............................O.O.O.OO.OO.O.O.O.......O...O.......O.O.O.OO.OO.O.O.O.......................................................
..............................O......OO.OO......O.................O......OO.OO......O......................................................
.............................OO.O...O.....O...O.OO....O.....O....OO.O...O.....O...O.OO.....................................................
...........................OO.O.OO...........OO.O.O...OO.O.OO...O.O.OO...........OO.O.OO...................................................
.........................OO.O......................O...........O......................O.OO.................................................
........................O...O......................O...O...O...O......................O...O................................................
.........................O.O.......................O....O.O....O.......................O.O.................................................
....................................................O..O...O..O............................................................................
......................................................O.O.O.O..............................................................................
...................................................OO.O..O..O.OO...........................................................................
..................................................O.O.O.OOO.O.O.O..........................................................................
..................................................O.O..OO.OO..O.O..........................................................................
...................................................OOO..O.O..OOO...........................................................................
....................................................O.OO...OO.O............................................................................
..................................................OO...O...O...OO..........................................................................
..................................................O.O....O....O.O..........................................................................
....................................................O..O.O.O..O............................................................................
....................................................O.OOO.OOO.O............................................................................
....................................................O.O.....O.O............................................................................
.................................................OO.O.O..O..O.O.OO.........................................................................
.................................................OO.O.O..O..O.O.OO.........................................................................
....................................................O.O.OOO.O.O............................................................................
...................................................O..OOOOOOO..O...........................................................................
.........................O.OO.OOO.................................................OOO.OO.O.................................................
........................OO.OO....OO.O................O.......O................O.OO....OO.OO................................................
.......................O..O.O..O...OOO..................OOO..................OOO...O..O.O..O...............................................
........................O.....O...O...O.............OOO.....OOO.............O...O...O.....O................................................
.....................................OO....OOO.....OO.OOO.OOO.OO.....OOO....OO.............................................................
.....................................OO..OO.O.........OOO.OOO.........O.OO..OO.............................................................
......................................OO....O.OO.........O.........OO.O....OO..............................................................
...........................................O..O.O...OO.......OO...O.O..O...................................................................
......................................OO.O..O.O.O.O.............O.O.O.O..O.OO..............................................................
..........................................O........O...........O........O..................................................................
..O.OO..............OO..........OO...............O.OOOOOOOOOOOOO.O.........................................................................
.OO.OO.OO.O........O.OOOOO...OO.OO.........................................................................................................
O..O.O.OO.OO......OO...OOO...OO...OO.......................................................................................................
.O......O...O..OOOOO.O..O.O..O..O.O........................................................................................................
..........O.OOOO...OOO...OOO....O.O.OO................OO...OO..............................................................................
.............O.O...O....O..O..O.O.O.O.OO.OO...........OO...OO..............................................................................
...........OOOO....OOOO.OOOOOO..O.O.O....OO.............OOO................................................................................
...........OOOO...O.O.O.O.O...O.O.O.O.OO.O..O.......OO...O...OO............................................................................
.............O..O............O..O.O.O.OO.....O.....O..O.....O..O...........................................................................
...............................O..O..O.OO....O.....O.OO.O.O.OO.O...........................................................................
...................................O....O.O..OO...OO.O..O.O..O.OO..........................................................................
.................................O...OO.O.OO.OO.....O.........O............................................................................
..........................OOO...OO..OO.O..O...O............................................................................................
............OO.OOO.......OO.OOO....O.O.OOOO..O.............................................................................................
............OO....OO....O.....OOOO.......O.................................................................................................
...........O..O.O...O...OOO..O.O..........OO.....OOO...........OOO.........................................................................
..................OOO..OO....O..OO.........................................................................................................
....................OOO...OO.OO.O.O..................OOO...OOO.............................................................................
.....................O..O..O.O....O.................O.OO...OO.O............................................................................
......................O...O...O....................O....OOO....O...........................................................................
....................................................O.........O............................................................................
.....................................................OO.....OO.............................................................................
.......................................................O...O...............................................................................
...........................................................OO..............................................................................
...........................................................OO..............................................................................
.....O.OO..............OO..........OO......................................................................................................
....OO.OO.OO.O........O.OOOOO...OO.OO.........................OO...........................................................................
...O..O.O.OO.OO......OO...OOO...OO...OO......................O..O..........................................................................
....O......O...O..OOOOO.O..O.O..O..O.O........................O.O..........................................................................
.............O.OOOO...OOO...OOO....O.O.OO......................O...........................................................................
................O.O...O....O..O..O.O.O.O.OO.OO....................................OO..........OO..............OO.O.........................
..............OOOO....OOOO.OOOOOO..O.O.O....OO.........OOO........................OO.OO...OOOOO.O........O.OO.OO.OO........................
..............OOOO...O.O.O.O.O...O.O.O.O.OO.O..O......O...O.....................OO...OO...OOO...OO......OO.OO.O.O..O.......................
................O..O............O..O.O.O.OO.....O.....O...O......................O.O..O..O.O..O.OOOOO..O...O......O........................
..................................O..O..O.OO....O...OO....OOOOO...............OO.O.O....OOO...OOO...OOOO.O.................................
......................................O....O.O..OO......O...O..O.........OO.OO.O.O.O.O..O..O....O...O.O....................................
....................................O...OO.O.OO.OO.....O.O..O...O........OO....O.O.O..OOOOOO.OOOO....OOOO..................................
.............................OOO...OO..OO.O..O...O.O....O..............O..O.OO.O.O.O.O...O.O.O.O.O...OOOO..................................
...............OO.OOO.......OO.OOO....O.O.OOOO..O....OO...............O.....OO.O.O.O..O............O..O....................................
...............OO....OO....O.....OOOO.......O.........O.........O.....O....OO.O..O..O......................................................
..............O..O.O...O...OOO..O.O..........OO........O...O.....O...OO..O.O....O..........................................................
.....................OOO..OO....O..OO..................OO............OO.OO.O.OO...O........................................................
.......................OOO...OO.OO.O.O..................OOO...OO..O..O...O..O.OO..OO...OOO.................................................
........................O..O..O.O....O...................O.......O....O..OOOO.O.O....OOO.OO.......OOO.OO...................................
.........................O...O...O.........................OOO............O.......OOOO.....O....OO....OO...................................
............................................................O...........OO..........O.O..OOO...O...O.O..O..................................
..................................................................................OO..O....OO..OOO.........................................
.............................................................OOO.................O.O.OO.OO...OOO...........................................
...............................................................O.................O....O.O..O..O............................................
.....................................................................................O...O...O.............................................
...................................................................................................OO......................................
.....................................................................................OOO..........O.OOO....................................
...............................................................................OOO..OO...O.....O.OO...OO.OO................................
..............................................................................O.O.OOOO...OO...O.OO.O..O..OO................................
...............................................................................OO...O.OO.....O...O......O..O...............................
...........................................................................OOO..O...O.....O..O...O..........O..............................
..........................................................................OOO..OO...O.......O.OO.OO......O.................................
.........................................................................O....O.O.O.O....O.....O.O.OO.......OOO............................
......................................................................O.........O.OO..OOOOO..O.O.....O...OO.O.OO...........................
....................................................................O.O..O.O.OO..O.OO...O....O..O.O.OO..O...O...O..........................
.....................................................................OO.....OOO..............OOO..OO.OOO...................................
..............................................................................O............O....OOO...O..O.................................
..............................................................................O.............O...OO.....O...................................
...........................................................................................................OO..............................
...........................................................................................OO.OOO.......OO.OO.....OO.......................
...........................................................................................OO....OO.....OO...OOO.O.OOOO....................
...........................................................................................OOO.O...O..OO...O.O...O...OO...O................
.............................................................................................O.OOO.O..O..O...O.O...O....OOO.OOO............
........................................................................O.O............O.....OO.OO.OO.O.O......O...O..O.O......O...........
.........................................................................OO...........OO....O..OOO..O.O.OOO.O.........O..O...OO............
.........................................................................O..........OO.O...OO.O.....O..OO..OO.OO...........................
......................................................................................O..O.........OOOO..O..O..............................
.........................................................................................O...OO.....OO.....OO.O.OO.OO......................
.................................................................................OO.O.O.........OO.O..O..OOO...OOO...OO....................
.................................................................................OO..............O.O.OO....O...OO....O.OO..................
.................................................................................OOOOO........OOOOO..............OO.OO...O.................
...................................................................................O..O......O..O..O.......OO....OO....OOO.......OOO.OO.O..
.........................................................................................OO........O......................O.OO.OO....OO.OO.
.....................................................................................OOOO..OOOO..............................OO...O..O.O..O
.....................................................................................OOOOOOOOOO..........................O.....O...O.....O.
...................................................................................OO..........OO.........................OO...............
...................................................................................O.....OO.....O..........................................
.......................................................................................OOOOOO..............................................
.........................................................................................OO................................................
........................................................................................O..O...............................................
........................................................................................O..O...............................................
........................................................................................O..O...............................................
.........................................................................................OO................................................
....................................................................................OO.....................................................
...................................................................................O.O.....................................................
....................................................................................O......................................................
....................................................................................OO.....................................................
...................................................................................O.O.....................................................
....................................................................................O......................................................
....................................................................................OO.....................................................
...................................................................................O.O.....................................................
....................................................................................O......................................................
