!Name: p45smoke-4
!C A period 45 c/3 spaceship with some smoke at the back.
!C This is actually composed of a period 45 backward rake which emits a pair
!C of gliders and a period 15 ship.  Each pair of gliders is converted into
!C smoke by the period 15 ship.  This smoke can be hit by forward gliders to
!C produce other output.  In particular, a single forward glider can be
!C duplicated into one forward and one backward glider which continue in
!C the same sideways direction.
!C David I. Bell, December 1999
!Source: jslife-moving
!
..............................................OOO...............................................................
..............................................OOO...............................................................
..........................OO.OOO.............O...O.............OOO.OO...........................................
..........................OO....OO.OO.....................OO.OO....OO...........................................
.........................O..O.O....OO.......O.....O.......OO....O.O..O..........................................
................................OO.O..OO....OO.O.OO....OO..O.OO.................................................
......................................O.OO...........OO.O.......................................................
.................................OOO.OO..O...O...O...O..OO.OOO..................................................
.................................O...OOO.O....O.O....O.OOO...O..................................................
...............................OO.O.OO....O..O...O..O....OO.O.OO................................................
..............................O.O..O........O.O.O.O........O..O.O...............................................
............................OOO.O..O.....OO.O..O..O.OO.....O..O.OOO.............................................
...........................OO.O.........O.O.O.OOO.O.O.O.........O.OO............................................
..........................O...O.........O.O..OO.OO..O.O.........O...O...........................................
.........................................OOO..O.O..OOO..........................................................
..........................................O.OO...OO.O...........................................................
........................................OO...O...O...OO.........................................................
........................................O.O....O....O.O.........................................................
..........................................O..O.O.O..O...........................................................
..........................................O.OOO.OOO.O...........................................................
..........................................O.O.....O.O...........................................................
.......................................OO.O.O..O..O.O.OO........................................................
.......................................OO.O.O..O..O.O.OO........................................................
..........................................O.O.OOO.O.O...........................................................
.........................................O..OOOOOOO..O..........................................................
...............O.OO.OOO.................................................OOO.OO.O................................
..............OO.OO....OO.O................O.......O................O.OO....OO.OO...............................
.............O..O.O..O...OOO..................OOO..................OOO...O..O.O..O..............................
..............O.....O...O...O.............OOO.....OOO.............O...O...O.....O...............................
...........................OO....OOO.....OO.OOO.OOO.OO.....OOO....OO............................................
...........................OO..OO.O.........OOO.OOO.........O.OO..OO............................................
............................OO....O.OO.........O.........OO.O....OO.............................................
.................................O..O.O...OO.......OO...O.O..O..................................................
............................OO.O..O.O.O.O.............O.O.O.O..O.OO.............................................
........................OO......O........O...........O........O.................................................
.......................OO.O............O.OOOOOOOOOOOOO.O........................................................
.......................OO.O.....................................................................................
.....................OOO.OO...O.................................................................................
................O...O....O..OOO.OOO.............................................................................
...............OOOO....OOO..OO.....O............................................................................
..............O...O.........OO.O..O.............................................................................
...............O.O..O....OO....O................................................................................
...................O.........O.OOO..............................................................................
..............O................O...O............................................................................
..............OOO..O......O...O.O..O............................................................................
...OO....OOOOO....O.O.OOO.OOO......OO...........................................................................
OO.OO...OOO..O....O.O...OO..O...OO.OO..................O........................................................
OO...O....OOOOO.O.O...OO............O....O...........OOO........................................................
O.O..O..O...OO............O..OO.O..O....O.O.........OOOO........................................................
...O.OOOO................OO..OO..O......O..O.......O............................................................
.........................O.OO...........O..OO.....OO............................................................
..............................O..........O.O.......OO.O.........................................................
..........................OOOO..........O...........O.OO........................................................
...........................OO..........OO.OO.......OO.O.........................................................
................................................O.O.............................................................
................................................O..O............................................................
....................................................O...........................................................
................................................O...O...........................................................
...........................OO.................OO....O...........................................................
..........................OO.O................OO................................................................
..........................OO.O..................OO..O...........................................................
........................OOO.OO...O................OO............................................................
...................O...O....O..OOO.OOO..........................................................................
..................OOOO....OOO..OO.....O...............................OO........................................
.................O...O.........OO.O..O..............OO...............O.OO.......................................
..................O.O..O....OO....O................O..O..............O.OO.......................................
......................O.........O.OOO...............O.O..........O...OO.OOO.....................................
.................O................O...O..............O.......OOO.OOO..O....O...O................................
.................OOO..O......O...O.O..O.....................O.....OO..OOO....OOOO...............................
......OO....OOOOO....O.O.OOO.OOO......OO......O.O............O..O.OO.........O...O..............................
...OO.OO...OOO..O....O.O...OO..O...OO.OO......O.O...............O....OO....O..O.O...............................
...OO...O....OOOOO.O.O...OO............O......O...............OOO.O.........O...................................
...O.O..O..O...OO............O..OO.O..O.........O...........O...O................O..............................
......O.OOOO................OO..OO..O.......................O..O.O...O......O..OOO..............................
............................O.OO..................O.O......OO......OOO.OOO.O.O....OOOOO....OO...................
.................................O.................OO......OO.OO...O..OO...O.O....O..OOO...OO.OO................
.............................OOOO..................O.......O............OO...O.O.OOOOO....O...OO................
..............................OO............................O..O.OO..O............OO...O..O..O.O................
..............................................................O..OO..OO................OOOO.O...................
...................................................................OO.O.........................................
.................................................................O..............................................
..................................................................OOOO..........................................
...................................................................OO...........................................
...........................................................................................OO...................
...........................................................................OO.OOO.......OO.OO.....OO............
...........................................................................OO....OO.....OO...OOO.O.OOOO.........
.......................................................O...................OOO.O...O..OO...O.O...O...OO...O.....
........................................................O....................O.OOO.O..O..O...O.O...O....OOO.OOO.
......................................................OOO..............O.....OO.OO.OO.O.O......O...O..O.O......O
......................................................................OO....O..OOO..O.O.OOO.O.........O..O...OO.
....................................................................OO.O...OO.O.....O..OO..OO.OO................
......................................................................O..O.........OOOO..O..O...................
.........................................................................O...OO.....OO.....OO.O.OO.OO...O.......
.................................................................OO.O.O.........OO.O..O..OOO...OOO...OO.OO......
.................................................................OO..............O.O.OO....O...OO....O..O.......
.................................................................OOOOO........OOOOO..............OO.OO.....O.O..
...................................................................O..O......O..O..O.......OO....OO.......OOOOO.
.........................................................................OO........O....................OO.O...O
.....................................................................OOOO..OOOO.......................OO.O....O.
.....................................................................OOOOOOOOOO......................O...O......
...............................................................O...OO..........OO.....................O.O.......
.............................................................O.O................................................
..............................................................OO...O.....OO.....O...............................
.......................................................................OOOOOO...................................
........................................................................O..O....................................
.......................................................................OO..OO...................................
........................................................................O..O....................................
.................................................................O.O............................................
..................................................................OO............................................
..................................................................O.............................................
....................................................................OO..........................................
...................................................................O.O..........................................
....................................................................O...........................................
