!Name: p48
!C A period 48 c/3 ship.
!C This is produced from a perturbation of a frothing c/3 puffer.
!C Paul Tooke, November 2002
!Source: jslife-moving
!
......................................O.....O......................................
....................................OOOO...OOOO....................................
................................OO.OO...O.O...OO.OO................................
................................OO..O...O.O...O..OO................................
...............................O..O.....O.O.....O..O...............................
.......................................OO.OO.......................................
.......................................O.O.O.......................................
...................................O....O.O....O...................................
...............................OOO.OO....O....OO.OOO...............................
..............................O........OO.OO........O..............................
...............................OO...O..OO.OO..O...OO...............................
....................................O.O.....O.O....................................
......................................O.....O......................................
...................................OO.OO...OO.OO...................................
...................................O..OO...OO..O...................................
........................................O.O........................................
....................................OOO.O.O.OOO....................................
....................................OOO.O.O.OOO....................................
...................................O..O.O.O.O..O...................................
.....................................O..O.O..O.....................................
.....................................O..O.O..O.....................................
.......................................O...O.......................................
..................................OO.O.......O.OO..................................
..................................OO.O.......O.OO..................................
..................................OOOOO.....OOOOO..................................
...............................O...O...O...O...O...O...............................
...............................O.OOOO.O.....O.OOOO.O...............................
..............................O.O.................O.O..............................
...............................OO.................OO...............................
...............................OOO.......O.......OOO...............................
..............................O.O.OO...OO.OO...OO.O.O..............................
..............................O...O.OO.......OO.O...O..............................
..................................O....OO.OO....O..................................
...................................O.OOOO.OOOO.O...................................
..................................OOO..O...O..OOO..................................
.................................OO.OO.O...O.OO.OO.................................
....................................O.OO...OO.O....................................
...................O............O....O.O...O.O....O............O...................
......OOO........OOOO....OOO...OOOOO.....O.....OOOOO...OOO....OOOO........OOO......
.OO.OO.O........OO...O.OO...O..OO.OOO...OOO...OOO.OO..O...OO.O...OO........O.OO.OO.
.OO....O.OO....O...O.O.O..O.O.......OOOOOOOOOOO.......O.O..O.O.O...O....OO.O....OO.
O..O...O.O.O......O..O.O....OO.....OOOOOOOOOOOOO.....OO....O.O..O......O.O.O...O..O
.......O.O.O.OOOOOOO.O.O..OO......O.............O......OO..O.O.OOOOOOO.O.O.O.......
.....O...O.....O.....O....O.......O.............O.......O....O.....O.....O...O.....
.......OO......O....OO..OO..OOO.....................OOO..OO..OO....O......OO.......
....O....O..OO.......OOO....OOOO......OOOOOOO......OOOO....OOO.......OO..O....O....
....OO...O...OO...........OOO...O.................O...OOO...........OO...O...OO....
............OOO..........OOO..........OO...OO..........OOO..........OOO............
......OOO....OO..........OO...O.O.....O.O.O.O.....O.O...OO..........OO....OOO......
........................................O.O........................................
.......................................OO.OO.......................................
