!Name: p9-2
!C A very small c/3 period 9 ship.
!C David I. Bell, September 1997
!Source: jslife-moving
!
..............O.......O..............
..........OOO.OO.....OO.OOO..........
.........O.....OO...OO.....O.........
..........O...............O..........
.....O...OOOOOOO.O.O.OOOOOOO...O.....
.OOO.OOOO....OO.O...O.OO....OOOO.OOO.
O......OO.......O...O.......OO......O
.OO...O.........O...O.........O...OO.
...............O.....O...............
..............OOOOOOOOO..............
.............OO.......OO.............
