!Name: puffers-c12d
!C The only two known puffers that use only a single "switch engine".
!C
!C (left) p288/2 glide-reflective "block-laying" puffer.
!C (right) p384 "glider-producing" puffer.
!C Both found by Charles Corderman, 1971.
!Source: jslife-moving
!
...............O..................................................................................................O...............................................
.O.O......O..OOOO...................................................................................O.O......O..OOOO..............................................
O.........O.OOOO...................................................................................O.........O.OOOO...............................................
.O..O......OOO...OO.................................................................................O..O......OOO...OO............................................
...OOO.........O..OO..................................................................................OOO.........O..OO...........................................
................O.OO...............................................................................................O.OO...........................................
.................O..................................................................................................O.............................................
...........................................................................................................OO.O...................................................
...................OO......................................................................................OO.OO.....................OO...........................
...................OO................................................................................................................OO.................O.........
................O............................................................................................OO.......................................OOOO........
................OO...........................................................................................OO...........................................O.......
..................O.......................................................................................OOO........................................OOOO...O.OO..
.............OOO................................................................................................................................................O.
..............OO........................................................................................................................................OO......O.
.....................................................................................................................................................O...O.....OO.
..............................................................................................................................OO....................OOO...O.......
.............................................................................................................................O.O.....................OO...O...O...
..............................................................................................................................O.............................O.....
..............OO..................................................................................................................................................
..............OO.................................................................................................................................OO...............
................................................................................................................................................O..O..............
.................................................................................................................................................O.O..............
..................................................................................................................................................O...............
.........................................................................................................................OO.......................................
.........................................................................................................................OO.......................................
.............................................................................................................................................O....OOO.............
............................................................................................................................................OOO......O............
...........................................................................................................................................O.OO.OO...O............
...........................................................................................................................................O.O.O.O.OO.OO..........
............................................................................................................................................OOO..OOO..OO........OO
............................................................................................................................................OO....OO.O.O.......O.O
.................................................................................................................................OO....................O........O.
.................................................................................................................................OO................OO.O...........
...................................................................................................................................................OOO............
............................................................................................................................................OO....................
............................................................................................................................................O.O...................
.............................................................................................................................................O....................
..............................................................................................................................................................OO..
.............................................................................................................................................................O.O..
..............................................................................................................................................................O...
.........................................................................................................................................................OO.......
.........................................................................................................................................................OO.......
