!Name: puffer-c10o-p230
!C A period-230 c/10 orthogonal puffer
!C constructed using only three fireships
!C By Christoph Reinthaler, 11 Sep 2021
!Source: jslife-moving
!
................OO..OO..........................
................OO..OO..........................
...............OOO..OOO.........................
...............OOO..OOO.........................
.OO..OO.........................................
...OO..........O......O.........................
...OO..........O..OO..O.........................
O.O..O.O........OOOOOO..........................
O......O........................................
O......O..........OO............................
.OO..OO..........O..O...........................
..OOOO...........OOOO.....................OOOO..
................OO..OO..........................
...OO........O..O....O..O.................O..O..
..O..O..........O....O...................O.OO.O.
.................OOOO....................O....O.
.O....O......O..........O.......................
OO....OO......O........O.................O....O.
.O.OO.O..................................OO..OO.
..OOOO............OO.....................OOOOOO.
...OO.....................................O..O..
................OOO........................OO...
................O..........................OO...
.................O..............................
........................................OO....OO
........................................OO....OO
........................................OO....OO
..........................................O..O..
.........OOO....................................
..............O.................................
..............O.................................
..............O.................................
............................O...................
......................OO...O.O..................
......................OO....OO..................
...........OO...................................
...........OO...................................
.........OOO....................................
..............O.................................
..............O.................................
..............O.................................
............................O...................
......................OO...O.O..................
......................OO....OO..................
...........OO...................................
...........OO...................................
