!Name: r065
!Source: jslife-moving
!
...................................................O.......O..............
..................................................O.O.....O.O.............
.................................................OO.OO...OO.OO............
.................................................OO..O...O..OO............
..................................................O.O.O.O.O.O.............
..............................................OOOOOOO.O.O.OOOOOOO.........
.............................................O...OOOO.O.O.OOOO...O........
................................................OO....O.O....OO...........
................................................O.....O.O.....O...........
.............................................O........O.O........O........
.............................................O.O.....OO.OO.....O.O........
................................................O.............O...........
..............................................O.O.............O.O.........
..............................................O.O.............O.O.........
...............................................O.O...........O.O..........
...............................................OOO...........OOO..........
..............................................O.O.OO.......OO.O.O.........
...................................................O.O...O.O..............
..................................................O..O...O..O.............
.................................................O...........O............
....................................................O.....O...............
................................................O...OO...OO...O...........
................................................O...OOO.OOO...O...........
.................................................O.O.......O.O............
...................................................O.......O..............
...................................................O.OO.OO.O..............
..................................................OO.OO.OO.OO.............
..................................................OOO.....OOO.............
....................................................O.....O...............
.....................................................OO.OO................
...............................................O...O..O.O..O...O..........
..............................................OOOO..O.O.O.O..OOOO.........
..............................................O...OO.O...O.OO...O.........
...............................................O...............O..........
...............................................O..O.........O..O..........
................................................O..O.......O..O...........
.................................................OO.........OO............
..................................................OOO.....OOO.............
...................................................OOO...OOO..............
......................................................O.O.................
...................................................O...O...O..............
....................................................OO...OO...............
.......................................................O..................
...................................................O.......O..............
...................................................OO.....OO..............
..................................................O.O.....O.O.............
.................................................OO.........OO............
................................................OO...........OO...........
...............................................O..O.OOO.OOO.O..O..........
................................................OOO.........OOO...........
....................................OOO...........OO.......OO.............
....................................O.O..............O...O............O...
...................................O..O....O.........OO.OO...........OOO..
.............................OOO......O...O.O.........O.O...........O...O.
............................O...O..O..O..OO.OO.........O............OO.OO.
...........................OO....OOOO.O...O..O..................O.........
............................OO....O...O....OO.OO.......O.......O.O..O.OOOO
............................OO...O...O.......OO........O......O...O..O..O.
...............................O............OO.........O.......O.OO.......
..............................O.............O...................OO........
........................................O.....OO................OO........
............................................OOO.................O.........
.........................................O.O..............................
................................O.........................................
...............................OOO........................................
..............................OO.OO.......................................
.............................O.O.O.O..O...................................
............................OO...O...OOO..................................
............................OO...O......O..........OO.....................
......................................O.O..........OO.....................
....................................O.O.................O.................
.....................................O..O..............OOO................
........................................O..............O.OO..O............
............................................................O.O...........
.................................................OO.......................
................................................OO.........O..O...........
..................................................O.....OO.OO.............
........................................................OO.OO.............
........................................................OO................
.......................................................O..................
......................................................O.O.................
......................................................O.O.................
................................OOO....................O..................
................................O.........................................
.................................O........................................
.................O........................................................
................OO........................................................
................O.O.......................................................
............................................................OOO...........
OO......................................................OO..O...O.........
O.O....................................................OOOOO.OOOO.........
O......................................................O.O...O............
.......................................................O.O.O.O.OO.........
........................................................O....O.O..........
.........................................................O....O...........
..........................................................OOO.............
.........................................................O..O.............
.............................................................OO...........
...........................................................OO.............
........................................................O..O..............
........................................................O.O....O..........
.............................................................O.O..........
.............................................................OO...........
