!Name: r145
!Source: jslife-moving
!
.............................................................................................O.......O...................................
............................................................................................OOO.....OOO..................................
............................................................................................O..O...O..O..................................
.............................................................................................OO.O.O.OO...................................
.........................................................................................O...OO.O.O.OO...O...............................
........................................................................................O.O.....O.O.....O.O..............................
.......................................................................................OO.OO...OO.OO...OO.OO.............................
........................................................................................O.......O.O.......O..............................
........................................................................................O.......O.O.......O..............................
........................................................................................O..O...OO.OO...O..O..............................
.........................................................................................O...............O...............................
........................................................................................OOO.............OOO..............................
...........................................................................................O...........O.................................
...........................................................................................O...........O.................................
........................................................................................OOO..O.......O..OOO..............................
........................................................................................OO....O.....O....OO..............................
..............................................................................................O.....O....................................
...........................................................................................O..O.....O..O.................................
............................................................................................OO.......OO..................................
............................................................................................O..O...O..O..................................
............................................................................................O...O.O...O..................................
............................................................................................OO..O.O..OO..................................
...........................................................................................O.O.OO.OO.O.O.................................
.............................................................................................O.......O...................................
............................................................................................OO..O.O..OO..................................
..............................................................................................O.O.O.O....................................
...............................................................................................O...O.....................................
..............................................................................................O.O.O.O....................................
.........................................................................................O...OO.O.O.OO...O...............................
.......................................................................................OO.OO....O.O....OO.OO.............................
..........................................................................................OO....O.O....OO................................
........................................................................................O..OO.........OO..O..............................
........................................................................................O...O.........O...O..............................
.........................................................................................O....OO...OO....O...............................
..........................................................................................O.O.O.O.O.O.O.O................................
.............................................................................................O.......O...................................
..............................................................................................O.....O....................................
..............................................................................................O.OOO.O....................................
.............................................................................................OOO.O.OOO...................................
.............................................................................................OO.....OO...................................
.............................................................................................O.......O...................................
.............................................................................................O.......O...................................
.............................................................................................OOO...OOO...................................
..........................................................................................OO.OO.....OO.OO................................
..........................................................................................OO.OO.....OO.OO................................
.............................................................................................O.O...O.O...................................
.........................................................................................O...O.OO.OO.O...O...............................
...........................................................................................O.O.O...O.O.O.................................
............................................................................................OO..O.O..OO..................................
.............................................................................................OOO...OOO..............O....................
..............................................................................................OO...OO..............O.O...................
................................................................................................OOO...............O...O..................
................................................................................................OOO...............O...O..................
.................................................................................................O...............OOO.OOO.................
.............................................................................................................OOO..O....O.................
............................................................................................................O..OOO......O................
............................................................................................................O...OOOO...O.................
.............................................................................................................OO.OO.......................
.................................................................................................O..........OOO..........................
...............................................................................................OOO...........O...............O...........
.................................................................................................O............O.............O.O..........
.........................................................................................OOO..O.O..........................O...O.........
.........................................................................................O....O.O..........................O...O.........
.............................................................................................O............................OOO.OOO........
.........................................................................................O...O........OO..............OOO..O....O........
........................................................................................O.............OO.............O..OOO......O.......
.......................................................................................O.....O.......................O...OOOO...O........
......................................................................................................................OO.OO..............
....................................................................................O.OO..O.OO.......................OOO.................
...................................................................................OO....O...O........................O..................
...........................................................................O......OO....OO.............................O.................
..........................................................................O.O......OOO..OO.................................O.......O.....
.........................................................................O...O......O.O..O.OOO...........................OO.OO...OO.OO...
.........................................................................O...O.......O...O....O.............................OO...OO......
........................................................................OOO.OOO...............................................O.O........
....................................................................OOO..O....O............OOO...........................OO...O.O...OO...
...................................................................O..OOO......O...........................................O..O.O..O.....
...................................................................O...OOOO...O...............................................O.O........
....................................................................OO.OO..................................................O.OO.OO.O.....
...................................................................OOO....................................................O..OO.OO..O....
....................................................................O.....................................................O.OO.O.OO.O....
.....................................................................O....................................................O.O.....O.O....
............................................................................................OO............OOO................O...O.......
............................................................................................OO...........O...O...............O...O.......
.........................................................................................................O.....O.........OO....O....OO...
.........................................................................................................O.....O........O.O.........O.O..
..........................................................................................................OO.OO.........O..O.......O..O..
..................................................................................................................OO...O..OOOO...OOOO..O.
........................................................................................................O.........OO....O.............O..
.........................................................................................................OO...............O.O.....O.O....
......................................................................................................OO.OO.................O.....O......
......................................................................................................O.................O..O.......O..O..
......................................................................................................O.....O...........O...OO...OO...O..
................................................................................................OOO....OO...OOOO.......O..O..O...O..O..O.
.........................................................................................................OO.....O.....OOO....O...O....OOO
...............................................................................................................O......OO..O.........O..OO
......................................................................................................OO....OO.O......OO.OO.........OO.OO
......................................................................................................OO....O..........O...O.......O...O.
.............................................................................................................OO........OO.OOO.OOO.OOO.OO.
.........................................................................................OO.................................OO...OO......
........................................................................................OO...................................OO.OO.......
........................................................................................OO..................................O.....O......
........................................................................................OOO.................................OOOOOOO......
........................................................................................OOO....................................O.........
.........................................................................................O...O..........................OO...OO.OO...OO..
.................................................................................O.......OOOOOOO.......................OO.OOOO...OOOO.OO.
................................................................................OOO.........OO.OO.........................O.OO...OO.O....
...............................................................................OO.OO.............O........................O.O.....O.O....
........................................................................................O...OOOO.O.......................................
...........................................................................O..O.O.O.O....O..OO.OO........................................
..........................................................................OOO...O...OO....O.O..O.........................................
.........................................................................O......O...OO.....OO............................................
.........................................................................O.O.............................................................
...........................................................................O.O...........................................................
.........................................................................O..O......................O.....................................
.........................................................................O.........................O.....................................
...................................................................................................O.....................................
.......................................................................................................OO................................
...............................................................................................OOO....O..O...............................
.......................................................................................................OO................................
...................................................................................................O.....................................
..................................................................................................O.O....................................
..................................................................................................O.O....................................
...................................................................................................O.....................................
...................................................................................................................OOO...................
..................................................................................................................O...O..................
..................................................................................................................OO.OO..................
...................................................................................................................O.O...................
.............................................................................................................OOO..O.O.OOO................
.............................................................................................................OOO...O.....................
............................................................................................OO..............O..O.......OO................
............................................................................................OO.................O.........................
..............................................................................................................O..........................
.............................................................................................................O.O.........................
.....................................................................................................O...................................
........................................................................OOO..........................O...................................
........................................................................O............................O...................................
.........................................................................O...............................................................
...........................................................................OOO.....OOO...................................................
...........................................................................O.O.....O.O...................................................
...........................................................................O..O...O..O...................................................
...........................................................................O...O.O...O...................................................
............................................................................OO.....OO....................................................
..............................................................................O...O......................................................
............................................................................OOO...OOO......................OOO...........................
...........................................................................O.........O....................O...O..........................
............................................................................O.O...O.O.....................OO.OO..........................
..........................................................................O.OO.O.O.OO.O....................O.O...........................
..........................................................................OOO.O.O.O.OOO.................OOO.O.O..OOO.....................
............................................................................OO.....OO........................O...OOO.....................
.............................................................................O.O.O.O....................OO.......O..O....................
...........................................................................OOOO...OOOO...........................O.......................
.........................................................................OO.OO.....OO.OO..........................O......................
.........................................................................O...O.....O...O.........................O.O.....................
........................................................................OO.O.O.....O.O.OO................................................
.....................................O......................................OO.....OO....................................................
....................................OO.....................................O.........O...................................................
....................................O.O....................................O.O.....O.O...................................................
..........................................................................O...O...O...O..................................................
........................................................................OO.............OO................................................
........................................................................OOO.O.OO.OO.O.OOO................................................
........................................................................O...............O................................................
.........................................................................OOO.........OOO.................................................
.........................................................................O..O.......O..O.................................................
.........................................................................OOOO...O...OOOO.................................................
..........................................................................OO...O.O...OO..................................................
..............................................................................O...O......................................................
...............................................................................O.O.......................................................
............................................................................OOO.O.OOO....................................................
..........................................................................OOOOO.O.OOOOO..................................................
.........................................................................OO...........OO.................................................
........................................................................O..OOOO...OOOO..O................................................
.........................................................................O.............O.................................................
................................................................................O........................................................
OO.......................................................................................................................................
O.O......................................................................................................................................
O........................................................................................................................................
