!Name: rake-c4o-var
!C A technique for multiplying the period of a c/4 orthogonal rake.
!C Shown here at period 52*42=2184.
!C David Bell, 15 Nov 2003
!Source: jslife-moving
!
..............................................................................................................................................................................................................................................................................................OO.O.OO.............................................................
..............................................................................................................................................................................................................................................................................................O..O..O.............................................................
..............................................................................................................................................................................................................................................................................................O..O..O.............................................................
..............................................................................................................................................................................................................................................................................................OO...OO.............................................................
...............................................................................................................................................................................................................................................................................................O...O..............................................................
.............................................................OOO.OOO..........................................................................................................................................................................................................................OO...OO.............................................................
............................................................OO..O..OO..........................................................................................................................................................................................................................O...O..............................................................
............................................................OO.O.O.OO........................................................................................................................................................................................................................OO.O.O.OO............................................................
.............................................................OOO.OOO........................................................................................................................................................................................................................O.O.O.O.O.O...........................................................
...............................................................O.O........................................................................................................................................................................................................................O.O.O.O.O.O.O.O.........................................................
.............................................................OOO.OOO.....................................................................................................................................................................................................................O....O.O.O.O....O........................................................
............................................................O..O.O..O.....................................................................................................................................................................................................................OO....O.O....OO.........................................................
............................................................OO.O.O.OO.......................................................................................................................................................................................................................OOO.O.O.OOO...........................................................
..........................................................OO.O.O.O.O.OO........................................................................................................................................................................................................................O...O..............................................................
..........................................................O..O.O.O.O..O...........................................................................................................................................................................................................................................................................................
........................................................O...O..O.O..O...O...................................................................................................................................................................................................................OO.O.O.O.OO...........................................................
.........................................................OOO.O.O.O.O.OOO...................................................................................................................................................................................................................O.O.O.O.O.O.O..........................................................
..........................................................OOOO.O.O.OOOO....................................................................................................................................................................................................................O..OO.O.OO..O..........................................................
............................................................OOO...OOO.....................................................................................................................................................................................................................OO....O.O....OO.........................................................
.............................................................O.O.O.O......................................................................................................................................................................................................................OO..OO...OO..OO.........................................................
...........................................................OO.......OO.........................................................................................................................................................................................................................O...O..............................................................
..........................................................O.O.O.O.O.O.O......................................................................................................................................................................................................................OO.O.O.OO............................................................
..........................................................O..OO.O.OO..O....................................................................................................................................................................................................................OOO.OO.OO.OOO..........................................................
...........................................................O...OOO...O.....................................................................................................................................................................................................................OO.O.....O.OO..........................................................
.........................................................OO..OOO.OOO..OO........................................................................................................................................................................................................................OOO...............................................................
............................................................O..O.O..O.........................................................................................................................................................................................................................O.....O.............................................................
............................................................O..O.O..O..........................................................................................................................................................................................................................OOOOO.........................OOO.OOO..............................
..........................................................O....O.O....O.....................................................................................................................................................................................................................................................OO..O..OO.............................
..........................................................O..O.....O..O..........................................................................................................................................................................................................................O..........................OO.O.O.OO.............................
............................................................O.O.O.O.O.....................................................................................................................................................................................................................O......O......O....................OOO.OOO..............................
...............................O...O.....................................................................................................................................................................................................................................................OOO.OO.....OO.OOO.....................O.O................................
.............................OOOOOOOOO........................OOOOO......................................................................................................................................................................................................................OO.OOO.O.O.OOO.OO...................OOO.OOO..............................
................................................................................................................................................................................................................................................................................................O.O.........................O..O.O..O.............................
................................O.O..........................................................................................................................................................................................................................................................O.O...O.O......................OO.O.O.OO.............................
.............................OO.O.O.OO..................OOO...........OOO.....................................................................................................................................................................................................................OO...OO.....................OO.O.O.O.O.OO...........................
.............................................................OO.O.OO...........................................................................................................................................................................................................................OOOOO......................O..O.O.O.O..O...........................
..............................O.O.O.O...................O..O.O.....O.O..O.......................................................................................................................................................................................................................OOO.....................O...O..O.O..O...O.........................
.............................O..O.O..O.....................O...O.O...O......................................................................................................................................................................................................................OO..O.O..OO..................OOO.O.O.O.O.OOO..........................
..............................O.O.O.O.........................OO.OO.......................................................................................................................................................................................................................OO.O.......O.OO.................OOOO.O.O.OOOO...........................
...........................OO.O.O.O.O.OO........................O..............................................................................................................................................................................................................................OO.OO........................OOO...OOO.............................
..........................OO..O.O.O.O..OO....................O.....O......................................................................................................................................................................................................................OO...........OO....................O.O.O.O..............................
.............................OO.O.O.OO......................................................................................................................................................................................................................................................O.........O....................OO.......OO............................
..........................O...O.O.O.O...O.................OOO..O.O..OOO..................................................................................................................................................................................................................OO..OO.....OO..OO................O.O.O.O.O.O.O...........................
..........................O.....O.O.....O.................O.OOOO.OOOO.O.................................................................................................................................................................................................................O..OO....O....OO..O...............O..OO.O.OO..O...........................
................................O.O........................O.........O......................................................................................................................................................................................................................O...OOO...O....................O...OOO...O............................
............................O.........O...................O...........O....................................................................................................................................................................................................................OO...OOO...OO.................OO..OOO.OOO..OO..........................
............................OO.OOOOO.OO.................O..OO.......OO..O................................................................................................................................................................................................................OO.............OO..................O..O.O..O.............................
...........................O.O.O...O.O.O................OO..O.......O..OO....................................................................................................................................................................................................................OO.OOO.OO......................O..O.O..O.............................
...........................O.OOO...OOO.O................OOOO...OOO...OOOO....................................................................................................................................................................................................................O.......O....................O....O.O....O...........................
..........................O.OO.......OO.O...................O.......O......................................................................................................................................................................................................................O..O.....O..O..................O..O.....O..O...........................
...........................OOOO.....OOOO.................OOO...O.O...OOO..................................................................................................................................................................................................................O.O.O.....O.O.O...................O.O.O.O.O.............................
............................OO..O.O..OO..................OOOO.O...O.OOOO......................................................................................................................................................................................................................OOOOOOO.............................................................
............................O..OO.OO..O.....................OO..O..OO.....................................................................................................................................................................................................................O.OOOO.O.OOOO.O.....................OOOOO...............................
............................O..O...O..O....................OO.O.O.O.OO...................................................................................................................................................................................................................OO...OO...OO...OO........................................................
............................O.OOOOOOO.O...................OO.O.....O.OO..................................................................................................................................................................................................................OOO.OO.....OO.OOO........................................................
..............................O.....O.....................O..O.OOO.O..O...................................................................................................................................................................................................................O.O.........O.O...............OOO...........OOO.........................
..............................OO...OO......................O....O....O...................................................................................................................................................................................................................O..O.O.O.O.O.O..O...................OO.O.OO..............................
................................OOO.....................OOO.....O.....OOO................................................................................................................................................................................................................OO.O.O.O.O.O.O.OO..............O..O.O.....O.O..O.........................
................................OOO............................O.O......................................................................................................................................................................................................................O.O.O.O.....O.O.O.O................O...O.O...O............................
..........................O.............O..................OOOO...OOOO...................................................................................................................................................................................................................O...............O....................OO.OO...............................
..........................O.............O..................O.OO...OO.O......................................................................................................................................................................................................................OO.......OO.........................O.................................
.........................O.O.OOO...OOO.O.O..............O..O.........O..O....................................................................................................................................................................................................................................................O.....O..............................
..............................O.OOO.O..................O.O.O.O.....O.O.O.O.................................................................................................................................................................................................................OO...OOO...OO..........................................................
.............................O..O.O..O.................O.O....O...O....O.O.................................................................................................................................................................................................................OO.........OO..................OOO..O.O..OOO...........................
...............................OO.OO....................O.OO.........OO.O................................................................................................................................................................................................................OO.OO..O.O..OO.OO................O.OOOO.OOOO.O...........................
...............................OOOOO.....................................................................................................................................................................................................................................................OO.O...O.O...O.OO.................O.........O............................
..........................................................O.O...O...O.O.....................................................................................................................................................................................................................O.O.....O.O...................O...........O...........................
............................OO.......OO...................OO....O....OO..................................................................................................................................................................................................................OO.............OO..............O..OO.......OO..O.........................
...........................O.O..O.O..O.O.......................O.O..........................................................................................................................................................................................................................OOOOOOOOOOO.................OO..O.......O..OO.........................
...........................O..OOO.OOO..O................O...O.......O...O.................................................................................................................................................................................................................OO..O.....O..OO...............OOOO...OOO...OOOO.........................
...........................OOOOO...OOOOO................OO.O..O...O..O.OO......................................................................................................................................................................................................................OO.OO........................O.......O.............................
...........................O.O.......O.O....................O.......O........................................................................................................................................................................................................................OO.....OO...................OOO...O.O...OOO..........................
.........................O.OOO.......OOO.O................OO...OOO...OO.....................................................................................................................................................................................................................O.........O..................OOOO.O...O.OOOO..........................
........................O....O...O...O....O.............O..OOOOOOOOOOO..O..................................................................................................................................................................................................................O....O.O....O....................OO..O..OO.............................
.........................O.OOO...O...OOO.O................OO.........OO....................................................................................................................................................................................................................O.O.OOOOO.O.O...................OO.O.O.O.OO............................
.........................O...O..O.O..O...O..................O.O...O.O.....................................................................................................................................................................................................................OO.O.......O.OO.................OO.O.....O.OO...........................
..........................O...O.....O...O...................OOO...OOO.....................................................................................................................................................................................................................OOOO..OOO..OOOO.................O..O.OOO.O..O...........................
..........................O....OOOOO....O..................OO.......OO........................................................................................................................................................................................................................O.....O......................O....O....O............................
...............................O...O......................O...OO.OO...O.................................................................................................................................................................................................................OO...............OO.............OOO.....O.....OOO.........................
...........................O...OO.OO...O..................O..OOO.OOO..O........................................................................................................................................................................................................................................................O.O................................
...........................O..O.....O..O....................O.O...O.O.....................................................................................................................................................................................................................O.OO.O...O.OO.O..................OOOO...OOOO............................
...........................O...OOOOO...O.................O..OO..O..OO..O..................................................................................................................................................................................................................O...OOO.OOO...O..................O.OO...OO.O............................
............................O.........O.................OOOOO...O...OOOOO....................................................................................................................................................................................................................OO.O.O.OO..................O..O.........O..O.........................
..........................OO....OOO....OO.................................................................................................................................................................................................................................................O...O.O.O.O...O..............O.O.O.O.....O.O.O.O........................
..........................OOOOOOOOOOOOOOO...............O...............O.................................................................................................................................................................................................................OO..O.....O..OO..............O.O....O...O....O.O........................
............................O...O.O...O...................O.O.OO.OO.O.O.....................................................................................................................................................................................................................O.........O.................O.OO.........OO.O.........................
...........................OO..O...O..OO..................OO...O.O...OO.................................................................................................................................................................................................................O.O...OO.O.OO...O.O.......................................................
.........................O..O.OO...OO.O..O..................O..O.O..O...................................................................................................................................................................................................................O.......O.O.......O...............O.O...O...O.O...........................
........................O.O..O.......O..O.O..............OO..O.....O..OO............................................................................................................................................................................................OOO.......OOO..........OO.OO.O.OO.OO..................OO....O....OO...........................
........................O.O.OO.......OO.O.O..............OO.O.O...O.O.OO.............................................................................................................................................................................................O.........O..........O..O.OOOOO.O..O......................O.O................................
.........................OOO...........OOO..............OO..OOO...OOO..OO..................................................................................................................................................................................................................OOOOOOOOOOOOO................O...O.......O...O.........................
..........................OO...........OO...............O.....OOOOO.....O.............................................................................................................................................................................................OO.....OO..............O.......O....O.............OO.O..O...O..O.OO.........................
...........................O...........O................O.O.O.......O.O.O.........O.........O.......................................................................................................................................................................O.OOO...OOO.O.........................O......O..........O.......O.............................
...........................OO...OOO...OO..................OOOO.....OOOO..........OOO.......OOO......................................................................................................................................................................O...OO.OO...O................O.......O.O....OOO.......OO...OOO...OO...........................
............................O....O....O..................O.............O.........OOO.......OOO....................................................................................................................................................................O.O..O.O.O.O..O.O..............O..............OOO.....O..OOOOOOOOOOO..O.........................
.........................OO.............OO................O...........O............O.......O.....................................................................................................................................................................OO.O..O.O.O.O..O.OO............O.O.........O.............OO.........OO...........................
.........................OO.OOO.....OOO.OO..................O.OOOOO.O.............OO.O...O.OO....................................................................................................................................................................O..O.OO.O.O.OO.O..O.............O..........OOOOO...........O.O...O.O.............................
..........................O..O..OOO..O..O......OOO....OOO..........................O..O.O..O....................................................................................................................................................................O...O.O..O.O..O.O...O............O..........O...OO..........OOO...OOO.............................
...........................O...........O...............O.........................O.O..O.O..O.O......................................................................................................................................................................O.O.......O.O...........................O...OOO........OO.......OO............................
..........................O...OO...OO...O......O.O............................OO.OO.O.O.O.O.OO.OO................................................................................................................................................................O.......O.O.......O........................OOOO..O.......O...OO.OO...O...........................
...........................O.....O.....O...........O.O........................OO.O..O.O.O.O..O.OO....................................................................................................................................................................OO.OOOOO.OO............................O..O..........O..OOO.OOO..O...........................
.............................O.O...O.O..........OOOO.OO......................OOO.O.OO.O.O.OO.O.OOO...................................................................................................................................................................OO.......OO..............................OO..O.........O.O...O.O.............................
...............................O...O...........O...O.OO.........................OO.O.O...O.O.OO..........................................................................................................................................................................OOO..................................OOO..O.....O..OO..O..OO..O..........................
............................OO..O.O..OO........O...O.OO........................................................................................................................................................................................................................................................O...O....OOOOO...O...OOOOO.........................
...........................O.O..O.O..O.O.......O..OO.OO............................OOOO.OOOO...................................................................................................................................................................................................................OO..O..............................................
............................O.........O..........O...O............................OOOOO.OOOOO....................................................................................................................................................................................................................O......O...............O.........................
............................OO...O...OO.............O.............................OOOO...OOOO....................................................................................................................................................................................................................O........O.O.OO.OO.O.O...........................
.........................OO.....O.O.....OO....OO.O.....................................O.......................................................................................................................................................................................................................O..O.......OO...O.O...OO...........................
.........................OOOOOO.....OOOOOO...OOO.......................................O........................................................................................................................................................................................................................OOO.........O..O.O..O.............................
.........................O.OO.........OO.O.....O.OO...............................................................................................................................................................................................................................................................O......OO..O.....O..OO..........................
...............................................OO........................................................................................................................................................................................................................................................................OO.O.O...O.O.OO..........................
..........................OO...OO.OO...OO......OOO.........................................................................................................................................................................................................................................O......................OO....OO..OOO...OOO..OO.........................
...........................O.OO.O.O.OO.O.......O............................................................................................................................................................................................................................................O...........................O.....OOOOO.....O.........................
..........................O..O.O...O.O..O.....OO.O.....................O.O................................................................................................................................................................................................................OOO.....................OOO...O.O.O.......O.O.O.........O.........O.....
..........................OO.OOO...OOO.OO......O.......................OO.................................................................................................................................................................................................................................................OOOO.....OOOO..........OOO.......OOO....
.............................O.O...O.O........OO........................O................................................................................................................................................................................................................................................O.............O.........OOO.......OOO....
.........................O.OOO...O...OOO.O................................................................................................................................................................................................................................................................................O...........O............O.......O......
........................OO..OO.OOOOO.OO..OO..O..............................................................................................................................................................................................................................................................................O.OOOOO.O.............OO.O...O.OO.....
....OOO.......OOO..........O.O.OOOOO.O.O......O................................................................................................................................................................................................................................................................OOO....OOO..........................O..O.O..O......
...........................O.OO.....OO.O......O........................................................................................................................................................................................................................................................................O.........................O.O..O.O..O.O....
....O..O.....O..O.........O..O.......O..O......................................................................................................................................................................................................................................................................O.O............................OO.OO.O.O.O.O.OO.OO.
....O...........O...............OOO................................................................................................................................................................................................................................................................................O.O.......O.....O..........OO.O..O.O.O.O..O.OO.
.....OO.......OO................OOO.......O......O..............................................................................................................................................................................................................................................................OOOO.OO.....OO.....OO........OOO.O.OO.O.O.OO.O.OOO
......O.OO.OO.O.................OOO......OOO.....O.............................................................................................................................................................................................................................................................O...O.OO....OO.O...O.OO..........OO.O.O...O.O.OO...
...OO.OO.O.O.OO.OO...............O.......OOO....O.O............................................................................................................................................................................................................................................................O...O.OO.....O.OO.OO.O.............................
.OO.O..O.O.O.O..O.OO............O.O............................................................................................................................................................................................................................................................................O..OO.OO......O.O.O.O...............OOOO.OOOO......
....O..O.O.O.O..O..............O...O.......OO.O..................................................................................................................................................................................................................................................................O...O.........O.O................OOOOO.OOOOO.....
O...O.O..O.O..O.O...O...........O.O...........O.OO..................................................................................................................................................................................................................................................................O.............................OOOO...OOOO.....
.OOOO.O.O...O.O.OOOO.............O........O...O.O.O...........................................................................................................................................................................................................................................................OO.O.....................................O..........
.....OO..O.O..OO..........................O...O..OOO.........................................................................................................................................................................................................................................................OOO.......................................O..........
.....O...O.O...O..............................OO.O.............................................................................................................................................................................................................................................................O.OO...............................................
...........................................OO.OO...............................................................................................................................................................................................................................................................OO.................................................
.....O....O....O.................................O.............................................................................................................................................................................................................................................................OOO................................................
......OO.O.O.OO..................................OO.O..........................................................................................................................................................................................................................................................O..................................................
...............................................OO...O.........................................................................................................................................................................................................................................................OO.O................................................
................................................O..............................................................................................................................................................................................................................................................O..................................................
...............................................O...O..........................................................................................................................................................................................................................................................OO..................................................
................................................O..O....................................................................................................................................................................................................................................................O.........................................................
................................................O........................................................................................................................................................................................................................................................O...O....................................................
..................................................OO......O.O..........................................................................................................................................................................................................................................OOO....O...................................................
..........................................................OO..................................................................................................................................................................................................................................................O...................................................
..................................................OO.......O......................................................................................................................................................................................................................................................................................................
...................................................O...............................................................................................................................................................................................................................................................................O.O............................
............................O......................................................................................................................................................................................................................................................................................................OO.............................
..........................O.O......................OO...............................................................................................................................................................................................................................................................................O.............................
...........................OO.....................................................................................................................................................................................................................................................................................................................................
.....................................................................................................................................................................................................................................................................................................................O............................................
......................................................................................................................................................................................................................................................................................................................O...........................................
.............................................O.O....................................................................................................................................................................................................................................................................OOO...........................................
.............................................OO...................................................................................................................................................................................................................................................................................................................
..............................................O...................................................................................................................................................................................................................................................................................................................
.....................................................................................................................................................................................OOO..............................................................................................................................O.O.........................................
.........................................O...........................................................................................................................................O................................................................................................................................OO..........................................
.......................................O.O............................................................................................................................................O................................................................................................................................O..........................................
........................................OO........................................................................................................................................................................................................................................................................................................................
....................................................O............O............O............O............O............O............O............O............O............O............O............O............O............O............O............O............O............O............O............O............O.........................................
....................................................OO...........OO...........OO...........OO...........OO...........OO...........OO...........OO...........OO...........OO...........OO...........OO...........OO...........OO...........OO...........OO...........OO...........OO...........OO...........OO...........OO........................................
...................................................O.O..........O.O..........O.O..........O.O..........O.O..........O.O..........O.O..........O.O..........O.O..........O.O..........O.O..........O.O..........O.O..........O.O..........O.O..........O.O..........O.O..........O.O..........O.O..........O.O..........O.O........................................
