!Name: rake-2c7-p105
!C Period-105 2c/7 rake by Adam P. Goucher, 6 Dec 2020.
!C This simplifies an earlier design by "iNoMed" based
!C on a puffer by "praosylen" and John Winston Garth.
!C Reduced slightly by Matthias Merzenich, 8 Dec 2020
!Source: jslife-moving
!
...........OOO.............OOO.....................................................
...........O.O....OO.OO....O.O.....................................................
......OO...OOO..OO.O.O.OO..OOO...OO................................................
.....O..O.......OO.....OO.......O..O...............................................
.....O..OO.....O..O...O..O.....OO..O...............................................
.......OOOO....O.........O....OOOO.................................................
.......O..O......O.....O......O..O.................................................
......O..O...O...OO...OO...O...O..O................................................
......OO.O......O.OO.OO.O......O.OO................................................
....OO.O.....O.O.........O.O.....O.OO......O............O..........................
..........................................OOO..........OOO.........................
........O.........OO.OO.........O........OOOOO........OOOOO........................
........O.......................O........OOOOO........OOOOO........................
........O.......................O.........O......OO......O.........................
...........................................OOO...OO...OOO..........................
.........OOO.....................OOO..........O.O..O.O.............................
.........O.......................O..............O..O...............................
......OO......................OO..............O......O.............................
......OO.O.O..................OO.O.O...........OOOOOO..............................
.....O...OO..................O...OO............O....O..............................
.....O.......................O.....................................................
.....O...O...................O...O.................................................
......O.O.OO..................O.O.OO...............................................
..........OO......................OO...............................................
.........O..O....................O..O.......OO..O..O..OO...........................
.........OO.O....................OO.O........OO......OO............................
..........OO......................OO..........O.OOOO.O.............................
.......O.......................O...............OOOOOO..............................
.......O.O.....................O.O.................................................
........OO.O....................OO.O......O....O.OO.O....O.........................
.........O.OOO...................O.OOO....O.....OOOO.....O.........................
...........O..O....................O..O...O......OO......O.........................
........OO..OO..................OO..OO......O..........O...........................
...........................................OO..........OO..........................
.................O............O...........O........................................
................OOO..........OOO.........OO........................................
...............OOOOO........OOOOO........O.........................................
...............OOOOO........OOOOO.........O........................................
................O......OO......O..........OO.......................................
.................OOO...OO...OOO...........OO.......................................
....................O.O..O.O.......................................................
......................O..O.................O.......................................
....................O......O..............O.O......................................
.....................OOOOOO...............O.O......................................
.....................O....O................O.......................................
.............................................O.....................................
.............................................O.....................................
.............................................O.....................................
...........................................OO....O.................................
.......................................O..O..OOOO.OO...............................
...................................OOOOO.....OOOO...O..............................
.................................OO...O.O.OOO....OO.O..............................
.................................O..........O......................................
.................................OOO..O...OO.....O.O...............................
......................................OO..OO..OO.O..O.O............................
...............................................O.OO..OO............................
..O............O................................O....O.............................
.OOO..........OOO..................................................................
OOOOO........OOOOO.................................................................
OOOOO........OOOOO..........................OO.....................................
.O......OO......O...........................OO.....................................
..OOO...OO...OOO...................................................................
.....O.O..O.O......................................................................
.......O..O........................................................................
.....O......O......................................................................
......OOOOOO.......................................................................
......O....O.......................................................................
.....................................................OO............................
.....................................................OO............................
.......................................................O...........................
.......................................................OO..........................
......................................................O.O..........................
.................................................................................OO
................................................................................O.O
.............................................OO...................................O
..............................................O....................................
...............................................OO.O................................
................................................OO.........O............O..........
.................................................O........O.O..........O.O.........
.........................OOO..........OOO................O...O........O...O........
...................................................O......O..O........O..O.........
.........................O.O..........O.O......OO.OO......O.O....OO....O.O.........
..........................O............O........OOO........OOO...OO...OOO..........
.................................................O............O......O.............
...........................OO.OOOOOO.OO......................O..OOOO..O............
.................................................................OO................
............................O..O..O..O........................OOO..OOO.............
.............................OOOOOOOO................OO............................
................................OO...................OO............................
.............................OO....OO..............................O............O..
...................................................................O............O..
................O...............O.................................O.O..........O.O.
...............OOO....O...O....OOO.................................O............O..
..............OO.OO..OOO.OOO..OO.OO...........................O....O............O..
..........OOOOOOOOOOOO.O.O.OOOOOOOOOOOO......................O.O....O...OOOO...O...
.........O..OOOOO.OO.........OO.OOOOO..O....................OO..O.......OOOO.......
.........OO.O.OO...O.........O...OO.O.OO.......................OO...OOOO....OOOO...
.........O...OOO...O..O...O..O...OOO...O.......................OO..................
.........O..O.OO...OO.O...O.OO...OO.O..O.......................OO.....O......O.....
..........O.OOO.....O..O.O..O.....OOO.O.....................O..........OO..OO......
...........O.O.....O.OOO.OOO.O.....O.O.......OO.............OOO....................
..........OOO.......................OOO......OO.............OO.O...................
..............................................................OOO..................
............O.......................O.........................OOO..................
............O.......................O..............................................
..............O.......................O............................................
.............OO......................OO......OO...............O....................
.............................................OO.............OO.....................
...........OO......................OO........................O..O..................
..........OO..O...................OO..O.......................OOO..................
.........O.O.....................O.O..........................O..O.................
...........O.......................O............................O..................
........O..O...O................O..O...O......................O.O..................
........O.O..O.O................O.O..O.O.....................O.O.O.................
..............OO......................OO...................OOO.O.O.................
...............OO......................OO..........................................
...............OOO.....................OOO.................OO......................
............OO..O...................OO..O............OO...O.O.O....................
............O..O....................O..O.............OO...O.O..OO..................
............O.......................O.........................OOO..................
...............O.......................O...........................................
...............OO......................OO..................OOO.....................
............OO.O....................OO.O.................OO........................
.............OOO.OO..................OOO.OO..............OOO...O...................
...............OOO.....................OOO...............OO..O.O...................
..........................................................O...O....................
..........................................................O........................
