!Name: ships-c4d-tags
!C c/4 diagonal tagalongs.
!C [Editor's note: This file is out of date, and mostly pointless.]
!C
!C The numbers indicate the relative distance between
!C the sparks.
!C Jason Summers
!C [version 1999.10.19]
!Source: jslife-moving
!
....................................O................................O...........................................O........................................O.......................................O.....................................................O..............................................................................................................................................................
........................OO.........OO....................OO.........OO...............................OO.........OO............................OO.........OO...........................OO.........OO.........................................OO.........OO..............................................................................................................................................................
....O...O..............OO...O......O.O..................OO...O......O.O.............................OO...O......O.O..........................OO...O......O.O.........................OO...O......O.O.......................................OO...O......O.O.............................................................................................................................................................
.........................O.OO...............OOO...........O.OO...............OOO......................O.OO...............OOO...................O.OO...............OOO..................O.OO...............OOO................................O.OO...............OOO....................................................................................................................................................
....O...O..................OOO.....O.O....OO.OO.............OOO.....O.O....OO.OO........................OOO.....O.O....OO.OO.....................OOO.....O.O....OO.OO....................OOO.....O.O....OO.OO..................................OOO.....O.O....OO.OO....................................................................................................................................................
....................OO.....O......OO.O.O.O...........OO.....O......OO.O.O.O......................OO.....O......OO.O.O.O...................OO.....O......OO.O.O.O..................OO.....O......OO.O.O.O................................OO.....O......OO.O.O.O.........................................................................................................................................................
....O.O.O..........OO........OOO.O......O.OO........OO........OOO.O......O.OO...................OO........OOO.O......O.OO................OO........OOO.O......O.OO...............OO........OOO.O......O.OO.............................OO........OOO.O......O.OO.......................................................................................................................................................
....................O.O.......OO.......O.............O.O.......OO.......O........................O.O.......OO.......O.....................O.O.......OO.......O....................O.O.......OO.......O..................................O.O.......OO.......O...........................................................................................................................................................
........O...........OOO.......OO.....OO..............OOO.......OO.....OO.........................OOO.......OO.....OO......................OOO.......OO.....OO.....................OOO.......OO.....OO...................................OOO.......OO.....OO............................................................................................................................................................
....................OO..........OOOOO................OO..........OOOOO...........................OO..........OOOOO........................OO..........OOOOO.......................OO..........OOOOO.....................................OO..........OOOOO..............................................................................................................................................................
........O.............O.O..............................O.O.........................................O.O......................................O.O.....................................O.O...................................................O.O..........................................................................................................................................................................
........................O.O................O.............O.O...........OOO...........................O.O......................................O.O.....................................O.O...................................................O.O........................................................................................................................................................................
..........................OOO.......OOO...OO...............OOO.......OO.OOO.O..........................OOO...OO.....O...........................OOO...OO...OOO..........................OOO...OO...OOO........................................OOO...OO...OOO...........................................................................................................................................................
..........................O.........O.....O.O..............O.......O..O..OO.OO.........................O....OO.O..OO.O..........................O....OO....OO.O.........................O....OO....OO.O.......................................O....OO....OO.O..........................................................................................................................................................
.........................O............OO..................O.......OOO.O.....OO........................O......O..O.OOO.O........................O......O.OO...OO........................O......O.OO...OO......................................O......O.OO...OO..........................................................................................................................................................
....................O.OO.O....O........OOOOO.........O.OO.O....O..O..........OO..................O.OO.O....O...OOOOO......................O.OO.O....O..OO....OO...................O.OO.O....O..OO....OO.................................O.OO.O....O..OO....OO..........................................................................................................................................................
...................OO.OO.O.............OO...........OO.OO.O........O.O..........................OO.OO.O........O.O.......................OO.OO.O........OO...O...................OO.OO.O........OO...O.................................OO.OO.O........OO...O...........................................................................................................................................................
...................O.O....O....OOO......OO..........O.O....O....OO.OO.O......O..O...............O.O....O..........O.OO.O....OO...........O.O....O.....OOO.OO.OO.OO..OOO..........O.O....O.....OOO.OO.OO.OO..OOO........................O.O....O.....OOO.OO.OO.OO..OOO..................................................................................................................................................
........................OO.....OO....OO.O..O.............OO.....O.OOO........OOOO..OO................OO......OO...OO.O.OO...O.O...............OO......OOO..O..O.....O.................OO......OOO..O..O.....O...............................OO......OOO..O..O.....O....................................................................................................................................................
........................O...O...O.O..O...................O...O.OO.O........OOO.OO.OO.................O...O...OO.....O...O...O.................O...O..O.O..O.O..OO.....O...............O...O..O.O..O.O..OO.....O.............................O...O..O.O..O.O..OO.....O..................................................................................................................................................
.......................O...O.....OO...O.O...............O...O.............OO...O.O..................O...O....O.OOOO.......OO.................O...O....O...OO.......O.................O...O....O...OO.......O...............................O...O....O...OO.......O.....................................................................................................................................................
..................................O...O..........................O.......OOOO..O..............................OOO.OO......OOO.O........................O..........OOOOOO.......................O..........OOOOOO.....................................O..........OOOOOO.................................................................................................................................................
.......................O..O.....O.O.OOO.................O..O............OO......O..O................O..O............O.........OO.............O..O.........OO.........O...............O..O.........OO.........O.............................O..O.........OO.........O...................................................................................................................................................
......................OO.O.....OO.O.O..................OO.O......OOO.....O.OO.......O..............OO.O...........O.O.....OO.OOO............OO.O...........OO........OOO.O..........OO.O...........OO........OOO.O........................OO.O...........OO........OOO.O...............................................................................................................................................
......................O........O.O.....................O..........OOO..OO..OO....OO................O..............O............OOO..........O........................OO....O........O........................OO....O......................O........................OO....O.............................................................................................................................................
.....................OO...............................OO...........O..O..O.....O..................OO..................O......O....O........OO................OO.O.....OO...O.......OO................OO.O.....OO...O.....................OO................OO.O.....OO...O.............................................................................................................................................
.....................O................................O.............O.O.O.O..OO.OOO...............O..................OO.......O....O.......O.................OO.O.......OOO.OO.....O.................OO.O.......OOO......................O.................OO.O.......OOO..............................................................................................................................................
......................O................................O.............O........OO...................O..............OO..O.............O.......O.............OOO.O............O........O.............OOO.O...................................O.............OOO.O..........................................................................................................................................................
.........................................................................OO...OO.OO...............................O...OOOO..........O.....................O.....O.O.........OO....................O.....O.O....O........................................O.....O.O........OO............................................................................................................................................
.......................................................................O.O.........O..............................O.O.O.OOO.....O..O.......................O..OOO..O....OO.........................O..OOO..O.OO.OOOOO....................................O..OOO..O......OOO............................................................................................................................................
.......................................................................O.O.OOO...O..O.................................O.O.O....O.O.............................OOO.....O..O............................OOO....OO.OOO.........................................OOO.......OOOO.O..........................................................................................................................................
......................................................................O...........O......OOO...............................O..O..................................O....O..................................O.....O...OO.O........................................O.....OO......OO........................................................................................................................................
.......................................................................OO...........OOO....OO...........................O..O..O..O...............................O.....O.O...............................O.....O..O.O..........................................O.....OO.....OO.........................................................................................................................................
.....................................................................................OOO.O.O...............................O...O..................................O.......................................O...OO....O.O.........................................O....O.O..O.OO.......OO................................................................................................................................
............................................................................................O............................OO.O......................................O..O....................................O.OOO..O..O.....OOO...................................O...OOOOO..O.......OO.O...............................................................................................................................
.....................................................................................O.O...................................O.O......................................OO.........................................O.OOO..O...O..........................................OO...O..OO.....O..................................................................................................................................
....................................................................................OO.O...................................O.O..................................................................................OO....O...OO..OO.....................................OOO.O...O....OO.O.................................................................................................................................
.....................................................................................O..............................................................................................................................O.OO..O.....O.....................................O...OO.OOOO.OOO.O................................................................................................................................
...................................................................................OO.O..............................................................................................................................O.OOO...O..O...........................................O.OOO......................................................................................................................................
......................................................................................O...................................................................................................................................O...............................................OO....O...O..................................................................................................................................
....................................................................................OO...............................................................................................................................OO.......OO..............................................O.......O................................................................................................................................
.........................................................................................................................................................................................................................O.....O..O..O...............................................OOO...............................................................................................................................
...................................................................................................................................................................................................................OO...O.....O....OOOO.....................................O.O.....O..................................................................................................................................
...................................................................................................................................................................................................................OO.O......O...O.OOOO.....................................OO.....OO....O.............................................................................................................................
.....................................................................................................................................................................................................................OO......O.OO...........................................O.O...O......OO............................................................................................................................
.....................................................................................................................................................................................................................O..OO..O..O.........................................OO.O.O..O.O.O...OO............................................................................................................................
......................................................................................................................................................................................................................OO.O.O..OO......O.................................OO.OO.OOO..O...................................................................................................................................
..........................................................................................................................................................................................................................O.OOOO....OO....................................O.OO.O..O....................................................................................................................................
.............................................................................................................................................................................................................................OO......O..........................................O.O....................................................................................................................................
............................................................................................................................................................................................................................O.....OO.O..............................................O..................................................................................................................................
............................................................................................................................................................................................................................OOO...OO...............................................O.O.................................................................................................................................
............................................................................................................................................................................................................................OOOOO..O...................................................................................................................................................................................
............................................................................................................................................................................................................................OOOOO......................................................................................................................................................................................
............................................................................................................................................................................................................................O...O.O....................................................................................................................................................................................
................................................................................................................................................................................................................................................................................................O......................................................................................................................
.....................................O.............................................O....................................O......................................O.........................................O...........................................O..............................OO.........OO......................................................................................................................
....O.O.O................OO.........OO.................................OO.........OO........................OO.........OO..........................OO.........OO.............................OO.........OO...............................OO.........OO.............................OO...O......O.O.....................................................................................................................
........................OO...O......O.O...............................OO...O......O.O......................OO...O......O.O........................OO...O......O.O...........................OO...O......O.O.............................OO...O......O.O..............................O.OO...............OOO............................................................................................................
....O.....................O.OO...............OOO........................O.OO...............OOO...............O.OO...............OOO.................O.OO...............OOO....................O.OO...............OOO......................O.OO...............OOO.......................OOO.....O.O....OO.OO............................................................................................................
............................OOO.....O.O....OO.OO..........................OOO.....O.O....OO.OO.................OOO.....O.O....OO.OO...................OOO.....O.O....OO.OO......................OOO.....O.O....OO.OO........................OOO.....O.O....OO.OO.......................O......OO.O.O.O.................................................................................................................
....O.O.O...................O......OO.O.O.O...............................O......OO.O.O.O......................O......OO.O.O.O........................O......OO.O.O.O...........................O......OO.O.O.O.............................O......OO.O.O.O....................OO........OOO.O......O.OO...............................................................................................................
....................OO........OOO.O......O.OO.....................OO........OOO.O......O.OO............OO........OOO.O......O.OO..............OO........OOO.O......O.OO.................OO........OOO.O......O.OO...................OO........OOO.O......O.OO.................OO..........OO.......O...................................................................................................................
........O..........OO..........OO.......O........................OO..........OO.......O...............OO..........OO.......O.................OO..........OO.......O....................OO..........OO.......O......................OO..........OO.......O......................O.O........OO.....OO....................................................................................................................
....................O.O........OO.....OO..........................O.O........OO.....OO.................O.O........OO.....OO...................O.O........OO.....OO......................O.O........OO.....OO........................O.O........OO.....OO.......................OOO..........OOOOO......................................................................................................................
....O.O.O...........OOO..........OOOOO............................OOO..........OOOOO...................OOO..........OOOOO.....................OOO..........OOOOO........................OOO..........OOOOO..........................OOO..........OOOOO.........................OO......................................................................................................................................
....................OO............................................OO...................................OO.....................................OO........................................OO..........................................OO...........................................O.O...............OO..................................................................................................................
......................O.O...........................................O.O..................................O.O....................................O.O.......................................O.O.........................................O.O..........................................................OOO.................................................................................................................
...................................................................................................................................................................................................................................................................................O.O..........OO...O.................................................................................................................
........................O.O.......OO..................................O.O.......OO.........................O.O.......OO...........................O.O.......OO..............................O.O.......OO................................O.O.......OO.................................OOO.......OO....OOO...............................................................................................................
..........................OOO....O.O..OO................................OOO....O.O..OO.......................OOO....O.O..OO.........................OOO....O.O..OO............................OOO....O.O..OO..............................OOO....O.O..OO.............................O.........OO......O...............................................................................................................
..........................O......OO.O.O.................................O......OO.O.O........................O......OO.O.O..........................O......OO.O.O.............................O......OO.O.O...............................O......OO.O.O.............................O...........OOOO...................................................................................................................
.........................O......O..OOOO.O..............................O......O..OOOO.O.....................O......O..OOOO.O.......................O......O..OOOO.O..........................O......O..OOOO.O............................O......O..OOOO.O......................O.OO.O....O.............................................................................................................................
....................O.OO.O....O.OO..OO............................O.OO.O....O.OO..OO...................O.OO.O....O.OO..OO.....................O.OO.O....O.OO..OO........................O.OO.O....O.OO..OO..........................O.OO.O....O.OO..OO........................OO.OO.O..................................................................................................................................
...................OO.OO.O......OO.....O.O.......................OO.OO.O......OO.....O.O..............OO.OO.O......OO.....O.O................OO.OO.O......OO.....O.O...................OO.OO.O......OO.....O.O.....................OO.OO.O......OO.....O.O....................O.O....O....OOOOO...O....................................................................................................................
...................O.O....O.....OO...............................O.O....O.....OO..............O.......O.O....O.....OO..............O.........O.O....O.....OO............OO.............O.O....O.....OO............OO...............O.O....O.....OO.................................OO.....OOO...OO..O.O................................................................................................................
........................OO......OO.OO....OO...........................OO......OO.OO....OO....OO............OO......OO.OO....OO....OO..............OO......OO.OO....OO.OO.OOO................OO......OO.OO....OO.OO.OOO..................OO......OO.OO....OO.OOOOO..................O...O.OOO.O.OO.O.OOOOO..............................................................................................................
........................O...O......OOO.....O..........................O...O......OOO.....O...O.O...........O...O......OOO.....O...O.O.............O...O......OOO.....O.OO...O...............O...O......OOO.....O.OO...O.................O...O......OOO.....O.OOO..................O...O..OO...O........O.O.............................................................................................................
.......................O...O.......OO.......OO.......................O...O.......OO.......OO.O............O...O.......OO.......OO.O..............O...O.......OO.......O....................O...O.......OO.......O......................O...O.......OO..........O...........................O......OOO.....O............................................................................................................
......................................O..........O..................................O..OOO...OO..........................O..OOO...OO............................O..OOO....................................O..OOO......................................O.......O.O.................O..O............OO.O....OO...........................................................................................................
.......................O..O...........O.O....O.OOOO..................O..O...........O.O...O..O............O..O...........O.O...O..O..............O..O...........O.O...O.OOO................O..O...........O.O...O.OOO..................O..O...........O.O.....O.O................OO.O......OOO.......OO...OO.....OO....................................................................................................
......................OO.O.....................O..O..O..............OO.O.................................OO.O...................................OO.O...................OO..O..............OO.O...................OO..O................OO.O...................O...................O.................O...O...O.....O.O...................................................................................................
......................O.................O.O.........O.O.............O.................O...OOO.O.OO.......O.................O...OOO.O.OO.........O...............OO....OOOO................O...............OO....OOOO..................O...............OO........O...............OO.................O...OOO.......O.....................................................................................................
.....................OO............................................OO..................O.O...OO.O.......OO..................O.O...OO.O.........OO...............O.....O.OOO..............OO...............O.....O.OOO................OO...............OO...OOO..O.O.............O...................OOO.OO........O.O..................................................................................................
.....................O....................O.O........OO.OO.........O.................OO....OOOO.O.......O.................OO....OOOO.O.OO......O...............OO.O..O..........O........O...............OO.O..O.....................O...............OOO..OO..OOO.O.OO.O.........O.....................O.OO..O....OOO..................................................................................................
......................O...................O.O........OO...O.........O...............OOOO....O............O...............OOOO....O..............O...............O.O.OOO.O.O...O.O.O.......O...............O.O.OOO.O.O.................O...............OO.O...O..O...O..OOO............................O.O.OO.O......O..................................................................................................
...........................................O...........OO...........................O....................................O......................................O...OO....OO.OOO..O.......................O...OO...OOO....OOOO...............................OO.OO.O.O.O...................................O..OO.O.....................................................................................................
..........................................O...............OO..............................OO...................................OO................................OO.......OO....OO.........................OO.......OOOOOOO.OOO...............................OO...O.OOO.....................................OO.O..O.O.O...............................................................................................
..........................................O.O..............................................OO...................................OO.........................................O.OO..........................................OOO....................................O..OOOO.........................................O.OO.O.................................................................................................
............................................O..............................................OO...................................O.O............................................................................................................................O.OO.O.O......................................O..OOOO...O.O.............................................................................................
............................................OO...................................................................................O.......................................O.O.........................................O.O......................................OO.OO....................................OO....OOO..O....O.O.............................................................................................
.............................................O.OO........................................................................................................................O...........................................OO.......................................OO....OO.................................O..O.OOOO.OOO....O..............................................................................................
.................................................O.......................................................................................................................OOO..................................................................................OO.O.....................................O...O......OO...O...............................................................................................
..............................................OO..........................................................................................................................O.O.......................................OOOOO......................................OO........................................O..............O..............................................................................................
..............................................OO......................................................................................................................................................................OOO.................................................................................OOOO.........................................................................................................
................................................O....................................................................................................................................................................O.O..................................................................................OO.O.O.......................................................................................................
.................................................OO...................................................................................................................................................................O..........................................................................................OO....................................................................................................
...............................................................................................................................................................................................................................................................................................................OOO.O...................................................................................................
................................................................................................................................................................................................................................................................................................................O..O...................................................................................................
..................................................................................................................................................................................................................................................................................................................O....................................................................................................
......................................O..................................O.............................................................................................................................................................................................................................................................................................................................................
....O.O.O.................OO.........OO......................OO.........OO.........................................O..............................................................................................................................................................................................................................O..........OO......................O..........OO.....................
.........................OO...O......O.O....................OO...O......O.O............................OO.........OO...........................................................................................................................................................................................................O.O.O.............OOOOO......OO......................OOOOO......OO......................
....O......................O.OO...............OOO.............O.OO...............OOO..................OO...O......O.O............................................................................................................................................................................................................................O..OO........O.......OO............O..OO........O.......OO............
.............................OOO.....O.O....OO.OO...............OOO.....O.O....OO.OO....................O.OO...............OOO.................................................................................................................................................................................................O...................OO.O.....OO......OOO.O.............OO.O.....OO......OOO.O...........
....O.O.O....................O......OO.O.O.O....................O......OO.O.O.O...........................OOO.....O.O....OO.OO..............................................................................................................................................................................................................................OO...O.OO..........................OO...O.OO...............
...............................OOO.O......O.OO....................OOO.O......O.OO.........................O......OO.O.O.O......................................................................................................................................................................................................O.O.O..................O.O......OO........................O.O......OO...................
....O...O...........OO..........OO.......O.............OO..........OO.......O...............................OOO.O......O.OO.................................................................................................................................................................................................................OO.............OOO.O....O..........OO.............OOO.O....O...............
...................OO...........OO.....OO.............OO...........OO.....OO.....................OO..........OO.......O........................................................................................................................................................................................................O...O.......OO...........OOO...O....O..........OO...........OOO...O....O................
....O.O.O...........O.O...........OOOOO................O.O...........OOOOO......................OO...........OO.....OO......................................................................................................................................................................................................................O.O..........O.......O.............O.O..........O.......O..................
....................OOO................................OOO.......................................O.O...........OOOOO...........................................................................................................................................................................................................O.O.O........OOO..........O......O..............OOO..........O......O...................
....................OO.................................OO........................................OOO........................................................................................................................................................................................................................................OO.................................OO......................................
......................O.O................................O.O...............OO....................OO...........................................................................................................................................................................................................................................O.O...........O....................O.O...........O.......................
...................................OO.O................................O...O.O.....................O.O.....................................................................................................................................................................................................................................................O...........................................................
........................O.O.......OOO...O..................O.O.......OO.O..O.O..................................OO.O............................................................................................................................................................................................................................O.O.......OOO......................O.O........OOO......................
..........................OOO....OO.....O....................OOO....O...OOO..........................O.O.......OOO...O............................................................................................................................................................................................................................OOO................................OOO.....O..O......................
..........................O......O...OOO.....................O.....O....OO.O.O.........................OOO....OO.....O............................................................................................................................................................................................................................O.....O..O.........................O......O.OOO.OOOO.................
.........................O......O.OOO.......................O......O...O...O..O........................O......O...OOO.OO.........................................................................................................................................................................................................................O.....OO.O.........................O......O.O......O.O.O..............
....................O.OO.O....O.O..OO..O.O.............O.OO.O....O.O.OO.....O.O.......................O......O.OOO....OOO...................................................................................................................................................................................................................O.OO.O....O.O......................O.OO.O....O.O.O.......O.................
...................OO.OO.O......O....O.O.O............OO.OO.O.........OOO....OOO.................O.OO.O....O.O..OO......OO.................................................................................................................................................................................................................OO.OO.O............................OO.OO.O......OOO..........OO.............
...................O.O....O.....O....O....OO..........O.O....O.........O.....O.OO...............OO.OO.O......O....O.....O..OO..............................................................................................................................................................................................................O.O....O...........................O.O....O................OO.O.O...........
........................OO.......O...O.OOOO..O.............OO.....OO.O.O......OOOO..............O.O....O.....O....O.......OO.O..................................................................................................................................................................................................................OO.................................OO........O.......OO....O...........
........................O...O.....O.OO..O....O.............O...O..O.OO..........O....................OO.......O...........OO.O..................................................................................................................................................................................................................O...O..............................O...O.....O......O..O...OOO.........
.......................O...O...........O.O.OO.............O...O...O...O.OO........O..................O...O.....O.O.........O...................................................................................................................................................................................................................O...O..............................O...O......OO....O..O......O.........
........................................O..............................OOOO.......O.O...............O...O.......O...........O.O..............................................................................................................................................................................................................................................................O.O..O..........OOO.......
.......................O..O............O..................O..O........................OOO......................................................................................................................................................................................................................................................O..O...............................O..O........O..OO.O..........O.......
......................OO.O.............O..O..............OO.O.........................OOOO..........O..O.........OOO..........OO..............................................................................................................................................................................................................OO.O...............................OO.O............O.O...........OOO.....
......................O..................O...............O................OOO........O....O........OO.O..........OOO..........................................................................................................................................................................................................................O..................................O............O.O...............OO.....
.....................OO.................................OO................OOO......O..O.O..........O..............OO.O.......O.O.............................................................................................................................................................................................................OO.................................OO..............OO.....................
.....................O..................................O...................OOO....O.O..OO.O......OO........................OO.O.............................................................................................................................................................................................................O..................................O..............................O.......
......................O..................................O.........................O.O....OO......O................OOO.O...O..................................................................................................................................................................................................................O..................................O...............OOO...........OOO.....
..............................................................................OOOO...OO............O...................O...OOO.O...................................................................................................................................................................................................................................................................O.............O.....
...............................................................................OOO.........O............................O..O.OO.O..................................................................................................................................................................................................................................................................OOO.................
..............................................................................OO......O...OOO............................O.....OO......O.............................................................................................................................................................................................................................................................O...........OO.OO.
.................................................................................O.......O.OO...................................OO.....OOO...........................................................................................................................................................................................................................................................OOO..OO.......OO.O
...............................................................................O.O......OO.......................................O..OOO..O.............................................................................................................................................................................................................................................................OO..O.......OO.O
.................................................................................O.....O.........................................O..O..OO..............................................................................................................................................................................................................................................................OO..OO.O........
..................................................................................O...OOOO........................................O.OO........................................................................................................................................................................................................................................................................O.....O.O
...................................................................................O.............................................OO............................................................................................................................................................................................................................................................................OO.....O
....................................................................................O.OO.........................................OO...........................................................................................................................................................................................................................................................................OOO.O...O
................................................................................................................................O.............................................................................................................................................................................................................................................................................O........
.................................................................................................................................O.O...........................................................................................................................................................................................................................................................................OO.OOO..
................................................................................................................................O..O...................................................................................................................................................................................................................................................................................
..................................................................................................................................O....................................................................................................................................................................................................................................................................................
...................................................................................................................................................................................................................................................................................................................................................O..........OO.......................................................
...............................................................................................................................................................................................................................................................................................................................O.O.O..............OOOOO......OO........................................................
..................................................................................................................................................................................................................................................................................................................................................O..OO........O.......OO..............................................
...................................................................................................................................................................................................................................................................................................................................O................OO.O.....OO......OOO.O.............................................
.............................................................................................................................................................................................................................................................................................................................................................OO...O.OO.................................................
...................................................................................................................................................................................................................................................................................................................................O...................O.O......OO.....................................................
............................................................................................................................................................................................................................................................................................................................................................OOO.O....O.................................................
...................................................................................................................................................................................................................................................................................................................................O........OO...........OOO...O....O..................................................
.......................................O...................................O...................................O...................................O.......................................................................................................................................................................................OO.............O.......O....................................................
....O.O.O..................OO.........OO.......................OO.........OO.......................OO.........OO.......................OO.........OO...............................................................................................................................................................................O........O.O...........O......O.....................................................
..........................OO...O......O.O.....................OO...O......O.O.....................OO...O......O.O.....................OO...O......O.O.......................................................................................................................................................................................OOO........................................................................
........O...................O.OO...............OOO..............O.OO...............OOO..............O.OO...............OOO..............O.OO...............OOO..............................................................................................................................................................................OO...............O.........................................................
..............................OOO.....O.O....OO.OO................OOO.....O.O....OO.OO................OOO.....O.O....OO.OO................OOO.....O.O....OO.OO................................................................................................................................................................................O.O......................................................................
........O.....................O......OO.O.O.O.....................O......OO.O.O.O.....................O......OO.O.O.O.....................O......OO.O.O.O....................................................................................................................................................................................................OOO.O.....................................................
................................OOO.O......O.OO.....................OOO.O......O.OO.....................OOO.O......O.OO.....................OOO.O......O.OO.....................................................................................................................................................................................O.O.........O..O..O....................................................
........O........................OO.......O..........................OO.......O..........................OO.......O..........................OO.......O...........................................................................................................................................................................................OOO........O..O.O....................................................
....................OO...........OO.....OO..............OO...........OO.....OO..............OO...........OO.....OO..............OO...........OO.....OO............................................................................................................................................................................................O...........OOOO.....................................................
........O..........OO..............OOOOO...............OO..............OOOOO...............OO..............OOOOO...............OO..............OOOOO.............................................................................................................................................................................................O.......O.....OO......................................................
....................O.O.................................O.O.................................O.O.................................O.O.........................................................................................................................................................................................................O.OO.O....O.O.O....OO......................................................
....................OOO.................................OOO.................................OOO.................................OOO........................................................................................................................................................................................................OO.OO.O......O..O..O..OO....................................................
....................OO..................................OO..................................OO..................................OO.........................................................................................................................................................................................................O.O....O.....OO.OOO.........................................................
......................O.O..........O......................O.O..........O......................O.O..........O......................O.O..........OO...............................................................................................................................................................................................OO........OOOO...O.....................................................
..................................OOO.................................OOO.................................OOO.................................OO.O....OOO.......................................................................................................................................................................................O...O...O..O..O.O......................................................
........................O.O......OO...OOOOO.................O.O......OO...OOOOO.................O.O......OO...OOOOO.................O.O........O.O....O........................................................................................................................................................................................O...O.....OO...O........................................................
..........................OOO...OO.....O..O...................OOO...OO.....O..O...................OOO...OO.....O..O...................OOO...OOOOO........O.............................................................................................................................................................................................................................................................
..........................O....OO.....OO......................O....OO.....OO......................O....OO.....OO......................O....OO...OO.....O..OO...................................................................................................................................................................................O..O....................................................................
.........................O......OO.....O..O..................O......OO.....O..O..................O......OO.....O..O..................O......O....OO.....O.OO..................................................................................................................................................................................OO.O.....................................................................
....................O.OO.O....O..O...OO.................O.OO.O....O..O...OO.................O.OO.O....O..O...OO.................O.OO.O....O..O.........O..O...................................................................................................................................................................................O........................................................................
...................OO.OO.O.......OO.O....O.............OO.OO.O.......OO.O......OO..........OO.OO.O.......OO.O......OO..........OO.OO.O..........OO.O.OOO..OO.................................................................................................................................................................................OO........................................................................
...................O.O....O.........O.OO..O............O.O....O.........O.OO...O...O.......O.O....O.........O.OO...O...O.......O.O....O...........OO..OO.....................................................................................................................................................................................O.........................................................................
........................OO......O...OO..OO..................OO......O...OO..O..OOO..OO..........OO......O...OO..O..OOO..OO..........OO............O...OO...O.O................................................................................................................................................................................O........................................................................
........................O...O...........O.O.................O...O................O..............O...O................O..............O...O..........OOO.......OO........................................................................................................................................................................................................................................................
.......................O...O.....OOO.......................O...O.....OOO...OOO....OO.O.........O...O.....OOO...OOO....OO.O.........O...O....OOO...O..O.O....OO.........................................................................................................................................................................................................................................................
..........................................................................OO......OOO.........................OO......OOO...................O..OO...OOOOO...O..O.......................................................................................................................................................................................................................................................
.......................O..O................................O..O...........OO...O.O..O..........O..O...........OO...O.O..O..........O..O......O..O..OOO.OO....OO........................................................................................................................................................................................................................................................
......................OO.O................................OO.O..............OOOOO.O...........OO.O..............OOOOO..O..........OO.O.........OOO.....................................................................................................................................................................................................................................................................
......................O...................................O.................O...O.............O.................O...O.OOO.........O................OO..................................................................................................................................................................................................................................................................
.....................OO..................................OO.................O.O..............OO.................O.O....OO........OO....................................................................................................................................................................................................................................................................................
.....................O...................................O...................OOO.............O...................OOO.............O.................O.OO.O..............................................................................................................................................................................................................................................................
......................O...................................O..................O................O..................O................O....................O.O..........................................................................................................................................................................................O..........OO......................................................
.....................................................................................................................................................OO........................................................................................................................................................................O.O.O...............OOOOO......OO.......................................................
...................................................................................................................................................................................................................................................................................................................................................O..OO........O.......OO.............................................
...............................................................................................................................................................................................................................................................................................................................O...O.................OO.O.....OO......OOO.O............................................
..............................................................................................................................................................................................................................................................................................................................................................OO...O.OO................................................
...............................................................................................................................................................................................................................................................................................................................O.O.O....................O.O......OO....................................................
.............................................................................................................................................................................................................................................................................................................................................................OOO.O....O................................................
...............................................................................................................................................................................................................................................................................................................................O...O......................OOO...O....O.................................................
............................................................................................................................................................................................................................................................................................................................................OO.............O.......O...................................................
........................................O...............................................O......................................................................................................................................................................................................................................O.O.O.......OO..............O......O....................................................
....O.O.O...................OO.........OO...................................OO.........OO...................................................................................................................................................................................................................................................O.O........................................................................
...........................OO...O......O.O.................................OO...O......O.O..................................................................................................................................................................................................................................................OOO...............O........................................................
....O...O....................O.OO...............OOO..........................O.OO...............OOO.........................................................................................................................................................................................................................................OO................OO.......................................................
...............................OOO.....O.O....OO.OO............................OOO.....O.O....OO.OO...........................................................................................................................................................................................................................................O.O...........OOO.O......................................................
....O.O.O......................O......OO.O.O.O.................................O......OO.O.O.O.............................................................................................................................................................................................................................................................OO...OO.....................................................
.................................OOO.O......O.OO.................................OOO.O......O.OO................................................................................................................................................................................................................................................O.O.......OO..O.OO.....................................................
....O...O.........................OO.......O......................................OO.......O......................................................................................................................................................................................................................................................OOO....OO..OO.O......................................................
..................................OO.....OO.......................................OO.....OO.......................................................................................................................................................................................................................................................O.....OO...OO.O......................................................
....O.O.O...........OO..............OOOOO...........................OO..............OOOOO........................................................................................................................................................................................................................................................O......O..OOOO.O......................................................
...................OO..............................................OO.......................................................................................................................................................................................................................................................................O.OO.O....OOO.OOOO.........................................................
....................O.O.............................................O.O....................................................................................................................................................................................................................................................................OO.OO.O.....O...............................................................
....................OOO.............................................OOO....................................................................................................................................................................................................................................................................O.O....O.....OOOOOO.........................................................
....................OO..................O...........................OO..................O.......................................................................................................................................................................................................................................................OO.......OO............................................................
......................O.O..............OO.O...........................O.O..............OO.O.....................................................................................................................................................................................................................................................O...O..................................................................
.......................................OO.O............................................OO.O....................................................................................................................................................................................................................................................O...O...................................................................
........................O.O..............O..............................O.O..............O.............................................................................................................................................................................................................................................................................................................................
..........................OOO.............OOO..OO.........................OOO..................................................................................................................................................................................................................................................................O..O....................................................................
..........................O...............OO.O.O..........................O...........OO..OO...O..............................................................................................................................................................................................................................................OO.O.....................................................................
.........................O.............OOO...O...........................O............OO..OOOOO...............................................................................................................................................................................................................................................O........................................................................
....................O.OO.O....O.......O..O...O..O...................O.OO.O....O......O.O...OO.O..............................................................................................................................................................................................................................................OO........................................................................
...................OO.OO.O.......O...OO.O........O.................OO.OO.O.......O..OO.O....O.OO..O..........................................................................................................................................................................................................................................O.........................................................................
...................O.O....O....OO.OO.......OOO.O.O.................O.O....O....OO.OOO.OOO....O.OO.O...........................................................................................................................................................................................................................................O........................................................................
........................OO.......OOOO.OO..O..O..O.......................OO.......OOO.O.OO.O.....O......................................................................................................................................................................................................................................................................................................................
........................O...O......O.....OO.OO......OOO.................O...O......OO...OOO......OO....................................................................................................................................................................................................................................................................................................................
.......................O...O.............OO.OO......O..................O...O...........OOO........O....................................................................................................................................................................................................................................................................................................................
.....................................O...OO..OO........O................................OO.........O...................................................................................................................................................................................................................................................................................................................
.......................O..O.........OO.O......OO.....O..OO.............O..O..........OO................................................................................................................................................................................................................................................................................................................................
......................OO.O..........O.OOOOO....OO.....O.OO............OO.O...........OO.........OOO.O..................................................................................................................................................................................................................................................................................................................
......................O............O.....OO..........O..O.............O..............OOO..O....O..O....................................................................................................................................................................................................................................................................................................................
.....................OO.............OO...O....OO.O.OOO..OO...........OO................OO.O...OO.O.....................................................................................................................................................................................................................................................................................................................
.....................O...................O......OO..OO...............O..................O...O..........................................................................................................................................................................................................................................................................................................................
......................O.........................O...OO...O.O..........O...................O............................................................................................................................................................................................................................................................................................................................
.................................................OOO.......OO...............................O.O.O......................................................................................................................................................................................................................................................................................................................
..........................................OOO...O..O.O....OO...................................O.......................................................................................................................................................................................................................................................................................................................
..........................................O..OO...OOOOO...O..O.........................................................................................................................................................................................................................................................................................................................................................
...........................................O..O..OOO.OO....OO..........................................................................................................................................................................................................................................................................................................................................................
.............................................OOO.......................................................................................................................................................................................................................................................................................................................................................................
.................................................OO....................................................................................................................................................................................................................................................................................................................................................................
.................................................O.OO.O................................................................................................................................................................................................................................................................................................................................................................
.....................................................O.O...............................................................................................................................................................................................................................................................................................................................................................
...................................................OO..................................................................................................................................................................................................................................................................................................................................................................
.........................................O........................................................O....................................................................................................................................................................................................................................................................................................................
....O.O.O....................OO.........OO............................................OO.........OO....................................................................................................................................................................................................................................................................................................................
............................OO...O......O.O..........................................OO...O......O.O...................................................................................................................................................................................................................................................................................................................
....O...O.....................O.OO...............OOO...................................O.OO...............OOO..........................................................................................................................................................................................................................................................................................................
................................OOO.....O.O....OO.OO.....................................OOO.....O.O....OO.OO..........................................................................................................................................................................................................................................................................................................
....O.O.O.......................O......OO.O.O.O..........................................O......OO.O.O.O...............................................................................................................................................................................................................................................................................................................
..................................OOO.O......O.OO..........................................OOO.O......O.OO.............................................................................................................................................................................................................................................................................................................
........O..........................OO.......O...............................................OO.......O.................................................................................................................................................................................................................................................................................................................
...................................OO.....OO................................................OO.....OO..................................................................................................................................................................................................................................................................................................................
....O.O.O............................OOOOO....................................................OOOOO....................................................................................................................................................................................................................................................................................................................
....................OO.......................................................OO........................................................................................................................................................................................................................................................................................................................................
...................OO.......................................................OO.........................................................................................................................................................................................................................................................................................................................................
....................O.O...............O.O....................................O.O.......................................................................................................................................................................................................................................................................................................................................
....................OOO............O.O...O...................................OOO...............OO.OO...................................................................................................................................................................................................................................................................................................................
....................OO............O.O.O...OO.................................OO..............OO.O.OO...................................................................................................................................................................................................................................................................................................................
......................O.O........O...........O.................................O.O..........OOO.O.O.O..................................................................................................................................................................................................................................................................................................................
................................OO.OO....OO...............................................OO..OO.O.....................................................................................................................................................................................................................................................................................................................
........................O.O........OO.....O..O...................................O.O......OOO.O..OO....................................................................................................................................................................................................................................................................................................................
..........................OOO..O...OOOO....O.O.....................................OOO....O.O...O.OO..OO...............................................................................................................................................................................................................................................................................................................
..........................O....O...O.......OO......................................O..........OOOO...O.................................................................................................................................................................................................................................................................................................................
.........................O.....OO.........OO......................................O.....OO....OOO.O..O.O...............................................................................................................................................................................................................................................................................................................
....................O.OO.O....O............O.....OO..........................O.OO.O....O.OO.......OOOO.................................................................................................................................................................................................................................................................................................................
...................OO.OO.O.......O.O.....OOOO....OOO........................OO.OO.O......O.O....O.......O..............................................................................................................................................................................................................................................................................................................
...................O.O....O.....O.O..O..OOO..OOO............................O.O....O......O.OOOOOO.OO...O..............................................................................................................................................................................................................................................................................................................
........................OO......O.....O......OO...O..............................OO......O.OOOOO.O....OOO..OOO.........................................................................................................................................................................................................................................................................................................
........................O...O....OO...O.......OO..O..............................O...O.......O............O.OOO........................................................................................................................................................................................................................................................................................................
.......................O...O.......OO..............OO...........................O...O.........OO..O......OO...O........................................................................................................................................................................................................................................................................................................
........................................OOO..O.OO..O..........................................O..OO..OOO..OO.O.........................................................................................................................................................................................................................................................................................................
.......................O..O..............OO.O..O.O...OO.........................O..O...............O...OO..O...........................................................................................................................................................................................................................................................................................................
......................OO.O...............OOOO.O.O..............................OO.O.....................O..............................................................................................................................................................................................................................................................................................................
......................O.................O..O.OO.......O.O......................O...................O..O.OO..O......OO..................................................................................................................................................................................................................................................................................................
.....................OO.................OOO.O..O..............................OO...................O.OO.OO..O.OOO..O.O.................................................................................................................................................................................................................................................................................................
.....................O.....................OO..O........O.OO.OO...............O.....................O.O..O....O....O...................................................................................................................................................................................................................................................................................................
......................O..................O..................O..................O.......................OOO....OOO.....O................................................................................................................................................................................................................................................................................................
.........................................O...O.O..........OO..OOO...................................OOOO....O..O.....O..O..............................................................................................................................................................................................................................................................................................
...............................................O................OO...................................O.....O...O.O...O..O..............................................................................................................................................................................................................................................................................................
................................................O..................OO................................O....OO...O..OOO..O...............................................................................................................................................................................................................................................................................................
.................................................O...............O.OO..........................................OO..O.O.................................................................................................................................................................................................................................................................................................
.................................................O.O.............O...O.........................................OO.O...O................................................................................................................................................................................................................................................................................................
..................................................................O...O...................................OO......O....................................................................................................................................................................................................................................................................................................
...................................................OO.................O...................................O.O..OO.O.....OO.............................................................................................................................................................................................................................................................................................
...................................................O......................................................O...O...O.OO.O.O.............................................................................................................................................................................................................................................................................................
..................................................OO.........................................................OO..O....O...OO...........................................................................................................................................................................................................................................................................................
...................................................OO........................................................O...O..OO.O.O..O..........................................................................................................................................................................................................................................................................................
....................................................................................................................OOOO.OO.O.O........................................................................................................................................................................................................................................................................................
.....................................................O........................................................OO....O.....OO..OO.......................................................................................................................................................................................................................................................................................
....................................................O..OO...........................................................O.OO.O....OO.......................................................................................................................................................................................................................................................................................
.....................................................O.OO...............................................................O..O...........................................................................................................................................................................................................................................................................................
.........................................................O............................................................O.OOOOO..........................................................................................................................................................................................................................................................................................
.......................................................O.O............................................................OOOO.OO..........................................................................................................................................................................................................................................................................................
.......................................................O...............................................................O.O.............................................................................................................................................................................................................................................................................................
........................................................O.O............................................................OO..............................................................................................................................................................................................................................................................................................
..........................................................O............................................................................................................................................................................................................................................................................................................................................................
..........................................O..........................................O.............................................O...................................................................................................................................................................................................................................................................................
O...O.O.O.....................OO.........OO..............................OO.........OO.................................OO.........OO...................................................................................................................................................................................................................................................................................
.............................OO...O......O.O............................OO...O......O.O...............................OO...O......O.O..................................................................................................................................................................................................................................................................................
O...O...O......................O.OO...............OOO.....................O.OO...............OOO........................O.OO...............OOO.........................................................................................................................................................................................................................................................................
.................................OOO.....O.O....OO.OO.......................OOO.....O.O....OO.OO..........................OOO.....O.O....OO.OO.........................................................................................................................................................................................................................................................................
O...O...O........................O......OO.O.O.O............................O......OO.O.O.O...............................O......OO.O.O.O..............................................................................................................................................................................................................................................................................
...................................OOO.O......O.OO............................OOO.O......O.OO...............................OOO.O......O.OO............................................................................................................................................................................................................................................................................
O...O...O...........................OO.......O.................................OO.......O....................................OO.......O................................................................................................................................................................................................................................................................................
....................................OO.....OO..................................OO.....OO.....................................OO.....OO.................................................................................................................................................................................................................................................................................
O...O.O.O.............................OOOOO......................................OOOOO.........................................OOOOO...................................................................................................................................................................................................................................................................................
....................OO.........................................OO............................................OO........................................................................................................................................................................................................................................................................................................
...................OO.........................................OO............................................OO.........................................................................................................................................................................................................................................................................................................
....................O.O...................O....................O.O...............OO..........................O.O...............OO......................................................................................................................................................................................................................................................................................
....................OOO.................OO.....................OOO...............O.O.OOO.....................OOO..............OO.......................................................................................................................................................................................................................................................................................
....................OO..................O..O.O.................OO................O..O.OOO....................OO.................O.O....................................................................................................................................................................................................................................................................................
......................O.O..............OOO.O...O.................O.O.................O.........................O.O.....................................................................................................................................................................................................................................................................................................
.....................................OO.O......O......................................OO.O........................................OOO..................................................................................................................................................................................................................................................................................
........................O.O.........O..O..OO.......................O.O................OO.........................O.O................OO.................................................................................................................................................................................................................................................................................
..........................OOO......O.......OO.O......................OOO...OO..........O..O.O......................OOO...OO.........OO..O..............................................................................................................................................................................................................................................................................
..........................O........O..O....O.........................O.....O.O......O..OO.O..O.....................O....OO...........O..O..............................................................................................................................................................................................................................................................................
.........................O...........O...O.OO.O.O...................O......O.O.....OO..O.O..O.....................O......O.O..........O.OO.............................................................................................................................................................................................................................................................................
....................O.OO.O....O.OOO.....OOO...O................O.OO.O....O.O......O......OO..................O.OO.O....O...O......OOO....O.OOO.........................................................................................................................................................................................................................................................................
...................OO.OO.O......OO..O...O......OOO............OO.OO.O......OO.O...O.O....OO...O.............OO.OO.O........OOO....OOO.....O...O........................................................................................................................................................................................................................................................................
...................O.O....O.....OO.O.O....O....O.O............O.O....O.....OO.O...O.....O..O..OO............O.O....O........OO..O......................................................................................................................................................................................................................................................................................
........................OO.............OO.O.....O.OOO..............OO.........OO..OO....OOOO..OO.................OO.........OOO....O.......O..O........................................................................................................................................................................................................................................................................
........................O...O......O.OO........O..OO..OOO..........O...O....O.O...OO..OO..OO.O...................O...O........O............O..O........................................................................................................................................................................................................................................................................
.......................O...O......OOO..OO.O...........OO..........O...O.......O.O.O...O.O.........OO............O...O..........O..O.........O.O........................................................................................................................................................................................................................................................................
.......................................O......O.OOO...................................O..O.....O.O..O..........................O..O.........O..........................................................................................................................................................................................................................................................................
.......................O..O.............O.O.O.O..OOO..............O..O...........OOOOO..OOO...OO................O..O............O......................................................................................................................................................................................................................................................................................
......................OO.O..............O...O..O...OO............OO.O............O.OOO.OO.OOOO...OO............OO.O................O...................................................................................................................................................................................................................................................................................
......................O.....................OO......O.O..........O...............OO.O...O..O.....OO............O.................O.O...................................................................................................................................................................................................................................................................................
.....................OO...................O.OO.......O..........OO....................OOOO....O.OO............OO....................O.OO...............................................................................................................................................................................................................................................................................
.....................O........................OOO.O.............O....................O..OO....OO..O...........O..................O..O.O.O..............................................................................................................................................................................................................................................................................
......................O.....................OO.OO..O.............O....................O...........O............O.................O.O..O................................................................................................................................................................................................................................................................................
................................................OO........................................O.OOO...OO.O.................................O...............................................................................................................................................................................................................................................................................
............................................OOO..........................................O....O...O.O.O................................................................................................................................................................................................................................................................................................................
............................................O............................................O..O..O..O...O................................................................................................................................................................................................................................................................................................................
.............................................O...........................................O..........O..................................................................................................................................................................................................................................................................................................................
.................................................................................................OO....................................................................................................................................................................................................................................................................................................................
.................................................................................................O.....................................................................................................................................................................................................................................................................................................................
...........................................O.......................................O.........................................O..............................................O..............................................O............................................O..............................................................................................................................................
...O....O......................OO.........OO...........................OO.........OO.............................OO.........OO..................................OO.........OO..................................OO.........OO................................OO.........OO..............................................................................................................................................
..............................OO...O......O.O.........................OO...O......O.O...........................OO...O......O.O................................OO...O......O.O................................OO...O......O.O..............................OO...O......O.O.............................................................................................................................................
...O....O.......................O.OO...............OOO..................O.OO...............OOO....................O.OO...............OOO.........................O.OO...............OOO.........................O.OO...............OOO.......................O.OO...............OOO....................................................................................................................................
..................................OOO.....O.O....OO.OO....................OOO.....O.O....OO.OO......................OOO.....O.O....OO.OO...........................OOO.....O.O....OO.OO...........................OOO.....O.O....OO.OO.........................OOO.....O.O....OO.OO....................................................................................................................................
...O....O.........................O......OO.O.O.O.........................O......OO.O.O.O...........................O......OO.O.O.O................................O......OO.O.O.O................................O......OO.O.O.O..............................O......OO.O.O.O.........................................................................................................................................
....................................OOO.O......O.OO.........................OOO.O......O.OO...........................OOO.O......O.OO................................OOO.O......O.OO................................OOO.O......O.OO..............................OOO.O......O.OO.......................................................................................................................................
...O....O............................OO.......O..............................OO.......O................................OO.......O.....................................OO.......O.....................................OO.......O...................................OO.......O...........................................................................................................................................
.....................................OO.....OO...............................OO.....OO.................................OO.....OO......................................OO.....OO......................................OO.....OO....................................OO.....OO............................................................................................................................................
...O....O..............................OOOOO...................................OOOOO.....................................OOOOO..........................................OOOOO..........................................OOOOO........................................OOOOO..............................................................................................................................................
....................OO......................................OO........................................OO.............................................OO.............................................OO...........................................OO....................................................................................................................................................................
...................OO..................OO..................OO..................OO....................OO..................OO.........................OO..................OO.........................OO..................OO.......................OO..................OO.................................................................................................................................................
....................O.O...............OO....................O.O...............OO.O....................O.O...............OO.O.........................O.O...............OO.O.........................O.O...............OO.O.......................O.O...............OO..................................................................................................................................................
....................OOO.................O.O.................OOO.................O.....................OOO.................O..........................OOO.................O..........................OOO.................O........................OOO.................O.O...............................................................................................................................................
....................OO......................................OO..................O......OOO............OO..................O......OOO.................OO..................O......OOO.................OO..................O......OOO...............OO....................................................................................................................................................................
......................O.O.................OOO.................O.O.............OO.O.....O................O.O.............OO.O.....O.....................O.O.............OO.O.....O.....................O.O.............OO.O.....O...................O.O.................OOO.............................................................................................................................................
.............................................................................O.....O....O..............................O.....O....O...................................O.....O....O...................................O.....O....O......................................................................................................................................................................................
........................O.O.................O...................O.O..........O....O.......OO..............O.O..........O....O.......OO...................O.O..........O....O.......OO...................O.O..........O....O.......OO.................O.O.................O.O...........................................................................................................................................
..........................OOO...OO........O.O...O.................OOO...OO..O.OO...O.....OO.................OOO...OO..O.OO...O.....OO......................OOO...OO..O.OO...O.....OO......................OOO...OO..O.OO...O.....OO....................OOO...OO........................................................................................................................................................
..........................O....OO.......OOOOO..O.O................O....OO.O.OO....OOO.......................O....OO.O.OO....OOO............................O....OO.O.OO....OOO............................O....OO.O.OO....OOO..........................O....OO.............O.O.........................................................................................................................................
.........................O......O.O.....O....O.O.O...............O......O...O....OOO.OO.O..................O......O...O....OOO.OO.O.......................O......O...O....OOO.OO.O.......................O......O...O....OOO.OO.O.....................O......O.O.............O.........................................................................................................................................
....................O.OO.O....O...O....O.....O..............O.OO.O....O..O...O...OOO....O.OO..........O.OO.O....O..O...O...OOO....O.OO...............O.OO.O....O..O...O...OOO....O.OO...............O.OO.O....O..O...O...OOO....O.OO.............O.OO.O....O...O............O.O........................................................................................................................................
...................OO.OO.O........OOO..OOO....O............OO.OO.O........O..OOO...O.................OO.OO.O........O..OOO...O......................OO.OO.O........O..OOO...O......................OO.OO.O........O..OOO...O....................OO.OO.O........OOO..........O...O......................................................................................................................................
...................O.O....O.........OOO..OO...OO...........O.O....O..........OOO...O....OOOO.........O.O....O..........OOO...O....OOOO..............O.O....O..........OOO...O....OOOO..............O.O....O..........OOO...O....OOOO............O.O....O.........O...........O.O.O.....................................................................................................................................
........................OO...........O.....O..OO................OO.............OO.OO..OOOO................OO.............OO.OO..OOOO.....................OO.............OO.OO..OOOO.....................OO.............OO.OO..OOOO..O................OO..........OOO......OOO...O......................................................................................................................................
........................O...O.........O...OOOO..................O...O...........O...OOO....O.O............O...O...........O...OOO....O.O.................O...O...........O...OOO....O.O.................O...O...........O...OOO....O.O...............O...O.........O.....OO.....OO.....................................................................................................................................
.......................O...O..................O................O...O............O.O...O..................O...O............O.O...O.......................O...O............O.O...O.......................O...O............O.O...O.....O.O.............O...O..........OOO....O..O..OO.....................................................................................................................................
.......................................OO...O.............................OOO.....O....O....O..O....................OOO.....O....O....O..O.........................OOO.....O....O....O..O.........................OOO.....O....O.....O...............................OOOO.OO.O.........................................................................................................................................
.......................O..O............OO......................O..O.......O........O.........OOO.........O..O.......O........O........O..O..............O..O.......O........O........O..O..............O..O.......O........O........................O..O..............O..OOO....OOOO...................................................................................................................................
......................OO.O....................................OO.O.........O..OOOOOO.........OOO........OO.O.........O..OOOOOO.........O.OO.O..........OO.O.........O..OOOOOO.........O.OO.O..........OO.O.........O..OOOOOO.......................OO.O.................O......OOO..O..................................................................................................................................
......................O.......................................O..............O...O......................O..............O...O...........OO..O.O.........O..............O...O...........OO..O.O.........O..............O...O.O.O.....................O....................O.OO...O...O.O.................................................................................................................................
.....................OO......................................OO...............OO....OOO....O.O.........OO...............OO....OOO.......O.....O.......OO...............OO....OOO.......O.....O.......OO...............OO....O.O...................OO....................O...OO.O....O.O................................................................................................................................
.....................O.......................................O........................O.OO.O...O.......O........................O.OO.O..O.............O........................O.OO.O..O.............O.......................O.O..................O..........................O.......O.................................................................................................................................
......................O.......................................O.........................OOOO.OO.........O.........................OO.O.......O.........O.........................OO.O.......O.........O.......................O....................O.........................O.O.......................................................................................................................................
..........................................................................................OO.O.O......................................O....O.........................................O....O...................................................................................O.O......................................................................................................................................
.........................................................................................O.........................................OO.O...........................................OO.O.........................................................................................O.O.....................................................................................................................................
.........................................................................................O............................................O..............................................O.....OO...................................................................................O......................................................................................................................................
...................................................................................................................................O..O...........................................O..O....OOO..........................................................................................................................................................................................................................
......................................................................................................................................O..............................................O...OOO...........................................................................................................................................................................................................................
....................................................................................................................................OO.............................................OO..................................................................................................................................................................................................................................
............................................O..........................................................................................................................................................................................................................................................................................................................................................................
O...O.O.O.......................OO.........OO..........................................................................................................................................................................................................................................................................................................................................................................
...............................OO...O......O.O.........................................................................................................................................................................................................................................................................................................................................................................
O.......O........................O.OO...............OOO................................................................................................................................................................................................................................................................................................................................................................
...................................OOO.....O.O....OO.OO................................................................................................................................................................................................................................................................................................................................................................
O...O.O.O..........................O......OO.O.O.O.....................................................................................................................................................................................................................................................................................................................................................................
.....................................OOO.O......O.OO...................................................................................................................................................................................................................................................................................................................................................................
O...O.................................OO.......O.......................................................................................................................................................................................................................................................................................................................................................................
......................................OO.....OO........................................................................................................................................................................................................................................................................................................................................................................
O...O.O.O...............................OOOOO..........................................................................................................................................................................................................................................................................................................................................................................
....................OO..................OO.............................................................................................................................................................................................................................................................................................................................................................................
...................OO..................OO.O............................................................................................................................................................................................................................................................................................................................................................................
....................O.O..................O.............................................................................................................................................................................................................................................................................................................................................................................
....................OOO..................O.O...........................................................................................................................................................................................................................................................................................................................................................................
....................OO...................OOO...........................................................................................................................................................................................................................................................................................................................................................................
......................O.O................OOO..OO.......................................................................................................................................................................................................................................................................................................................................................................
.....................................OOO.....O..O......................................................................................................................................................................................................................................................................................................................................................................
........................O.O..........O..O...OO..O......................................................................................................................................................................................................................................................................................................................................................................
..........................OOO...OO......OOO.OO..O......................................................................................................................................................................................................................................................................................................................................................................
..........................O....OO..O....O.OOO.OOO..O...................................................................................................................................................................................................................................................................................................................................................................
.........................O......O.OO....OOOO...O...O...................................................................................................................................................................................................................................................................................................................................................................
....................O.OO.O....O..O.O...........O..O....................................................................................................................................................................................................................................................................................................................................................................
...................OO.OO.O.............O...O........O..................................................................................................................................................................................................................................................................................................................................................................
...................O.O....O.........O..O....OOOO.....O.OO..............................................................................................................................................................................................................................................................................................................................................................
........................OO..........O.O....OOO.......OO.OO.............................................................................................................................................................................................................................................................................................................................................................
........................O...O........O.OO...OO.......O.OOO.............................................................................................................................................................................................................................................................................................................................................................
.......................O...O.........O...O............OO...............................................................................................................................................................................................................................................................................................................................................................
.........................................O.............................................................................................................................................................................................................................................................................................................................................................................
.......................O..O...........O................................................................................................................................................................................................................................................................................................................................................................................
......................OO.O...............OOO...........................................................................................................................................................................................................................................................................................................................................................................
......................O...................OO...........................................................................................................................................................................................................................................................................................................................................................................
.....................OO.....................OO.O.......................................................................................................................................................................................................................................................................................................................................................................
.....................O.......................O.O.......................................................................................................................................................................................................................................................................................................................................................................
......................O......................O..O......................................................................................................................................................................................................................................................................................................................................................................
............................................OO.........................................................................................................................................................................................................................................................................................................................................................................
..............................................O........................................................................................................................................................................................................................................................................................................................................................................
.............................................O.........................................................................................................................................................................................................................................................................................................................................................................
O...O.O.O........................OO.........OO.........................................................................................................................................................................................................................................................................................................................................................................
................................OO...O......O.O........................................................................................................................................................................................................................................................................................................................................................................
O.......O.........................O.OO...............OOO...............................................................................................................................................................................................................................................................................................................................................................
....................................OOO.....O.O....OO.OO...............................................................................................................................................................................................................................................................................................................................................................
O...O.O.O...........................O......OO.O.O.O....................................................................................................................................................................................................................................................................................................................................................................
......................................OOO.O......O.OO..................................................................................................................................................................................................................................................................................................................................................................
O.......O..............................OO.......O......................................................................................................................................................................................................................................................................................................................................................................
.......................................OO.....OO.......................................................................................................................................................................................................................................................................................................................................................................
O...O.O.O................................OOOOO.........................................................................................................................................................................................................................................................................................................................................................................
....................OO......................OOO........................................................................................................................................................................................................................................................................................................................................................................
...................OO.......................O..OO......................................................................................................................................................................................................................................................................................................................................................................
....................O.O....................OO.OO.......................................................................................................................................................................................................................................................................................................................................................................
....................OOO................................................................................................................................................................................................................................................................................................................................................................................................
....................OO.....................O.O.........................................................................................................................................................................................................................................................................................................................................................................
......................O.O................OOO.O.........................................................................................................................................................................................................................................................................................................................................................................
........................................OO.............................................................................................................................................................................................................................................................................................................................................................................
........................O.O............OOOO.O..........................................................................................................................................................................................................................................................................................................................................................................
..........................OOO.........OO...............................................................................................................................................................................................................................................................................................................................................................................
..........................O............O..OO...........................................................................................................................................................................................................................................................................................................................................................................
.........................O..........O.OO...............................................................................................................................................................................................................................................................................................................................................................................
....................O.OO.O....O...OOOOOO...O.......O...................................................................................................................................................................................................................................................................................................................................................................
...................OO.OO.O......OO....O.....OO...O.O.O.................................................................................................................................................................................................................................................................................................................................................................
...................O.O....O.....OO...........OO.OOO..O.................................................................................................................................................................................................................................................................................................................................................................
........................OO.......O...........OO....OO..................................................................................................................................................................................................................................................................................................................................................................
........................O...O....O............O.OO.....................................................................................................................................................................................................................................................................................................................................................................
.......................O...O......OO...................................................................................................................................................................................................................................................................................................................................................................................
............................................O.O........................................................................................................................................................................................................................................................................................................................................................................
.......................O..O.................O..........................................................................................................................................................................................................................................................................................................................................................................
......................OO.O..................OOO........................................................................................................................................................................................................................................................................................................................................................................
......................O......................O.O.......................................................................................................................................................................................................................................................................................................................................................................
.....................OO................................................................................................................................................................................................................................................................................................................................................................................................
.....................O.................................................................................................................................................................................................................................................................................................................................................................................................
......................O................................................................................................................................................................................................................................................................................................................................................................................................
