!Name: ships-2c7
!C Period-7 2c/7 spaceships
!C  1. "Weekender": spaceship by David Eppstein, 12 Jan 2000
!C  2. Tagalong by Stephen Silver, 27 Apr 2000
!C  3. "Scholar": spaceship by Andrew J. Wade, 30 Dec 2019
!C  4. Wave by Hartmut Holzwart, 30 Apr 2016
!C     Stabilization by Andrew J. Wade, 22 Mar 2020
!C  5. Component connections by "praosylen", Mar - Apr 2020
!C  6. Component connection by Matthias Merzenich, 8 Dec 2020
!C  7. Tagalong by Matthias Merzenich, 19 Mar 2021
!C  8. Component connections by Matthias Merzenich and
!C     "wwei23", Mar 2021
!C  9. By Dmitry Maitak, 23 Nov 2021
!C     Using components by Andrew J. Wade and Matthias Merzenich
!C 10. By Andrew J. Wade, 26 Apr 2022
!C 11. Component connections by Dmitry Maitak, 26 Apr 2022
!Source: jslife-moving
!
..O........................O............O...........................................O.O.O......................O...........................................O...O....................O...............O...............O...............O.................................................................O......................................................................................................................................................................................................
...........................O............O.....................................................................OOO..................................................................O.O.............O.O.............O.O.............O.O................................................................O......................................................................................................................................................................................................
..O.......................O.O..........O.O..............................................O.....................OOO..........................................O...O..................O...O..OOO.OOO..O...O..OOO.OOO..O...O..OOO.OOO..O...O..............................................................O.O.....................................................................................................................................................................................................
...........................O............O.....................................................................................................................................OO...O.O..O..O.O..O..O.O..O..O.O..O..O.O..O..O.O..O..O.O...OO...........................................................O......................................................................................................................................................................................................
..O........................O............O...........................................O.O.O.................OOO.....OOO......................................O.O.O.............O..OO..O..O.........O..O..O.........O..O..O.........O..O..OO..O..........................................................O......................................................................................................................................................................................................
............................O...OOOO...O......................................................................................................................................O...O....O.O.....O.O.....O.O.....O.O.....O.O.....O.O....O...O......................................................OOO.....OOO.................................................................................................................................................................................................
..O.............................OOOO....................................................O.................O.O.....O.O..........................................O..............OO..O.....O.......O.......O.......O.......O.......O.....O..OO.......................................................O.......O..................................................................................................................................................................................................
............................OOOO....OOOO..................................................................O.O.....O.O.........................................................OO..O.....OOO...OOO.......OOO...OOO.......OOO...OOO.....O..OO..................................................................................................................................................................................................................................................................
..O.................................................................................O.O.O..................O.......O...........................................O..............O..OO.....O..O.O..O.......O..O.O..O.......O..O.O..O.....OO..O......................................................O.O.....O.O.................................................................................................................................................................................................
..............................O......O....................................................................O..O...O..O..........................................................O......O.O.OO.OO.O.O...O.O.OO.OO.O.O...O.O.OO.OO.O.O......O......................................................O...........O................................................................................................................................................................................................
...............................OO..OO......................................................................O.OO.OO.O.........................................................O.OO.......................................................OO.O.....................................................O...O.O...O.................................................................................................................................................................................................
........................................................................................................O....O...O....O............................................................................................................................................................................OOO.OOO...................................................................................................................................................................................................
........................................................................................................OOOOOO...OOOOOO.......................................................................................................................................................................OOO..O.....O..OOO..............................................................................................................................................................................................
........................................................................................................O....O...O....O........................................................OOO.....................................................OOO....................................................OO...OOO.OOO...OO..............................................................................................................................................................................................
.........................................................................................................OO.O.....O.OO........................................................................................................................................................................OO.OO.......OO.OO..............................................................................................................................................................................................
.............................................................................................................O...O............................................................OO.........................................................OO....................................................OOO.OO...OO.OOO...............................................................................................................................................................................................
.........................................................................................................O...........O........................................................OO.........................................................OO.....................................................OO.........OO................................................................................................................................................................................................
.........................................................................................................O...O...O...O.........................................................OO.......................................................OO...................................................................................................................................................................................................................................................................
..........................................................................................................O..O...O..O.........................................................O..OO...................................................OO..O.....................................................OOO.O...O.OOO................................................................................................................................................................................................
..........................................................................................................O..O...O..O..........................................................O.O.O.................................................O.O.O.........................................................O.O.O.O...................................................................................................................................................................................................
.....................................................................................................OOO...O.O...O.O...OOO....................................................OOO..O.................................................O..OOO.................................................OOO...............OOO............................................................................................................................................................................................
....................................................................................................O..O...OOOOOOOOO...O..O...................................................OO..OOO...............................................OOO..OO.................................................O..OOOOO.OOO.OOOOO..O............................................................................................................................................................................................
....................................................................................................O..O..OO.OOOOO.OO..O..O...................................................OO..OO.................................................OO..OO.................................................O.OOOOO.......OOOOO.O............................................................................................................................................................................................
...........................................................................................................OO..O..OO.........................................................O.............................................................O.................................................................................................................................................................................................................................................................
..........................................................................................................OO...O...OO.......................................................O...............................................................O................................................................................................................................................................................................................................................................
..........................................................................................................OO.......OO.......................................................O..O.........................................................O..O.....................................................OOOOOOOOO..................................................................................................................................................................................................
.............................................................................................................OO.OO..........................................................O..O.........................................................O..O....................................................O.O.O.O.O.O.................................................................................................................................................................................................
..........................................................................................................O...O.O...O........................................................OOO.........................................................OOO.....................................................O.........O.................................................................................................................................................................................................
.................O............O.......O............O......................................................O...O.O...O.........................................................O.O.......................................................O.O.....................................................O.OO.....OO.O................................................................................................................................................................................................
.................O............O.......O............O......................................................OO..O.O..OO.........................................................OO.O.....................................................O.OO.....................................................OO.O.O.O.O.OO......................................O...............O.........................................................................................................................................
................O.O..........O.O.....O.O..........O.O.......................................................OOO.OOO..........................................................O.O.........................................................O.O......................................................OO.O.O.OO.......................................O.O.............O.O........................................................................................................................................
.................O............O.......O............O....................................................OO.OO.....OO.OO....................................................O.O.OO.......................................................OO.O.O.................................................OO.O.O...O.O.OO...................................O...O..OOO.OOO..O...O.......................................................................................................................................
.................O............O.......O............O...................................................O..OO.......OO..O...................................................O.OO...........................................................OO.O................................................O...O.......O...O..............................OO...O.O..O..O.O..O..O.O...OO...................................................................................................................................
..................O...OOOO...O.........O...OOOO...O...................................................O.................O..................................................OO...............................................................OO...............................................O....O.......O....O............................O..OO..O..O.........O..O..OO..O..................................................................................................................................
......................OOOO........O........OOOO........................................................O.OOO.......OOO.O.....................................................................................................................................................................O.....O.....O.....O.............................O...O....O.O.....O.O....O...O...................................................................................................................................
..................OOOO....OOOO..OOOOO..OOOO....OOOO.......................................................O..O...O..O.........................................................................................................................................................................O...............O..............................OO..O.....O.......O.....O..OO...................................................................................................................................
...............................O.O.O.O.....................................................................OOO...OOO...........................................................................................................................................................................O....OO.OO....O...............................OO..O.....OOO...OOO.....O..OO...................................................................................................................................
O.O.O...............O......O.............O......O.......................................................OO....O.O....OO.........................................................................................................................................................................OOOO.O.O.OOOO................................O..OO.....O..O.O..O.....OO..O...................................................................................................................................
.....................OO..OO......O.O......OO..OO.............................................................O...O.............................................................................................................................................................................O..O.......O..O................................O......O.O.OO.OO.O.O......O....................................................................................................................................
....O.........................O..O.O..O..................................................................O....O.O....O..............................................................................................................................................................................OO.OO...................................O.OO.......................OO.O..................................................................................................................................
..............................O..O.O..O...............................................................O......OO.OO......O......................................................................................................................................................................OO..O.....O..OO...............................................................................................................................................................................................
O.O.O.........................O.O...O.O..............................................................OO..OOO.O...O.OOO..OO..................................................................................................................................................................OO......OO.OO......OO............................................................................................................................................................................................
....................................................................................................O.....OOOO...OOOO.....O................................................................................................................................................................O..O....O.....O....O..O............................OOO.....................OOO....................................................................................................................................
O....................................................................................................O...OO..O...O..OO...O.................................................................................................................................................................O....O...OO.OO...O....O...........................................................................................................................................................................................
..............................OO.....OO...............................................................OOO..O.O...O.O..OOO........................................................................................................................................................................O.O.O.O.O.O....................................OO...................OO......................................................................................................................................
O.O.O.........................OO.....OO.....................................................................................................................................................................................................................................................O....OOO.O.O.OOO....O...............................OO...................OO......................................................................................................................................
...........................................................................................................OOO...OOO.........................................................................................................................................................................OO.....O...O.....OO...............................OO.....................OO.....................................................................................................................................
................................OO.OO.....................................................................OO.......OO............................................................................................................................................................................OOO.....OOO.................................OO..O...................O..OO...................................................................................................................................
...............................O.O.O.O...................................................................OO.........OO..........................................................................................................................................................................O.O.......O.O...............................O.O.O.....................O.O.O.........................O............O.......O............O......................................................................
...............................O.O.O.O...................................................................O.O.......O.O.........................................................................................................................................................................OO...........OO..............................O..OOO...................OOO..O........................OOO..........OOO.....OOO..........OOO.....................................................................
.................................O.O......................................................................O.........O...........................................................................................................................................................................O.OO.....OO.O..............................OOO..OO...................OO..OOO......................OOOOO........OOOOO...OOOOO........OOOOO....................................................................
...............................OO...OO.....................................................................O.O...O.O............................................................................................................................................................................O..O.....O..O...............................OO..OO...................OO..OO.......................OOOOO........OOOOO...OOOOO........OOOOO....................................................................
...........................................................................................................O.O...O.O............................................................................................................................................................................O...........O.....................................O.................O..............................O......OO......O.....O......OO......O.....................................................................
..........................................................................................................O.........O...........................................................................................................................................................................O..O.....O..O......................................O...............O................................OOO...OO...OOO.......OOO...OO...OOO......................................................................
..........................................................................................................O.........O..............................................................................................................................................................................O.....O......................................O..O...............O..O................................O.O..O.O......O......O.O..O.O.........................................................................
..........................................................................................................O...O.O...O...........................................................................................................................................................................O..O.....O..O...................................O..O...............O..O..................................O..O......OO.OO......O..O...........................................................................
...........................................................................................................O..O.O..O............................................................................................................................................................................................................................OOO.................OOO................................O......O....OO.OO....O......O.........................................................................
...........................................................................................................O..O.O..O.............................................................................................................................................................................OOO.....OOO...................................O.O...................O.O................................OOOOOO...............OOOOOO..........................................................................
..................................................................................................................................................................................................................................................................................................OO.O.O.OO...................................O.OO...................OO.O...............................O....O....O.O.O.O....O....O..........................................................................
............................................................................................................OOO.OOO.............................................................................................................................................................................................................................O.O.................O.O...........................................O.....O....................................................................OOO..........OOO
............................................................................................................O.O.O.O.................................................................................................................................................O.O.O.........................OO.....OO....................................OO.O.O.............O.O.OO.........................................O..O.O..O..........................................O.O.O....................O.O..........O.O
.............................................................................................................OOOOO.................................................................................................................................................................................O.O.O.O.......................................OO.O.............O.OO...........................................OOO...OOO...................................................................OOO..........OOO
.......................................................................................................OOO...........OOO............................................................................................................................................O..........................O....OO.OO....O..............................O......OO.............OO.........................................O....O.....O....O......................................O....................O....OO....OO....OO.
.......................................................................................................OOO...........OOO.....................................................................................................................................................................OO.O...OO.OO...O.OO..........................OO.O...........................OOO...............................OO.O.............O.OO.......................................................OO.O........O..O......
.....................................................................................................O...O...........O...O..........................................................................................................................................O.O.O....................OO..O....O....O..OO..........................OO..O..........................OOO...............................OO..O...........O..OO....................................O.O.O..............OO..O...O.O......O.O..
.........................................................................................................O...........O.........................................................................................................................................................................O..O.......O..O..............................O..O.........................O...O...............................O..O.........O..O...........................................................O..O...OOOOOOOOOO...
..........................................................................................................O.........O...................................................................................................................................................O......................O..O.......O..O..............................O..O.........................O...................................O..O.........O..O......................................O...O................O..O.....O....O.....
.....................................................................................................O...O...O.O.O...O...O......................................................................................................................................................................OO.........OO................................OO.........................O.....................................OO...........OO.............................................................OO......O....O.....
......................................................................................................OO....O.....O....OO...........................................................................................................................................O.O.O....................O.OO...........OO.O..........................O.OO...........................O...O.............................O.OO.............OO.O....................................O.O.O..............O.OO.......O....O.....
.......................................................................................................O...............O....................................................................................................................................................................O..O.............O..O........................O..O..............................OO.............................O..O...............O..O.....................................................O..O...................
........................................................................................................OOO.........OOO......................................................................................................................................................................O...O.........O...O..........................O...O............................O...............................O...O...........O...O.......................................................O...O.................
.........................................................................................................O.....O.....O..................................................................................................................................................................................................................................................OOO..................................................................................................................................
..............................................................................................................OOO..............................................................................................................................................................................O.O.........O.O..............................O.O..........................O...................................O.O...........O.O...........................................................O.O.................
.............................................................................................................OO.OO..............................................................................................................................................................................O...........O................................O................................................................O.............O.............................................................O..................
.............................................................................................................OOOOO...........................................................................................................................................................................................................................................................................................................................................................................................
..........................................................................................................OOO..O..OOO.........................................................................................................................................................................O...........O................................O...............................O................................O.................O.........................................................O....................
........................................................................................................O.............O......................................................................................................................................................................OOO.........OOO..............................OOO............................O.O...............................OOO...............OOO.......................................................OOO...................
........................................................................................................O.O.........O.O......................................................................................................................................................................OO..O.......OO..O............................OO..O............................O...............................OO..O...........O..OO.......................................................OO..O.................
..........................................................................................................O.........O.........................................................................................................................................................................OO.OO.......OO.OO............................OO.OO........................OOO.................................OO.OO.........OO.OO.........................................................OO.OO................
.......................................................................................................O.O...........O.O.......................................................................................................................................................................O..O........O..O.............................O..O.......................O.....................................O..O.........O..O...........................................................O..O................
......................................................................................................O..O...........O..O........................................................................................................................................................................OO..........OO...............................OO........................OO.....................................OO.........OO...............................................................OO................
.......................................................................................................OO.............OO.......................................................................................................................................................................O.OO........O.OO.............................O.OO.............................................................O.OO.........OO.O...........................................................O.OO................
..............................................................................................................................................................................................................................................................................................O.O.O.......O.O.O............................O.O.O......................O..OO.O...............................O.O.O.........O.O.O.........................................................O.O.O................
.............................................................................................................................................................................................................................................................................................OO..........OO...............................OO..........................O.O...O..............................OO.................OO.......................................................OO....................
..............................................................................................................................................................................................................................................................................................O...........O................................O.................................O..............................O.................O.........................................................O....................
............................................................................................................................................................................................................................................................................................OOO.........OOO..............................OOO..............................................................OOO.................OOO.....................................................OOO....................
...........................................................................................................................................................................................................................................................................................O.O..O......O.O..O...........................O.O..O.............................O.OOO.........................O.O..O.............O..O.O...................................................O.O..O..................
.................................................................................................................................................................................................................................................................................................O...........O................................O.........................OO.O...................................O...........O...............................................................O.................
...............................................................................................................................................................................................................................................................................................O.O.........O.O..............................O.O.........................OO...................................O.O...........O.O...........................................................O.O.................
.............................................................................................................................................................................................................................................................................................OOOO........OOOO.............................OOOO.............................................................OOOO.............OOOO.......................................................OOOO..................
...........................................................................................................................................................................................................................................................................................OOO.........OOO..............................OOO.................................OO...........................OOO...................OOO...................................................OOO.....................
..........................................................................................................................................................................................................................................................................................O...........O................................O...................................OO.O.........................O.........................O.................................................O........................
.........................................................................................................................................................................................................................................................................................O..O..O.....O..O..O..........................O..O..O............................OOO..OO.......................O..O..O...............O..O..O...............................................O..O..O...................
................................................................................................................................................................................................................................................................................................O...........O................................O...........................OOO..................................O.............O.............................................................O..................
...........................................................................................................................................................................................................................................................................................OO..O.......OO..O............................OO..O..................................O.........................OO..O...............O..OO...................................................OO..O...................
.............................................................................................................................................................................................................................................................................................................................................................................OO..............................................................................................................................
............................O............O...................................................................O............O.....................................O............O.......O............O...............O............O...............................O............O...............................O.O.O......................O................................................O...O.O.O..................O....................................O...O....................O...........................
............................O............O...................................................................O............O.....................................O............O.......O............O...............O............O...............................O............O.........................................................OOO..........................................................................O.............................................................O...........................
...........................O.O..........O.O.................................................................O.O..........O.O...................................O.O..........O.O.....O.O..........O.O.............O.O..........O.O.............................O.O..........O.O..............................O...O.....................OOO...............................................O...O...O.................O.O...................................O...O...................O.O..........................
............................O............O...................................................................O............O.....................................O............O.......O............O...............O............O...............................O............O......................................................................................................................................O.............................................................O...........................
............................O............O..............................................................O....O............O....O................................O............O.......O............O...............O............O....O.....................O....O............O...............................O.O.O.......................................................................O...O...O..................O....................................O...O....................O...........................
O.O.O........................O...OOOO...O.......................................O.O.O..................O.O....O...OOOO...O....O.O................................O...OOOO...O.........O...OOOO...O.................O...OOOO...O....O.O...................O.O....O...OOOO...O........................................................OO...OO..................................................................OOOO.....OOOO.................................................OOOO.....OOOO.....................
.................................OOOO.................................................................OO..O.......OOOO.......O..OO...................................OOOO........O........OOOO.........................OOOO.......O..OO.................OO..O.......OOOO........................................O...................OO.O.OO.............................................O...O...O...........O...O.....O...O.............................O...O.............O...O.....O...O....................
....O........................OOOO....OOOO.......................................O...O....................OO...OOOO....OOOO...OO..................................OOOO....OOOO..OOOOO..OOOO....OOOO.................OOOO....OOOO...OO.......................OO...OOOO....OOOO...............................................................................................................................O.....O...O.....O.............................................O.....O...O.....O...................
.........................................................................................................OO..................OO...............................................O.O.O.O.............................................OO.......................OO...............................................O.O.O...............OO..O.....O..OO.........................................O...O.O.O.......................................................O...O................................................
....O..........................O......O.........................................O.O.O....................OO.....O......O.....OO....................................O......O.............O......O.....................O......O.....OO.......................OO.....O......O......................................................OO.O.......O.OO................................................................OO.....OO.....................................................OO.....OO.......................
................................OO..OO................................................................O..........OO..OO..........O..................................OO..OO......O.O......OO..OO.......................OO..OO..........O.................O..........OO..OO.........................................................O.OO.O.OO.O...............................................................O..O.......O..O...............................................O..O.......O..O....................
....O...........................................................................O...O.................OOO......................OOO...........................................O..O.O..O..............................................OOO.................OOO.................................................................................................................................................O.O.........O.O...............................................O.O.........O.O....................
............................O............O............................................................OO.O....................O.OO...........................................O..O.O..O.............................................O.OO.................OO.O..........................................................................O.O...................................................................OO...........OO...............................................OO...........OO....................
....O......................O.OO........OO.O.....................................O.O.O...................OOO..................OOO.............................................O.O...O.O............................................OOO.....................OOO........................................................................O...O..................................................................OO...........OO...............................................OO...........OO....................
..........................OO.OO........OO.OO............................................................OOO..................OOO..................................................................................................OOO.....................OOO.......................................................................OO.O.OO..............................................................OO.................OO.........................................OO.................OO.................
..........................OO.OO........OO.OO......................................................................................................................................................................................................................................................................................O..O...O..O...........................................................OOO.................OOO.......................................OOO.................OOO................
.............................OOO......OOO....................................................................................................................................OO.....OO........................................................................................................................................O...O..OO.OO..O...O.......................................................O..O...............O..O.......................................O..O...............O..O................
.............................OO........OO...............................................................O......................O.............................................OO.....OO..............................................O.....................O..................................................................OOO...O.OO.OO.O...OOO......................................................OO.OO.............OO.OO.......................................OO.OO.............OO.OO................
.............................OO........OO.............................................................OO........................OO.......................................OO.............OO...........................................OO.................OO...................................................................OOO...O.O...O.O...OOO.........................................................O...............O.............................................O...............O...................
.......................................................................................................O..O..................O..O......................................O...OO.........OO...O......................................O..O...................O..O.....................................................................OO.O...O.OO................................................................................................................................................................
..............................O........O................................................................OOO..................OOO.......................................O....O.........O....O......................................OOO.....................OOO.....................................................................OO.OO.OO.OO................................................................................................................................................................
..............................OOO....OOO................................................................O..O................O..O......................................O.....................O....................................O..O.....................O..O..................................................................OOO....O....OOO..........................................................OOO...............OOO.........................................OOO...............OOO.................
.............................O....OO....O.................................................................O..................O........................................OO.O..O.........O..O.OO.....................................O.........................O................................................................OOOO......O......OOOO.......................................................O.O...............O.O.........................................O.O...............O.O.................
..............................OO......OO................................................................O.O..................O.O.......................................OO...O.........O...OO......................................O.O.....................O.O.................................................................OO....O.....O....OO........................................................O..O.............O..O.........................................O..O..............O..O................
.......................................................................................................O.O.O................O.O.O................................................................................................O.O.O...................O.O.O......................................................................OOO.OOO..............................................................OO.OO...........OO.OO.........................................OO.OO.............OO.OO...............
..............................OO......OO.............................................................OOO.O.O................O.O.OOO....................................OO.OO...........OO.OO.....................................O.O.OOO...............OOO.O.O......................................................................OO...OO...............................................................O.O.............O.O...........................................O.O...OO..........O.O................
................................OOOOOO....................................................................................................................................O.............O..........................................................................................................................................OO.....OO...............................................................O...............O.............................................O..OO..O..........O.................
............................OO..OOOOOO..OO...........................................................OO..........................OO....................................O.O...............O.O..........................................OO...............OO........................................................................O.O.......O.O.............................................................................................................................O...O.............................
...........................O..OO......OO..O.........................................................O.O.O......................O.O.O...................................OOO...............OOO........................................O.O.O.............O.O.O.....................................................................OO.O.......O.OO..............................................................OOO.......OOO.................................................O..OO.............OOO.............
............................OO..........OO..........................................................O.O..OO..................OO..O.O....................................OO...............OO.......................................OO..O.O.............O.O..OO..................................................................................................................................................O.......O...................................................O..OO...............O.............
..........................O..O..........O..O............................................................OOO..................OOO........................................O.................O.......................................OOO.....................OOO..................................................................OO.............OO...........................................................OOOO.........OOOO...............................................OO..O...........OOOO..............
.........................OOO.OO..O..O..OO.OOO.........................................................................................................................OOO.................OOO..................................................................................................................................OO.OO.......OO.OO...........................................................O...............O..................................................O............O.................
.........................O.O.O...O..O...O.O.O........................................................OOO........................OOO..................................OO.....................OO.......................................OOO...............OOO.......................................................................OOOO.....OOOO....................................................................OOO........................................................OO.O............................
............................OOO..O..O..OOO.........................................................OO..............................OO................................OO..O...............O..OO..........................................OO...........OO.......................................................................OO....O.....O....OO...............................................................O.....O..........................................................................O...........
..........................OOO....O..O....OOO.......................................................OOO...O....................O...OOO...............................O..O.O...............O.O..O....................................O...OOO...........OOO...O..................................................................O..OOO.......OOO..O..............................................................O.......O........................................................................OOOO.........
..........................O......OOOO......O.......................................................OO..O.O....................O.O..OO...............................O.........................O....................................O.O..OO...........OO..O.O....................................................................OOO.........OOO.............................................................OO.O...O...O.OO.................................................OOO.................O...OO.......
............................OOOOOOOOOOOOOO..........................................................O...O...OO............OO...O...O................................OO....O.............O....OO................................OO...O...O.............O...O...OO...............................................................O...............O............................................................O....O...O....O......................................................................OOO.O.......
............................O..OO....OO..O..........................................................O.....OO..O..........O..OO.....O..................................OOOO...............OOOO.................................O..OO.....O.............O.....OO..O..............................................................O.O...........O.O.............................................................O.....O.....O....................................................OO...................O.........
.........................................................................................................O...O............O...O................................................................................................O...O.......................O...O...............................................................OO.OO.......OO.OO.............................................................O...........O....................................................OO..................OO.........
.........................................................................................................O..OO............OO..O......................................O.......................O.................................OO..O.......................O..OO...................................................................O...O...O..................................................................OOO.O.O.OOO....................................................OO..................OOO.........
..........................OOO.O........O.OOO.............................................................O..OO............OO..O......................................O.......................O.................................OO..O.......................O..OO..............................................................O....O.OO.OO.O....O................................................................OO.OO.....................................................OO..O.............................
...........................OO..O......O..OO..............................................................OO..O............O..OO........................................OOO...............OOO...................................O..OO.......................OO..O.............................................................O.....O.......O.....O...........................................................OO.........OO................................................O.O.O.....................O........
................................O....O......................................................................O..............O............................................OO...............OO.....................................O.............................O..............................................................O........O.O........O........................................................................................................................O..OOO....................O........
................................OO..OO.....................................................................OO.O..........O.OO.................................................................................................O.OO...........................OO.O............................................................O.O...............O.O.......................................................................................................................OOO..OO....................OO.......
.....................................................................................................O............................O...............O....................................................................................O...............O.............................................................................O...O................................................................................................................................OO..OO....................O........
...............................O......O..............................................................O............................O...............O....................................................................................O...............O.....................................................................O.OO..OO.....OO..OO.O..............................................................................................................................O................OO..........
..............................OO......OO............................................................O.O...OOO..............OOO...O.O....OO.OO....O.O............................................................................OOO...O.O.............O.O...OOO..............................................................O.....O.......O.....O...............................................................................................................................O.................OO........
.............................O..........O.......................................................O....O............................O....O.O.O.O....O....O...............................................................................O...............O.....................................................................O...O...........O...O............................................................................................................................O..O.................OOOO......
.................................OOOO.........................................................OO.O...O...OO..................OO...O...OO.O.O.OO...O...O.OO........................................................................OO...O...............O...OO......................................................................OO.....OO..................................................................................................................................O..O.................O...O.....
..............................................................................................OO..O......OO..................OO......................O..OO........................................................................OO......OOO.....OOO......OO.................................................................O.................O.............................................................................................................................OOO...................OO.O.....
..................................OO............................................................O..O....O.O..................O.O.....OO.O...O.OO....O..O..........................................................................O.O......O.......O......O.O.................................................................O..O...........O..O............................................................................................................................O.O..................OOO........
................................O....O..........................................................O..O.......O................O........OOO.....OOO....O..O.........................................................................O...........................O.................................................................O...............O............................................................................................................................O.OO..................OO..O......
..............................OO......OO.........................................................OO......OOOO..............OOOO....OOO.........OOO...OO.........................................................................OOOO......O.O.....O.O......OOOO...............................................................O..O...........O..O.............................................................................................................................O.O.....................O......
............................O.O........O.O....................................................O.OO...........O............O........OOO..OO.OO..OOO....OO.O.....................................................................O.........O...........O.........O............................................................O.OOOO...........OOOO.O..........................................................................................................................OO.O.O...................OOO....
...........................O.OOO.O..O.OOO.O..................................................O..O........OO.OO............OO.OO.....OO..OO.OO..OO......O..O....................................................................OO.OO......O...O.O...O......OO.OO............................................................OOOO...............OOOO............................................................................................................................OO.O...................O......
..........................OO..............OO..................................................O...O......................................O.O.........O...O..................................................................................OOO.OOO.....................................................................OO...........................OO..........................................................................................................................OO...............OO.........
..........................OO.O..........O.OO............................................................................................OO.OO..........................................................................................OOO..O.....O..OOO...............................................................O..OO.......................OO...O.........................................................................................................................................O..O.......
...........................OOO..........OOO.....................................................O.O..................................................O.O...............................................................................OO...OOO.OOO...OO................................................................O...O......................O....O....................................................................................................................................................
............................O.O.O....O.O.O.......................................................O....................................................O................................................................................OO.OO.......OO.OO................................................................OO..O............................O...................................................................................................................................................
.............................OO..O..O..OO...............................................................................................................................................................................................OOO.OO...OO.OOO.................................................................OO..O......................O..O.OO...................................................................................................................................................
...............................................................................................O........................................................O................................................................................OO.........OO..................................................................O..OO......................O...OO....................................................................................................................................................
...........................OO.O........O.OO...................................................OOO......................................................OOO...............................................................................................................................................................O...................................................................................................................................................................................
.............................OOO......OOO.....................................................OO..O..................................................O..OO...............................................................................OOO.O...O.OOO.................................................................O.OO.........................OO.OO....................................................................................................................................................
...............................................................................................OO.OO................................................OO.OO...................................................................................O.O.O.O..................................................................................................O.......................................................................................................................................................
................................................................................................O..O................................................O..O.............................................................................OOO...............OOO............................................................................................O.O....................................................................................................................................................
............................O............O........................................................OO................................................OO...............................................................................O..OOOOO.OOO.OOOOO..O...............................................................OOO..........................OOO....................................................................................................................................................
..........................OO.OO........OO.OO....................................................O.OO................................................OO.O.............................................................................O.OOOOO.......OOOOO.O............................................................................................OO.....................................................................................................................................................
..........................O..OO........OO..O...................................................O.O.O................................................O.O.O..................................................................................................................................................................OO..........................O.....................................................................................................................................................
.........................O...O..........O...O.................................................OO........................................................OO.................................................................................................................................................................OO..........................OOO...................................................................................................................................................
........................O.....O........O.....O.................................................O........................................................O..................................................................................OOOOOOOOO......................................................................OO.............................OO..................................................................................................................................................
........................O.....O........O.....O...............................................OOO........................................................OOO...............................................................................O.O.O.O.O.O...................................................................OO..O.........................O..OO..................................................................................................................................................
.........................O..................O...............................................O.O..O....................................................O..O.O..............................................................................O.........O..................................................................O.O.O..........................O.O..O.................................................................................................................................................
..........................O...O........O...O......................................................O..................................................O...................................................................................O.OO.....OO.O.................................................................O..OOO..............................O.................................................................................................................................................
...........................O.O..........O.O.....................................................O.O..................................................O.O.................................................................................OO.O.O.O.O.OO................................................................OOO..OO........................O....OO.................................................................................................................................................
............................OO..........OO....................................................OOOO....................................................OOOO.................................................................................OO.O.O.OO...................................................................OO..OO.........................OOOO...................................................................................................................................................
...........................OO.O........O.OO.................................................OOO..........................................................OOO............................................................................OO.O.O...O.O.OO......................................................................O...............................................................................................................................................................................
...........................................................................................O................................................................O..........................................................................O...O.......O...O......................................................................O...........................O..................................................................................................................................................
..........................................................................................O..O.........................................................O..O..O........................................................................O....O.......O....O..................................................................O..O...........................O..................................................................................................................................................
....................................................................................................O...............................................O.................................................................................O.....O.....O.....O..................................................................O..O.......................OOO....................................................................................................................................................
............................................................................................OO......OOO...........................................OO...O..OO...........................................................................O...............O...................................................................OOO........................OO.....................................................................................................................................................
...................................................................................................O...O........................................O.O.....................................................................................O....OO.OO....O...................................................................O.O................................................................................................................................................................................
....................................................................................................OOO.OO.....................................O.OOO.O...................................................................................OOOO.O.O.OOOO...................................................................O.OO................................................................................................................................................................................
......................................................................................................O.......................................OO........................................................................................O..O.......O..O....................................................................O.O...............................................................................................................................................................................
......................................................................................................O.......................................OO.O...........................................................................................OO.OO........................................................................OO.O.O.............................................................................................................................................................................
.....................................................................................................O...O.....................................OOO......................................................................................OO..O.....O..OO.....................................................................OO.O.............................................................................................................................................................................
....................................................................................................OO..O.......................................O.O.O................................................................................OO......OO.OO......OO....................................................................OO.............................................................................................................................................................................
....................................................................................................OOO..........................................OO..O..............................................................................O..O....O.....O....O..O..................................................................................................................................................................................................................................................
.....................................................................................................O.O............................................................................................................................O....O...OO.OO...O....O..................................................................................................................................................................................................................................................
....................................................................................................OO.O.......................................OO.O.......................................................................................O.O.O.O.O.O........................................................................................................................................................................................................................................................
....................................................................................................OOOO.........................................OOO.................................................................................O....OOO.O.O.OOO....O...................................................................................................................................................................................................................................................
.....................................................................................................O................................................................................................................................OO.....O...O.....OO....................................................................................................................................................................................................................................................
..........................................................................................................................................................................................................................................OOO.....OOO........................................................................................................................................................................................................................................................
......................................................................................................OOO.......................................O........................................................................................O.O.......O.O.......................................................................................................................................................................................................................................................
.....................................................................................................O..OO....................................OO.OO.....................................................................................OO...........OO......................................................................................................................................................................................................................................................
........................................................................................................OOO...................................O..OO......................................................................................O.OO.....OO.O.......................................................................................................................................................................................................................................................
......................................................................................................O...O..................................O...O.......................................................................................O..O.....O..O.......................................................................................................................................................................................................................................................
.....................................................................................................OO...OO................................O.....O......................................................................................O...........O.......................................................................................................................................................................................................................................................
..........................................................................................................OO................................O.....O......................................................................................O..O.....O..O.......................................................................................................................................................................................................................................................
..........................................................................................................O..................................O..............................................................................................O.....O..........................................................................................................................................................................................................................................................
.........................................................................................................O....................................O...O......................................................................................O..O.....O..O.......................................................................................................................................................................................................................................................
.....................................................................................................OO.O......................................O.O...........................................................................................................................................................................................................................................................................................................................................................
.....................................................................................................O..........................................OO........................................................................................OOO.....OOO........................................................................................................................................................................................................................................................
.......................................................................................................OO......................................OO.O........................................................................................OO.O.O.OO.........................................................................................................................................................................................................................................................
...........................................................................................................................................................................................................................................OO.....OO.........................................................................................................................................................................................................................................................
............................................................................................................................................................................................................................................O.O.O.O..........................................................................................................................................................................................................................................................
........................................................................................................................................................................................................................................O....OO.OO....O......................................................................................................................................................................................................................................................
......................................................................................................................................................................................................................................OO.O...OO.OO...O.OO....................................................................................................................................................................................................................................................
......................................................................................................................................................................................................................................OO..O....O....O..OO....................................................................................................................................................................................................................................................
........................................................................................................................................................................................................................................O..O.......O..O......................................................................................................................................................................................................................................................
........................................................................................................................................................................................................................................O..O.......O..O......................................................................................................................................................................................................................................................
.........................................................................................................................................................................................................................................OO.........OO.......................................................................................................................................................................................................................................................
......................................................................................................................................................................................................................................O.OO...........OO.O....................................................................................................................................................................................................................................................
.....................................................................................................................................................................................................................................O..O.............O..O...................................................................................................................................................................................................................................................
......................................................................................................................................................................................................................................O...O.........O...O....................................................................................................................................................................................................................................................
...............................................................................................................................................................................................................................................O.............................................................................................................................................................................................................................................................
........................................................................................................................................................................................................................................O.O...OOO...O.O......................................................................................................................................................................................................................................................
.........................................................................................................................................................................................................................................O....OOO....O.......................................................................................................................................................................................................................................................
...........................................................................................................................................................................................................................................O.......O.........................................................................................................................................................................................................................................................
..........................................................................................................................................................................................................................................OOO.....OOO........................................................................................................................................................................................................................................................
...........................................................................................................................................................................................................................................OO.....OO.........................................................................................................................................................................................................................................................
.........................................................................................................................................................................................................................................O...........O.......................................................................................................................................................................................................................................................
........................................................................................................................................................................................................................................O.O.........O.O......................................................................................................................................................................................................................................................
.......................................................................................................................................................................................................................................OO.O.........O.OO.....................................................................................................................................................................................................................................................
..........................................................................................................................................................................................................................................O.........O........................................................................................................................................................................................................................................................
.......................................................................................................................................................................................................................................OO.............OO.....................................................................................................................................................................................................................................................
