!Name: ships-3c7-hp
!C Higher-period 3c/7 orthogonal spaceships
!C 14.1: By "praosylen" and "wwei23", 4 Jan 2021
!C 14.2: By Matthias Merzenich, 18 Jan 2021
!C 21.1: Based on a puffer by "bubblegum" and a block deleter by
!C       Dylan Chen, 4 Jan 2021
!C 28.1: Extensible period-28 tagalong by Stephen Silver, 2 Feb 2000
!C 35.1: By "iNoMed", 5 Jan 2021
!C       Based on a period-70 puffer by "bubblegum", 4 Jan 2021
!C 42.1: By "praosylen", 2 Jan 2021
!C       Based on a period-42 puffer by "iNoMed", 2 Jan 2021
!C 63.1: By "praosylen", 4 Jan 2021
!C       Based on a period-154 puffer by Dylan Chen, 4 Jan 2021
!Source: jslife-moving
!
..........................O....O...O..............................................................................................................................................................................................................................O.O.O....O.............................................................................................................................O.O.O...O.O.O.................................
..........................O....O...O..................................................................................................................................................................................................................................O....O.................................................................................................................................O...O...O.................................
..........................O....O.O.O..............................................................................................................................................................................................................................O.O.O....O.............................................................................................................................O.O.O...O.O.O.................................
..........................O........O..............................................................................................................................................................................................................................O........O.............................................................................................................................O.......O...O.................................
..........................O........O..............................................................................................................................................................................................................................O.O.O....O.............................................................................................................................O.O.O...O.O.O.................................
..........OOO.....OOO...................................................OOO.....OOO............................................OOO.........OOO......................................................................................................................OOO.........OOO..............................................................................................OOO.....OOO...........................................................
..........O.O.....O.O...................................................O.O.....O.O...........................................O...O.......O...O....................................................................................................................O...O.......O...O.............................................................................................O.O.....O.O...........................................................
..........O.O.....O.O...................................................O.O.....O.O..........................................O.O...O.....O...O.O..................................................................................................................O.O...O.....O...O.O............................................................................................O.O.....O.O...........................................................
........O.OO...O...OO.O...............................................O.OO...O...OO.O........................................O...OO.......OO...O..................................................................................................................O...OO.......OO...O..........................................................................................O.OO...O...OO.O.........................................................
........OO....O.O....OO...............................................OO....O.O....OO........................................OOO...O.....O...OOO..................................................................................................................OOO...O.....O...OOO..........................................................................................OO....O.O....OO.........................................................
............OO.O.OO.......................................................OO.O.OO...........................................O...OO.OOO.OOO.OO...O................................................................................................................O...OO.OOO.OOO.OO...O.............................................................................................OO.O.OO.............................................................
...........O.......O.....................................................O.......O..........................................OO..O...OO.OO...O..OO................................................................................................................OO..O...OO.OO...O..OO............................................................................................O.......O............................................................
...........O.O...O.O.....................................................O.O...O.O.........................................OOO...OOOOO.OOOOO...OOO..............................................................................................................OOO...OOOOO.OOOOO...OOO...........................................................................................O.O...O.O............................................................
.......OOOOO.......OOOOO.............................................OOOOO.......OOOOO.............................................O.....O..............................................................................................................................O.....O...............................................................................................OOOOO.......OOOOO........................................................
......O..O...........O..O...........................................O..O...........O..O.........................................O...........O........................................................................................................................O...........O...........................................................................................O..O...........O..O.......................................................
.......O.OOO.......OOO.O.............................................O.OOO.......OOO.O.....................................O....O...........O....O..............................................................................................................O....O...........O....O.......................................................................................O.OOO.......OOO.O........................................................
.........O.OO.....OO.O.................................................O.OO.....OO.O.......................................O....OOOO.....OOOO....O..............................................................................................................O....OOOO.....OOOO....O.........................................................................................O.OO.....OO.O..........................................................
........OO.O.O...O.O.OO...............................................OO.O.O...O.O.OO..........................................O....O...O....O......................................................................................................................O....O...O....O............................................................................................OO.O.O...O.O.OO.........................................................
........OOO.O.....O.OOO...............................................OOO.O.....O.OOO.........................................OO.OOO.....OOO.OO....................................................................................................................OO.OOO.....OOO.OO...........................................................................................OOO.O.....O.OOO.........................................................
..............................................................................................................................OO.O...O.O...O.OO....................................................................................................................OO.O...O.O...O.OO...................................................................................................................................................................
............OO...OO.......................................................OO...OO.........................................OOO.......OO.OO.......OOO............................................................................................................OOO.......OO.OO.......OOO...........................................................................................OO...OO.............................................................
..............O.O...........................................................O.O..........................................O...OO....O.O.O.O....OO...O..........................................................................................................O...OO....O.O.O.O....OO...O............................................................................................O.O...............................................................
...........O.......O.....................................................O.......O......................................O...O...................O...O........................................................................................................O...O...................O...O........................................................................................O.......O............................................................
...........OO.....OO.....................................................OO.....OO......................................O.........OOO...OOO.........O........................................................................................................O.........OOO...OOO.........O........................................................................................OO.....OO............................................................
........OO...........OO...............................................OO...........OO.......................................O......OO...OO......O................................................................................................................O......OO...OO......O.........................................................................................OO...........OO.........................................................
......O.OO...........OO.O...........................................O.OO...........OO.O................................O............O...O............O......................................................................................................O...O........O...O........O...O..................................................................................O.OO...........OO.O.......................................................
......OO..OO.......OO..OO...........................................OO..OO.......OO..OO................................O..OO.....O.........O.....OO..O......................................................................................................O...O.....O.........O.....O...O..................................................................................OO..OO.......OO..OO.......................................................
......O..O..O.....O..O..O...........................................O..O..O.....O..O..O.................................OO........O.......O........OO.......................................................................................................O....OO....O.......O....OO....O..................................................................................O..O..O.....O..O..O.......................................................
.......O....O.....O....O.............................................O....O.....O....O......................................OO.....O.....O.....OO.............................................................................................................O....O....O.....O....O....O.....................................................................................O....O.....O....O........................................................
.......O..O..O...O..O..O.............................................O..O..O...O..O..O......................................OO.................OO.............................................................................................................O...OO...............OO...O.....................................................................................O..O..O...O..O..O........................................................
....O.....O.........O.....O.......................................O.....O.........O.....O.................................O.......................O............................................................................................................OO...O.............O...OO...................................................................................O.....O.........O.....O.....................................................
.....O.O...............O.O.........................................O.O...............O.O................................OO.OO...................OO.OO...........................................................................................................OOOOOO...........OOOOOO.....................................................................................O.O...............O.O......................................................
.........O...........O.................................................O...........O.........................................O.................O................................................................................................................OO...OO.........OO...OO.........................................................................................O...........O..........................................................
.....O...O.O.......O.O...O..............O...........O..............O...O.O.......O.O...O................................O....OO.O...........O.OO....O.............................................................................................................O.OOO.........OOO.O.......................................................................................O...O.O.......O.O...O......................................................
.....O..O...O.....O...O..O.............O.O.........O.O.............O..O...O.....O...O..O.................................OO...O.OO.........OO.O...OO............................................................................................................OOO.O.............O.OOO.....................................................................................O..O...O.....O...O..O......................................................
......OO..OO.......OO..OO.............OO.OO.......OO.OO.............OO..OO.......OO..OO..........................................O.........O....................................................................................................................O....OO.........OO....O......................................................................................OO..OO.......OO..OO.......................................................
..........O.........O.................O...............O.................O.........O.....................................O.O......OOO.....OOO......O.O..........................................................................................................O.O....OO.......OO....O.O.........................................................................................O.........O...........................................................
......................................OOO..O.....O..OOO......................................................................OO..OOO.....OOO..OO................................................................................................................O....OOO..OOO..OOO....O................................................................................................................................................................
..........OOOOO.OOOOO...............O.......O...O.......O...............OOOOO.OOOOO.....................................O.O..OO..OO.......OO..OO..O.O...........................................................................................................OO.O..OO.O...O.OO..O.OO..........................................................................................OOOOO.OOOOO...........................................................
...O......OO.OO.OO.OO......O.........OO..OO.OO.OO.OO..OO.........O......OO.OO.OO.OO......O....................................O..OO.......OO..O................................................................................................................OOOOOO.O.........O.OOOOOO..................................................................................O......OO.OO.OO.OO......O....................................................
..OOO.......O.....O.......OOO........O.O....O...O....O.O........OOO.......O.....O.......OOO.....................................OO.........OO.................................................................................................................O...OOOO..O.....O..OOOO...O................................................................................OOO.......O.....O.......OOO...................................................
..O..OO.....O.....O.....OO..O.....OOO.OOO..OO...OO..OOO.OOO.....O..OO.....O.....O.....OO..O.....................................O...........O.................................................................................................................O.O.....O.OO...OO.O.....O.O................................................................................O..OO.....O.....O.....OO..O...................................................
....O...OOOOO.....OOOOO...O.......OO.OOOO.OOO...OOO.OOOO.OO.......O...OOOOO.....OOOOO...O........................................OO.......OO..........................................................................................................................O...OOO...O..........................................................................................O...OOOOO.....OOOOO...O.....................................................
.........O.OO.....OO.O.............OOOO....OO...OO....OOOO.............O.OO.....OO.O............................................OO.O.....O.OO........................................................................................................................OOOO.....OOOO..............................................................................................O.OO.....OO.O..........................................................
...O...O...............O...O........O.....OO.....OO.....O........O...O...............O...O.......................................O..O...O..O................OOO.....OOO.............................................................................................OOOOOOOOOOOOOOO.......................................................................................O...O...............O...O....................................................
...O.OO..O...........O..OO.O............O..O.....O..O............O.OO..O...........O..OO.O....................................OO.............OO............O...O...O...O...........................................................................................O.OOOOOOOOOOOOO.O......................................................................................O.OO..O...........O..OO.O....................................................
...O.OOOO.............OOOO.O...........OOO.O.....O.OOO...........O.OOOO.............OOOO.O.....................................O..OO.....OO..O.............OO...O.O...OO............................................................................................O.O....O....O.O.......................................................................................O.OOOO.............OOOO.O....................................................
......O.................O.............O.....OO.OO.....O.............O.................O....................................................................O.OO..O..OO.O...........................................................................................O...............O.........................................................................................O.................O.......................................................
.....................................OOO.OO.OO.OO.OO.OOO..........................................................................O.......O....................OOOOO...............................................................................................OOO...........OOO...................................................................................................................................................................
....O.....................O.......OO.OO...............OO.OO.......O.....................O.......................................O...........O.............OO.....O.....OO............................................................................................O...........O.........................................................................................O.....................O.....................................................
...O.O...................O.O.....OO.OO.OO.OOOO.OOOO.OO.OO.OO.....O.O...................O.O.....................................OO...........OO.............OO.........OO.........................................................................................O.OO.O.........O.OO.O....................................................................................O.O...................O.O....................................................
..O.........................O..............OO...OO..............O.........................O...................................OO...OOO.OOO...OO...........OO.OO.....OO.OO.........................................................................................OO.O...........O.OO....................................................................................O.........................O...................................................
..O..O...................O..O.....O.......................O.....O..O...................O..O.....................................O.O..O.O..O.O..............O...........O..........................................................................................OO...............OO....................................................................................O...O.................O...O...................................................
......O.................O......OO.OO......O.......O......OO.OO......O.................O.........................................OOO.......OOO...........OO.O.OO.....OO.O.OO......................................................................................OO.................OO........................................................................................O...............O........................................................
....O..O......OOO......O..O.....OO........OO.....OO........OO.....O..O......OOO......O..O..........................................OOO.OOO..................O.........O...........................................................................................O.................O....................................................................................OO.......................OO...................................................
O....OOOO....O...O....OOOO....O...............................O....OOOO....O...O....OOOO....O....................................O.........O........................................................................................................................OO...........OO........................................................................................O...O..O.......O..O...O.....................................................
.O.OO.O...O.OO...OO.O...O.OO.O.............OOO.OOO.............O.OO.O...O.OO...OO.O...O.OO.O.....................................O.........O.................OO.....OO.........................................................................OOO.....OOO..........O.............O........................................................................................O...O.O.O.....O.O.O...O.....................................................
..O.....O.OOOOO.OOOOO.O.....O...................................O.....O.OOOOO.OOOOO.O.....O.....................................OOO.......OOO...............OOO.....OOO........................................................................O..O...O..O...........O.....................................................................................................O.....O.OO...OO.O.....O.....................................................
............O.....O.......................................................O.....O...............................................OO.........OO..............OOOO.....OOOO.....................................................................OO.....O.....OO.........OO....................................................................................................O...OO.O.......O.OO...O.....................................................
.......O..OO.......OO..O.............................................O..OO.......OO..O.........................................O.O.........O.O.............O...........O.....................................................................OO....OOO....OO........OO...............OOO.....OOO...............................................................................OO...........OO.........................................................
......O..O.O.......O.O..O...........................................O..O.O.......O.O..O......................................OO...............OO............O..OO.OO..O.............................................................................O...............................O...O...O...O............................................................................O.................O.......................................................
.....OO....OO.....OO....OO.........................................OO....OO.....OO....OO.....................................OO...............OO............OOO.....OOO..........................................................................OO...OO............O.O.............OO...O.O...OO...........................................................................O...................O......................................................
......O.O.OO.......OO.O.O...........................................O.O.OO.......OO.O.O.......................................O...............O..............OO.....OO.......................................................................O...O.....O...O.......OO.OO............O.OO..O..OO.O...........................................................................O....O.........O....O......................................................
....O.OO.O.O.......O.O.OO.O.......................................O.OO.O.O.......O.O.OO.O................................................................OO.OO.......OO.OO...................................................................O..O.......O..O.......OO.OO................OOOOO..............................................................................OO...OO.........OO...OO.....................................................
...OO.....................OO.....................................OO.....................OO..............................................................O...OO.......OO...O..................................................................O.O.........O.O.........O.............OO.....O.....OO.........................................................................OO...O.O.......O.O...OO.....................................................
....OO...................OO.......................................OO...................OO......................................OO...........OO.........O.....O.......O.....O................................................................O.O...........O.O.......................OO.........OO..........................................................................OO...OO...OOO...OO...OO.....................................................
....OOOOOO...........OOOOOO.......................................OOOOOO...........OOOOOO......................................OOO.........OOO.........OO.O..OO.....OO..O.OO.................................................................OO.O.......O.OO.......................OO.OO.....OO.OO.........................................................................OOO..OOO.O...O.OOO..OOO.....................................................
...OO.OOOO...........OOOO.OO.....................................OO.OOOO...........OOOO.OO.............................................................OO.O...O.....O...O.OO..................................................................O.OO.....OO.O.........................O...........O..............................................................................O.OO.O...O.OO.O.........................................................
...OO.O.O.............O.O.OO.....................................OO.O.O.............O.O.OO.....................................O.OO.......OO.O............O.OOO.....OOO.O........................................................................O.....O............OOO..........OO.O.OO.....OO.O.OO.......................................................................OO...OO.O.....O.OO...OO.....................................................
....O.OO...............OO.O.......................................O.OO...............OO.O......................................O...OO...OO...O...........O.OO.........OO.O.....................................................................OOO.....OOO...........................O.........O............................................................................O.OO...O.O.O.O...OO.O..................................OOO.....OOO.........
....O....OO.........OO....O.......................................O....OO.........OO....O.......................................OO..O...O..OO.................................................................................................OOOOO...OOOOO.........................................................................................................................O.O.O..........................................O..O...O..O.........
.....O....O.........O....O.........................................O....O.........O....O.............................................O.O.................OO.............OO...................................................................OOO.O.....O.OOO......O.....O.............OO.....OO..................................................................................O.........O.....................................OO.....O.....OO.......
......O....O.......O....O...........................................O....O.......O....O..........................................OO.OO.OO.OO............OOOOOO.......OOOOOO..................................................................OO...........OO.....O.O...O.O...........OOO.....OOO.................................................................................OOO.....OOO.....................................OO....OOO....OO.......
........OOOOO.....OOOOO...............................................OOOOO.....OOOOO...............................................O...O................O.OOO.......OOO.O....................................................................OO.OO...OO.OO......OO.....OO..........OOOO.....OOOO..................................................................................OO.O.OO..............................................O..............
........OOO.O.....O.OOO...............................................OOO.O.....O.OOO..............................................O.....O..............OO...O.......O...OO....................................................................OO.......OO..........................O...........O..................................................................................OOOOOOO...........................................OO...OO...........
.......OO..OOO...OOO..OO.............................................OO..OOO...OOO..OO............................................OOO...OOO..................................................................................................OOO.........OOO.........................O..OO.OO..O.................................................................................OOO.....OOO.....................................O...O.....O...O.......
.......O...............O.............................................O...............O.............................................OOO.OOO...................OOO...OOO.....................................................................OO.OO.........OO.OO.......................OOO.....OOO................................................................................OO.O.O.O.O.OO....................................O..O.......O..O.......
........O.............O...............................................O.............O............................................OOOO...OOOO...............OOO.O...O.OOO....................................................................O...............O.........................OO.....OO................................................................................O...O.....O...O...................................O.O.........O.O.......
.................................................................................................................................OOOO...OOOO.........OO....O....O.O....O....OO............................................................O.OO..OO.....OO..OO.O...................OO.OO.......OO.OO.................................................................................OO.OO.......................................O.O...........O.O......
...............................................................................................................................OO...O...O...OO.....OO.OO.....OOO...OOO.....OO.OO.........................................................O..O...OO.....OO...O..O.................O...OO.......OO...O..........................................................................O..O.O.O.O.O.O..O..................................OO.O.......O.OO.......
................................................................................................................................O.O.O...O.O.O......OO.....O.............O.....OO..........................................................OO...O..O...O..O...OO.................O.....O.......O.....O..........................................................................OOOO.......OOOO....................................O.OO.....OO.O........
..............................................................................................................................O.O.O.......O.O.O.....O.OOOOO....O...O....OOOOO.O...........................................................OO.O.O.........O.O.OO.........OO......OO.O..OO.....OO..O.OO.............................................................................O.......O..........................................O.....O...........
.............................................................................................................................OO.O.OO.....OO.O.OO......OO..O....O...O....O..OO..................................................................OO.......OO..............OO......OO.O...O.....O...O.OO.............................................................................O.......O........................................OOO.....OOO.........
............................................................................................................................O..O.............O..O......OO.OOO.........OOO.OO................................................................O...............O......................O.OOO.....OOO.O.............................................................................OO.O..O.O..O.OO....................................OOOOO...OOOOO........
.............................................................................................................................OO.OOOO.....OOOO.OO.....O.....OO.........OO.....O.............................................................OO..O.........O..OO....................O.OO.........OO.O..............................................................................................................................OOO.O.....O.OOO.......
..............................................................................................................................O...OOO...OOO...O...........O.............O.......................................................................O.......O.........................................................................................................................OO.....OO......................................OO...........OO.......
.............................................................................................................................OO....OO...OO....OO.....O..O.................O..O.............................................................O....OO.....OO....O....................OO.............OO...............................................................................................................................OO.OO...OO.OO........
.............................................................................................................................O.................O......O.O.................O.O...............................................................O...OO.....OO...O....................OOOOOO.......OOOOOO...............................................................................................................................OO.......OO.........
..............................................................................................................................O.OO...O.O...OO.O.......O.....................O...............................................................O..OO.......OO..O.....................O.OOO.......OOO.O...............................................................................O.......O......................................OOO.........OOO.......
..............................................................................................................................O.OO..OO.OO..OO.O......OOO...................OOO..................................................................O.OO.OO.O........................OO...O.......O...OO..............................................................................OOO...OOO....................................OO.OO.........OO.OO.....
.............................................................................................................................OOO....O...O....OOO....O..O...................O..O.........................................................OO........OO.OO........OO.......OO.......................................................................................................O..O...O..O....................................O...............O......
..............................................................................................................................O...............O.....O.........................O........................................................OO.O....O...O.O...O....O.OO......OO............OOO...OOO...................................................................................O.......O...................................O.OO..OO.....OO..OO.O....
.....................................................................................................................................................OOO.........O.........OOO.........................................................O..O......OOO.OOO......O..O..................OOO.O...O.OOO................................................................................O..O...O..O.................................O..O...OO.....OO...O..O...
......................................................................................................................................................O.........OOO.........O.........................................................OOOO..OOO..OO...OO..OOO..OOOO...........OO....O....O.O....O....OO.............................................................................OO.OO.....................................OO...O..O...O..O...OO....
.............................................................................................................................O.O...............................O...O...................................................................OO...OOO...........OOO...OO..........OO.OO.....OOO...OOO.....OO.OO............................................................................O.O......................................OO.O.O.........O.O.OO....
.............................................................................................................................OO.O...........OO.OO....OO...OO...O.O.O...OO...OO.........................................................OOO.....................OOO..........OO.....O.............O.....OO..........................................................................O.O.O.O.........................................OO.......OO.........
.............................................................................................................................O..............O...O...O.OO.OO.OOOO.O.OOOO.OO.OO.O............................................................OOOO...........OOOO...............O.OOOOO....O...O....OOOOO.O..........................................................................O...O...O.....................................O...............O......
.............................................................................................................................OOOO............OOO.........OO.OO..OOO..OO.OO..................................................................O..O.........O..O..................OO..O....O...O....O..OO............................................................................O.......O....................................OO..O.........O..OO.....
............................................................................................................................O.O............................O.O.......O.O...................................................................O.O.............O.O..................OO.OOO.........OOO.OO................................................................................O.O............................................O.......O..........
.............................................................................................................................O...OO........O............O..OOO.......OOO..O..............................................................O.....................O........OO....O.....OO.........OO.....O.........................................................................OO.O.....O.OO..................................O....OO.....OO....O.....
.................................................................................................................................O.O....O...O..........O...OO.........OO...O.............................................................O.....................O........OO.........O.............O..............................................................................OO..O...O..OO...................................O...OO.....OO...O......
.................................................................................................................................O.........O..........OOO.................OOO...........................................................O.......................O.............O..O.................O..O.........................................................................O...........O...................................O..OO.......OO..O......
...............................................................................................................................O.O.....O.............O..O..OO.........OO..O..O...........................................................O.....................O...............O.O.................O.O...........................................................................O.........O........................................O.OO.OO.O..........
...............................................................................................................................O.OO.....O......OO.......O..OO.........OO..O............................................................OO.OO.................OO.OO.............O.....................O.........................................................................O.O.........O.O..............................OO........OO.OO........OO..
................................................................................................................................O..............OO....O.....OO.........OO.....O.........................................................O..OO........O........OO..O............OOO...................OOO.......................................................................OOOO.........OOOO............................OO.O....O...O.O...O....O.OO.
...............................................................................................................................................O......OOOOOO...........OOOOOO..........................................................O...O.......O.O.......O...O...........O..O...................O..O......................................................................OO.O.O.....O.O.OO............................O..O......OOO.OOO......O..O.
................................................................................................................................................O........OO.............OO.............................................................O..........O...O..........O...........O.........................O.....................................................................O..O...........O..O..........................OOOO..OOO..OO...OO..OOO..OOOO
.................................................................................................................................O.O..........OOO.........O.............O..............................................................O...O.OOO.OO.O.OO.OOO.O...O............OOO.........O.........OOO...........................................................................O.O...O.O................................OO...OOO...........OOO...OO.
.................................................................................................................................O.O..........OO........OOO.............OOO.................................................................OOOO..OO.OO..OOOO..................O.........OOO.........O...........................................................................OO.O...O.OO...............................OOO.....................OOO.
..................................................................................................................................O....................OOOO.............OOOO............................................................O.....OO..O.O.O..OO.....O.......O.O.............O...O................................................................................O..O...OO.OO...O..O...............................OOOO...........OOOO.....
........................................................................................................................................................OO..O.........O..OO.................................................................O....OO.O.OO....O............O....OO...OO...O.O.O...OO...OO...........................................................................O..O.O..O.....................................O..O.........O..O......
.......................................................................................................................................................O..OO.OO.....OO.OO..O...............................................................OOO...OO.O.OO...OOO...............O.OO.OO.OOOO.O.OOOO.OO.OO.O.......................................................................O..O.OO.OO.O..O.................................O.O.............O.O.....
..........................................................................................................................................................OOOO.......OOOO....................................................................O.OOO.....OOO.O......................OO.OO..OOO..OO.OO.............................................................................O.O.O.O.O.O.O................................O.....................O...
.........................................................................................................................................................O...............O................................................................O....O.........O....O.....................O.O.......O.O................................................................................OO..O.O..OO.................................O.....................O...
...............................................................................................................................................................O...O....................................................................OO.OOOO...........OOOO.OO................O..OOO.......OOO..O..............................................................................O.O...O.O.................O.......O.......O.......................O..
.............................................................................................................................................................O..O.O..O.....................................................................OOOOO.........OOOOO..................O...OO.........OO...O..............................................................................OO...OO................OO.OO...OO.OO......O.....................O...
.............................................................................................................................................................O.O...O.O....................................................................O.OOOO.........OOOO.O................OOO.................OOO..........................................................................OO.........OO.......O.....OO.........OO....OO.OO.................OO.OO.
.........................................................................................................................................................................................................................................O.....................O..............O..O..OO.........OO..O..O.........................................................................OOO.......OOO.....OO.OO...O...........O....O..OO........O........OO..O.
.........................................................................................................................................................................................................................................O.O.................O.O.................O..OO.........OO..O............................................................................O.O.......O.O........OO....O.........O.....O...O.......O.O.......O...O.
.........................................................................................................................................................................................................................................O.....................O..............O.....OO.........OO.....O.......................................................................OO..O.......O..OO.......O...O....O.O....O....O..........O...O..........O.
..........................................................................................................................................................................................................................................OO.................OO................OOOOOO...........OOOOOO........................................................................OO.............OO......O.....OOOO...OOOO.....O...O.OOO.OO.O.OO.OOO.O...O.
..........................................................................................................................................................................................................................................OO.OOO.........OOO.OO...................OO.............OO.................................................................................O...O........O....O.........................OOOO..OO.OO..OOOO......
..............................................................................................................................................................................................................................................O...........O........................O.............O.............................................................................O....O...O....O....OOOO......................O.....OO..O.O.O..OO.....O..
...............................................................................................................................................................................................................................................OO.......OO.......................OOO.............OOO...........................................................................OO...O...O...OO..................................O....OO.O.OO....O......
...............................................................................................................................................................................................................................................O.O.....O.O......................OOOO.............OOOO...........................................................................O..O.....O..O..................................OOO...OO.O.OO...OOO.....
............................................................................................................................................................................................................................................OOOOOO.....OOOOOO....................OO..O.........O..OO............................................................................OOO.......OOO....................................O.OOO.....OOO.O.......
.............................................................................................................................................................................................................................................OOOO.......OOOO....................O..OO.OO.....OO.OO..O..........................................................................O.O.........O.O................................O....O.........O....O....
..............................................................................................................................................................................................................................................O...........O........................OOOO.......OOOO.............................................................................OO...........OO..............................OO.OOOO...........OOOO.OO..
..................................................................................................................................................................................................................................................O...O...........................O...............O............................................................................O.O....O....O.O.................................OOOOO.........OOOOO.....
..................................................................................................................................................................................................................................................O...O.................................O...O..................................................................................OO....OOO....OO................................O.OOOO.........OOOO.O....
......................................................................................................................................................................................................................................................................................O..O.O..O................................................................................OO...O...O...OO...............................O.....................O...
......................................................................................................................................................................................................................................................................................O.O...O.O...............................................................................OOO....OOO....OOO..............................O.O.................O.O...
............................................................................................................................................................................................................................................................................................................................................................................OO.................OO............................O.....................O...
...........................................................................................................................................................................................................................................................................................................................................................................O.....OO..O.O..OO.....O............................OO.................OO....
..............................................................................................................................................................................................................................................................................................................................................................................................................................OO.OOO.........OOO.OO....
...........................................................................................................................................................................................................................................................................................................................................................................O..O.OOO.OO.OO.OOO.O..O................................O...........O........
.................................................................................................................................................................................................................................................................................................................................................................................OOO.....OOO.......................................OO.......OO.........
...................................................................................................................................................................................................................................................................................................................................................................................OOO.OOO.........................................O.O.....O.O.........
..............................................................................................................................................................................................................................................................................................................................................................................O....OO.O.OO....O.................................OOOOOO.....OOOOOO......
....................................................................................................................................................................................................................................................................................................................................................................................O...O........................................OOOO.......OOOO.......
..................................................................................................................................................................................................................................................................................................................................................................................................................................O...........O........
....................................................................................................................................................................................................................................................................................................................................................................................OO.OO.............................................O...O............
......................................................................................................................................................................................................................................................................................................................................................................................................................................O...O............
.........................................O.O.O...O.O.O......................................................................................................................O...O...O.O.O.......................................................................................................................O.O.O...O.O.O..........................................................................................................................
.............................................O...O..........................................................................................................................O...O.......O.......................................................................................................................O...........O..........................................................................................................................
.........................................O.O.O...O.O.O......................................................................................................................O.O.O...O.O.O.......................................................................................................................O.O.O...O.O.O..........................................................................................................................
.............................................O.......O..........................................................................................................................O...O...........................................................................................................................O...O.......O..........................................................................................................................
.........................................O.O.O...O.O.O..........................................................................................................................O...O.O.O.......................................................................................................................O.O.O...O.O.O..........................................................................................................................
........................................OOO.........OOO.....................................................................................................................................OOO.........OOO.................................................................................................................OOO.....OOO................................................................................................................
.......................................O...O.......O...O...................................................................................................................................O...O.......O...O................................................................................................................O.O.....O.O................................................................................................................
......................................O.O...O.....O...O.O.................................................................................................................................O.O...O.....O...O.O...............................................................................................................O.O.....O.O................................................................................................................
......................................O...OO.......OO...O.................................................................................................................................O...OO.......OO...O.............................................................................................................O.OO...O...OO.O..............................................................................................................
......................................OOO...O.....O...OOO.................................................................................................................................OOO...O.....O...OOO.............................................................................................................OO....O.O....OO..............................................................................................................
.....................................O...OO.OOO.OOO.OO...O...............................................................................................................................O...OO.OOO.OOO.OO...O................................................................................................................OO.O.OO..................................................................................................................
.....................................OO..O...OO.OO...O..OO...............................................................................................................................OO..O...OO.OO...O..OO...............................................................................................................O.......O.................................................................................................................
....................................OOO...OOOOO.OOOOO...OOO.............................................................................................................................OOO...OOOOO.OOOOO...OOO..............................................................................................................O.O...O.O.................................................................................................................
............................................O.....O.............................................................................................................................................O.....O..................................................................................................................OOOOO.......OOOOO.............................................................................................................
.........................................O...........O.......................................................................................................................................O...........O..............................................................................................................O..O...........O..O............................................................................................................
....................................O....O...........O....O.............................................................................................................................O....O...........O....O..........................................................................................................O.OOO.......OOO.O.............................................................................................................
....................................O....OOOO.....OOOO....O.............................................................................................................................O....OOOO.....OOOO....O............................................................................................................O.OO.....OO.O...............................................................................................................
........................................O....O...O....O.....................................................................................................................................O....O...O....O...............................................................................................................OO.O.O...O.O.OO..............................................................................................................
.......................................OO.OOO.....OOO.OO...................................................................................................................................OO.OOO.....OOO.OO..............................................................................................................OOO.O.....O.OOO..............................................................................................................
.......................................OO.O...O.O...O.OO...................................................................................................................................OO.O...O.O...O.OO...........................................................................................................................................................................................................................................
...................................OOO.......OO.OO.......OOO...........................................................................................................................OOO.......OO.OO.......OOO..............................................................................................................OO...OO..................................................................................................................
..................................O...OO....O.O.O.O....OO...O.........................................................................................................................O...OO....O.O.O.O....OO...O...............................................................................................................O.O....................................................................................................................
.................................O...O...................O...O.......................................................................................................................O...O...................O...O...........................................................................................................O.......O.................................................................................................................
.................................O.........OOO...OOO.........O.......................................................................................................................O.........OOO...OOO.........O...........................................................................................................OO.....OO.................................................................................................................
.....................................O......OO...OO......O...............................................................................................................................O......OO...OO......O............................................................................................................OO...........OO..............................................................................................................
................................O...O........O...O........O...O.....................................................................................................................O...O........O...O........O...O.....................................................................................................O.OO...........OO.O............................................................................................................
................................O...O.....O.........O.....O...O.....................................................................................................................O...O.....O.........O.....O...O.....................................................................................................OO..OO.......OO..OO............................................................................................................
................................O....OO....O.......O....OO....O.....................................................................................................................O....OO....O.......O....OO....O.....................................................................................................O..O..O.....O..O..O............................................................................................................
..................................O....O....O.....O....O....O.........................................................................................................................O....O....O.....O....O....O........................................................................................................O....O.....O....O.............................................................................................................
..................................O...OO...............OO...O.........................................................................................................................O...OO...............OO...O........................................................................................................O..O..O...O..O..O.............................................................................................................
...................................OO...O.............O...OO...........................................................................................................................OO...O.............O...OO......................................................................................................O.....O.........O.....O..........................................................................................................
....................................OOOOOO...........OOOOOO.............................................................................................................................OOOOOO...........OOOOOO........................................................................................................O.O...............O.O...........................................................................................................
....................................OO...OO.........OO...OO.............................................................................................................................OO...OO.........OO...OO............................................................................................................O...........O...............................................................................................................
......................................O.OOO.........OOO.O.................................................................................................................................O.OOO.........OOO.O..........................................................................................................O...O.O.......O.O...O...........................................................................................................
....................................OOO.O.............O.OOO.............................................................................................................................OOO.O.............O.OOO........................................................................................................O..O...O.....O...O..O...........................................................................................................
....................................O....OO.........OO....O.............................................................................................................................O....OO.........OO....O.........................................................................................................OO..OO.......OO..OO............................................................................................................
...................................O.O....OO.......OO....O.O...........................................................................................................................O.O....OO.......OO....O.O............................................................................................................O.........O................................................................................................................
....................................O....OOO..OOO..OOO....O......................................................................................................OOO.........OOO........O....OOO..OOO..OOO....O........................................................................................................................................................................................................................................
....................................OO.O..OO.O...O.OO..O.OO......................................................................................................O.O.........O.O........OO.O..OO.O...O.OO..O.OO.............................................................................................................OOOOO.OOOOO................................................................................................................
...................................OOOOOO.O.........O.OOOOOO....................................................................................................O..O.........O..O......OOOOOO.O.........O.OOOOOO.....................................................................................................O......OO.OO.OO.OO......O.........................................................................................................
..................................O...OOOO..O.....O..OOOO...O...................................................................................................O.OOOO.....OOOO.O.....O...OOOO..O.....O..OOOO...O...................................................................................................OOO.......O.....O.......OOO........................................................................................................
..................................O.O.....O.OO...OO.O.....O.O.................................................................................................OO....O.O...O.O....OO...O.O.....O.OO...OO.O.....O.O...................................................................................................O..OO.....O.....O.....OO..O........................................................................................................
..........................................O...OOO...O..........................................................................................................OOO.OO.O...O.OO.OOO............O...OOO...O.............................................................................................................O...OOOOO.....OOOOO...O..........................................................................................................
.........................................OOOO.....OOOO.......................................................................................................O........O...O........O.........OOOO.....OOOO.................................................................................................................O.OO.....OO.O...............................................................................................................
...........OOO.........OOO..............OOOOOOOOOOOOOOO..............OOO.........OOO.........................................................................O.O..OO.O.....O.OO..O.O........OOOOOOOOOOOOOOO..........................................................................................................O...O...............O...O.........................................................................................................
...........O.O.........O.O.............O.OOOOOOOOOOOOO.O.............O.O.........O.O........................................................................O...OO....O...O....OO...O......O.OOOOOOOOOOOOO.O.........................................................................................................O.OO..O...........O..OO.O.........................................................................................................
..........O..O.........O..O.............O.O....O....O.O.............O..O.........O..O........................................................................O.O.....O.....O.....O.O........O.O....O....O.O..........................................................................................................O.OOOO.............OOOO.O.........................................................................................................
..........O.OOOO.....OOOO.O............O...............O............O.OOOO.....OOOO.O.........................................................................O....OOO.....OOO....O........O...............O............................................................................................................O.................O............................................................................................................
........OO....O.O...O.O....OO..........OOO...........OOO..........OO....O.O...O.O....OO....................................................................................................OOO...........OOO...........................................................................................................................................................................................................................................
.........OOO.OO.O...O.OO.OOO.............O...........O.............OOO.OO.O...O.OO.OOO............................................................................OO.O.....O.OO..............O...........O............................................................................................................O.....................O..........................................................................................................
.......O........O...O........O.......O.OO.O.........O.OO.O.......O........O...O........O........................................................................OO.OO.O...O.OO.OO........O.OO.O.........O.OO.O.......................................................................................................O.O...................O.O.........................................................................................................
.......O.O..OO.O.....O.OO..O.O........OO.O...........O.OO........O.O..OO.O.....O.OO..O.O........................................................................OO.OO.OO.OO.OO.OO.........OO.O...........O.OO.......................................................................................................O.........................O........................................................................................................
......O...OO....O...O....OO...O.......OO...............OO.......O...OO....O...O....OO...O....................................................................OO........O.O........OO......OO...............OO.......................................................................................OOO.....OOO.....O..O...................O..O........................................................................................................
.......O.O.....O.....O.....O.O.......OO.................OO.......O.O.....O.....O.....O.O...................................................................OO...O.OOOOOO.OOOOOO.O...OO...OO.................OO.....................................................................................O...O...O...O........O.................O............................................................................................................
........O....OOO.....OOO....O.........O.................O.........O....OOO.....OOO....O.....................................................................O.O...OO.........OO...O.O.....O.................O......................................................................................OO...O.O...OO......O..O......OOO......O..O..........................................................................................................
........................................OO...........OO...................................................................................................O.OO...O.............O...OO.O.....OO...........OO........................................................................................O.OO..O..OO.O..O....OOOO....O...O....OOOO....O......................................................................................................
............OO.O.....O.OO...............O.............O...............OO.O.....O.OO.......................................................................O.O......OOO.....OOO......O.O.....O.............O............................................................................................OOOOO.......O.OO.O...O.OO...OO.O...O.OO.O.......................................................................................................
..........OO.OO.O...O.OO.OO..............O...........O..............OO.OO.O...O.OO.OO.....................................................................OO.........................OO......O....................................................................................................OO.....O.....OO...O.....O.OOOOO.OOOOO.O.....O........................................................................................................
..........OO.OO.OO.OO.OO.OO..............OO.........OO..............OO.OO.OO.OO.OO.OO.................................................................................O...O..................OO....................................................................................................OO.........OO..............O.....O..................................................................................................................
.......OO........O.O........OO..........OO...........OO..........OO........O.O........OO...........................................................................O...O.O...O..............OO....................................................................................................OO.OO.....OO.OO........O..OO.......OO..O.............................................................................................................
.....OO...O.OOOOOO.OOOOOO.O...OO...............................OO...O.OOOOOO.OOOOOO.O...OO...................................................................OO.....O.O...O.O.....OO...............................................................................................................O...........O........O..O.O.......O.O..O............................................................................................................
......O.O...OO.........OO...O.O.........O.O.........O.O.........O.O...OO.........OO...O.O..................................................................O..O...................O..O......O.O.................................................................................................OO.O.OO.....OO.O.OO....OO....OO.....OO....OO...........................................................................................................
....O.OO...O.............O...OO.O......OO.OO.......OO.OO......O.OO...O.............O...OO.O...................................................................O...................O........OO.OO....................................................................................................O.........O.........O.O.OO.......OO.O.O............................................................................................................
....O.O......OOO.....OOO......O.O......OO.OO.......OO.OO......O.O......OOO.....OOO......O.O................................................................OO.......................OO.....OO.OO......................................................................................................................O.OO.O.O.......O.O.OO.O..........................................................................................................
....OO.........................OO........O...........O........OO.........................OO..................................................................O.........OOO.........O.........O.......................................................................................................OO.....OO.......OO.....................OO.........................................................................................................
................O...O.....................................................O...O............................................................................OO.........O...O.........OO..............................................................................................................OOO.....OOO.......OO...................OO..........................................................................................................
.............O...O.O...O...............................................O...O.O...O.........................................................................OO.OO.OOOOOO.O.OOOOOO.OO.OO.............................................................................................................OOOO.....OOOO......OOOOOO...........OOOOOO..........................................................................................................
.......OO.....O.O...O.O.....OO...................................OO.....O.O...O.O.....OO..................................................................O...OO.OO.O...O...O.OO.OO...O............................................................................................................O...........O.....OO.OOOO...........OOOO.OO.........................................................................................................
.....O..O...................O..O..........O.........O..........O..O...................O..O................................................................OOOO.OO..O..OO.OO..O..OO.OOOO.............................................................................................................O..OO.OO..O......OO.O.O.............O.O.OO.........................................................................................................
........O...................O............O.O.......O.O............O...................O...................................................................OOO..OO.....OO.OO.....OO..OOO.............................................................................................................OOO.....OOO.......O.OO...............OO.O..........................................................................................................
.....OO.......................OO.........OOO.......OOO.........OO.......................OO.....................................................................OO....O.....O....OO...................................................................................................................OO.....OO........O....OO.........OO....O..........................................................................................................
.......O.........OOO.........O.........OO....O...O....OO.........O.........OOO.........O.......................................................................O.................O...............................................................................................................OO.OO.......OO.OO.....O....O.........O....O...........................................................................................................
.....OO.........O...O.........OO.......O..O...O.O...O..O.......OO.........O...O.........OO......................................................................................................................................................................................................O...OO.......OO...O.....O....O.......O....O............................................................................................................
.....OO.OO.OOOOOO.O.OOOOOO.OO.OO......O...OO..O.O..OO...O......OO.OO.OOOOOO.O.OOOOOO.OO.OO........................................................................OO.........OO..............OO................................................................................................O.....O.......O.....O......OOOOO.....OOOOO..............................................................................................................
....O...OO.OO.O...O...O.OO.OO...O...OO.OOO..OO...OO..OOO.OO...O...OO.OO.O...O...O.OO.OO...O......................................................................OO...........OO.............O.................................................................................................OO.O..OO.....OO..O.OO......OOO.O.....O.OOO..............................................................................................................
....OOOO.OO..O..OO.OO..O..OO.OOOO.....O.................O.....OOOO.OO..O..OO.OO..O..OO.OOOO.......................................................................OO.........OO......OOO.......................................................................................................OO.O...O.....O...O.OO.....OO..OOO...OOO..OO.............................................................................................................
....OOO..OO.....OO.OO.....OO..OOO.............................OOO..OO.....OO.OO.....OO..OOO......................................................................O.O.........O.O....O.OOO.........................................................................................................O.OOO.....OOO.O........O...............O.............................................................................................................
.........OO....O.....O....OO.......................................OO....O.....O....OO............................................................................O...........O....OOOO.OOO......................................................................................................O.OO.........OO.O........O.............O..............................................................................................................
.........O.................O.......................................O.................O............................................................................................OOO.....OOO..OOO.....................................................................................................................................................................................................................................................
...................................................................................................................................................................................OO...OO..O.OO.O...............................................................................................OO.............OO...............O.....................................................................................................................
............OO.........OO.................OO.......OO.................OO.........OO.................................................................................................O........O..................................................................................................OOOOOO.......OOOOOO.............OOO....................................................................................................................
...........OO...........OO..................O.....O..................OO...........OO.................................................................................................O.OO........................................................................................................O.OOO.......OOO.O..............O.O....................................................................................................................
............OO.........OO....................O...O....................OO.........OO...................................................................................................O.O.O.....................................................................................................OO...O.......O...OO...........OO...OO..................................................................................................................
...........O.O.........O.O..........O........O...O........O..........O.O.........O.O....................................................................................................O.O...................................................................................................................................O.O.O.O..................................................................................................................
............O...........O..........O.O.O.O...........O.O.O.O..........O...........O..................................................................................................................................................................................................................OOO...OOO...............O.......O.................................................................................................................
...................................O.......................O.......................................................................................................................................................................................................................................OOO.O...O.OOO.............O...O...O.................................................................................................................
....................................OO.O...O.......O...O.OO..................................................................................................................................................................................................................................OO....O....O.O....O....OO.......O.......O.................................................................................................................
.........................................O...........O.....................................................................................................................................................................................................................................OO.OO.....OOO...OOO.....OO.OO.....O.OO.OO.O.................................................................................................................
...........................................................................................................................................................................................................................................................................................OO.....O.............O.....OO.....O.......O.................................................................................................................
............................................................................................................................................................................................................................................................................................O.OOOOO....O...O....OOOOO.O.....OOO.....OOO................................................................................................................
..............................................................................................................................................................................................................................................................................................OO..O....O...O....O..OO.......OOOOO.OOOOO................................................................................................................
.............................................................................................................................................................O...........O.....................................................................................................................OO.OOO.........OOO.OO...........OO.OO...................................................................................................................
............................................................................................................................................................O.O.........O.O..................................................................................................................O.....OO.........OO.....O..........OOO....................................................................................................................
....................................O......O.......O......O................................................................................................OO.OO.......OO.OO......................................................................................................................O.............O......................................................................................................................................
.....................................OOO...OOO...OOO...OOO.................................................................................................O...............O.............OOO.OO..............................................................................................O..O.................O..O..........OOO....................................................................................................................
.....................................O..OO.OOOO.OOOO.OO..O.................................................................................................OOO..O.....O..OOO.....O.O......OOO.................................................................................................O.O.................O.O..........O...O...................................................................................................................
.........................................O....O.O....O...................................................................................................O.......O...O.......O...O..O....O....................................................................................................O.....................O..........OO.OO...................................................................................................................
.......................................OOO....O.O....OOO..................................................................................................OO..OO.OO.OO.OO..OO........O.......................................................................................................OOO...................OOO..........OOO....................................................................................................................
.........................................OOOOO...OOOOO....................................................................................................O.O....O...O....O.O.....O.O.......................................................................................................O..O...................O..O................................................................................................................................
..........................................OOO.....OOO..................................................................................................OOO.OOO..OO...OO..OOO.OOO............................................................................................................O.........................O..........O.....................................................................................................................
.......................................................................................................................................................OO.OOOO.OOO...OOO.OOOO.OO.............................................................................................................OOO.........O.........OOO.........OO.OO...................................................................................................................
........................................................................................................................................................OOOO....OO...OO....OOOO...............................................................................................................O.........OOO.........O..........OO.OO...................................................................................................................
.........................................................................................................................................................O.....OO.....OO.....O.........................................................................................................................O...O....................O.O....................................................................................................................
.............................................................................................................................................................O..O.....O..O...................................................................................................................OO...OO...O.O.O...OO...OO.....O...OO.OO...O...............................................................................................................
............................................................................................................................................................OOO.O.....O.OOO.................................................................................................................O.OO.OO.OOOO.O.OOOO.OO.OO.O....OOO.OO.OO.OO.O..............................................................................................................
...........................................................................................................................................................O.....OO.OO.....O.....................................................................................................................OO.OO..OOO..OO.OO..........OO.OO.OO.OO.O..............................................................................................................
..........................................................................................................................................................OOO.OO.OO.OO.OO.OOO......................................................................................................................O.O.......O.O............OOOOO.OOOOO................................................................................................................
.......................................................................................................................................................OO.OO...............OO.OO................................................................................................................O..OOO.......OOO..O...........OO...OO..................................................................................................................
......................................................................................................................................................OO.OO.OO.OOOO.OOOO.OO.OO.OO..............................................................................................................O...OO.........OO...O..........O.....O..................................................................................................................
................................................................................................................................................................OO...OO.......................................................................................................................OOO.................OOO..................................................................................................................................
.......................................................................................................................................................O.......................O.............................................................................................................O..O..OO.........OO..O..O.................................................................................................................................
....................................................................................................................................................OO.OO......O.......O......OO.OO.............................................................................................................O..OO.........OO..O....................................................................................................................................
.....................................................................................................................................................OO........OO.....OO........OO...........................................................................................................O.....OO.........OO.....O.................................................................................................................................
..............................................................................................................................................................................................................................................................................................OOOOOO...........OOOOOO..................................................................................................................................
................................................................................................................................................................OOO.OOO..........................................................................................................................OO.............OO.....................................................................................................................................
........................................................................................................................................................OO...................OO...................................................................................................................O.............O.............OO.......................................................................................................................
.........................................................................................................................................................OO.................OO..................................................................................................................OOO.............OOO..........O..O......................................................................................................................
......................................................................................................................................................OOO.....................OOO..............................................................................................................OOOO.............OOOO..........OO.......................................................................................................................
.......................................................................................................................................................OO..........O..........OO................................................................................................................OO..O.........O..OO....................................................................................................................................
........................................................................................................................................................O.........OOO.........O................................................................................................................O..OO.OO.....OO.OO..O...................................................................................................................................
......................................................................................................................................................O..O...OOO.O...O.OOO...O..O.................................................................................................................OOOO.......OOOO......................................................................................................................................
.....................................................................................................................................................O.O.OO.O..O.O...O.O..O.OO.O.O...............................................................................................................O...............O.....................................................................................................................................
.....................................................................................................................................................O.............O.............O.....................................................................................................................O...O...........................................................................................................................................
....................................................................................................................................................O...O....OO.OO...OO.OO....O...O..................................................................................................................O..O.O..O............OO...........................................................................................................................
.....................................................................................................................................................O..O...O...O.O.O.O...O...O..O...................................................................................................................O.O...O.O...........O..O..........................................................................................................................
......................................................................................................................................................O..O.......O...O.......O..O.........................................................................................................................................OO..........OO...............................................................................................................
..........................................................................................................................................................OO...............OO........................................................................................................................................................OOO...............................................................................................................
......................................................................................................................................................................................................................................................................................................................................OOO..............................................................................................................
............................................................................................................................................................OOO.........OOO..............................................................................................................................................................O.............................................................................................................
............................................................................................................................................................O.............O................................................................................................................................................O...........................................................................................................................
..............................................................................................................................................................O.........O.................................................................................................................................................O.O..........................................................................................................................
............................................................................................................................................................O.O.........O.O....................................................................................................................................................OOO.....................................................................................................................
.............................................................................................................................................................O...........O......................................................................................................................................................O......................................................................................................................
...............................................................................................................................................................................................................................................................................................................................O.......OO..............................................................................................................
.......................................................................................................................................................................................................................................................................................................................................OO..............................................................................................................
............................................................................................................................................................................................................................................................................................................................O..........................................................................................................................
...........................................................................................................................................................................................................................................................................................................................OO..........................................................................................................................
..........................................................................................................................................................................................................................................................................................................................OO...........................................................................................................................
..........................................................................................................................................................................................................................................................................................................................O............................................................................................................................
.........................................................................................................................................................................................................................................................................................................................OO............................................................................................................................
.........................................................................................................................................................................................................................................................................................................................OOO...O.......................................................................................................................
.............................................................................................................................................................................................................................................................................................................................O.O.......O...............................................................................................................
.......................................................................................................................................................................................................................................................................................................................OOO.O..O.......O.O..O...........................................................................................................
...........................................................................................................................................................................................................................................................................................................................OO.............O.O..........................................................................................................
.......................................................................................................................................................................................................................................................................................................................OOO..OO........OOOOOO...........................................................................................................
........................................................................................................................................................................................................................................................................................................................OOO.O..........................................................................................................................
..........................................................................................................................................................................................................................................................................................................................OO...........................................................................................................................
..........................................................................................................................................................................................................................................................................................................................O............................................................................................................................
