!Name: ships-c4d-spark
!C Some c/4 diagonal spaceships with sparks that may be useful.
!Source: jslife-moving
!
.......................................OO.O............................................................................................................................................................................................................................
.......................................O...O...........................................................................................................................................................................................................................
.......................................O....O..........................................................................................................................................................................................................................
.........................................OO............................................................................................................................................................................................................................
.........OO.O..............................O.O.........................................................................................................................................................................................................................
.........O...O.........................................................................................................................................................................................................................................................
.........O....O..............................OO........................................................................................................................................................................................................................
...........OO.................................O..O.....................................................................................................................................................................................................................
.............O.O.......................................................................................................................................................................................................................................................
.............................................OO..O.....................................................................................................................................................................................................................
........O......OO............................O.........................................................................................................................................................................................................................
.......OOOOO....O..O...................................................................................................................................................................................................................................................
.OO....O......OO..............................OOO......................................................................................................................................................................................................................
.O.O...........O.......................................................................................................................................................................................................................................................
.O.....O.OO......O.O......................O....OO......................................................................................................................................................................................................................
..OO....O....O.O.........................OO............................................................................................................................................................................................................................
..O..O......OOO..........................O.O..OO.......................................................................................................................................................................................................................
..O......OO.OO...............................OOO.......................................................................................................................................................................................................................
....O.O.O..O................................O..O.......................................................................................................................................................................................................................
.......................................OO..............................................................................................................................................................................................................................
......O....O...........................O.O..OO.........................................................................................................................................................................................................................
.......OOOO............................O..O.OO.........................................................................................................................................................................................................................
...........................................OO..........................................................................................................................................................................................................................
......................................O...OOO..........................................................................................................................................................................................................................
..............................OO.....OO...OO...........................................................................................................................................................................................................................
.............................OO.....O..................................................................................................................................................................................................................................
...............................O....O.O................................................................................................................................................................................................................................
.................................OO..O.................................................................................................................................................................................................................................
.................................OO....................................................................................................................................................................................................................................
..............................................................................................................................................................................................................................................OO.......................
......OO.....................................................................................O...........................................................................................................................OO..................OO........................
.....OO......................OO........................OO...................................OO...........................................................................................................................O.O..................O.O......................
......O.O....................O.O.......................O.O..................................O.O..........................................................................................................................O....................OOO......................
......OOO....................O.........................O........OOO..................................................OOO.....................OOO......................OO....................................................O.................OO.......................
......OO........................O.........................O...OO.OO............................OO....................O.......................O.......................OO...O................................................O.O..................O.O....................
........O.O.....................OO........................OO.O.................................OO.....................O.......................O........................O.OO................................................O.O.........................................
................................OO...........................OOO........................................................OO......................O..................O.....OOO...............................................O....O.................O.O..................
..........O.O..................OO..........................................................O.OO..........................O.....................OOO................OO.....O.................OOO....................OO.......O...OO...................OOOO...............
............OOO............OO.OO..........................O...O.O....O....................OOOO.....................................................OO.............O.O......OO..............O.........OO...........O.O...OOOO...O.O..................O..OO..............
............O..............O....O........................OO.O.OOO...OOOOO.OOOO............O...OO......................OO...............OO......O.O..O.OO....................OOO.............O......OOO.O..........O...O..............................O....O............
...........O...............O.OOOO....OO..................O...O........OOO....OOO...............O..O...................OO...............O.O.......OO.O...............OOO.....O...O.............OO..OO.................OO....O...OO.....................OO...O...........
......O.OO.O....O..............OO...OO.O................OO.....O...O....O.OOO................................OO......O...OO............O...O.O.....................OOO.......O..O..............O.....................O...O.....O.......................O...............
.....OO.OO.O...................OO....O..................O......O..O..O......O................OOO...O.........O.O...OO.O...................OO.....O.OO................O.O......OO.OO................O..................................O.........OOO...OO...............
.....O.O....O..................OO....O.O.................O........O..........O...O........OO...O.............O.....OO.O..O..O..............O.OO.O.....O.OO.............OOO.......OO............OO...O....................OOOO...OO.O.OO.........O....O...OO............
..........OO.....................O..OO.O.......................O.OO.O.......O.............O..O.O.OO.............O....OO..OO...................O.......OO.OO.............O.O....O..O...........O.O.OO....................OOOO...OOO...OO..........O...O...O..O.O........
..........O...O.................OO............................OO.............O..O.........O.O...................OO.....O....................O...O.....O.OOO.............O..O......O.OO........O.O..O.OO.................O............O..............O...OOO..O.OO......
.........O...O..................O....O...O....................O.O.............O..................O..................O..O....................OOO.O......OO..................O.O..OOO..........O....OO.........................O..O.O.O..O.............OO.OOO............
.................................O....O....OO....................................................O.......................................................................OO....O.............OO................................OO...O...O.............O.OOO..O.........
.........O..O..........................O.O...OO.................O..............................O.....................OO......................O...OOO.......................OO..O.............OO................................O..O.O..................OO...OO.........
........OO.O............................O.....OOO.............OO...............................O.O...................O.O.....................O....O.O......................OOOOO................................................O.....................O.O....OO........
........O..................................OOO.................................................O.O...............................................O.OO.........................................................................OOOO.OOO...............OOO....O..........
.......OO....................................O................OO..........................OO....OOO..............................................OOO..........................O...............................................OO..O..O.O...............O.....O.O.......
.......O......................................O...O...........OO.O.O......................O..OO...................................................OO..........................O................................................................................O.......
........O....................................O...................O...O....................O....O.......................................................................................................................................................................
..............................................O..O............OO.....O......................O..O..............................................................................................................................................................O........
...............................................O................OOOOO........................O...............................................................................................................................................................OOO.......
..............................................................................................O.............................................................................................................................................................OOOOOOO....
.............................................................................................................................................................................................................................................................OOOO...OO.
..................................................................................................................................................................................................................................................................O.OO.
......................................................................................................................................................................................................................................................................O
.....................................................................................................................................................................................................................................................................O.
....................................................................................................................................................................................................................................................................OO.
....................................................................................................................................................................................................................................................................O.O
.........O.............................................................................................................................................................................................................................................................
........OO.............................................................................................................................................................................................................................................................
........O.O............................................................................................................................................................................................................................................................
...........OO..........................................................................................................................................................................................................................................................
...........OO..........................................................................................................................................................................................................................................................
.......O.OO............................................................................................................................................................................................................................................................
......OOOO.............................................................................................................................................................................................................................................................
......O...OO...........................................................................................................................................................................................................................................................
...........O..O........................................................................................................................................................................................................................................................
..........OO...O.......................................................................................................................................................................................................................................................
..........OO...O.......................................................................................................................................................................................................................................................
...........O...........................................................................................................................................................................................................................................................
...........O...........................................................................................................................................................................................................................................................
............OO.........................................................................................................................................................................................................................................................
.............................................................OO.O......................................................................................................................................................................................................
.............................................................O...O.....................................................................................................................................................................................................
..........OO...................................OO............O....O....................................................................................................................................................................................................
.........OO...................................OO...............OO......................................................................................................................................................................................................
...........O....................................O................O.O...................................................................................................................................................................................................
.............OO........................................................................................................................................................................................................................................................
............O.....O...........................O....................OO..................................................................................................................................................................................................
................OO.O.........................O.OOO.O................O..O...............................................................................................................................................................................................
.................O...O......................O...O......................................................................................................................................................................................................................
.............OO..OOO.......................OO.OO...................OO..................................................................................................................................................................................................
.............OO.O.....................OOO..O..OO...................OO..................................................................................................................................................................................................
.O.............O...O..................O.....OO...OO....................O...............................................................................................................................................................................................
OO...........OO.....OO.................O...O.O.......................OO.OO.............................................................................................................................................................................................
O.O..........OOO..........................O..........................OOOOOO............................................................................................................................................................................................
....O.......O.OO...........................O..O.....................O..OOO.............................................................................................................................................................................................
...O...OO.OO.O..O............................O.......................OO....O...........................................................................................................................................................................................
...O...OO.OOO.....................OOO.................................O....O.O.........................................................................................................................................................................................
.........O.OO.....................O.........O.........................OO...............................................................................................................................................................................................
.....O..O....O.....................O..OOOOOO.........................O.......O.O.......................................................................................................................................................................................
.....OOO.............................O................................OO...............................................................................................................................................................................................
....O..O..............................OO.......................................O.O.....................................................................................................................................................................................
.....O.O.O.....................................................................O.O.....................................................................................................................................................................................
..........O.....................................................................O......................................................................................................................................................................................
......O...O....................................................................O.......................................................................................................................................................................................
...............................................................................O.O.....................................................................................................................................................................................
.................................................................................O.....................................................................................................................................................................................
.................................................................................OO....................................................................................................................................................................................
..................................................................................O.OO.................................................................................................................................................................................
......................................................................................O................................................................................................................................................................................
...................................................................................OO..................................................................................................................................................................................
...................................................................................OO..................................................................................................................................................................................
.....................................................................................O.................................................................................................................................................................................
......................................................................................OO...............................................................................................................................................................................
............O..........................................................................................................................................................................................................................................................
...........OO..........................................................................................................................................................................................................................................................
......O....O.O.........................................................................................................................................................................................................................................................
.....OO................................................................................................................................................................................................................................................................
.....O.O.....O.OO......................................................................................................................................................................................................................................................
............OO.........................................................................................................................................................................................................................................................
........OO..OO.........................................................................................................................................................................................................................................................
........OO..OO.........................................................................................................................................................................................................................................................
....O....OO....OO......................................................................................................................................................................................................................................................
...OOOO..OOOO....O.....................................................................................................................................................................................................................................................
...O..OOO...OOO........................................................................................................................................................................................................................................................
.....O.........O.......................................................................................................................................................................................................................................................
......OOOOO..O.........................................................................................................................................................................................................................................................
..........O....OO......................................................................................................................................................................................................................................................
...........OO..........................................................................................................................................................................................................................................................
......................................OOO..............................................................................................................................................................................................................................
...........OO.........................O................................................................................................................................................................................................................................
..........OO...........................O...............................................................................................................................................................................................................................
............O............................OO............................................................................................................................................................................................................................
..............OO........................OO.............................................................................................................................................................................................................................
.............O...................OO....................................................................................................................................................................................................................................
.................................O.....O...............................................................................................................................................................................................................................
............O..O.................O.O...O...............................................................................................................................................................................................................................
....OO.....OO..............OOO....O.O..O...............................................................................................................................................................................................................................
...OO.....O................O......O.OO..O.O............................................................................................................................................................................................................................
.....O....O.O...............O....OO....................................................................................................................................................................................................................................
.......OO..O..................OOOOO...O................................................................................................................................................................................................................................
.......OO......................OO....O.................................................................................................................................................................................................................................
...........................................OOO....OO.O.................................................................................................................................................................................................................
............OO..O..........................O......O...O................................................................................................................................................................................................................
...........OO....O..........................O.....O....O...............................................................................................................................................................................................................
............O.O...............................O.....OO.................................................................................................................................................................................................................
.......OO..OOOOO.OO..........................OO.OO.....................................................................................................................................................................................................................
......OO..OOO.....OO.O.................................................................................................................................................................................................................................................
.OO....O.O.OO...OO..........................O..........................................................................................................................................................................................................................
.O.O...OO..O...OOOO..OO.............OO..O...O..O.......................................................................................................................................................................................................................
.O......O.OOO..O......O............OO....O..O..........................................................................................................................................................................................................................
....O......OO........................OO.O..............................................................................................................................................................................................................................
....OO............OOO.OO...............O.O.O.O.........................................................................................................................................................................................................................
........................................OO.............................................................................................................................................................................................................................
.....................O..................OO.............................................................................................................................................................................................................................
.....................O...................O.............................................................................................................................................................................................................................
.....................O.................................................................................................................................................................................................................................................
....................OO.................................................................................................................................................................................................................................................
...................OO.O................................................................................................................................................................................................................................................
....................O.OO...............................................................................................................................................................................................................................................
............OO.......OO................................................................................................................................................................................................................................................
...........OO...O......................................................................................................................................................................................................................................................
.............O.OO......................................................................................................................................................................................................................................................
...............OOO.....................................................................................................................................................................................................................................................
...............O.......................................................................................................................................................................................................................................................
.................OOO...................................................................................................................................................................................................................................................
..........OO.O....OO...................................................................................................................................................................................................................................................
..........O.OO...O.O...................................................................................................................................................................................................................................................
....OO....O.OO...OOO...................................................................................................................................................................................................................................................
...OO......O.....OOO...................................................................................................................................................................................................................................................
....O.O....OO....O.O...................................................................................................................................................................................................................................................
....OOO....OO..OO......................................................................................................................................................................................................................................................
....OO......O.O........................................................................................................................................................................................................................................................
......O.O...OO...O.....................................................................................................................................................................................................................................................
............OOOO.......................................................................................................................................................................................................................................................
........O.O............................................................................................................................................................................................................................................................
..........OOOO.........................................................................................................................................................................................................................................................
..........OOOO.........................................................................................................................................................................................................................................................
...........OO..........................................................................................................................................................................................................................................................
