!Name: varwidth-p2
!C This doesn't look like much, but it is the first
!C period-2 spaceship found that is one cell wider in
!C one phase than the other.
!C Jason Summers, 20 Apr 2000
!Source: jslife-moving
!
..............OOO...........OOO.......................
.............O...O.........O...O......................
.......OOO..OO....O.......O....OO.....................
......O..OOO.O.OO.OO.....OO.OO.O.O....................
.....O....O..O....O.OO.OO.O....O.OO...................
.....O....OO..O...O..O.O..O...O....O..................
.......O.............O.O..............................
..OOO.O...........OO.O.O.OO.......OO..................
.OO.O.O.OOOOO...O....O.O..............................
.O.O.O..O.OOO.OO.O.........OOO........................
OO..OOO.....O................O........................
...O..........O.......................................
OO.O.OO........OO............OO..........O............
..O.O................................OO.OOO...........
.O.O.O.OOO.........................OO.O...OO..........
....OO...O.....................OOOOO....O..OO.........
..OO.......................OO.OO.O.O.O.....O..........
.....OO..OO...........O..OO.O...O...O......OO.........
....................OO.OOO....O..........O.O.OO.......
...OOO.............O...O.O.O...O........OO.O.O........
.OO.O.O...........OO.O.O..O............O...O.O.OO.....
.O....O..........O.O...O...................O...OO.....
...O............OO..O.O............O...OO...O.OOO.....
OO.O.OO........O.O.............OO.OOO...........OO....
...O..........OO.............OO.O...OO................
.O.O.O.......O.O.........OOOOO....O..OO...............
............OO.......OO.OO.O.O.O.....O................
..O.O......O.O.....OO.O...O...O......OO...............
.O..O.....OO......O.....O..........O.O.OO.............
..O......O.O.....O...O...O........OO.O.O..............
........OO.......O...O...........O...O.O.OO...........
.OO....O.O..O...OO.O.................O...OO...........
O.....OO....OO..O.OOO............OO...O.OOO...........
.O.....O.O....O.O...O.....................OO..........
...OOO.OOOO.O.O..O.O.........O.................O......
..OO.O..OO....O.............OOO...............OOO.....
.....O.....O.O............OO.OOO.............OOO.OO...
..O........................O..O.OO....O....OO.O..O....
.....OO.................OO.O....O.O.OO.OO.O.O....O.OO.
..OO...O................OO.O.O..O.O.......O.O..O.O.OO.
....O............OOO....O........OOO.O.O.OOO........O.
..O...OO.........O..O..OO.......OO.........OO.......OO
.O.O.................O................................
O..O............OO...OOOO.............................
O...........OOOOOO..O.O...............................
..O........OO.O..OO..........O........................
OO.......OO.O.OO.........OO.OOO.......................
..........O..O.........OO.O...OO......................
OO.....OO.O..OOO...OOOOO....O..OO.....................
OO.....OO.O.OO..O.OO.O.O.O.....O......................
OO..OOOOO.O.....O...O...O......OO.....................
.OO..O....O.OO....O..........O.O.OO...................
..O...O...OO.......O........OO.O.O....................
......O..O.O...............O...O.O.OO.................
..OOO..OOO.....................O...OO.................
.OOOO.O.O..................OO...O.OOO.................
......O...OOO...OO....O.............OO................
...OO.O..OOOO.OO..OO.OOO..............................
...OO.OO....O........OOOO.............................
..O...O.OO....O...O.OO..OO............................
.........O.....OO.......O.............................
..OO.OO.O.O.............OO............................
.........OOO..........O.O.OO..........................
...........OO........OO.O.O...........................
...........O........O...O.O.OO........................
...........OO...........O...OO........................
.........O.O.OO.....OO...O.OOO........................
........OO.O.O...............OO.......................
.......O...O.O.OO.....................................
...........O...OO.....................................
.......OO...O.OOO.....................................
................OO....................................
