!Name: p00038
!C p38 pseudo period gun based on a single p114 herschel factory
!C by Dave Greene.  Longer herschel track found using Hersrch
!C Karel Suhajda, 23 Aug 2003
!Source: guns1j-20121211
!
....................................................................................................................................OO............O.......................................................
...................................................................................................................................O..O.........OOO.......................................................
..................................................................................................................................O.O.O........O..........................................................
..................................................................................................................................O.O.OO.......OO.........................................................
................................................................................................................................OO.O...O..................................................................
................................................................................................................................O..O.OOO.....O............................................................
.............................................................................................................................OO.O.O.O..O....O.O..............OO...........................................
.............................................................................................................................O..O.....OO.....OO..OO.........O.O...........................................
..............................................................................................................................OO....O.O..........OO.........O.............................................
................................................................................................................................OOOOO.O...............OO..OO.OOOO.........................................
...............OO...............................................................................................................O....O................O..O.O.O..O.........................................
........OO.....OO..............................................O.................................................................OOOO..........OO.......OO....O..OO.......................................
........OO...................................................OOO..................................................................O............O.O.......O.OO..OO..O......................................
............................................OO..............O.........OO...OO...................................................O..............O.........O.O.OO..OO.O.....................................
............................................O...............OO........OO...OO...................................................OO........................O.....O...O.....................................
..........OO.................................O........................OO...................................................................................OOO.O.OOO......................................
..........OO................................OO...............................................................................................................O.O.O........................................
....OO..............................................................O.O...........OO......................................................................................................................
....OO............................................................O..OO...........O...........................................................................OOO.........................................
.................................................................O...O..OO......O.O.......................................................................................................................
................................................................O....O..O.......OO........................................................................................................................
.....................................OO...O.....................O..OO..O...O..................................................................................O...........................................
............................O...OO...O..OOOO....................OO.O.OOO....O................................................................................O.O..........................................
...........................OO....OOO......................O.O.......OO.....O.................................................................................OO...........................................
..........................OO........O.....OO..............O..........O.O....O....................................OO.....OO.......................................OO.......................................
...........................OOOOO..O.O.....................O..O.......O.....O......................................O.....OO.......................................O.O......................................
.............................OOO...O.O...OO.OO.............OO.........OO..........................................O.O.......................................OO.....O......................................
......................................OOOO.O........................O....O...OO....................................OO.......................................OO.....OO.....................................
...................................................................O.....O...O.........................................OO.................................................................................
...................OO.OO........................OO.............O....O.........OOO.....................................O.O.................................................................................
.O................O.O.O.O......OO...............O..............O....O...........O......................................O..................................................................................
.OOO.............O..O.O.O......O.................O..................O.....................................................................................................................................
....O.................O.OO......OOO.............OO.................O.O....................................................................................................................................
...OO................OO...O.......O................................O.O...............................................OOO..................................................................................
..................O.O..O.O..........................................O.....................................................................................................................................
..................OO..OO.OO.........................................................................................O.O.O..........O......................................................................
..................................................................................................................OOO.O.OOO......O.O......................................................................
................................................................OO...............................................O...O.....O......OO......................................................................
................................................................OO...............................................O.OO..OO.O.O.............................................................................
.......OO............OO..................................................OO..................................O....O..OO..OO.O...........O.......O.........................................................
.......O..O..........O...................................................O.O.................................OOO...OO..O....OO..........OO......OOO.......................................................
.......O..O........O.O.....................................................O.........O..........................O....O..O.O.O..O.......O.O.........O......................................................
.......OO.OO.......OO......................................................OO......OOO.........................OO....OOOO.OO..OO..................OO......................................................
........OO.OO.....................................................................O......................................O..................................OO............................................
.......OO...OO....................................................................OO...................................O.O..................................O.............................................
..OO...O..OOO..........................................................................................................OO................................OO.O.............................................
..OO...O...........OO.................................................................................O..........OOO.......................................O..............................................
........O.O........O.O..............................................................................OOO...........OO......................................................................................
.........O...........O.............................................................................O.............O................................O....O..................................................
.....................OO.....................................................O.........OO...........OO...................................OO.......O.O....OO................................................
............................................................................OO........OO................................................OO......O.........................................................
......................................................................OO...O.O...................................................................OO.......................................................
....................................................................OOOO.........................................................................OO.......................................................
..OO...............................................................O....O..........................................................................O.OO...................................................
..O................................................................O..OOOO.........................................................................O..O...................................................
O.O................................................................OO.O.OO.................................OO......................................OOO....................................................
OO.....................................................OO...............OO...............................O................................................................................................
.......................................................OO............OOO...............................OO....OO...........................................................................................
.............................................................OO........................................O......OO.................................OO...O...................................................
.............................................................OO........................................O..OO..OOO...........OO....................O...OO..................................................
.................OO.O...................................................................................O.OO................O..................OOO....OO..................................................
.................O.OO........................................................................................................OOO...............O.......O..................................................
...........................................................OO..................................................................O..........................................................................
..........OO...............................................OO.....OO......................................................................................................................................
..........OO......................................................OO......................................................................................................................................
.....................................................................................OO...................................................................................................................
....................................................................................O.O...................................................................................................................
....................................................................................O.....................................................................................................................
...................................................................................OO.....................................................................................................................
OO........................................................................................................................................................................................................
.O..................................................................................................................................................................................................OO....
.O.O.........................................................................................................................................................................O......................O.....
..OO........................................................................................................................................................................OO...................OO.O.....
........................................................................................................................................................O...................O.O...............OO...O......
.........................................................................................................................O......OO......O...............OOO...................................O...........
.......................................................................................................................O.O.....O......OOO..................O..............................................
........................................................................................................................OO........O..O....................OO...........OO...................O....O........
..........O.........OO..........................................................................................................OO...OO................................OO...................O.............
.........OO.........O........................................................................................................................................................................O............
...........O......O.O..............................................................................................................O......................................................................
........OOO.......OO..............................................................................................................O.O...........................................................O.........
.........O........................................................................................................................O.O...........................................................OO........
...................................................................................................................................O.......................OO...................................O.........
........................................................................................................................................................O.OOOO...........................O......OOO.......
......................................................................................................................................OO...............OO.O...OO.........................O...OO...O.......
.....................................................................................................................................OO.......OO........O..OO.OO.............................O...O..OO....
.......................................................................................................................................O......OO.........OOOOOO...................OO..........OOO...O.O...
..................................................................................................................................OO......................O......................O.O..................O...
.................................................................................................................................O..O............................................O....................OO..
.OO.........................................................................................................................OO....OO............................................OO....OO..................
.OO........................................................................................................................O.O.................................OO....................O.O..................
...........................................................................................................................O..................................O.O....................O....................
.................OO.......................................................................................................OO..................................O.....................OO.......OO...........
.................OO.................................................................................................................OO..................OO..OO.OOOO....OO....................OO...........
.........................OO.........................................................................................................O...................O..O.O....O....O..................................
...O.OO..................O...........................................................................................................OOO..................OO.O..O..OO...OOO...............................
.OOO.OO................O.O.............................................................................................................O...................O.O...OO..O....O...............................
O......................OO..................................................................................................................................O.OO.O..OO.O...................................
.OOO.OO.....................................................................................................................................................O....O....O...................................
...O.O..O.OO.......OO........................................................................................................................................OOO.O.OOO....................................
...O.O.OOO.O........OO.........................................................................................................................................OOOOO...................................OO.
OO.O.O.............O.................................................................O............OO...................................................................................................O..
O.OO.OOO.............................................................................OOO.........O..O................................................................................................O.O..
........O...............................................................................O........O.O.O...............................................................................................OO...
.......OO..............................................................................OO.......OO.O.O....................................................................................................
...............................................................................................O....O.OO........................................................O.........................................
..........................................................................................O....OO.O.O..O.......................................................O.O........................................
.........................................................................................O.O...O...OO..O.OO....................................................OO.........................................
.....................................................................................OO..OO.....OO..O.OO..O........OO.....OO....O..................................OO..............OO.....................
.....................................................................................OO..........O.O.O..OO..........O.....OO....O.O................................O.O.......O.O....O.....................
...........OO............OO...........................................OO.........................O.OOOOO............O.O.........OO............................OO.....O.......OO.O.O.O.O...................
...........O.............O............................................O.O.........................O....O.............OO.......................................OO.....OO.........OO.O.OO...................
............OO.........O.O..............................................O..........................OOOO..................OO..........................OO......................OO....O......................
.............OO........OO...........................................OOOO.OO..OO......................O..................O.O.........................O.O......................O.OOOOO......................
..............OO....................................................O..O.O.O..O........................O.................O............................O........................O..........................
...........OO..OO.................................................OO..OO.O.OO.........................OO.....................................................OO...............O...OO......................
......OO...O...O.................................................O..OO..OO.O..................................................................................O..............O...O.O......................
......OO....OOO........OO.......................................O.OO..OO.O.O..................................................................................O.O............OO...O.......................
.............O.........O.O......................................O...OO....O......OO............................................................................OO..OO.....................................
.........................O.......................................OOO.O.OOO........OO...................................OOOOO.......................................OO........................OO...........
.........................OO........................................O...O.........O...................................OOO.O.OOO.........................................................OO....OO...........
....................................................................................................................O....O....O.......................OO.............................OO.OO................
.....................................................................O..............................................O.OO..O.OO.O.......................O.............................O..O.................
.....................................................................O...............................................O..OO...O.O.....................O...............................O..O.......OO........
......OO..............................................................................................................OO..O..O.OO..................OOOO...............................OO.......O..O..OO...
......O...............................................................O.................................................O....O.O..O...............O....O.......................................O.O....O...
....O.O..............................................................O.O................................................OOOO.OO..OO..............O.OO.OO........................................O.....O.OO
....OO................................................................OO....................................................O........OO..........O..O...OO...............................O.........OO.O.O.
..................................................................OO......................................................O.O........OO..OO.....OO.O..OO..O..............................O.........O..O..O
.................................................................O.O......................................................OO.............O.O..O....O.O.O.OO............................O.OO.....O....O..OO
.................................................................O.....OO.....................................O...........................O...O.OO..O..O.....OO.......................OO...O....OOOOO.....
.....................OO.O.......................................OO.....OO......................................O..............................O...O.O.OO....O.O................OO.........O.O.............
.....................O.OO....................................................................................OOO.......................OO.......OO.O.O......O..................O.O.......O..O.....OO.O....
........................................................................................................................................O........O.O.O.....OO....................O........OO......O.OO....
..............OO.....................................................................................................................OOO.........O..O......................OO....OO.......................
..............OO.....................................................................................................................O............OO............OOO........O.O............................
.............................................................................................................................................................................O............................
....................................................................................................................................................................OOO......OO...........................
....................................................................................................................................................................OOO...................................
.................................................................................................................................................................OOO......................................
.................................................................................................................................................................O.O.OO...................................
.................................................................................................................................................................O.O.OO...................................
....OO....................................................................................................................................................................................................
.....O....................................................................................................................................................................................................
.....O.O..................................................................................................................................................................................................
......OO..................................................................................................................................................OO.....OOO......................................
..............................................................................................OO...........................................................O....OO.OO.....................................
..............................................................................................O.O..........................................................O.O..OO.O.O....................................
..............OO..............................................................................O.............................................................OO...O...O....................................
.................................................................................................................................................................O..O.....................................
..............OO........OO........................................................................................................................................OOO.....................................
........................O....O.O..........................................................................................................................................................................
............O.O.......O.O.O.O.OO..........................................................................................................................................................................
.............O........OO.O.OO.................................................................................................................................................OO..........................
.............O...........O....OO.............OO...............................................................................................................................O...........................
.........................OOOOO.O.............O.......................O......................................................................................................O.O...........................
.............................O.............O.O.......................OOO....................................................................................................OO............................
.........................OO...O............OO...........................O.................................................................................................................................
.........................O.O...O.......................................OO.................................................................................................................................
..........................O...OO...........................................................................................................O....................................O.........................
........................................O...........O..........................................O.........................................O.O..........O........................O.O........................
.......................................OOO..........OOO......................................OOO..........................................OO........OOO........................O.O........................
..........................................O............O....................................O......................................................O..........................OO.OOO......................
......................................OOO.OO..........OO...........OO.........OOO.O.........OO.....................................................OO...............................O.....................
.....................................O...OO........................OO........O...O.OO.........................................................................................OO.OOO......................
...........OO.........................O......................................OO....O..........................................................................................OO.O........................
......OO..O..O........................O.O....................................O.OOOO....................................................O..................................................................
......O....O.O.......................................................................................................................OOO..................................................................
...OO.O.....O.........................................................................................................O..O..........O............................OO.......................................
....O.O.OO............................................................................................................O...O.........OO...........O..............O.O........OOO............................
...O..O..O........OOO.....................OO.........................................................................O....O.....................O.OOOO..........O.........O...OO..........................
...OO..O....O.........O..................O..O........................................................OO..............O....O....................O....O..........OO.........OOO.............................
........OOOOO....O....O..................OOO.........................................................OO..............O...O............................O.....................O..O..........................
................O.O..O.......OO...........OO..................................OO......................................O.O..............................O......................O...........................
.......O.OO.....O..O..........O..............................................O.O................................................................O.........................................................
.......OO.O......OO........OOO...............................................O.......................................................................OO............................OO.....................
...........................O................................................OO..........OO......................................................O..................................O......................
.........................................................................................O......................................................OOO.................................OOO...................
..............................................OO......................................OOO.........OO..................................................................................O...................
...............................................O....................OO................O...........O....................OO.................................................................................
............................................OOO.....................O.O............................O....................O..................................................OO.............................
............................................O.........................O...........................OO.................OOO......O.OO.................OO.........O..........OO.OO............................
......................................................................OO.............................................O......OOO.OO.................O.....................O..OO............................
...........................................................................................................................O........................OOO....OO............O.O.OOO..........................
............................................................................................................................OOO.OO....................O...O.O.............O...O.O.........................
..............................................................................................................................O.O.........................O.....................O.........................
..............................................................................................................................O.O..........OO............OO.....................OO........................
...............................................................................................................................O...........O.O.........................O..................................
.............................................................................................................................................O..........................O.................................
.............................................................................................................................................OO.......................OOO.................................
