!Name: p00066
!Source: guns1j-20121211
!
.............O.......................O.............
.............OOO...................OOO.............
................O.................O................
...............OO.................OO...............
.....................OO......O.....................
...................OO..O....O.O....................
................OO.OO..O...O....OO.................
...............OOO..OOO.....O.....O................
..............O......O........OO..O................
...............OOOOO...........O.OO................
................OOOO...............................
..................O................................
O................O................................O
................OOOO...............................
................OOOOO..........OO.O................
..............O......O.........O..OO...............
..O..........OOO..OOO..........O.....O..........O..
..OOO.......O..OO.OO............OO....O.......OOO..
.....O......O..OO..................O.O.......O.....
....OO.......OO.....................O........OO....
..........OO.......OO.........OO...................
.........O..O......O...........O.......OOO.........
......OO.OO.O.......OOO.....OOO....O...OO..O.......
....OO....OO.....O....O.....O....OO....OOO.OO......
....O..........O.O................OO.....OO.OO.....
....OO...O......OO..........................O......
......OOO..................................O.......
..............................O....................
.............................O.....O...............
.....OOO.................OOOOO...O.O........O......
....O...OO...............O........O.O......O.......
.........O................O.......O.......OO.OO....
..OO....OO..............O..................OO.OOO..
.O.OO.OO................O.O.................O..OO..
.O..O....................OO...................OOO..
..OO...............................................
........OO...............................OO........
........O........................O........O........
.........OOO......................O....OOO.........
...........O....................OOO....O...........
