!Name: p00088
!C P00088 gun - Trimmed 4 rows with N. Beluchenko's p4 toadsucker.
!C Technique identified by J. Summers.  - 21 Jan 2005 (S. Ellison)
!Source: guns1j-20121211
!
..............O................................
..OO..OOO..O.OO.....O..........................
..OO..OO.O.O.OO.O.O.O...OO.....................
....OOO......O....O..OO..O.....................
....O.................OO.......................
....O.................OOO......................
.........OO....................................
.........OO....................................
.............................OO................
...............O.............O.................
..............OOO..........O.O.................
.............OOOOO.........OO..................
OO..........OO...OO............................
OO.........OO.....OO...........OO.......O......
............OO...OO............OO.....OOO......
.............O...O...................O.........
.....................................OO........
.............O...O.............................
............OO...OO............................
OO.........OO.....OO....O.......O..............
OO..........OO...OO...OO.......OOO.............
.............OOOOO............OOOOO............
..............OOO........OO..OO...OO...........
...............O.......O.OOO..OOOOO............
.........................O.O...OOO.............
...........................O....O..............
.........OO...............O....................
.........OO...................................O
..............................OO............O.O
..............................O..............OO
....O.................OOO......OOO.......OO....
....O.................OO.........O.......OOO...
....OOO......O....O..OO..O.......O.OO..O..O.O..
..OO..OO.O.O.OO.O.O.O...OO......OO.OO..OO..OO..
..OO..OOO..O.OO.....O..................OO......
..............O................................
