!Name: p00083
!C p83x2
!Source: guns1j-20121211
!
............................................................................................................O.OO...............................
............................................................................................................OO.O...........................OO..
...........................................................................................................................................O...
..................O....................O...............O.........O.......................................................................O.O...
.................O.O.......O...........OOO.............OOO.....OOO.............................O.....................................OO..OO....
..................O......OOO..............O...............O...O.............OO.................OOO...................................OO........
.......O................O................OO..............OO...OO.............O....................O............................................
.......OOO..............OO..................................................O....................OO...........O................................
..........O.................................................................OO................................OO...............................
.........OO...................................O..............................................................O..O..............................
.............................................OO...............................................................OO...............................
.............................................O.O...............................................................................................
.............................O...........................................................................................................OO....
....OO......................OO............................O.................OOO......................................................O.O..O....
.....O.....................O.O.............................OO...............OOO.O..........................OO......................O.O.O.......
.....O.O..............................................OO..OOO....................O........................OOO..................................
......OO..............................................OO.....O...................OO.......................O..OO............................OO..
.......................................................O....O...................OO........................OO..O..........OO................O.O.
........................................................O...O...................O..........................O..O.........O.O..................O.
...................OO.............................O.......O................................................OOO..........O...........OO..O....OO
...................O.O......OO.......................O.................................................................OO....OO......OOO.......
.....................O......O...................O....O.....................................................................O..O.......O........
...........OOO.......OO......O.................O.OO..........OO......O...................OO................................OO..................
...........O..O.............OO.................O.............OO......OOO..................O.........................................OO.........
..........O...O...............................OO........................O..............OOO....................OO....................OO.........
..........OOO..O.......................................................OO..............O......................O................................
...........OOOO................................................................................................OOO.............................
.................................................................................................................O...........................OO
.................OO..........................................................................................................................O.
........O.O......O.O..........................................................................................................................O
........OO.........O.........................................................................................................................OO
.........O.........OO..........................................................................................................................
..........................................................................................................................OO.........O.........
OO.........................................................................................................................O.........OO........
O..........................................................................................................................O.O......O.O........
.O..........................................................................................................................OO.................
OO...........................O.................................................................................................................
.............................OOO................................................................................................OOOO...........
................................O......................O..............OO.......................................................O..OOO..........
.........OO....................OO....................OOO..............O........................OO...............................O...O..........
.........OO.........................................O..................OOO......OO.............O.................OO.............O..O...........
..................OO................................OO...................O......OO..........OO.O.................O......OO.......OOO...........
........O.......O..O.....................................................................O....O...................O......O.....................
.......OOO......OO....OO.................................................................O.......................OO......O.O...................
OO....O..OO...........O..........OOO................................................O.......O.............................OO...................
.O..................O.O.........O..O..........................O...................O...O........................................................
.O.O................OO..........O..OO........................OO...................O....O.......................................................
..OO............................OO..O.......................OO...................O.....OO..............................................OO......
..................................OOO........................O....................OOO..OO..............................................O.O.....
.......O.O.O......................OO..........................O.OOO...............OO.............................O.O.....................O.....
....O..O.O......................................................OOO.................O............................OO......................OO....
....OO...........................................................................................................O.............................
...............................................................................................O.O.............................................
...............................OO...............................................................OO.............................................
..............................O..O..............................................................O...................................OO.........
...............................OO................................OO.................................................................O..........
................................O...........OO....................O..................................................OO..............OOO.......
............................................O....................O.............OO...OO..............OO................O................O.......
........OO...................................OOO.................OO.............O...O...............O..............OOO......O..................
....OO..OO.....................................O.............................OOO.....OOO.............OOO...........O.......O.O.................
...O.O......................O................................................O.........O...............O....................O..................
...O.........................O.................................................................................................................
..OO.......................OOO.................................................................................................................
