!Name: p00067
!Source: guns1j-20121211
!
...................O....................O...............................
..................O.O.......O...........OOO.............................
...................O......OOO..............O.......................OO...
.......OO................O................OO.......................O....
........O................OO......................................O.O....
........O.O.....O.O..........................................OO..OO.....
.........OO.....O..O.........................................OO.........
.................................................O..O...................
.................O.OO.....OOO....................O...O..................
.................O.OO..OOO..O...................O....O..................
.....OO............O..O.....O...OO..............O....O..................
......O..........OOO...O..OO....OO..............O...O...................
......O.O...............OO.......................O.O....................
.......OO...............................................................
....................OO..................................................
.............O......O.O......OO....................................OO...
............OOO.......O......O...................OO................O.O..
...........O..OO......OO......O.................O.O..................O..
...........O.OO..............OO.................O.............O......OO.
.............OO.OO.............................OO....OO.....OOOOO.......
..........O.....O..................................O..O....OOO.OO.......
...........O....O..................................OO.......O..OO.......
............O..O.............................................OOO........
..............O...OO..........................................O.........
.........O........O.O...................................................
........O...........O...................................................
........OOO.........OO..................................................
......................................................................OO
..OO..................................................................O.
.O.O................................................................O.O.
.O..................................................................OO..
OO......................................................................
..................................................OO.........OOO........
...................................................O...........O........
...................................................O.O........O.........
.........O..........................................OO...O..............
........OOO.............................................O..O............
.......OO..O.......OO..................................O....O...........
.......OO.OOO....O..O..................................O.....O..........
.......OOOOO.....OO....OO.............................OO.OO.............
.OO......O.............O.................OO..............OO.O...........
..O..................O.O.................O......OO......OO..O...........
..O.O................OO...................O......O.......OOO............
...OO....................................OO......O.O......O.............
..................................................OO....................
...............................................................OO.......
....................O.O.......................OO...............O.O......
...................O...O..............OO....OO..O...OOO..........O......
..................O....O..............OO...O.....O..O............OO.....
..................O....O...................O..OOO..OO.O.................
..................O...O....................OOO.....OO.O.................
...................O..O.................................................
.........OO.........................................O..O................
.....OO..OO..........................................O.O................
....O.O......................................OO.........................
....O.......................OO................O.........................
...OO.......................O..............OOO......O.............O.....
.............................OOO...........O.......O.O.............O....
...............................O....................O............OOO....
