!Name: p00075
!CPseudo p75 gun
!CKarel Suhajda, 8 Mar 2004
!Source: guns1j-20121211
!
......................................OO.............................................
.....................................O.O.............................................
......................O.O...........O......OO........................................
.................O....O..O..........O..O..O..O.OO...........OO.......................
..................OO.....OO.........O......OO..OO...........O.O......................
.............OO........O...OO........O.O...............OO......O...........O.O.......
.............OO..........OO...........OO...........OO.O..O..O..O..........O..O.......
......................O..O........O................OO..OO......O.........OO......OO..
......................O.O..........OO.......................O.O........OO...O...O..O.
..................................OO........................OO...........OO......OO..
.................................................................O........O..O...OO..
......................O........................................OO..........O.O...O...
....................OOOO........................................OO..............O.O..
...........OO.....OOOO.OO.......................................................O.O..
.........O..O...O...OO.OOO........OO.............................................O...
OO......O.......O...OO.OO.........OO.....O.O.........................................
OO......O......O...OOOOO..................OO.........................................
........O.......OOO...O...................O...................................OO...OO
.........O..O...........................................O.O...................O.O.O.O
...........OO..........................OO...............OO.....................OOOOO.
.......................................O.................O......................OOO..
........................O............O.O.........................................O...
.........................OO..........OO...............O..............................
........................OO.......................OO...OO.............................
......................................................O.O............................
.......................................................OO............................
..........OO.........................................................................
..........OO.........................................................................
...........................OO...O.................OOO...........................OO...
...........................OO...OO..............................................OO...
................................O......................O...............OO............
......................................................O.................O..OO........
..........O...........................................O.................O.O..O.......
..........O.........O.........................OO.......................OO.O.O.O.OO...
.........O.O........OO.........................O........................O.....OO.O...
........OO.OO......O.O......................OOO.......................O...OOO........
.......O.....O.........................O....O..........O.............O.OOO.O.OOOO....
..........O.............................OO.............O........O....O...........O...
.......OO...OO.........................OO..............O.........OO...OOO.....OOO....
................................................................OO......O.....O......
.........................................................................OOOOO.......
............OOO......................................................................
............O.OO.....................................................................
..............OO.....................................................................
.............OO......................................................................
...........O.O.......................................................................
.........OO..O......................O.........................OO.....................
..................................O.O.........................OO.....................
.................................O.O.................................................
...........................OO...O..O.................................................
...........................OO....O.O.................................................
..................................O.O................................................
..........OOOOO.....................O................................................
.........O.OOO.O...........................................OO........................
..........O...O............................................O......OO.O.OO............
...........OOO..............................................O...OOO.O.O.OOO..........
............O..............................................OO..O...........O........O
.............................................OO...OO...........O.OOO.O.OOOO.......O.O
....................................O.O........OOO..............O...OOO............OO
....................................O..O......O...O...............O.O.O.OO.O.........
...........OO..............OO..........OO......O.O...............OO.O.O.O.OO.........
...........OO..............OO........O...OO.....O.................O.O..O.............
................................OO.....OO.........................O..OO..............
...............................O....O..O.........................OO..................
....................................O.O..............................................
