!Name: p00157
!Source: guns1j-20121211
!
.................................................OO...........................................................................
.................................................O..O.O.......................................................................
...................................................OO.OOO.....................................................................
.........................................................O....................................................................
...................................................OO.OOO.....................................................................
...................................................OO.O.......................................................................
................OO............................................................................................................
.................O............................................................................................................
...............O..............................................................................................................
...............OO.............................................................................................................
.......O..............................................................................................................O.OO....
.......OOO............................................................................................................OO.O....
..........O...................................................................................................................
.........OO.........................................................................................................OOOOO.....
..............................................................................................OO....................O....O..OO
............O.....OO...........................................................................O.......................O..O..O
...........OOO....OO...........................................................................O.O.......O.............OO.O.O.
..........OOO.OO................................................................................OO.......O..........O.....O.OO
.........O...OOO........................................................................................O.O........O.O....O...
........O....O............................................................................................O........O..O..OO...
.......OO...............................................................................................OO.OO...O...OO........
.......O.O...........................................................................OO..................O...O...O............
....O..O..O...........................................................................O......................O....O...........
...OO...O.O.................OO........................................................O.O..................OOOO...O...........
...O.O.......................O.........................................................OO................OO...................
..........................OOO...........................................................................OOO...O...O...........
..........................O.................OO..............................................O...........O..O.O....O...........
........................O.O..................O.............................................O............OO......O.............
........................OO................OOO..............................................OOO...........O....OO..............
..........................................O.............O................................................OO.OO................
OO.......................................................O.................................................O..................
O......................................................OOO....................................................................
..O.OO..................OO....................................................................................................
.OO.OO..................O.O...................................................................................................
..........................O...................................................................................................
.OO.OO....................OO..................................................................................................
..O.O.........................................................................................................................
..O.O....................................................................OO...................................................
...OO.OO.................................................................OO...................................................
.....O.O........................................................................................O.............................
.....O...............................OO........OOO.............................................O.O............................
....OO...............................O.........O...............................................O.O............................
...................................O.O.........O.OO.O...........................................O.............................
..................................O.O........O.OO.OOOO........................................................................
..............................OO...O........O..O..OO..OO......................................................................
..............................OO.............O.O..OO..OO.........OOO..........................................................
..............................................O....OO.OO..........OO.....OO...................................................
..................................O.................OO...........OOO....O..O..................................................
..................................OO.........................O.O.O.......OO....OOO............................................
.................................O.O........................O.....O..............O............................................
..........................................................O......OO.............O.............................................
......................O...................................O...OOOOOO..........................................................
....................OO............................................OO................OO........................................
....................OOO..OO...............................O...OOOO..................O.O.......................................
...................O.....OO...............................O....O......................O.......................................
....................O....O.................................O...O...O..................OO......................................
...........OO.......O...O...................................O...OO.OO.........................................................
...........OO.........O......OO...................................O...........................................................
.................OO........O..O...................................O.O.........................................................
.................OO........O.O.....................................O.......OO.................................................
...................................................................O.......O.O................................................
.............................................................................O................................................
...............OO............................................................OO...............................................
...............OO.....OO........................................OO............................................................
......................OO........................................OO............................................................
.............................................O................................................................................
..............................................O...............OO..............................................................
............................................OOO...............OO..............................................................
