!Name: p00181
!C p00181 found using Karel Suhajda's Hersrch program
!C Scot Ellison - May 2003
!Source: guns1j-20121211
!
................OO.................O.............................................................................................
.........OO.....OO...............OOO.............................................................................................
.........OO.....................O................................................................................................
.........OO.....................OO...........OO..................................................................................
..........OO...OO............................O...................................................................................
.........O..O..OO.............................O...........O......................................................................
..........O..O...............................OO.........OOO......................................................................
.....OO......O.........................................O.........................................................................
.....OO...O..O......OO.................................OO..........OO............................................................
..........O.O......................................................O.................OO..........................................
...........O.....................................................O.O.................O...........................................
..............OO.................................................OO...................O...........O..............................
...............O..........................OO.........................................OO.........OOO..............................
OO........................................OO...................................................O.................................
.O.............................................................................................OO..........OO....................
.O.O.......................................................................................................O.....................
..OO.....................................................................................................O.O.....................
.....................................................................O...................................OO.............OO.......
...............O...................................................OO..............O....................................OO.......
...........O...O..................................................OO..............OO.............................................
............O..O.................................................O...............................................................
............OO.OO................O.O...............OO.............OOOOO.......................................................OO.
.............O.O..................OO................O..............O..........................................................OO.
..............O...................O..............OOO......................................................................OO.....
.................................................O........................................................................OO.....
.....................................OO..........................................................................................
.....................................O...........................................................................................
......................................OOO................................OO................OO....................................
........................................O................................O..................O..................................OO
..........................................................................OOO............OOO...................................OO
.......................................O............O.......................O............O.......................................
OO...................................OOO............OOO..........................................................................
OO..................................O..................O................................O........................................
....................................OO................OO................................OOO......................................
...........................................................................................O.....................................
..........................................................................................OO.....................................
.....OO........................................................................O.................................................
.....OO......................................................................OOO..............O...................O..............
.OO..........................................................O..............O................OO..................O.O.............
.OO.......................................................OOOOO.............OO...............O.O................OO.OO............
...............................................................O.................................................O..O............
.............................................OO..............OO..................................................O...O...........
.......OO....................................O..............OO...................................................O...............
.......OO.............OO...................................O.....................................................................
.....................O.O.........................................................................................................
.....................O...........................................................................................................
....................OO..........OO..............................................................................................O
.................................O...................................................OO.......................................O.O
..............................OOO.........OO.........................................OO..........................O.............OO
..............................O...........O...................OO.................................................OO..............
...........................................O.................O.O.....................................................O...........
..........................................OO.................O......................................................O.O..........
............................................................OO..........OO.................................OO......O..O...OO.....
.........................................................................O.........................................O......OO.....
......................................................................OOO.........OO...............................O..O..........
......................................................................O...........O.............................OO..O..O.........
...................................................................................O............................OO...OO..........
..................................................................................OO...........OO.....................OO.........
................................................................................................O.....................OO.........
.............................................................................................OOO...............OO.....OO.........
.............................................................................................O.................OO................
