!Name: p00209
!Source: guns1j-20121211
!
...................................................................................................................................O.OO....
.................................................OO................................................................................OO.O....
.................................................O..O.O....................................................................................
...................................................OO.OOO........................................................................OOOOO.....
.........................................................O.................................................OO....................O....O..OO
...................................................OO.OOO...................................................O.......................O..O..O
...................................................OO.O.....................................................O.O.....................OO.O.O.
.............................................................................................................OO..................O.....O.OO
................................................................................................................................O.O....O...
................OO..............................................................................................................O..O..OO...
.................O...............................................................................................................OO........
...............O..................................................................................OO.......................................
...............OO..................................................................................O.......................................
.......O...........................................................................................O.O.....................................
.......OOO..........................................................................................OO.....................................
..........O................................................................................................................................
.........OO...........................................................................................................OO...................
......................................................................................................................OO...................
............O.....OO.......................................................................................................................
...........OOO....OO.......................................................................................................................
..........OOO.OO...........................................................................................................................
.........O...OOO...........................................................................................................................
........O....O.............................................................................................................................
.......OO..................................................................................................................................
.......O.O................................................................................................O................................
....O..O..O...............................................................................................OO...............................
...OO...O.O.................OO...........................................................................O.O...............................
...O.O.......................O.............................................................................................................
..........................OOO..............................................................................................................
..........................O.................OO...............................................................O.............................
........................O.O..................O..............................................................O.O............................
........................OO................OOO...............................................................O.O............................
..........................................O..................................................................O.............................
OO.........................................................................................................................................
O..........................................................................................................................................
..O.OO..................OO.................................................................................................................
.OO.OO..................O.O................................................................................................................
..........................O................................................................................................................
.OO.OO....................OO...............................................................................................................
..O.O......................................................................................................................................
..O.O....................................................................OO................................................................
...OO.OO.................................................................OO................................................................
.....O.O...................................................................................................................................
.....O...............................OO.......................................O.O..........................................................
....OO...............................O........................................OO...........................................................
...................................O.O...............................O.........O...........................................................
..................................O.O.................................O....................................................................
..............................OO...O....................O...........OOO....................................................................
..............................OO.......................O.O.................................................................................
......................................................O..O...............OO................................................................
................................................OOOO...OO...............O..O...............................................................
.......................................OO......OO...O....................OO................................................................
......................................O.O......O...OO.............OO.......................................................................
.....................................OO.O.......OO................OO.......................................................................
......................................OO...................................................................................................
.......................................O........OOO.................................OO.....................................................
...............................................OO...................................O.O....................................................
......................................................................................O....................................................
......................................................................................OO...................................................
...........OO..............................................................................................................................
...........OO..............................................................................................................................
.................OO........................................................................................................................
.................OO........................................................OO..............................................................
...........................................................................O.O.............................................................
.............................................................................O.............................................................
...............OO............................................................OO............................................................
...............OO.....OO........................................OO.........................................................................
......................OO........................................OO.........................................................................
.............................................O.............................................................................................
..............................................O...............OO...........................................................................
............................................OOO...............OO...........................................................................
