!Name: p00216
!Source: guns1j-20121211
!
.O.....................................................................OO.
.OOO...................................................................OOO
..........OOO..................OO........OO...................O.......O.O.
..O.O.........O................OO.......O.O................OO.OO....O..OO.
..OO.OO..O....O................OO......OOO.................OOOOO....O.OOO.
..OO.OO......O..................O......OO.....................OO...OO.....
....OO....OO...................O.O......O.O...................O........OO.
..OO......O...............OOO.O.O........O.O..OO...................OO.....
.OO.OO....O...............OOOO.O..........O..O.O..............O.O......OO.
.OO.OO....O...................O............OOOO................O...OOO.O..
...O.O......................................OO....OO....OO.........OO..O..
..............O..................................O..O..OO.OOO......O.O....
....OOO......O.O.......O.........................OO.OO...OOOO.O...OOO.....
O.....O.....O...O.....O.O......................O..O.O....O.O..O....OO.....
.............O.O.....O...O.....................O..O.O....O.O..O...........
..............O.......O.O......................O.OOOO...OO.OO.............
.......................O.........................OOO.OO..O..O.............
.............................OO.....................OO....OO..............
.......O....................OOOO.........OO.......................O.......
.....OOO..............O....O.O..O........OO..OO...................OOO.....
....O...OO.............O...OO..O.O.....OO.O..OO.................OO...O....
...O.OO...O...OO.....OOO........O.O....OOO................OO...O.O.OO.O...
...O.O....O...OO..................OO......................OO..O..O..O.O...
..OO.O.O.O.......................OOO...........O....................O.OO..
.....O...O......................O.O.....OO.....O.O....OOO.........O.O.....
.....O.OO.......................OO......OO.....OO.....O.........O.O.O.....
....OO.OO.........OO..................................OO.........OO.OO....
..................O.......................................................
...................OOO....................................................
...............O....OO....................................................
...............O...O..O...................................................
....OO.OO....O......OO...........................................OO.OO....
.....O.OO.....OO.....OO.................................O.O.....O.O.O.....
.....O...O....OO....O.O...........................................O.O.....
..OO.O.O.O........OO...OO............................OO.............O.OO..
...O.O....O.........O.O....................................O..O..O..O.O...
...O.OO...O...............................................OO...O.O.OO.O...
....O...OO..............................O.............O.O.......OO...O....
.....OOO.................................O.............O..........OOO.....
.......O...............................OOO........................O.......
