!Name: p00235
!C p00235 From Hersrch - Scot Ellison July 10, 2008
!C (64+64+171+171)*2 - 4 Herschels
!Source: guns1j-20121211
!
.........................................................................................OO................
.........................................................................................OO.....OO.........
................................................................................................OO.........
............................................................O..............................................
............................................................OOO............................................
...............................................................O...........OO.................OO...........
..............................................................OO............O.................OO...........
.......................................................O....................O.O.....................OO.....
.......................................................OOO...................OO.....................OO.....
..........................................................O................................................
.........................................................OO................................................
................................................................OOO........................................
......................................................OO........OOO........................................
.......................................................O........O..O.......................................
.......................................................O.O..........O......................................
........................................................OO...O......OO.....................................
..............................................................OO.....OO..............................O.....
...............................................................OO...OOO............................OOO.....
..................................................O............O..................................O........
...............................O..................OOO.............O..OO...........................OO.......
...............................OOO...................O.........O...........................................
..................................O.................OO.........O..O........................................
.................................OO..............................O.........................................
..........................O................................................................................
..........................OOO..............................................................................
.............................O.............................................................................
............................OO.............................................................................
.............................................................................O...........OO................
...........................................................................OOO..........O.O................
.........................OO...............................................O...............O................
..........................O...............................................OO.............................OO
..........................O.O..................................OOO.....O.................................OO
...........................OO.........................................O.O..................................
............................................................OO............O................................
.............................................................O........O....O...............................
.....................O....................................OOO.......................................OO.....
.....................OOO..................................O............OO.OO........................OO.....
........................O..........O.....................................O..............................OO.
.......OO..............OO.........OOO................................O..................................OO.
.......OO........................O..OO..............................OO.....................................
.................................OO.O.O.............................O.O.OO.................................
.....................................OO..............................OO..O........................OO.......
.OO..................................O................................OOO.........OO..............OO.......
.OO..............................O.....................................O..........O........................
.....OO........................OO.OO............O..................................OOO.....................
.....OO.......................................OOO....................................O.....................
...............................O....O........O.............................................................
................................O............OO............................................................
..................................O.O.........................................OO...........................
OO.................................O.....OOO..................................O.O..........................
OO.............................OO...............................................O..........................
................O...............O...............................................OO.........................
................O.O..........OOO...........................................................................
................OO...........O.............................................................................
.............................................................................OO............................
.............................................................................O.............................
..............................................................................OOO..........................
................................................................................O..........................
.........................................O..............................OO.................................
........................................O..O.........OO.................O..................................
...........................................O.........O...................OOO...............................
.......OO...........................OO..O.............OOO..................O...............................
........O..................................O............O..................................................
.....OOO............................OOO...OO...............................................................
.....O..............................OO.....OO..............................................................
.....................................OO......O...OO........................................................
......................................O..........O.O.......................................................
.......................................O..O........O.......................................................
........................................OOO........OO......................................................
........................................OOO................................................................
................................................OO.........................................................
................................................O..........................................................
.....OO..........................................OOO.......................................................
.....OO............................................O.......................................................
...........OO..............................OO..............................................................
...........OO..............................O...............................................................
............................................OOO............................................................
..............................................O............................................................
.........OO........................O.......................................................................
.........OO.....OO..................O......................................................................
................OO................OOO......................................................................
