!Name: p00230
!Source: guns1j-20121211
!
....................O....................................................
.............................O...OO......................................
...........................OO.O.OOO.............OO.......................
.................O.........O....OOO.............OO.......................
.................O..OO.....O...O.........................................
.OO.............O.....O.....OOO..........................................
.OO..............O.O..OO.................................................
.................O...OO.....OOO..........................................
...................OOO.....O...O.........................................
...........................O....OOO.............OO.......................
...................OOO.....OO.O.OOO.............OO.......................
.................O...OO......O...OO...................................OO.
.OO..............O.O..OO..............................................OO.
.OO.............O.....O...............................O..................
.................O..OO.................................O...O.............
.................O............................OO..OO........O..........OO
..............................................OO..O.....OO..O..........OO
..................................................O.O.....OO.............
...................................O.O.............OO...OOO..............
........................O...........OO...................................
..........OO.........OO...O.........O..............OO...OOO..............
OO.......O.O.........OO.O.OO......................O.O.....OO.............
OO.......O..........O......OO.....................O.....OO..O..........OO
.........OOO.........OO.O.OO......................OO........O..........OO
.....................OO...O............................O...O.............
........................O.............................O..................
......................................................................OO.
.........OOO..........................................................OO.
OO.......O.................OO............................................
OO.......O.O...............OO............O...............................
..........OO..............................O..............................
........................................OOO..............................
