!Name: p00302
!C p00302 From Hersrch - Scot Ellison July 8, 2008
!C (64+64+77+171+77)*2 - 3 Herschels
!Source: guns1j-20121211
!
..................................O.OO..........................................................................................
..................................OO.O..........................................................................................
......................................................O.........................................................................
......................................................OOO.......................................................................
.....................O...................................O......................................................................
.....................OOO................................OO......................................................................
........................O...................................O...................................................................
.......OO..............OO...........OO......................O...................................................................
.......OO...........................OO......................O...................................................................
.OO.............................................................................................................................
.OO.............................................................................................................................
.....O.O.OOO....................................................................................................................
.....O...OOO....................................................................................................................
............OO...............................................................................OO.................................
.......OOO...O...............................................................................O..................................
.........O...O..................................OO.........................................O.O..................................
OO.......O..O....................................O.........................................OO...................................
OO.......OOO..................................OOO.............................................................OO................
........O.O...................................O...............................................................OO.....OO.........
........OO...........................................................................................................OO.........
.....................................OO.............OO..........................................................................
.....................................O.O...........O.O....................OOO...................OO.................OO...........
......OO...............................O...........O......................O......................O.................OO...........
......OO...............................OO.........OO.......................O.....................O.O.....................OO.....
...................................O.................................................O............OO.....................OO.....
.................................OOO.............................................O.O.OO.........................................
................................O....................OO..........................OOO..OO........................................
.......OO........O..............OO................O...O..........................O.O..O.........................................
........O.........O...............................OOOO.........................OO...OO..........................................
.....OOO........OOO............................................................OO.OOO...........................................
.....O............................................OOOO....OO...........O..........OO......OO....................................
.................................................O...O.....O.........OOO.....OO...........OO....................................
....................................OO...........OO.....OOO.........O.....O...O.................................................
....................................OO..................O...........OO....OOOO............................................O.....
........................................................................................................................OOO.....
..........................................................................OOOO.........................................O........
.........................................................................O...O................OO.......................OO.......
.........................................................................OO....................O................................
............................................................................................OOO.................................
.....OO.....................OO..............................................................O...................................
.....OO.....................O.O.............................................OO.........OO.......................................
...........OO.................O.............................................O...........O.......................................
...........OO.................OO..........................................O.O...........O.O.....................................
..........................................................................OO.............OO.....................................
.........OO.....................................................................................................................
.........OO.....OO...............................................................O..............................................
................OO.................................................O...........OOO............................................OO
...................................OO.............................OOO.........O...............................................OO
..................................O.O.............................O.OO........OO................................................
..................................O..............................OO..O..........................................................
.................................OO...............................OOOO..........................................................
...............................................................OO.O.O....................................................OO.....
................................................................OO...O...................................................OO.....
....................................................................O.O......................................................OO.
...................................................................O.........................................................OO.
....................................................................O.OO........................................................
..........................................................................................OO...........................OO.......
..................................................................OOO.....................OO...........OO..............OO.......
.......................................................................................................O........................
......................................................................OO................................OOO.....................
......................................................................O...............O...................O.....................
.......................................................................OOO.............O........................................
.........................................................................O...........OOO........................................
