!Name: p00341
!C p00341 found using Karel Suhajda's Hersrch program
!C Scot Ellison - May 2003
!Source: guns1j-20121211
!
.......................................................................OO.O.......O...................
.......................................................................O.OO.......OOO.................
.................................O...................................................O..............O.
...............................OOO..................................................OO............OOO.
..............................O.............O....................................................O....
..............................OO............OOO........................................OO........OO...
...............................................O................................O.O...................
..OO..........................................OO..................................O...................
...O............................................................................................OO....
...O.O........................................................................O...OO............OO....
....OO..OO....................................................................O.O.OO..................
........OO.......................................................................O....................
.....................................OO...............................................................
.....................................OO.........................................OO....................
............................................................OO...................O....................
............................................................O.O...............OOO.....................
..............................................................O...............O.......................
..................................................OO..........OO...................OO.................
..................................................O.................................O.................
..OO....................................OO.........OOO...........................OOO..................
.O.O................OO...................O...........O...........................O....................
.O..................O.O.................O.............................................................
OO....................O.................OO............................................................
................OO....OO..............................................................................
................O.O...................................................................................
..................O..................................................................................O
.........OO.......OO...............................................................................O.O
.........OO.........................................................................................OO
OO....................................................................................................
.O....................................................................................................
O.....................................................................................................
OO....................................................................................................
...........................................................................................OO.........
..................................................................................OO.......OO.........
...................................................................................O..................
...................................................................................O.O................
..............................................................................OO....OO................
............................................................OO.................O....................OO
.............................................................O.................O.O..................O.
....................O...........................O...........O...................OO................O.O.
..................OOO...........................OOO.........OO....................................OO..
.................O.................................O..................................................
.................OO...................OO..........OO..................................................
.......................O...............O..............................................................
.....................OOO...............O.O............................................................
....................O...................OO............................................................
....................OO.........................................OO.....................................
...............................................................OO.....................................
....................O.......................................................................OO........
..................OO.O.O....................................................................OO..OO....
....OO............OO...O........................................................................O.O...
....OO............................................................................................O...
...................O..................................OO..........................................OO..
...................O.O................................O...............................................
...OO........OO........................................OOO............OO..............................
....O....................................................O.............O..............................
.OOO............OO..................................................OOO...............................
.O..............O...................................................O.................................
.................OOO.......OO.O.......................................................................
...................O.......O.OO.......................................................................
