!Name: p00324
!Cp00324 gun found using Hersrch
!CKarel Suhajda, 7 Sep 2003
!Source: guns1j-20121211
!
..............OO....................................................................................
..............O..O..................................................................................
..............O.OO.......OO.........................................................................
.........OO..O.O.........O.O........................................................................
.........O....O...........OOO.......................................................................
.............O.............OO.......................................................................
..........O..O...........O.O........................................................................
....................OO..O.O.........................................................................
....................O.O..O..........................................................................
.....................OOOO...........................................................................
......................OO............................................................................
.................................O..............OO..................................................
...............................OOO..............O........................OO.........................
..............................O..................OOO......OO.............O........OO................
..............................OO...................O......OO...........O.O.......O..O...............
.......................................................................OO.........O.O...............
..............................................................................OOOO.O................
..............................................................................OO.OO.................
.................................................................................O..................
..OO........................................................................................OO......
...O....................................OO..................................................O.......
...O.O..................................OO..........................OOOO.O................O.O.......
....OO.............................................................O....OO................OO........
..................................................................OO.O...O........OO................
....................................................................O.OOO.........OO................
.......................................................................................OO.......OO..
.......................................................................................OO......OOOO.
...........................................OO.................................................O..O.O
............................................O.........................OO.....................O.O..OO
...........................................O.............OO...OO......OO....................O.O.....
...........................................OO.............O...O............................OO.......
...................OO..................................OOO.....OOO.........................OOO......
.....OO............OO..................................O.........O..........................O.O.....
.....O.O..........................O.........O..................................OO............OO.....
......OOO.........................OOO.....OOO..................................OO...................
.......OO............................O...O.............OO...........................................
.....O.O....................OO......OO...OO.............O...........................................
OO..O.O.....................OO.........................O............................................
O.O..O.................................................OO...........................................
.OOOO......OO.......................................................................................
..OO.......OO.......................................................................................
................OO.........OOO.O....................................................................
................OO........O...O.OO..................................................................
........OO................OO....O...................................................................
.......O.O................O.OOOO..........................OO........................................
.......O..................................................OO........................................
......OO............................................................................................
...................................................................................................O
..................O..............................................................................O.O
.................OO.OO............................................................................OO
................O.OOOO..............................................................................
...............O.O.........OO.......................................................................
...............O..O.......O.O...........OO......O...................OO..............................
................OO........O.............OO......OOO..................O..............................
.........................OO........................O..............OOO...............................
..................................................OO..............O.................................
............................................................................OO......................
...........................................................................OOOO.....................
..........................................................................O..O.O....................
.........................................................................O.O..OO....................
........................................................................O.O...........O..O..........
.......................................................................OO.............O.............
.......................................................................OOO...........O....O.........
........................................................................O.O.........O.O..OO.........
.........................................................................OO.......OO.O..............
..................................................................................O..O..............
....................................................................................OO..............
