!Name: p00334
!Cp00334 gun found using Hersrch
!CKarel Suhajda, 7 Sep 2003
!Source: guns1j-20121211
!
.......................O.....................................................................................
.......................OOO...................................................................................
..........................O..................................................O...............................
.........................OO................................................OOO...........O...................
.....................OO...................OO.................O............O..............OOO.................
.....................OO...................O.......OO.......OOO............OO................O..............O.
........................................O.O........O......O................................OO............OOO.
........................................OO.........O.O....OO............................................O....
....................O...............................OO........................................OO........OO...
...................O.O.................................................................O.O...................
....................O....................................................................O...................
.................OOO...................................................................................OO....
.................O...................................................................O...OO............OO....
.....................................................................................O.O.OO..................
........................................................................................O....................
...................OO..........OO............................................................................
...................OO..........OO............................................................................
.......................................................................................OO....................
........................................................................................O....................
......................................................................................O......................
......................................................................................OO.....................
..OO......................................................................................OO.................
...O............................................................OO.........................O.................
...O.O..........................................................O.......................OOO..................
....OO..OO................................................OO.O...OOO....................O....................
........OO................................................OO.OOOO..O.........................................
................................................................O............................................
..................OOO..........OO.............OO......OO..OO.OO..............................................
..................OO.OO........OO...OO.......O.O......O....O.O...............................................
..................OO.OO.............OO.......O.........OOOO..O..............................................O
....................OO......................OO.......O.O..O.O.............................................O.O
.....................................................OO....O...............................................OO
.....................................OO......................................................................
...............................OO....O.......................................................................
...............................OO.....OOO....................................................................
........................................O....................................................................
..OO.........................................................................................................
.O.O................OO.......................................................................................
.O..................O.O...........................................................................OO.........
OO....................O...........................................................................OO.........
................OO....OO.................................................................OO..................
................O..O.....................................................................O..O................
..................OO.................................................................OO....OO................
.........OO...........................................................................O....................OO
.........OO...........................................................................O.O..................O.
.......................................................................................OO................O.O.
.........................................................................................................OO..
OO..................................................................O........................................
.O..................................................................OOO.....OO...............................
O......................................................................O....OO...............................
OO....................................................................OO.....................................
.................................................O....OO.....................................................
................................................O.O..O.O.......OO............................................
...............................................O..OOOO.........O.......OO....................................
...............................................O.O....O......O.O.......OO...OO...............................
..............................................OO.OO..OO......OO.............OO...............................
............................................O................................................................
.........................................O..OOOO.OO................................................OO........
....................O....................OOO...O.OO................................................OO..OO....
..................OOO.......................O..........................................................O.O...
.................O.........................OO.........OOO................................................O...
.................OO.....................................O................................................OO..
.....................OO................................O.....................................................
......................O........................................OO............................................
....................O........................................O.OO............................................
....................OO......................................O....O...........................................
............................................................O...O.......................OO...................
............................................................O...O.......................OO...................
.............................................................O...............................................
.......................OO....................................................................................
....OO.................OO..................................................................O.................
....OO...................................................................................OOO.................
........................................................................................O....................
.......................................................................................O.O...................
...OO..................................................OO...............................O....................
....O............................................OO....O.O.........OO........................................
.OOO............OO................................O......O........O.O........................................
.O..............O................OO............OOO.......OO.......O...................OO.....................
.................OOO..............O............O.................OO...................OO.....................
...................O...........OOO................................................OO.........................
...............................O..................................................O..........................
...................................................................................OOO.......................
.....................................................................................O.......................
