!Name: p00380
!Cp00380 gun found using Hersrch
!CKarel Suhajda, 13 Sep 2003
!Source: guns1j-20121211
!
........................................................................................O.OO.............................................
........................................................................................OO.O.............................................
........................................O.............................................................................O..................
............................O...........OOO.........................................................................OOO..................
..........................OOO..............O............O..................O.......................................O.....................
..........O..............O................OO............OOO.......OO.......OOO.....................................OO....................
..........OOO............OO................................O......O...........O..........................................................
.............O............................................OO....O.O..........OO...........OO.............................................
............OO..................................................OO........................OO.............................................
............................................................................................................................OO...........
........................................................................................................................OO..O.O..........
.............OO.........................................................................................................O.O.O.O..........
.............OO.................OO..........................OOO...........................................................O.O.OO.........
................................OO.........................OO.O.............................................................O...O........
.........................................................OO..............................................................O..OO.O.........
...............................................................O........................................................OOOO.O.OO........
........................................................O................................................................O.O.O...........
........................................................OO...............................................................O.O.O.OO........
...................................................OO.OO.OO...OOO.........................................................O..O.OO........
.............................OO....................OO..O.OO.OO...O..OO.....................................................OO............
.............................O..............................O...OO..OO...................................................................
...............................O.........................O..O...OO..OO...................................................................
..............................OO............................O............................................................................
..........................OO...............................................................OO............................................
..........................O.........................OO.....................................O.O..............OO...................OO......
...........................OOO.......................O.......................................O..............OO...................O.......
.............................O....................OOO...O.OO.................................OO................................O.O.......
.O................................................O..OOOO.OO...................................................................OO.OO.....
.OOO.................................................O............................................................................O......
....O..................................................OO.OO..OO......OO..........................................................O.O....
...OO...................................................O.O....O......O.O..................................OO....................OO.OOO..
........................................................O..OOOO.........O...................................O..........................O.
.........................................................O.O..O.O.......OO..................................O.O..................OO.OO..O
............................O.............................O....OO............................................OO..................OO.O.OO.
..........................OOO.........................................................................................................O..
.........................O............................................................................................................O..
OO.......................OO.........................................................................................................O.OO.
O..OO...............................................................................................................................OO..O
.OO.O.........................................................................................................OO.......................OO
..O............................................................................................................O.........................
..O.........................................................................................................OOO..........................
.OO.O.OO..................OO............................................OO....O.............................O............................
O..OO.OO..................O.O..................................OO.......O.O..O.O.........................................................
.O..........................O...................................O.........OOOO..O........................................................
..OOO.OO....................OO..................................O.O......O....O.O...................................................OO...
....O.O..........................................................OO......OO..OO.OO..................................................O....
......O............................................................................O.................................................OOO.
.....OO.OO...................................................................OO.OOOO..O................................................O.
.......O.O................................OO.................................OO.O...OOO....................O...........O.................
.......O...................OO..............O.......................................O.......................OOO.......O...................
......OO...................OO..............O.O.....................................OO.........................O......O...................
............................................OO...............................................................OO....OO....................
.........................................................................................................OO........O.O...................
.........................................................................................................O........OOO....................
...........................................................................................................O......O......................
............OO........O...................................................................................OO.......OO....................
........OO.O..O......OOO...........................................................................................OO....................
........OO.O.O......O..OO................................................................................................................
...........O.O......O...O.......OO.......................................................................................................
........OO.O..OOO....OO.O.......OO.......................................................................................................
.........O.O...OO......OO................................................................................................................
........O...O..OO......................................................................................OO................................
.........OO.O..O.......................................................................................OO.................OO.............
..........O.O.O.O.........................................................................................................OO.............
..........O.O..OO........................................................................................................................
...........OO............................................................................................................................
........................OO...................OO........................OO..................................................OO............
........................OO...................OO...........OO..........O.O....OO............................................O.............
..........................................................O...........O......O................................OO............OOO..........
....................OO.....................................OOO.......OO.......OOO............OO................O..............O..........
.....................O...................O...................O..................O............O..............OOO..........................
..................OOO.....................O...................................................OOO...........O............................
..................O.....................OOO.....................................................O........................................
