!Name: p00364
!Cp00364 gun found using Hersrch
!CKarel Suhajda, 14 Sep 2003
!Source: guns1j-20121211
!
.................................O..........................................................................
.................................OOO.......................................O................................
....................................O....................................OOO................................
...................................OO...................................O...................................
........................................................................OO..................................
.......................................................OO...................OO..............................
........................................................O...................OO..............................
..........OO............................................O.O.................................................
..........OO.............................................OO.................................................
..............................................................................O.............................
.............................................................................O.O............................
....OO........................................................................O.............................
....OO.........................................................................OOO..........................
........OO.......................................................................O..........................
........OO..................................................................................................
.....................................................................OOO....................................
....................................................................OOO.O...................................
...OO..............................................................OOO..OO....OO............................
...OO.............................................................OO...OOO....OO............................
.......................................................................O....................................
..............................................................................................O.OO.OO.......
..................................................OO..........................................OO.O.O...O....
............................................OO.....O.................O...........................O..OOOOOO..
............................................O.O.OOO.................OO........................OOO.O.O.....O.
......................OO.............OO.......O.O..................O..O.....................OOO...O..OOOO.O.
......................OO.............OO.......OO....................O.O....................O......OOOO.O.O..
....................................................................OO.....................OO..........O....
..................................................................................................OO.O.OO...
..........OO.......................................................................................O.O...O..
...........O.................................................OO..................................O..O.OOO..O
.....OO.OOO..................................................OO..................................OO.O.O.O.OO
......O.O..........................................................................................O.O..O.O.
......O.O..........................................................................................O.OOOO..O
....O.O.OO..................................................OO....................................OO.O...O.O
...O.OO..O.......................................O...........O....OO..............................O..OOOO.O.
...O...OOO..............................OO.....OOO........OOO.....OO..............................OOO...O...
.O.OOOO..O..............................OO....O...........O.......................................O..OO.O...
O.O...O.OO....................................OO..................................................OO.O.O....
O..OOOO.O..........................................................................................O.O......
.O.O..O.O..........................................................................................O.O......
OO.O.O.O.OO..................................OO..................................................OOO.OO.....
O..OOO.O..O..................................OO.................................................O...........
..O...O.O.......................................................................................OO..........
...OO.O.OO..................................................................................................
....O..........OO.....................OO....................................................................
..O.O.OOOO......O....................O.O....................OO.......OO.............OO......................
.O.OOOO..O...OOO.....................O..O..................O.O.......OO.............OO......................
.O.....O.O.OOO........................OO..........OO.....OOO.O.O............................................
..OOOOOO..O...........................O...........O.....O.....OO............................................
....O...O.O.OO..................................O.O.....OO..................................................
.......OO.OO.O..................................OO..........................................................
....................................OOO................................................................OO...
....................................O..OO..............................................................OO...
.....................................OOO....................................................................
......................................O.....................................................................
.....................................O............................................................OO........
...............................OOO..OOO...........................................................OO........
...................................O.OO...............................................................OO....
...............................O...OO.OO..............................................................OO....
.................................O.O...........OO..OO.......................................................
.................................O.O...........OO..O........................................................
.................................OO.................OOO.........................................OO..........
......................................................O.........................................OO..........
...................................OO.O.....................................................................
.................................OO.O.O................................OO...................................
....................................OOO................................O....................................
.................................OOO....................................OOO.................................
..........................................................................O.................................
.......................................O....................................................................
........................................O...................................................................
......................................OOO...................................................................
