!Name: p00382
!C p382 - Scot Ellison - May 19, 2003
!Source: guns1j-20121211
!
...................O.......O.OO.......................................................................................................................................
.................OOO.......OO.O.......................................................................................................................................
.O..............O...........................................................................................................OO.......OO...............................
.OOO............OO..........................................................................OO.......OO.....................OO.......O.O..............................
....O....................................................O..................................OO.......O.O...........................O.O.OOO............................
...OO..................................................OOO.............O...........................O.O.OOO.........................OO.....O.......................OO..
......................................................O................OOO.........................OO.....O..............................OO.......................O...
......................................................OO..................O..............................OO.....................................................O.O...
....OO...................................................................OO.................................................................................OO..OO....
....OO.................OO...................................................................................................................................OO........
.......................OO.............................................................................................................................................
..............................................................................................................OO......................................................
..............................................................................................................O.O.....................................................
...............................................................OO.................................................O...................................................
....................OO.........................................OO...............................................OO.O.OO...............................................
....................O...................OO........................................................................OO.O................................................
.....................OOO...............O.O..........................................................................O.................................................
.......................O...............O...........................................O..................................................................................
.................OO...................OO..........OO..............................O.OOO...........................................................................OO..
.................O.................................O..............................OOOOO.........................................................OO................O.O.
..................OOO...........................OOO.........OO.....................O.OO........................................................O.O..................O.
....................O...........................O...........O.......................O..........................................................O....................OO
.............................................................O................................................................................OO....OO................
............................................................OO.....................................................................................O.O................
..........................................................................................................................OO.......................O..................
..........................................................................................OO...............................O......................OO.......OO.........
........O..................................................................................O............................OOO................................OO.........
.......OOO..............................................................................OOO.............................O.............................................
......O..OO.............................................................................O.............................................................................
OO...OOOOO..........................................................................................................................................................OO
O....OOOOO..........................................................................................................................................................O.
.O...OO.OO...........................................................................................................................................................O
OO....O.O.OO........................................................................................................................................................OO
.......OOOOO.................................................................O........................................................................................
..........OO.................................O.............................OOO........................................................................................
...........O...............................OOO............................O...........................................................................................
......O...O.......OO......................O...............................OO..........................................................................................
.....OO...O.......O.......................OO..........................................................................................................................
.......O........O.O.....................................................................................OO............................................................
................OO....OO................................................................................O.............................................................
OO....................O..................................................................................O...........O...........................O....................
.O..................O.O.................................................................................OO.........OOO...........................OOO..................
.O.O................OO............................................................................................O.................................O.................
..OO..............................................................................................................OO..........OO...................OO.................
..............................................................................................................................O...............O.......................
............................................................................................................................O.O...............OOO.....................
............................................................................................................................OO...................O....................
.....................................................................................................OO.........................................OO....................
.....................................................................................................OO..OOO..........................................................
.........................................................................................................O....O.......................................................
.........................................................................................................O............................................................
..........................................................................................................O...O.......................................................
............................................................................................................O.........................................................
.............................................................................................................................................OO.......................
........OO...................................................................................................................................OO.................OO....
....OO..OO.................................................................................OO...................................................................OO....
...O.O.....................................................OO..............................O..................OO......................................................
...O.......................OO..............................O.....OO.........................OOO................O......................................................
..OO.......................O.....OO.........................OOO.O.O...........................O.............OOO..................................................OO...
............................OOO.O.O...........................O.O.......OO..................................O....................................................O....
..............................O.O.......OO.....................OO.......OO..........................................................................OO............OOO.
...............................OO.......OO...........................................................................................O...............O..............O.
......................................................................................................................................O...........OOO.................
....................................................................................................................................OOO...........O...................
