!Name: p00311
!C p00311 found using Karel Suhajda's Hersrch program
!C Scot Ellison - May 2003
!Source: guns1j-20121211
!
.................................................................O.......O.OO....................OO......OO.................................
...............................................................OOO.......OO.O....................OO....O..O.................................
...............................................O..............O........................................OO.O.OO..........OO..................
.............O.................................OOO............OO..........................................O.O.O.........OO.....OO...........
.............OOO..................................O....................................................OO.O...O................OO...........
................O................................OO..............................................O.....OO..O..OO............................
...............OO.................OO...........................................................O.O........OO................................
..................................OO.....OO..................................................OOO.............................OO.............
.........................................OO.......OO...........................................O.............................OO.............
..................................................OO.................OO.........................OOO................................OO.......
.....................................................................OO.........................OO.................................OO.......
..........OO..........................OO........................................................OOOOO.......................................
..........OO...............OO...OOO...OO.........................................................O.O........................................
...........................OO...OO.OOO..O....OO....................................................O.O......................................
.................................O.OOOOO.....OO........................................................O....................................
....OO.............................O.OOO................................................................O...................................
....OO............................................................OO....................................OO..................................
........OO........................................................O....................OO..............OO...................................
........OO.........................................................OOO..................O..............O....................................
....................................O................................O...............OOO....................................................
...................................OOOO........................OO....................O......................................................
...................................O...O.......................O.................................................OO.OO......................
...OO...............................O..O........................OOO.............................................O.O.O.O.....................
...OO...............................OOO...........................O.............................................O.O..O......................
...................O...........................................................................................OO.O.........................
...................O.O........................................................................................O...OO........................
...................OO...............................................................................OO.........O.O..O.O.....................
.....................................................................................................O........OO.OO..OO.....................
..................................................................................................OOO.......................................
..................................................................................................O.........................................
.....................................................OO.....................................................................................
.....................................................OO..........................................OO.......................................OO
.................................................................................................OO.......................................O.
........................................................................................................................................O.O.
........................................................................................................................................OO..
................................................................................................................OO..........................
......OO........................................................................................................OO..........................
.....O.O...............OO.............................................................O.....................................................
.....O.................O.O...........................................................O.O....................................................
....OO...................O...........................................................O.O....................................................
.........................OO........................................................OOO.OO...................................................
...........................O.....OO...............................................O.........................................................
.........................OOO....O.O................................................OOO.OO..................OO.....OO........................
........................O.......O..................OO.O..............................O.OO..................O.......O........................
........................OO.....OO..................OO.OOO................................................O.O....OOO.........................
.........................................................O...............................................OO.....O...........................
...................................................OO.OOO........................................................OO.........................
....................................................O.O...........................................................O...................OO....
....................................................O.O...........................................................O.O.................O.....
.....................................................O.............................................................OO...............O.O.....
..........................OO........................................................................................................OO......
..........................OO................................................................................................................
..OO........................................................................................................................................
.O.O........................................................................................................................................
.O.......................................OO.................................................................................................
OO.......................................OO..........................................OO.....................................................
.....................................................................................OO.....................................................
.........................................O..................................................................................................
.......................................OOO..................................................................................................
.....................OO..OO.OO........O.....................................................................................................
.....................O.O..O.O.........OO...............................................................................OO...................
........................OO...O........................................................................................O.O...................
.........................O.OO...........................................................................................O...................
......................O..O.O.............................................O...........................OOO...............................OO...
.....................O.O.O.O.............................................OOO........................O..O...............................OO...
......................OO.OO.................................................O.......................O...O...................................
......................................................O....................OO........................OOOO...................................
....................................................OOO...............O................................O....................................
....................................O..............O..................OOO.........................................................OO........
...................................OO..............OO....................O........................................................OO........
..................................OO....................................OO............................................................OO....
...................................O................................................................OOO.O.............................OO....
....................................O........................................................OO.....OOOOO.O.................................
......................................O.O....................................................OO....O..OOO.OO...OO...........................
........................................O.O.........................................................OO...OOO...OO...............OO..........
.......................................OOOOO........................................................OO..........................OO..........
.......OO.................................OO.........................OO.....................................................................
.......OO................................OOO.........................OO.................OO..................................................
.............OO.............................O...........................................OO.......OO.........................................
.............OO.............................OOO..................................................OO.....OO..................................
................................OO........O.O...........................................................OO.................OO...............
............................OO..O..OO.....O..............................................OO................................O................
...........OO................O...O.OO....................................................O..................................OOO.............
...........OO.....OO.........O.O.O..........................................OO............OOO.................................O.............
..................OO..........OO.O.OO........................O...............O..............O...............................................
.................................O..O....OO...................O...........OOO...............................................................
.................................OO......OO.................OOO...........O.................................................................
