!Name: p00346
!C
!Source: guns1j-20121211
!
.................................................OO..................................................................................
.................................................O..O.O..............................................................................
...................................................OO.OOO............................................................................
.........................................................O...........................................................................
...................................................OO.OOO............................................................................
...................................................OO.O..............................................................................
......................................................................................................................O..............
.....................................................................................................................O.O.............
................OO....................................................................................................O..............
.................O...................................................................................................................
...............O.....................................................................................................................
...............OO..........................................................................................................OO........
.......O..........................................................................................OO.......................OO........
.......OOO.........................................................................................O...............................OO
..........O........................................................................................O.O.............................O.
.........OO.........................................................................................OO...........................O.O.
...........................................................................................................................OO....OO..
............O.....OO.......................................................................................................OO........
...........OOO....OO.................................................................................................................
..........OOO.OO.........................................................................OO..........................................
.........O...OOO..........................................................................O........................................OO
........O....O............................................................................O.O.......................................O
.......OO..................................................................................OO..................................OO.O..
.......O.O.....................................................................................................................OO.OO.
....O..O..O..................................................................................................OO......................
...OO...O.O.................OO...............................................................................OO................OO.OO.
...O.O.......................O..................................................................................................O.O..
..........................OOO...................................................................................................O.O..
..........................O.................OO...................................................................................O...
........................O.O..................O.......................................................................................
........................OO................OOO........................................................................................
..........................................O..........................................................................................
OO...................................................................................................................................
O....................................................................................................................................
..O.OO..................OO...........................................................................................................
.OO.OO..................O.O..........................................................................................................
..........................O...........................................................................OO.............................
.OO.OO....................OO..........................................................................OO.............................
..O.O................................................................................................................................
..O.O....................................................................OO..........................................................
...OO.OO.................................................................OO..........................................................
.....O.O.............................................................................................................................
.....O...............................OO..............................................................................................
....OO...............................O....................................O.O........................................................
...................................O.O................................OOO...O........................................................
..................................O.O................................OOOOO...........................................................
..............................OO...O....................O...........O....O.O.........................................................
..............................OO.......................O.O........OO.....OO..........................................................
......................................................O..O........OO.O...OO..........................................................
.......................................................OO..........O..O.O...OOO......................................................
....................................................................O........OOOO....................................................
.............................................................................O.OOO...................................................
..................................................................................O..................................................
..................................................................................OO.................................................
....................................................................OOO.O..OO....O.OOO...............................................
...................................................................O.O.O.O..OO......O.O..............................................
..................................................................OO.O...OO..O........O..............................................
...................................................................O....O.............OO.............................................
...........OO.......................................................OOO..............................................................
...........OO........................................................................................................................
.................OO..................................................................................................................
.................OO........................................................OO........................................................
...........................................................................O.O.......................................................
.............................................................................O.......................................................
...............OO............................................................OO......................................................
...............OO.....OO........................................OO...................................................................
......................OO........................................OO...................................................................
.............................................O.......................................................................................
..............................................O...............OO.....................................................................
............................................OOO...............OO.....................................................................
