!Name: p00481
!C p00481 found using Karel Suhajda's Hersrch program
!C Scot Ellison - June 2003
!Source: guns1j-20121211
!
..................................................................................................................................................OO..........................O..............................
...................................................................................................................................................O........................OOO..............................
...................................................................................................................................................O.O.....................O.............O...................
.....................................................................OO.......OO....................................................................OO.....................OO............OOO.................
......................OO............................................O.O.......OO.....................O......................................................................................O..............O.
...............OO.....OO..........................................OOO.O.O..........................OOO.............OO......................................................................OO............OOO.
...............OO...................................O............O.....OO.........................O................O........................OO..........................................................O....
.........................................OO.......OOO............OO...............................OO................OOO......OO.............O.................................................OO........OO...
.....................................O....O......O....................................................................O......OO...........O.O..........................................O.O...................
.................OO................OOO....O.O....OO.......................................................................................OO.............................................O...................
.................OO...............O........OO..........................................................................................................................................................OO....
...........OO.....................OO.................................................................................................................................................O...OO............OO....
...........OO........................................................................................................................................................................O.O.OO..................
........................................................................................................................................................................................O....................
...........................................................................................................OO................................................................................................
...........................................................................................................OO................................................................................................
.......................................OO.....OOO....................................................................................................OO................................OO....................
.......................................O..O...OOO....................................................................................................OO...........OO....................O....................
.....................................OOO..O.OOO..O......OO........................................................................................................O...................O......................
....................................OOO......O.OOO......OO.........................................................................................................OOO................OO.....................
..................................OO......O.O..OO...O.........................................................OO.....................................................O....................OO.................
....................................O...O.OO.....O..O..........................................................O...........................................................................O.................
.......................................O..O.......O.O.........................................................O.............OO...OO..............OO.....................................OOO..................
........................................OO....................................................................OO.............O...O...............O......................................O....................
.......................................................OO.................................................................OOO.....OOO.............OOO........................................................
....OO.................................................O........................OO........................................O.........O...............O........................................................
.....O............................................O.O...OOO.....................O............................................................................................................................
.....O.O..........................................OOOOOO..O......................OOO.........................................................................................................................
...OO.OO..........................................O....O...........................O........................................................................................................................O
..O.O................................OO......OO..OO.OOO...................................................................................................................................................O.O
..O.O...............................O.O......O....O.O......................................................................................................................................................OO
.OO.OO....................OO........O.........OOOO...........................................................................................................................................................
.O........................O........OO..........O.............................................................................................................................................................
..O.OO..................O.O..................O...............................................................................................................................................................
O.O.OO..................OO...................OO..............................................................................................................................................................
OO...........................................................................................................................OO................................................OO............................
...................................................................................................O.........................O.......................O.........................O.............................
...................................................................................................OOO.....................O.O.......................OOO.....................O.O..................OO.........
........................OO............................................................................O....................OO...........................O....................OO...................OO.........
........................O.O..........................................................................OO................................................OO................................OO..................
..........................O...............O.........O....................................................................................................................................O..O................
..........................OOO.............OOO.....OOO.............................O.................................................O................................................OO....OO................
.............................O...............O...O.............OO.................OOO...............................................OOO...............................................O....................OO
............................OO..............OO...OO.............O....................O.................................................O..............................................O.O..................O.
...............................................................O....................OO...........OO...................................OO...........OO..................................OO................O.O.
...............................................................OO................................OO................................................OO....................................................OO..
..................OO.............................................................O...........................................................................................................................
..................OO..............................................OO............O..O.........................................................................................................................
..................................................................OO............O...O........................................................................................................................
.........OO.....................................................................O...O.....................................OO................................................OO...............................
..........O....................................................................OO...O........................OO...........OO...................................OO...........OO...............................
.......OOO......................................................................O..O...................OO.....O..........................................OO.....O............................................
.......O............................................................................................OO..O..OOO........................................OO..O..OOO...................................OO........
...............OO...................................................................................OO.O...O..........................................OO.O...O.....................................OO..OO....
...............O...................OO..................................................................O.O.O.............................................O.O.O.........................................O.O...
................O.................O.O...........OO......O...................OO......................OO.O.OO...................OO......................OO.O.OO...................OO.......................O...
...............OO.................O.............OO......OOO..................O................OO....O..O.......................O................OO....O..O.......................O.......................OO..
.................................OO........................O..............OOO.................OO......OO....................OOO.................OO......OO....................OOO............................
..........................................................OO..............O.................................................O.................................................O..............................
