!Name: p00474
!Cp00474 gun found using Hersrch
!CKarel Suhajda, 13 Aug 2003
!Source: guns1j-20121211
!
........................................................................................................................................OO................
..............................O.......................................O...............O.........O.......................................OO.....OO.........
..............................OOO.....................................OOO.............OOO.....OOO..............................................OO.........
.................................O.......................................O...............O...O.............OO.............................................
................................OO......................................OO..............OO...OO.............O.............................................
...........................................................................................................O..............OO.................OO...........
.....................................................O.....................................................OO..............O.................OO...........
.....................................................OOO...................................................................O.O.....................OO.....
.......OO...............................................O...................................................................OO.....................OO.....
.......OO..............................................OO...........OO......................O.............................................................
....................................................................OO......................O.............................................................
............................................................................................O...OOO.......................................................
.OO............................................................................................O...O..........OO..........................................
.OO...........................................................................................O.....O.........OO..........................................
.....OO.............................................................................................O.....................................................
.....OO......................................................................................O...OO.O.....................................................
.................................................................................................O........................................................
..............................................................................................O.O...................................................O.....
..................................................................................................................................................OOO.....
OO.............................................................................OO............................................O...OO..............O........
OO............................................................................O.O...........OO......O.......................O.O...O..............OO.......
..............................................................................O.............OO......OOO.....................OO...O........................
.............................................................................OO........................O........................O.........................
.................................................................................OO...................OO.....OO.......OO....OOOOO.O.......................
.......................O.O.....................OO.................................O.........................O.O.......OO....O....OO.......................
.......................OO.O..............OO.....O....................OO...........O.O.....................OOO.O.O............OOO..........................
..........................OOO............O.O.OOO.....................O.O...........OO....................O.....OO..............O.OO.......................
.......................OO....O....OO.......O.O.........................O.................................OO.....................O.O.......................
.......................O.OOOOO....OO.......OO.....OO...................OO.................................................................................
.........................O........................O........................OO.............................................................................
........................O...OO.....................OOO......OO.............O..............................................................................
.......OO..............O...O.O.......................O......OO...........O.O............................................................................OO
........O..............OO...O............................................OO.............................................................................OO
.....OOO..................................................................................................................................................
.....O...................................................O.O..............................................................................................
........................................................O.................................................................................................
.....................................................O.OO...O......................................................................................OO.....
.....................................................O.............................................................................................OO.....
..........................................OO.........O.....O...........................................................................................OO.
..........................................OO..........O...O............................................................................................OO.
.......................................................OOO...O............................................................................................
.............................................................O......................OO....................................................................
.............................................................O......................OO...........OO..............................................OO.......
.....OO.....................OO...................................................................O...............................................OO.......
.....OO.....................O.O...................................................................OOO.....................................................
...........OO.................O..............OO.....................................................O.....................................................
...........OO.................OO..............O...........................................................................................................
.............................................O.............OO...OO......................................................OO................................
.............................................OO.............O...O.......................................................O.................................
.........OO..............................................OOO.....OOO................O....................................OOO..............................
.........OO.....OO.......................................O.........O.................O.....................................O..............................
................OO.................................................................OOO....................................................................
