!Name: p00463
!C p463 gun
!C Karel Suhajda, 12 May 2003
!Source: guns1j-20121211
!
.................................................................................................................................................................OO...............
..............................................................................................................................................................OO..O...............
............................................................................................................................................................OOO.OO......O.........
...........................................................................................................................................................O..........OOO.........
..............................................................................................................................O.............................OOO.OO...O............
..............................................................................................................................OOO.............................O.OO...OO...........
.................................................................................................................................O................................................
................................................................................................................................OO................................................
..................................................................................................OO..............................................................................
..................................................O................................................O......................................................................OO......
..................................................OOO.....OO......................................O.......................................................................O.......
.....................................................O....OO......................................OO....................................................................O.O.......
...................................OO...............OO.....................................................................O............................................OO........
....................................O.....................................................................................O.OO....................................................
..................................O..........OO...........................................................................O...O...................................................
................................OOOO.........O.......OO...................................................................OO..O...................................................
.............................O.O....O......O.O.......OO...OO.............OO...............................................OO.OO...................................................
...........................OOO.OO..OO......OO.............OO.............OO..........................OO................O...OO.....................................................
..........................O..........................................................................OO..............OO...........................................................
.......................O..OOOO.OO.....................................................................................OO..........................................................
.......................OOO...O.OO.................................................................................................................................................
..........................O.......................................................................................................................................................
.........................OO..............................................................................................................................................OO.......
.........................................................................................................................................................................OO.......
.......................................................................OO.........................................................................................................
......................................................................O.O......................................OO.................................................................
.......OO.............................................................O.........................................O..............................OO.................................
.......OO............................................................OO.........................OO...........OOO.........................OO.....O.................................
................................................................................................OO...........O...........................O.O.OOO..................................
..................................................................................................................................OO.......O.O....................................
.OO...............................................................................................................................OO.......OO.....................................
.OO...............................................................................OO...............................................................O.OO...........................
.....OO...............OO...........................................................O...............................................................OO.O...........................
.....OO...............OOO.......................................................OOO.....................................................................................OO........
.....................O.OOO...........................................OO.........O...........................................................................OO.........O..O..OO...
......................O.OOO..........................................OO.....................OO..............................................................OO.........O.O....O...
......................OOOO..................................................................O...........................................................................O.....O.OO
OO.....................OO....................................................................OOO...........................................................................OO.O.O.
OO...................................OO........................................................O...........................................................................O..O..O
...............................OO....O.O.........OO.....................................................................................................................O....O..OO
................................O......O........O.O...........OO........................................................................................................OOOOO.....
.............................OOO.......OO.......O.............OO................................................OO................................................................
.............................O.................OO...............................................................O.....................................................OOOOOOO.....
......................................................................................................OO..........O...................................................O..O..O.....
...................OO..OO.OO...........................................................................O.........OOOO...............................................O.O...........
...................O.O..O.O............................................................................O.O......O....O.O............................................OO............
......................OO...O.......O....................................................................OO......OO..OO.OOO........................................................
.......................O.OO......OOO......................................................................................O.......................................................
....................O..O.O......O...................................................................................OO.OOOO..O....................................................
.......OO..........O.O.O.O......OO...............................................................................O.OOO.O...OOO....................O...............................
........O...........OO.OO.........................................................O.........O...................O.OO......O.......................OOO.............................
.....OOO............................................O.............................OOO.....OOO..................OO.OO......OO.........................O............................
.....O............................................OOO.................OO.............O...O.....................OO..O................................OO............................
.................................................O....................O.............OO...OO.....................O.OO...........................O..................................
....................................OO...........OO....................O........................................OOO............................OOO................................
....................................OO................................OO......................................OOOO................................O...............................
............................................................................................................OO.O.OO........OO....................OO...............................
...............................................................................................................O...........OO.....................................................
.............................................................................................................OO....O..............................................................
.................................................................................................................O.O..............................................................
.....OO............................................................OO.............................................................................................................
.....OO............................................................OO.........................................................................OO..................................
...........OO...................................................................................................OO............................OO.................OO...............
...........OO...................................................................................................O.O..............................................OO...............
..............................OO.................................................................................O................................................................
..........................OO..O..OO...............................................................................................................................................
.........OO................O...O.OO...........................................................................OO..................................................OO..............
.........OO.....OO.........O.O.O..................................................................OO.........O.O....OO............................................O...............
................OO..........OO.O.OO......................OO...................O......OO...........O.O........O......O................................OO............OOO............
...............................O..O....OO................O..................OOO......OO.............O.......OO.......OOO..............O...............O..............O............
...............................OO......OO.................OOO..............O........................OO.................O...............O...........OOO............................
............................................................O..............OO........................................................OOO...........O..............................
