!Name: p00400
!C p400 gun based on Dave Greene's p232
!C Scot Ellison - 15 November 2005
!Source: guns1j-20121211
!
...............................................................................O.............................
........................................................................O....................................
..........................................................OOO..........OOO...................................
.............................................................O........OOO.O..................................
.........................................................O...O.........O...O........O........................
...............................................O........O.O..O..........O...O.....OOO........................
...............................................OOO....O..O.O.............O.OOO...O...........................
..................................................O...O...O...............OOO....OO..........................
.................................................OO...O....................O.................................
.......................................................OOO.....................O.............................
....................................................O.........................O.O............................
...................................................O.O.........................OO..OO........................
...............................................OO..OO..............................OO........................
...............................................OO............................................................
.........................................................................................................OO..
........................................................................................................O...O
.......................................................................................................O....O
......................................................................................................O.O.O..
.....................................................................................................O.O.O...
...................................................................................................O....O....
............................................................................................O......O...O.....
...........................................................................................OO................
...........................................................................................O.O....O..OO......
.................................................................................................O.O.........
.................................................................................................OO..........
.....................................................................................................OO......
.....................................................................................................O.O.....
...............OO...............................................................................OO.....O.....
........OO.....OO...............................................................................OO.....OO....
........OO...................................................................................................
..........................................O.........O........................................................
.............................OO...........OOO.....OOO........................................................
..........OO................O.O..............O...O...........................................................
..........OO..................O.............OO...OO..........................................................
....OO.......................................................................................................
....OO.......................................................................................................
..........................................................O............................OO.....OO.............
.........................................................OOO...........................OO.....O..............
...................................OO...................OOO.O...............................O.O..............
...................................OO....................O...O..............................OO...............
...............................................OO.........O...O.........................OO...................
..............................................O..O.........O.OOO........................O.O..................
...............................................OO....OO.....OOO..........................O...O...............
.....................................................O.O.....O..............................OO...............
.O.....................................................O.........O.........................O.OO..............
.OOO...................................................OO.......O.O.......................OOO..O.............
....O........................................OO..................OO.........................O.O.O............
...OO.........................................O..............OO..............................O.O.O...........
...........................................OOO..............O.O...............................O..OOO.........
..............................OO...........O................O.....OO...........................OO.O..........
..............................OO..OO.......................OO.....OO............................OO...........
..................................O.O...........................................................O............
.........................O.........O.........................................................................
.......................OOO.............O......................................OO.............................
......................O.........OO....O.O.................................OO..OO.............................
......................OO.........O...O...O...............................O.O.................................
..............................OOO.....O...O...............................O..................................
..............................O........O...O..........................O......................................
OO......................................O...O........................O.O....OO...............................
OO.......................................O.O........................O...O...O................................
..........................................O........................O...O.....OOO.............................
..................................................................O...O........O.............................
.................................................................O...O.......................................
.................O........O.......................................O.O........................................
.........OO.....O.O........O.......................................O.........................................
.........OO......O.......OOO.................................................................................
