!Name: p00425
!C p425 gun found with 5/5/2007 Hersrch: Dave Greene, 7 May 2007
!Source: guns1j-20121211
!
.........................................................................OO......................
.........................................................................OO.....OO...............
................................................................................OO...............
............................................O....................................................
............................................OOO..................................................
...............................................O...........OO.................OO.................
..............................................OO............O.........OO......OO.................
.......................................O....................O.O....OO.OOO...........OO...........
.......................................OOO...................OO....OO...OO..........OO...........
..........................................O..........................O.O..O......................
.........................................OO..........................OOO..OO.....................
.....................................................................O.O.OO......................
.........................................................................O.......................
......................................OO.......................O.................................
.......................................O......................O..................................
.......................................O.O....................OOO................................
........................................OO.......................................................
..................................O..............................................................
...............OO.................OOO............................................................
................O....................O...........................................................
...............O....................OO...........................................................
...............OO..........................................................................OO....
.......O...................................................................................O.....
.......OOO...............................................................................O.O.....
..........O..............................................................................OO.OO...
.........OO.................................................................................O.O..
............................................................................................O.O..
..................OO.................................................OO....................OO.OO.
..................OO..................................................O........................O.
................................................O.....................O.O..................OO.O..
................................................O......................OO..................OO.O.O
................................................O..............................................OO
............................................OO...................................................
.............................................O...................................................
..........................................OOO..........................OO........................
............................OO............O...........................O.O........................
.............................O........................................O..........................
..........................OOO.......................................OOO..........................
..........................O........................................O.............................
........................O.O...........................O............OO............................
........................OO..........................OOO..........................................
...................................................O.............................................
...................................................OO............................................
OO..............................................O................................................
O.O.OO..................OO......................O................................................
..O.OO..................O.O.....................O................................................
.O........................O..................................................OO..................
.OO.OO....................OO.................................................OO..................
..O.O............................................................................................
..O.O.................................................................................OO.........
...OO.OO..............................................................................O..........
.....O.O...............................................................................OOO.......
.....O...................................................................................O.......
....OO..........................................................................OO...............
...........................................................OO....................O...............
...........................................................O....................O................
............................................................OOO.................OO...............
..............................................................O..................................
.......................................................OO........................................
................................OOO....................O.O.......................................
..................................O......................O.......................................
.................................O.......................OO......................................
.......................O.........................................................................
......................OO.O.O.....................................................................
.....................OO..OOO.....................................................................
......................O..O.O.....................................................................
...........OO..........OO...OO....OO.............................................................
...........OO...........OOO.OO....O.O............................................................
.................OO......OO.........O............OO..............................................
.................OO.................OO...........O...............................................
..................................................OOO............................................
....................................................O............................................
...............OO...............................................O................................
...............OO.....OO.........................................O...............................
......................OO.......................................OOO...............................
