!Name: p00408
!Source: guns1j-20121211
!
...................................................................OO.............
....................................O..............................O.O............
..................................OOO................................O............
.................................O...............................OOOO.OO..........
.................................OO..............................O..O.O.O.........
...............................................................OO..OO.O.O.........
..........O..........................................O........O..OO..OO.O.OO......
..........OOO......................................OOO.......O.OO..OO.O.O.OO......
.............O....................................O..........O...OO....O..........
...OO.......OO.......................OO...........OO..........OOO.O.OOO...........
....O................................OO.........................O...O.............
....O.O...........................................................................
.....OO...........................................................O...............
..................................................................O...............
...............................................................................OO.
...............................................................................O..
......................................................OO...O...........O.....O.O..
.....................................................O.OO.O...O.........O....OO...
....................................................OO....O.O..O...OO.............
.O.......................OO..........................OO..OOO..OO...OOO............
O.O......................O...............................OO........OO.............
.O..............OO........OOO.....................................................
................O...........O.......................................O.OOO.........
.................OOO..................................................OO..........
...................O..........................................................OO..
..............................................................................OO..
...OO................................OO.......................................OO..
..O.O.................................O........................................O..
..O................................OOO.........................OO.............O.O.
.OO................................O...........................OO............OO.O.
............O....OO.O.............................................................
...........OO....O.OO.............................................................
..............................................................................OO..
........O..O..................................................................OO..
........O..O......................................................................
........OOO.......................................................................
.................................................................................O
OO.............................................................................O.O
.O..............................................................................OO
.O.O..............................................................................
..OO..............................................................................
.....................................................................OO...........
.....................................................................OO...........
............................................................OO.O..................
............................................................O.OO..................
.............................................O................................OO..
...........................................OOO................................O...
..........................................O.................................O.O...
..........................................OO................................OO....
.............................................................O....................
.............................................................OOO..................
....................................................O...........O.................
....................................................OOO........OO..............O..
.......................................................O......................O.O.
......................................................OO.......................O..
..OO..............................................................................
.O.O..............................................................................
.O......................................................OOO.......................
OO....................................................O....O......................
..............O.........................................O.OO......................
..............O......................................OOO..................OO......
....................................................O.....................O.O.....
............O...O.........................OO................................O.....
..........OOO.O.OOO..........OO...........OO.......................OO.......OO....
.........O....OO...O..........O....................................O..............
.....OO.O.O.OO..OO.O.......OOO......................................OOO...........
.....OO.O.OO..OO..O........O..........................................O...........
........O.O.OO..OO................................................................
........O.O.O..O..............................OO..................................
.........OO.OOOO...............................O..................................
...........O................................OOO...................................
...........O.O..............................O.....................................
............OO....................................................................
