!Name: p00437
!Source: guns1j-20121211
!
..........................................................................OO.....OO...........OO.....OO..........................................................................
......................................................................OO.O..O...O..O.OO...OO..OO.....OO..OO......................................................................
......................................................................OO.O.........O.OO...OO.............OO......................................................................
.........................................................................O..O...O..O.............................................................................................
..........................................................................O.OO.OO.O..............................................................................................
.........................................................................OO.......OO.............................................................................................
.........................................................................OO.......OO.............................................................................................
.........................................................................OOO.....OOO.............................................................................................
...........................................................................OOO.OOO...............................................................................................
.............................................................................O.O.................................................................................................
..........................................................................O..O.O..O..............................................................................................
.........................................................................O..O...O..O.............................................................................................
..........................................................................OO.....OO...........O.......O..........................................................................
.............................................................................................O.O.....O.O.........................................................................
..................................................OOO...........................................O...O.....................OO.....................................................
.........................................OO.....O....O.......................................O..O...O..O.................O..O....................................................
................................................O.....O.......................................O.O...O.O.............O....O..OO...................................................
.................................OO..................O.........O................................OO.OO............O...O...O..O....................................................
..................OO...........OO..O...............OO..........OOO...........................OO.OO.OO.OO.......OOOOOOO.....O....................OOOO.....OOOOOO..................
..................OO...........OOOOOO.............................O..........................OO..O.O..OO......O.................................O.OO.......OOOO..................
...............................OOOO................OO..........OOO............................OOO...OOO........OOOOOOO.....O....................O.......O.OO.....................
............................................O........O.........O...............................O.....O...........O...O...O..O....................OO.....OO.......................
.............................................O..O.....O.............................................................O....O..OO...................................................
...........................................OOO..O....O.....................................OOO...OOO.....................O..O....................OO.....OO.......................
...............................OOOO...............OOO.....................................O..O...O..O.....................OO....................O.......O.OO.....................
..................OO...........OOOOOO.........................................................O.O...............................................O.OO.......OOOO..................
..................OO...........OO..O......................................................OO.......OO...........................................OOOO.....OOOOOO..................
.................................OO......................................O................OO.......OO.........................O.O................................................
........................................................................O....................O...O............................OO.................................................
........................................................................OOO..................OO.OO.............................O.................................................
...........................................................................................OOO...OOO.............................................................................
...........................................................................................OO.....OO..................O..........................................................
.............................................................................OO.....OO.....O.......O.................OO..........................................................
........................................................O...................O..O...O..O..............................O.O.........................................................
......................................................O.O......................OO.OO.............................................................................................
.......................................................OO.....................O.O.O.O............................................................................................
..............................................................................O.O.O.O............................................................................................
....................................................OOO.....................O.........O..........................................................................................
......................................................O....................O...........O.........................................................................................
.....................................................O.......O...................................................................................................................
...........OO.....OO.........................................O.O...............OO.OO.........................................................................OO.....OO...........
...........OO.....OO.........................................OO..............O..O.O..O.......................................................................OO.....OO...........
.............................................................................OOO...OOO...........................................................................................
.................................................................................................................................OO..............................................
.......................................................................................................................O........OO...............................................
.............................................................................OO.....OO.....OO.....OO....................OO........O..............................................
.............................................................................OO.....OO.....OO.....OO...................OO........................................................
..................................................O..............................................................................................................................
...........OOO...OOO.............................O...............................................................................................................................
..........O..O...O..O............................OOO.........................................................................................................O.......O...........
..............O.O..........................................................................................................................................O.OO.....OO.O.........
..............O.O............................................................................................................................O.............O...OO.OO...O.........
..............O.O...........................................................................................................................OO..............O...O.O...O..........
..........O..O...O..O.......................................................................................................................O.O..............OOO...OOO...........
...........O.......O.............................................................................................................................................................
.........................................................O..OO............OO.....................................................................................................
.............................OOO...................O.O....OO.O............OO.....................................................................................................
..................O............O..................O..O......O....................................................................................................................
................OO.OO.........O.......O.........OOO.OO....OOO....................................................................................................................
......................................O.O......O.................................................................................................................................
................OO.OO.................OO........OOO.OO....OOO....................................................................................................................
................O...O.............................O..O......O....................................................................................................................
.................OOO...............................O.O....OO.O..........................................................................................OO.......................
...........OO............................................O..OO................................................................................O........OO...........OO...........
...........OO.......................................................................O..........................................................OO........O..........OO...........
..............................................................................OOO.OO.OO.......................................................OO.................................
...........................................................................OO...O.OO.OO..........................................................................................
...........................................................................OOOO.....O............................................................................................
.............................................................................OOOO.OO.............................................................................................
.OO...........................................................................................................................................................................OO.
.O............................................................................................................................................................................OO.
..........OO..................................................................O.....O............................................................................................
OO.......O..O................................................................OO.....OO....................................................................OO....O..OO..........OO
OO.......O..OO..............................................................O.OO...OO.O..................................................................OO......OO.O..........OO
.........O..O...............................................................O.OO...OO.O...................................................................O.O......O.............
...........O.................................................................OOO...OOO.....................................................................OO....OOO.............
.............................................................................OOO...OOO...........................................................................................
...........O...............................................................................................................................................OO....OOO.............
.........O..O.............................................................................................................................................O.O......O.............
OO.......O..OO...........OO...........................................................................................................................OO.OO......OO.O..........OO
OO.......O..O............OO...........................................................................................................................OO..OO....O..OO..........OO
..........OO.....................................................................................................................................................................
.O............................................................................................................................................................................OO.
.OO...........................................................................................................................................................................OO.
.........................................................................OO.............OO.......................O...............................................................
.........................................................................OO..OO.....OO..OO........................O..............................................................
.............................................................................OO.....OO..........................OOO..............................................................
