!Name: p00551
!C p551 gun
!C Karel Suhajda, 15 May 2003
!Source: guns1j-20121211
!
...........................................................................................................................O..............OO.............................................
.........................................................................................................................OOO..............O........................OO....................
........................................................................................................................O..................OOO......OO.............O.....................
........................................................................................................................OO...................O......OO...........O.O.....................
.................................................................................................................................................................OO.............OO.......
................OO...............................................................................O..............................................................................OO.......
.........OO.....OO.......................................O.........O...............O.............OOO.....................................................................................
.........OO..............................................OOO.....OOO.............OOO................O....................................................................................
.............................................OO.............O...O...............O..................OO...............................OOO...............................................OO.
.............................................O.............OO...OO..............OO.................................................OO.OO..............................................OO.
...........OO.................OO..............O....................................................................................O..OO..........................................OO.....
...........OO.................O..............OO.....................................................................................OO............................................OO.....
.....OO.....................O.O..........................................................................................................................................................
.....OO.....................OO...........................................................................................................................................................
.......................................................................................................................................................................................OO
..........................................................................................OO...........................................................................................OO
..........................................OO..............................................OO.........................................OO..................................................
..........................................OO.....................................................................OO...................O..................................................
.................................................................................................................O.O.................O.............OO...OO...............................
...................................................................................................................O.................OO.............O...O................................
.......................................................................................................OO..........OO............................OOO.....OOO.............................
.....O.................................................................................................O.........................................O.........O.............................
.....OOO.....................................................................................OO.........OOO..............................................................................
........O................................................................OO...................O............O.OO......................OO..............O...................................
.......OO.......................OO...................O......OO...........O.O.................O............OO.O........................O..............OOO.................................
................................O..................OOO......OO.............O................O................O.............OO......OOO..................O................................
.................................OOO..............O........................O.OO............O.................O.O...........OO......O...................OO................................
...................................O..............OO......................OO.O............O...................OO.........................................................................
..............................................................................OOO.........OO.............................................................................................
.............................O.........O.........................................O.......................................................................................................
.............................OOO.....OOO............................OO..........OO.......................................................................................................
................................O...O.............OO.................O...................................................................................................................
...............................OO...OO.............O.................O.O................................................................................................................O
..................................................O...................OO.....................................................................OO.......................................O.O
..................................................OO.........................................OO..............................................OO........................................OO
OO...........................................................................................OO..........................................................................................
OO.......................................................................................................................................................................................
...........................................................................................................................................................OO.....................OO.....
..........................................................................................................................................................O.O.....................OO.....
.....OO............................................OO.....................................................................................OO..............O.................OO...........
.....OO..........................................OO..O....................................................................................O..............OO.................OO...........
.OO..............................................OO.OO.................................................OO..............OO...OO.............O.............................................
.OO...............................................OOO...............................OO..................O...............O...O.............OO.............................................
....................................................................................O................OOO.............OOO.....OOO..............................................OO.........
.....................................................................................OOO.............O...............O.........O.......................................OO.....OO.........
.......OO..............................................................................O...............................................................................OO................
.......OO.............OO.................................................................................................................................................................
.....................O.O...........OO......O...................OO........................................................................................................................
.....................O.............OO......OOO..................O........................................................................................................................
....................OO........................O..............OOO.........................................................................................................................
.............................................OO..............O...........................................................................................................................
