!Name: p00592
!C p00592 found using Karel Suhajda's Hersrch program
!C Scot Ellison - May 2003
!Source: guns1j-20121211
!
.........................................O.......O.OO.......................................
.......................................OOO.......OO.O.......................................
.......................O..............O........................................O............
.......................OOO............OO.....................................OOO............
..........................O.................................................O...............
.........................OO.................................................OO..............
..........................OO................................................................
..........................OO.................OO...........................................OO
.............................................OO..........................................O.O
.......................................................................................OOO..
...................................................................................OO.O...O.
.................................................................................O.....O.OO.
.................................................................................O.....O....
.................................................................................O.....O.OO.
..........................................OO.......................................OO.O...O.
...........OO.............................O............................................OOO..
...........O................................O............................................O.O
.........O.O.....OO........................OO.............................................OO
........O.O......OO....................OO...................................................
....OO...O.............................O...............................................O....
....OO..................................OOO..........................................OOO....
OO........................................O.........................................O.......
.O....................................................OO.............OO.............OO......
.O.O...................................................O.............OO.....................
..OO...................................................O.O..................................
........................................................OO..OO..............................
............................................................OO..............................
.............................OO....OO.......................................................
.............................OO....OO..................OO....OO.............................
.......................................................OO....OO.............................
..............................OO............................................................
..............................OO..OO........................................................
..................................O.O...................................................OO..
.....................OO.............O...................................................O.O.
......OO.............OO.............OO....................................................O.
.......O........O................................O........................................OO
....OOO........OOO...............................OOO..................................OO....
....O.........O..O..................................O.............................O...OO....
..............OO...................................OO....................OO......O.O........
OO.............O...............................OO........................OO.....O.O.........
O.O..............OO............................O................................O...........
..OOO..........OOOO..............................O.............................OO...........
.O...O.OO.....O..O........OO....................OO..........................................
.OO.O.....O.....O.........OO................................................................
....O.....O.................................................................................
.OO.O.....O....O.O..........................................................................
.O...O.OO.......OO..........................................................................
..OOO.......................................................................................
O.O..........................................OO.............................................
OO...........................................OO.................OO..........................
..................OO............................................OO..........................
..................OO........................................................................
..............OO.................................................OO.........................
...............O.................................................O..........................
............OOO.....................................OO............OOO.......................
............O........................O...............O..............O.......................
......................................O...........OOO.......................................
....................................OOO...........O.........................................
