!Name: p00580
!C p00580 constructed by removing one rotor from the p290
!C  Scot Ellison - 24 October 2005
!C Reduced by 16 columns with smaller P5 - Scot Ellison 4 May 2007
!Source: guns1j-20121211
!
....................................................OO..............O.........................O.................
...........................OO........................O..............OOO.....................OOO.................
............................O.............OO......OOO..................O...................O.........O..........
............................O.O...........OO......O...................OO...................OO......OOOOO........
..............OO.............OO...................................................................O.....O.......
..............OO..................................................................................O.OO..O.......
.................................................................................................OO.O.O.OOO.O...
......................................................................................................O....OO...
........OO..........................................................................................O.O.OO......
........OO.........................................................................................OO.O.O.OOOOO.
............OO..............................................OO...................................OO...O.....O..O
............OO..............................................OO...................................OO.O..OOOO...OO
................................................................................................OO..OOO....O....
................................................................................................OOO......O.O....
................................................................................................OOO......O.O....
.......OO.......................................................................................OO..OOO....O....
.......OO........................................................................................OO.O..OOOO...OO
.........................................................OO......................................OO...O.....O..O
...........................O...OO........................O.........................................OO.O.O.OOOOO.
..........................O.O...O.....OO...OO.............O.........................................O.O.OO......
..........................OO...O.......O...O.............OO...........................................O....OO...
..............................O.....OOO.....OOO..................................................OO.O.O.OOO.O...
..........................OOOOO.O...O.........O...................................................O.OO..O.......
..........................O....OO.................................................................O.....O.......
...........................OOO.....................................................................OOOOO........
.............................O.OO....................................................................O..........
..............................O.O...............................................................................
.....................O.........................................................O.O..............................
..........O.........OOO........................................................OO.O.............................
........OOOOO......O..OO..........................................................OOO...........................
.......O.....O.....OO.OO.......................................................OO....O..........................
.......O..OO.O....OOO............................................O.........O...O.OOOOO..........................
...O.OOO.O.O.OO....OO.O..........................................OOO.....OOO.....O..............................
...OO....O..........O..O.............................OO.............O...O.......O...OO..........................
......OO.O.O........O................................O.............OO...OO.....O...O.O..........................
.OOOOO.O.O.OO........O.O..............................O........................OO...O...........................
O..O.....O...OO.......O........OO....................OO.........................................................
OO...OOOO..O.OO................OO......................................................................OO.......
....O....OOO..OO.......................................................................................OO.......
....O.O......OOO......O.........................................................................................
....O.O......OOO....O..OO.......................................................................................
....O....OOO..OO.....OOOO.......................................................................................
OO...OOOO..O.OO...O...............................OO..............................................OO............
O..O.....O...OO.....O..O..........................OO..............................................OO............
.OOOOO.O.O.OO.........OOO.............................................................................OO........
......OO.O.O.......OO.OO.OO...........................................................................OO........
...OO....O...............OO.....................................................................................
...O.OOO.O.O.OO..........O......................................................................................
.......O..OO.O..................................................................................OO..............
.......O.....O...................................................................OO.............OO..............
........OOOOO......OO........................................O......OO...........O.O............................
..........O.........O......................O...............OOO......OO.............O............................
.................OOO........................O.............O........................OO...........................
.................O........................OOO.............OO....................................................
