!Name: p00595
!C p00595: (Fx77 + p7 pulse-divider transceiver) x 2.  1 Herschel.
!C Transceivers in same position as in p00357, but one pulse divider
!C has the "fast" block setting and one has the "slow" block.
!C A p5 sparker is used to extract an output glider from one Fx77.
!C Dave Greene, 16 May 2007
!Source: guns1j-20121211
!
.........OO.............................................................................................
.....O.O..O.....................................................OO......................................
...OOO.OO........................................................O..O..O....OO..........................
..O............................................................O....OOOOOO..O...........................
...OOO.OO.....................................................O.OOOO......O.O...........................
.....O.OO......................O..............................O.O....OOO.O..OO..........................
...............................OOO...................OO..O..O.O.OO..OO.OO.O.O...........................
..................................O..................O...OOOO.OO.O...O...OO.O...........................
.................................OO................O.O.......O....OOOO.O.O..OO..........................
..................................................O.O...O.OO...OOO....OO.O.O............................
..............................................OO...O....OO.OO.OO..OOO...O..O............................
OO............................................OO..................O..OOO...OO...........................
.O......................OO...........................................O..................................
.O.O....................O...............................................................................
..OO..................O.O...............................................................................
......................OO..................................OO............................................
..........................................................OO............................................
.....................................................................OO.................................
.....................................................................OO.................................
.....................................................OO.................................................
.................................OO.................O.O.................................................
.................................OO...........OO....O...................................................
..............................................O...O.O...................................................
..........OO...................................OOOO.OO..................................................
......OO..OO............................................................................................
.....O.O.......................................OO......OO...............................................
.....O.........................................OO.....O.O...............................................
....OO................................................O.................................................
.....................................................OO.................................................
..................................................O.....................................................
................................................OOO.....................................................
...............................................O..................................................OO....
...............................................OO......OO..................O......................O.....
.......................................................OO.................OO...................OO.O.....
..........................................................................O.O...............OO...O......
..................................................OO.OOOO...................................O...........
...................................................O.O...O..............................................
...................................................O....OO...........OO...................O....O........
.................................................O.O.................OO...................O.............
.................................................OO........................................O............
.................................OO...........................................................O.........
.................................OO...........................................................OO........
..............................................................................................O.........
...........................................OO..........................................O......OOO.......
...........................................OO..........................................O...OO...O.......
...........................................................................................O...O........
................................................................................OO..........OOO.........
...............................................................................O.O..................OO..
...............................................................................O....................O.O.
..................................O...........................................OO......................O.
...........................OO...OOO..O..................OO............................................OO
............................O..O...OOO..OO.OO.OO....O...OO..............................................
............................O.O.OO....OOO...OO.O...O.O...........O......................................
..........................OO..O.O.OOOO....O.......O.O..........O...O....................................
...........................O.OO...O...O.OO.OOOO...O.....................................................
...........................O.O.OO.OO..OO.O.O..O..OO...........O.....O...................................
..........................OO..O.OOO....O.O..................OOO.OOO.OOO........................OO.O.....
...........................O.O......OOOO.O.................O...OO.OO...O.......................OO.OOO...
...........................O..OOOOOO....O..................O.OOO.O.OOOO..............................O..
..........................OO....O..O..O.....................O..................................OO.OOO...
......................................OO......................O.O.O.OO.O.....................O..O.O.....
.............................................................OO.OOO.O.OO.....................OO.........
..............................................................O.O..O.................O..................
..............................................................O..OO...................O.................
.............................................................OO.....................OOO.................
