!Name: p00634
!C p00634 found using Karel Suhajda's Hersrch program
!C Scot Ellison  June 2003
!Source: guns1j-20121211
!
......................................................................................O.OO.....................................................................................................
......................................................................................OO.O.....................................................................................................
......................................O........................................................................................................................................................
......................................OOO....................................................OOO...............................................................................................
.........................................O............O..................O...................O......................O.......................................OO.................................
........................................OO............OOO.......OO.......OOO..................O...................OOO.............O.........................O..................................
.........................................................O......O...........O....................................O................OOO.....................O.O..................................
.....................O..................................OO....O.O..........OO...........OO.......................OO..................O....................OO...................................
.....................OOO......................................OO........................OO..........................................OO.......................................OO................
........................O....................................................................................................................................................OO.....OO.........
.......OO..............OO...........OO..............................................................................................................................................OO.........
.......OO...........................OO...........................................................................O...........................................OO................................
.................................................................................................................OOO..........................................O................................
..................................................................................................................OOO.........................................O.O.................OO...........
.OO......................................................................................................O.O......OO...........................................OO.................OO...........
.OO.......................................................................................................O...OO.OO.......OO............................................................OO.....
.....OO........................................................................................................OOO........OO............................................................OO.....
.....OO............................................................................................OO...........O..............................................................................
..................................................................................................O.O..........................................................................................
..................................................................................................O............................................................................................
.................................................................................................OO..........OO................................................................................
OO............................................................................................................O................................................................................
OO.........................................................................................................OOO.........OO................................OO....................................
.........................................................................................OO................O...........O....................OO...........OO................................O...
..................................................OO.....................................O.O............................O....................O...........................................OOO...
...................................................O.......................................O...........................OO.................OOO...........................................O......
.....................................OO.........OOO...O.OO.................................OO.............................................O.............................................OO.....
.....................................O.O........O..OOOO.OO.......................................................................OO............................................................
.......................................O...........O.............................................................................O...........................OO................................
.......................................OO...........OOO.OO..OO......OO.................................................OO..........O..........................O................................
...................................O..................O.O....O......O.O.................................................O.........OOOO.....................OOO.................................
.................................OOO.....................OOOO.........O.................................................O.O......O....O.O..................O...................................
................................O..........................O..........OO.................................................OO......OO..OO.OOO...........OO.......................................
................................OO...........................O.............................................................................O...........O.......................................
............................................................OO.......................................................................OO.OOOO..O........O.O.....................................
.....OO.............................................O.............................................OO.................................OO.O...OOO.........OO.....................................
......O...........................................OOO.................OO...........................O.......................................O...................................................
...OOO...........................................O....................O............................O.O.....................................OO..................................................
...O................................OO...........OO....................O...........O................OO.........................................................................................
....................................OO................................OO.........OOO.........................................................................................................OO
................................................................................O............................................................................................................OO
................................................................................OO..........OO.................................................................................................
............................................................................................O..................................................................................................
..........................................................................................O.O..................................................................................................
..............................................................................O...........OO............................................................................................OO.....
.....OO............................................................OO........OOO........................................................................................................OO.....
.....OO............................................................OO.......OO.OO...O.......................................................................................................OO.
...........OO.................OO...........................................OO......O.O......................................................................................................OO.
...........OO.................O.O.........................................OOO..................................................................................................................
................................O..........................................OOO.................................................................................................................
................................OO...........................................O...........................................................................OO...........................OO.......
.........OO..............................................................................................................................................OO...........OO..............OO.......
.........OO.....OO....................................................................................................................................................O........................
................OO.......................................OO..........................................OO........................OO......................................OOO.....................
...................................OO....................O..................OO.......................OO...........OO..........O.O....OO..................................O.....................
..................................O.O.....................OOO................O....................................O...........O......O.........................................................
..................................O.........................O.............OOO...................O..................OOO.......OO.......OOO......................................................
.................................OO.......................................O......................O...................O..................O................O.OO..................................
...............................................................................................OOO.......................................................OO.O..................................
