!Name: p00666
!C p00666 found using Karel Suhajda's Hersrch program
!C Scot Ellison  June 2003
!Source: guns1j-20121211
!
................OO..................................................................OO.......OO..................................................................................................................
.........OO.....OO.......................................O.........O...............O.O.......OO.....................OO.......OO..................................................................................
.........OO..............................................OOO.....OOO.............OOO.O.O...........................O.O.......OO..................................................................................
................................OO...........OO.............O...O...............O.....OO.........................OOO.O.O...........................O..............OO.............................................
................................O............O.............OO...OO..............OO..............................O.....OO.........................OOO..............O........................OO....................
...........OO.................O.O.............O.................................................................OO..............................O..................OOO......OO.............O.....................
...........OO.................OO.............OO.................................................................................................OO...................O......OO...........O.O.....................
.....OO..................................................................................................................................................................................OO.............OO.......
.....OO.................................................................................................................................................................................................OO.......
............................................................................................................................................................OOO...............................................OO.
..........................................OO...............................................................................................................OO.OO..............................................OO.
..........................................OO...............................................................................................................O..OO..........................................OO.....
............................................................................................................................................................OO............................................OO.....
...O.............................................................................................................................................................................................................
...OOO...........................................................................................................................................................................................................
......O..........................................................................................................................................................................................................
.....OO........................................................................................................................................................................................................OO
.........................................................................OO....................................................................................................................................OO
................................OO...................O......OO...........O.O.................................................................................OO..................................................
................................O..................OOO......OO.............O..................................................................................O..................................................
.................................OOO..............O........................O.OO..............................................................................O.............OO...OO...............................
...................................O..............OO........................O.OOO.............................O..............................................OO.............O...O................................
.................................................................................O.............OO.............OOO........................................................OOO.....OOO.............................
.............................O.........O........................................OO.............O.................O.............OO........................................O.........O.............................
.............................OOO.....OOO........................................................OOO.............OO.............O.................................................................................
................................O...O.............OO..............................................O.............................OOO.O........................OO..............O...................................
...............................OO...OO.............O..............................................................................OO.O........................O..............OOO.................................
..................................................O..................................................................................O.............OO......OOO..................O................................
..................................................OO.................................................................................O.O...........OO......O...................OO................................
OO....................................................................................................................................OO.........................................................................
OO...............................................................................................................................................................................................................
.....OO............................................OO...........................................................................................................................................................O
.....OO..........................................OO..O...............................................................................................................OO.......................................O.O
.OO..............................................OO.OO...............................................................................................................OO........................................OO
.OO...............................................OOO............................................................................................................................................................
.......OO.................................................................................................................................................................................................OO.....
.......OO.............OO..................................................................................................................................................................................OO.....
.....................O.O...........OO......O...................OO.................................................................................................OO.............OO.................OO...........
.....................O.............OO......OOO..................O..............................OO.................................................................O.............O.O.................OO...........
....................OO........................O..............OOO.........................OO.....O..............................OO..............OO...OO.............O............O................................
.............................................OO..............O...........................O.O.OOO.........................OO.....O...............O...O.............OO...........OO................................
..................................................................................OO.......O.O...........................O.O.OOO.............OOO.....OOO..............................................OO.........
..................................................................................OO.......OO.....................OO.......O.O...............O.........O.......................................OO.....OO.........
..................................................................................................................OO.......OO..................................................................OO................
