!Name: p00676
!Cp00676 gun found using Hersrch
!CKarel Suhajda, 31 Oct 2003
!Source: guns1j-20121211
!
...............................................................................................OO.......OO..................................................................OO......................
...............................................................................................OO.......O.O...............O.........O.......................................OO.....OO...............
..........................................................OO..............O...........................O.O.OOO.............OOO.....OOO..............................................OO...............
.................................OO........................O..............OOO.........................OO.....O...............O...O.............OO...................................................
...............OO.................O.............OO......OOO..................O..............................OO..............OO...OO.............O...................................................
................O.................O.O...........OO......O...................OO....................OOO..........................................O..............OO.................OO.................
...............O...................OO.............................................................O............................................OO..............O.................OO.................
...............OO.................................................................................O.O..........................................................O.O.....................OO...........
.......O..........................................................................................OOO...........................................................OO.....................OO...........
.......OOO..........................................................................................................................................................................................
..........O.........................................................................................................................................................................................
.........OO...................................................................................OO....................................................................................................
..................................................................OO..........................OO..................................................OO................................................
..................OO..............................................OO..............................................................................OO................................................
..................OO................................................................................................................................................................................
.....................................................................................OO..........OO.................................................................................................
...............................................................OO....................OO..........OOO...............OO...............................................................................
...............................................................O................................O..O..............O.O...........OO......O...................OO......................................
............................OO..............OO...OO.............O...............................OOOO..............O.............OO......OOO..................O......................................
.............................O...............O...O.............OO................................OO..............OO........................O..............OOO.......................................
..........................OOO.............OOO.....OOO..............................................OO.....................................OO..............O...................................OO....
..........................O...............O.........O........................................OO...............................................................................................O.....
........................O.O...................................................................O.............................................................................................O.O.....
........................OO.................................................................OOO..............................................................................................OO.OO...
...........................................................................................O...................................................................................................O.O..
...............................................................................................................................................................................................O.O..
OO......................................................................................................................................................................OO....................OO.OO.
O.O.OO..................OO...............................................................................................................................................O........................O.
..O.OO..................O.O..............................................................................................................................................O.O..................OO.O..
.O........................O...............................................................................................................................................OO..................OO.O.O
.OO.OO....................OO......................................................................................................................................................................OO
..O.O...............................................................................................................................................................................................
..O.O...................................................................................................O...........................................................................................
...OO.OO..............................................................................................OOO.................................................................OO........................
.....O.O.............................................................................................O...................................................................O.O........................
.....O...............................................................................................OO........................................O.........O...............O..........................
....OO...................................O..............OO.....................................OO..............................................OOO.....OOO.............OOO..........................
.......................................OOO..............O........................OO..............OO................................OO.............O...O...............O.............................
......................................O..................OOO......OO.............O..............OOOO...............................O.............OO...OO..............OO............................
......................................OO...................O......OO...........O.O..............O..O................................O...............................................................
...............................................................................OO...............OOO..........OO....................OO...............................................................
.................................................................................................OO..........OO.....................................................................................
................................................................................................................................................................................OO..................
................................................OO..............................................................................OO..............................................OO..................
................................................OO..................................................OO..........................OO..................................................................
....................................................................................................OO...................................................................................OO.........
.........................................................................................................................................................................................O..........
..........................................................................................................................................................................................OOO.......
...........OO.....................OO...........................................................OOO..........................................................................................O.......
...........OO.....................O.O..........................................................O.O.................................................................................OO...............
.................OO.................O..............OO............................................O.............................................................OO...................O...............
.................OO.................OO..............O..........................................OOO.........................................O......OO...........O.O.................O................
...................................................O.............OO...OO..............OO.................................................OOO......OO.............O.................OO...............
...................................................OO.............O...O...............O.....OO..........................................O........................OO.................................
...............OO..............................................OOO.....OOO.............OOO.O.O.............................O............OO..........................................................
...............OO.....OO.......................................O.........O...............O.O.......OO.......................O.......................................................................
......................OO..................................................................OO.......OO.....................OOO.......................................................................
