!Name: p00693
!C p00693 found using Karel Suhajda's Hersrch program using the -d
!C switch for open tracks - Scot Ellison - 04 Sept 2003
!Source: guns1j-20121211
!
...........................................................................OO.....................................
...........................................................................OO............OO.......................
.........................................................................................O........................
.......................................................................................O.O........................
.......................................................................................OO.............OO..........
......................................................................................................OO..........
............................................................................................................OO....
.....................................................................OO.....................................OO....
.....................................................................OO.................................OO........
........................................................................................................OO........
.............................................................................................................OO...
......................................................................O......................................OO...
.....................................................................O.O..........................................
......................................................................O...........................................
...............................................................................OO.................................
...............................................................................O.O................................
.................................................................................O................................
.................................................................................OO...............................
.........................................................................................OO.......................
..............................................................O.........................O.O.......................
.............................................................O..........................O.........................
.............................................................OOO.......................OO.........................
.............O..O..O..................................................................O...........................
.............OOOOOOO..O...............................................................OOO........................O
....................OOO..................................................................O.....................O.O
...............OOOO.....................................................................OO......................OO
..............O.O.OOO.............................................................................................
..............O.O....O............................................................................................
.............OO.O.OOO.O...........................................................................................
..............O.....O.O...............O...........................................................................
..............O.OOOO..OO..............OOO.........................................................................
............O.O..O.O.O...................O............................................OO..........................
............OO.OO..O.O..........O.......OO............................................OO..........................
...............O.O.O.OO.......OOO......................OO.....................................................OO..
...............O.OO.O........O.........................O......................................................O.O.
............OO.OO.O.O........OO......................O.O........................................................O.
............O.O...O.OO....................O..........OO.........................................................OO
...............OOO.....O...O.............O.O......................................................................
...................OOO.O..O.O............O.O......................................................................
...............OOOO....O...OO..OO...OO....O.......................................................................
...............O..O.OO.........OO..O.O...............OO...........................................................
....................O..............O.................O.O..........................................................
..................O.O.............OO...................O...................................OO.....................
..................OO...................................OO..................................OO.....................
............................................OO....................................................................
............................................OO..........................................................OO........
..........................................................................................................O.......
.................................................................O.....................................O..........
..OO.....OO......................................................OOO.....OO............................O...O......
...O.....OO.........................................................O....OO............................O..O.O.....
...O.O.............................................................OO....................................O..O.....
....OO....................................................................................................OO......
........OO........................................................................................................
.......O.O..........................................................OO............................................
........O...........................................................OO...OO.......................................
.........................................................................OO.......................................
......OOO.........................................................................................OO..............
..................................................................................................O...............
.....O.O.O.........................................................................................OOO............
...OOO.O.OOO.................O.......................................................................O............
..O...OOO...O...............O.O...................................................................................
..O.O.....O.O...............O.O...................................................................................
OO.O.O.O.O.O.OO.OO.........OO.O.O.................................................................................
O..O.OOOOO.O..O.OO..OO...O....OO.O................................................................................
.OO.O.....O.OO......O.O..O.OOO...O................................................................................
..O..O.O.O..O........O...O.....OOO.O.................................................OO...........................
..O....O....O..............OO.O...O.O................................................OO...........................
O.OO..OOO..OO.O...OO........O.O.OO..O.............................................................................
OO...O...O...O.O...O........O.OO.O.OO.OO..........................................................................
...OOO...OOO...OOOO.......OO.O.O.O...O.O..........................................................................
OOO.........OOO...........O..O.O.O...O............................................................................
O..O.......O..O.O...........O.OO..OO.O..................................................O.........................
.OO.........O.O.OOO........OO.O.OO..O.............O...................................OOO.........................
......OOO..OO.O....O..........O.O..O.............O...OO..............................O............................
.....O.O.O...O..OO.OOO.....OO.O.O.OO.O.......OO.O.....O.............................O.O...........................
...OOO...OOO..OO.O....O....O..OO.O..O.O......O......O.O.OO...........................O............................
..O....O....OO...O.OO.O......O.....O..O.......OOOO.OO.O.OO......OO................................................
...OOOO.O.O...O.OO..O.OO...O.OOOOOO.OO..............O.O........O.O................................................
......O.O...OO......O..O..O.O.....O.............OOO.O.O........O...................OO.............................
.....O..O.O....OO.O.OO.....O..OOO.O............O...O.O........OO...................OO.............................
......OOO.OOOO.O..O.O.......OO.O.O.............OO..O...........................OO.................................
.........O....O..O..O.............................OO...........................O..................................
........O..OO.....OO............................................................OOO...............................
.........OO.OO....................................................................O...............................
