!Name: p00651
!C p00651: (Fx77 + p7 pulse-divider transceiver) x 2.  1 Herschel.
!C Transceivers in same position as in p00532, but one pulse divider
!C has the "fast" block setting and one has the "slow" block.
!C Dave Greene, 16 May 2007
!Source: guns1j-20121211
!
....................................................................................................OO.........
.............................................OO.....................................................O..O.O.....
.................................OO....O..O..O........................................................OO.OOO...
..................................O..OOOOOO....O............................................................O..
..................................O.O......OOOO.O.....................................................OO.OOO...
.................................OO..O.OOO....O.O..............................O......................OO.O.....
..................................O.O.OO.OO..OO.O.O..O..OO...................OOO...............................
..................................O.OO...O...O.OO.OOOO...O..................O..................................
.................................OO..O.O.OOOO....O.......O.O................OO.................................
...................................O.O.OO....OOO...OO.O...O.O..................................................
...................................O..O...OOO..OO.OO.OO....O...OO..............................OOO.............
..................................OO...OOO..O..................OO..............................O..O..........OO
.........................................O...........................................OO.......O.OO.OO........O.
......................................................................................O......OOO.OOO.......O.O.
......................................................................................O.O....OO............OO..
...................................................OO..................................OO......OO.OO...........
...................................................OO..........................................OO.OO...........
......................................................................................................OO.......
.....................................................................................................O..O......
........................................OO...........................................................OO.O......
........................................OO.....................................................................
........................................................OO.....................................................
........................................................O.O.................OO.................................
..........................................................O....OO...........OO.................................
..........................................................O.O...O..............................................
.........................................................OO.OOOO...................................OO..........
...................................................................................................OO..OO......
..............................................................OO.......................................O.O.....
..............................................................OO.........................................O.....
.........................................................................................................OO....
.........................................................................O.....................................
........................................................................O......................................
........................................................................OOO....................................
.....................................................OO........................................................
....OO................................................O........................................................
.....O.........................................OO.....O.O......................................................
.....O.O.......................................OO......OO......................................................
......OO..OO...................................................................................................
..........OO...................................OOOO.OO.........................................................
..............................................O...O.O..........................................................
.................................OO...........OO....O..........................................................
.................................OO.................O.O........................................................
.....................................................OO........................................................
.....................................................................OO........................................
.....................................................................OO........................................
...........................................................OO..................................................
...........................................................OO..................................................
......................OO.......................................................................................
..OO..................O.O......................................................................................
.O.O....................O......................................................................................
.O......................OO...........................................O.........................................
OO............................................OO..................O..OOO...OO..................................
..............................................OO...O....OO.OO.OO..OOO...O..O...................................
..................................................O.O...O.OO...OOO....OO.O.O...................................
.................................OO................O.O.......O....OOOO.O.O..OO.................................
..................................O..................O...OOOO.OO.O...O...OO.O..................................
...............................OOO...................OO..O..O.O.OO..OO.OO.O.O..................................
.....O.OO......................O..............................O.O....OOO.O..OO.................................
...OOO.OO.....................................................O.OOOO......O.O..................................
..O............................................................O....OOOOOO..O..................................
...OOO.OO........................................................O..O..O....OO...................O.............
.....O.O..O.....................................................OO................................O............
.........OO.....................................................................................OOO............
