!Name: p00739
!C p00739 found using Karel Suhajda's Hersrch program
!C Scot Ellison - June 2003
!Source: guns1j-20121211
!
.......................................................................................................................................O..................................................
.......................................................................................................................................OOO................................................
..........................................................................................................................................O..........O....................................
.........................................................................................................................................OO..........OOO................OO................
........................................................................................................................................................O...............OO.....OO.........
...........................................................................................................OO..........................................OO......................OO.........
............................................................................................................O.............................................................................
...............................................................................................O...........O..............................................................................
...................................................O...........................................OOO.........OO....................O...........................................OO...........
...................................................OOO............................................O..............................OO..........................................OO...........
......................................................O............O.................OO..........OO...................................O....O.......................................OO.....
.....................................................OO............OOO.......OO.......O...............................................OO...OO......................................OO.....
......................................................................O......O........O.O..............................................OO...OO............................................
..................................O..................................OO....O.O.........OO.............................................O....OO.............................................
...............OO.................OOO......................................OO.................................OO..........................OO..............................................
................O....................O........................................................................OO..........................................................................
...............O....................OO...........OO.......................................................................................................................................
...............OO................................OO..........................................................................O............................................................
.......O...................................................................................................................OO.............................................................
.......OOO..................................................................................................................OO............................................................
..........O.........................................................................................................................................................................OO....
.........OO.........................................................................................................................................................................O.....
........................................................................................................................OO........................................................O.O.....
..................OO.................................................................................OO..................O..............................OO........................OO......
..................OO.................................................................................O.............OO.OOO.........................OO.....O................................
......................................................................................................OOO..........OO.O...........................O.O.OOO.................................
........................................................................................................O.............O....................OO.......O.O...................................
.......................................................OO.............................................................OOO..................OO.......OO....................................
....................................................OO..O..OO............................................................O................................................................
....................................................OO.O...O............................................................OO................................................................
.......................................................O.O.O...OO...................................................OO...................OO.................O.............................
............................OO......................OO.O.OO.....O...................................................OO...................O.......OO.......OOO.............................
.............................O................OO....O..O.....OOO...O.OO................................................................O.O........O......O................................
..........................OOO.................OO......OO.....O..OOOO.OO................................................................OO.........O.O....OO...............................
..........................O.....................................O..................................................O...............................OO...................................OO
........................O.O......................................OOO.OO..OO......OO...............................O.O...................................................................OO
........................OO.........................................O.O....O......O.O...............................O......................................................................
......................................................................OOOO.........O............................OOO.......................................................................
........................................................................O..........OO...........................O.........................................................................
OO........................................................................O........................................................................................................OO.....
O.O.OO..................OO...................OO..........................OO........................................................................................................OO.....
..O.OO..................O.O..................O.........................................................................................................................................OO.
.O........................O........OO..........O.......................................................................................................................................OO.
.OO.OO....................OO........O.........OOOO................................................................OO......................................................................
..O.O...............................O.O......O....O.O.............................................................OO......................................................................
..O.O................................OO......OO..OO.OOO.......................................OO.......OO........................................................................OO.......
...OO.OO...............................................O.....................................O.O.......OO........................................................................OO.......
.....O.O.........................................OO.OOOO..O.....OO......OO.................OOO.O.O........................................................................................
.....O............................................O.O...OOO.....O..O....OO................O.....OO........................................................................................
....OO.................................................O.....OO.O.OO......................OO..............................................................................................
.......................................................OO...O.O.O..............................................................................................OO.........................
................................................OO..........O...O.OO...........................................................................................O..........................
...............................................O...........OO..O..OO.....................................................................................OO.O...OOO.......................
..........................................OOO..OOO.............OO........................................................................................OO.OOOO..O.......................
.........................................OOOO..................................................................................................................O..........................
........................................O...O...........OO....................................................................OO.............OO......OO..OO.OOO...........................
.........................................OO..OOO........OO....................................................................OO...OO.......O.O......O....O.O.............................
.............................................OOO...................................................................................OO.......O.........OOOO................................
.............................................OOO...........................................................................................OO..........O..................................
.....................................................................................................................................................O....................................
....................................................................................................................................OO...............OO...................................
..............................................................................................................................OO....O.....................................................
.............................................OO...............................................................................OO.....OOO..................................................
.............................................O.O.....................OO................................................................O..................................................
...........OO.................................O......................OO...........OO......................................................................................................
...........OO.....................OO..............................................O.......................................................................................................
.................OO...............O........OO......................................OOO....................................................................................................
.................OO................OOO....O.O....OO..................................O....................................................................................................
.....................................O....O......O........................................................................................................................................
.........................................OO.......OOO....................................................OO...............................................................................
...............OO...................................O...............O....................................O................................................................................
...............OO.....OO.............................................O....................................OOO.............................................................................
......................OO...........................................OOO......................................O.............................................................................
