!Name: p00760
!C p760 gun based on Dave Greene's p232
!C Scot Ellison - 15 November 2005
!Source: guns1j-20121211
!
..............................................................O...........................................
........................................................OOO..........O....................................
...........................................................O..............................................
.......................................................O...O.......O.OOO..................................
.............................................O........O.O..O.........OO.O........O........................
.............................................OOO....O..O.O...........O.OO......OOO........................
................................................O...O...O.............OOO.O...O...........................
...............................................OO...O.........................OO..........................
.....................................................OOO................O.................................
..................................................O.........................O.............................
.................................................O.O.......................O.O............................
.............................................OO..OO.........................OO..OO........................
.............................................OO.................................OO........................
......................................................................................................O...
.....................................................................................................O.O..
....................................................................................................O...O.
...................................................................................................O...O..
..................................................................................................O...O...
.................................................................................................O...O....
..................................................................................................O.O.....
...................................................................................................O.....O
...............................................................................................O..........
..............................................................................................O.O.........
...............OO.............................................................................OO..........
........OO.....OO.................................................................................OO......
........OO........................................................................................O.O.....
..........................................O.........O........................................OO.....O.....
.............................OO...........OOO.....OOO........................................OO.....OO....
..........OO................O.O..............O...O........................................................
..........OO..................O.............OO...OO.......................................................
....OO....................................................................................................
....OO....................................................................................................
..........................................................O...............................................
.........................................................OOO..............................................
...................................OO...................OOO.O........................OO.....OO............
...................................OO....................O...O.......................OO.....O.............
...............................................OO.........O...O...........................O.O.............
..............................................O..O.........O.OOO..........................OO..............
...............................................OO....OO.....OOO.......................OO..................
.....................................................O.O.....O........................O.O.................
.O.....................................................O.........O.....................O...O..............
.OOO...................................................OO.......O.O.......................OO..............
....O........................................OO..................OO......................O.OO.............
...OO.........................................O..............OO.........................OOO..O............
...........................................OOO..............O.O...........................O.O.O...........
..............................OO...........O................O.....OO.......................O.O.O..........
..............................OO..OO.......................OO.....OO........................O..OOO........
..................................O.O........................................................OO.O.........
.........................O.........O..........................................................OO..........
.......................OOO.............O......................................OO..............O...........
......................O.........OO....O.O.................................OO..OO..........................
......................OO.........O...O...O...............................O.O..............................
..............................OOO.....O...O...............................O...............................
..............................O........O...O..........................O...................................
OO......................................O...O........................O.O....OO............................
OO.......................................O.O........................O...O...O.............................
..........................................O........................O...O.....OOO..........................
..................................................................O...O........O..........................
.................................................................O...O....................................
.................O........O.......................................O.O.....................................
.........OO.....O.O........O.......................................O......................................
.........OO......O.......OOO..............................................................................
