!Name: p00750
!Source: guns1j-20121211
!
..................OO.............................................................
............O......O.............................................................
............OOO....O.O.......O......................OO.....O.....................
...............O....OO.......O.O....................O....OOO.....................
..............OO................OO......OO........O.O...O........................
................................OO....O...O.......OO....OO.......................
................................OO...O.....O.....................................
.............................O.O....OO.O...O.....................................
.................O...........O.......O.....O.....................................
................OOO...................O...O......................................
................OOO.....................OO.......................................
..............................O....................OO.O.OO.......................
..............OO...OO.......OO.....................O.....O.......................
..............OO...OO........OO.....................O...O........................
.....................................................OOO....................OO...
........................OO..................................................OO...
.......................O..O........OO...................................OO.......
.........OO......OO.....OO..........O...................................O........
.........OO........O................O.O.....OO.................OO.....O.O........
......OO......OO...O.................OO.....O.O...............O.O.....OO.........
.....OOO.....O.....O...........................O.............O...............O...
......OO......OO...O........................O..O.............O..O..........OO.OO.
.........OO........O..............O............O.............O...................
.........OO......OO...............OOO.......O.O...............O.O.........O.....O
.....................................O......OO.................OO................
....................................OO.................O..................OO.O.OO
......................................................O.O........................
..............OO...OO.................................O..O.......................
..............OO...OO..................................OO........................
...O.......................................................O.....................
..OOO...........OOO.......................................OO.....................
.OOOOO..........OOO.......................................O.O....................
OO...OO..........O...................................................O...........
....................................................................O.O..........
.........................................................O........OO...O.........
.........................................................OOOO.....OO...O.........
..OOO.....................................................OOOO....OO...O.........
..OOO.....................................................O..O......O.O..........
.................OO.......................................OOOO.......O...........
.................OO..............................OO......OOOO....................
...OO...........................................O.O......O.......................
...OO....................................O......O................................
..........................................O....OO................................
........................................OOO......................................
