!Name: p00772
!Cp00772 gun found using Hersrch
!CKarel Suhajda, 22 Sep 2003
!Source: guns1j-20121211
!
..................................................................................OO.................................................................................................O..............................
...................................................................................O.........................O.......................................O.............................OOO..............................
...................................................................................O.O.....................OOO.....................................OOO............................O.................................
................................OO..................................................OO....................O.......................................O...............................OO................................
.......OO.O.....................O..OO.....................................................................OO......................................OO................................................................
.......O.OO......................OO.OOO............OO...............................................................................................................................................................
.......................................O...........O........................OO................................................O.....................................................................................
........OOOOO....................OO.OOO.............OOO......OO.............O...............................................OOO............................................................................OO.......
.......O....O....................OO.O.................O......OO...........O.O..............................................O..............................................................OO...............OO.......
......O..O................................................................OO..................................OO...........OO.............................................................OO........................
...O..O.OO....................................................................................................OO....................................................................................................
..O.O.O.....O.......................................................................................................................................................................OO...........................OO.
...O..O....O.O.....................................................................................................................................................................O.O...........................OO.
......OO..O..O.......................................................................................................................................................................O.......................OO.....
...........OO..................................................................................................................................................O........OO...................................OO.....
...OO......................................OO................................................................................................................OOO........OO..........................................
..O.O..OO..................................OO................................................................................................................OOO....................................................
..O.O.O.O...................................................................................................................................................O...O...OO..O.O.........................................
.OO.O..O.............................................................................OO......................................................................OOOO...OO..O.O.......................................OO
O...O................................................................................OO...........OO.........................................................OO.O......O...O......................................OO
.O.O...OO.........................................................................................O.....................................................................OOO.........................................
OO.O.O..O..........................................................................................OOO...................................................................OO.........................................
...O.O........................................OO.....................................................O.......................................................................OO.....................................
OO.O.O.O.................OO....................O...................................................................................................................OO........OO.....................................
OO.O..O..................O....................O.............OO...OO..............OO................................................OO..............................O.....OO.........................................
....OO....................OOO.................OO.............O...O...............O...........................OO....................O.....OO.........................OOO.O.O.........................................
............................O.............................OOO.....OOO.............OOO.......................O.O.....................OOO.O.O...........................O.O.......OO..................................
..........................................................O.........O...............O.......................O.........................O.O.......OO.....................OO.......OO..................................
.......................O.O.................................................................................OO..........................OO.......OO..................................................................
......................O.OO..........................................................................................................................................................................................
....................OOO.............................................................................................................................................................................................
...................O....OO..........................................................................................................................................................................................
...................OOOOO.O..........................................................................................................................................................................................
.......................O................................................OO..............O...........................................................................................................................
...................OO...O....O.................OO........................O..............OOO........................................................OO..............O..........................OO....................
...................O.O...O...OOO.......OO.......O.............OO......OOO..................O............O.................OO........................O..............OOO.......................O.O....................
....................O...OO......O......O........O.O...........OO......O...................OO............OOO.......OO.......O.............OO......OOO..................O............O.........O.....................O
...............................OO....O.O.........OO........................................................O......O........O.O...........OO......O...................OO............OOO.....OOO...................O.O
OO...................................OO...................................................................OO....O.O.........OO........................................................O...O.......................OO
OO..............................................................................................................OO...................................................................OO...OO........................
.................................................................O..................................................................................................................................................
.................................................................OO.................................................................................................................................................
.................................................................OOO................................................................................................................................................
.....OO.........................................................O.O.............OO..................................................................................................................................
.....OO.........................................................................OO.........................................................................OO.........................................OO............
.OO...........................................................O............................................................................................OO.........................................OO............
.OO..........................................................O..O...................................................................................................................................................
..............................................................O..............................................................................................................................................O.OO...
.............................................................................................................................................................................................................OO.O...
.......OO...........................................................................................................................................................................................................
.......OO....................................................................OO.....................................................................................................................................
.............................................................................O..........................................................................OO..........................................................
.........................................O................OO...OO.............O.........................................................................O...........................................................
........................................O..................O...O.............OO......................................................OO...OO.............O...............................................OO.........
.........................OO.............OOO.............OOO.....OOO...................................................................O...O.............OO...............................................O.O........
..........................O.............................O.........O.................................OO.............................OOO.....OOO.............................................................O........
.......................OOO...O.OO....................................................................O.............................O.........O.................................OO..........................OO.......
.......................O..OOOO.OO.................................................................OOO...O.OO....................................................................O...................................
..........................O.......................................................................O..OOOO.OO.................................................................OOO...O.OO.............................
............................OO.OO..OO......OO........................................................O.......................................................................O..OOOO.OO.............................
.............................O.O....O......O.O.........................................................OO.OO..OO......OO........................................................O...................................
.............................O..OOOO.........O..........................................................O.O....O......O.O........................................................OOO.OO.............................
..............................O.O..O.O.......OO.........................................................O..OOOO.........O..........................................................OO..O............................
...............................O....OO...................................................................O.O..O.O.......OO............................................................OO............................
..........................................................................................................O....OO...................................................................................................
