!Name: p00751
!Cp00751 gun found using Hersrch
!CKarel Suhajda, 28 Sep 2003
!Source: guns1j-20121211
!
............................................................................................................................................................................................OO............................
...............................O....OO...................................................................................................................................................OO..O............................
..............................O.O..O.O.......OO........................................................................................................................................OOO.OO.............................
.............................O..OOOO.........O............................................................................................................O...........................O...................................
.............................O.O....O......O.O............................................................................................................OOO......................O..OOOO.OO.............................
............................OO.OO..OO......OO................................................................................................................O.....................OOO...O.OO.............................
..........................O.................................................................................................................................OO........................O...................................
.......................O..OOOO.OO............................OO.......OO..........................OO.................................................................................OO..........................OO.......
.......................OOO...O.OO............................OO.......O.O.........................O...........................OO.................................................................................O........
..........................O.........................................O.O.OOO.....................O.O............................O...............................................................................O.O........
.........................OO.........................................OO.....O....................OO................O...........O................................................................................OO.........
..........................................................................OO......................................OOO.........OO..........................................................................................
.....................................................................................................................O....................................................................................................
........................................................................................................OO..........OO....................................................................................................
.......OO................................................................................................O................................................................................................................
.......OO................................................................................................O.O.......................................................................................................OO.O...
................................................................................OO........................OO.......................................................................................................O.OO...
................................................................................O.O..............................................OO.......................................................................................
.OO.............................................................................O.....O..........................................OO.........................................................................OO............
.OO..................................................................................O..OO..................................................................................................................OO............
.....OO.............................................................................O.....O...............................................................................................................................
.....OO................................................................................OO.OO..............................................................................................................................
...................................................................................O...OOOO...............................................................................................................................
.........................................................O.O........................O....O................................................................................................................................
............................................................O........................OOO...................................................................................................OO...OO........................
OO.......................................................O..O..........................O.......OO..........................................OO...............................................O...O.........................
OO...................................OO....................O......................OO...........OO.......................OO..................O..............................OO............OOO.....OOO......................
...............................OO....O.O...........................................O....................................O................OOO.........................OO.....O............O.........O......................
................................O......O........................................OOO......................................OOO.............O...........................O.O.OOO.......................O.O....................
.............................OOO.......OO.......................................O..........................................O..................................OO.......O.O..........................OO....................
.............................O................................................................................................................................OO.......OO...........................................O.....
...........................................................OO......................................OO.............................................................................................................OOO.....
...................OO..OO.OO................................O.......................................O............................................................................................................O........
...................O.O..O.O..............................OOO.....................................OOO.............................................................................................................OO.......
......................OO...O.......O.....................O.......................................O........................................................................................................................
.......................O.OO......OOO......................................................................................................................................................................................
....................O..O.O......O.........................................................................................................................................................................................
.......OO..........O.O.O.O......OO........................................................................................................................................................................................
........O...........OO.OO.........................................................O.........O...............O..............OO.....................................................O.........O.............................
.....OOO............................................O.............................OOO.....OOO.............OOO..............O........................OO............................OOO.....OOO.............................
.....O............................................OOO.................OO.............O...O...............O..................OOO......OO.............O.................OO.............O...O................................
.................................................O....................O.............OO...OO..............OO...................O......OO...........O.O.................O.............OO...OO...............................
....................................OO...........OO....................O..........................................................................OO...................O..................................................
....................................OO................................OO..............................................................................................OO..................................................
........................................................................................................................................................................................................................OO
.................................................................................................................................OOO....................................................................................OO
................................................................................................................................OO..O.....................................................................................
...............................................................................................................................O...O......................................................................................
...................................................................................................................OO...........OOO.......................................................................................
.....OO............................................................OO..............................................OO............O.................................OO..............................................OO.....
.....OO............................................................OO.................................................................O............................OO..............................................OO.....
...........OO.........................................................................................................................O................................................................................OO.
...........OO.........................................................................................................................O................................................................................OO.
..............................OO..........................................................................................................................................................................................
..........................OO..O..OO.......................................................................................................................................................................................
.........OO................O...O.OO...................................................................................OO.........................................................................................OO.......
.........OO.....OO.........O.O.O..................................................................OO...................O..........................................................................OO.............OO.......
................OO..........OO.O.OO......................OO...................O......OO...........O.O.................O.............OO...OO...................................O......OO...........O.O.....................
...............................O..O....OO................O..................OOO......OO.............O.................OO.............O...O..................O...............OOO......OO.............O.....................
...............................OO......OO.................OOO..............O........................OO............................OOO.....OOO................O.............O........................OO....................
............................................................O..............OO.....................................................O.........O..............OOO.............OO.............................................
