!Name: p00767
!C p00767 found using Karel Suhajda's Hersrch program
!C Scot Ellison - July 23, 2003   112 112 158 153 116 116 (x2)
!Source: guns1j-20121211
!
...............................OO.......OO...............................................................................................................................................................
..............................O.O.......OO.....................OO.......OO...............................................................................................................................
............................OOO.O.O...........................O.O.......OO...............................................................................................O...............................
..OO.......................O.....OO.........................OOO.O.O...........................O..............OO........................................................OOO...........O...................
...O.......................OO..............................O.....OO.........................OOO..............O........................OO.................O............O..............OOO.................
...O.O.....................................................OO..............................O..................OOO......OO.............O.......OO.......OOO............OO................O..............O.
....OO..OO.................................................................................OO...................O......OO...........O.O........O......O................................OO............OOO.
........OO..........................................................................................................................OO.........O.O....OO............................................O....
................................................................................................................................................OO........................................OO........OO...
...................................................................................................................................................................................O.O...................
.....................................................................................................................................................................................O...................
...................................................................................................................................................................................................OO....
.................................................................................................................................................................................O...OO............OO....
.....................................................................................................OO..........................................................................O.O.OO..................
.....................................................................................................OO.............................................................................O....................
..OO.....................................................................................................................................................................................................
.O.O................OO.............................................................................................................................................................OO....................
.O..................O.O.................................................................................OO..........................................................................O....................
OO....................O..................................................................................O........................................................................O......................
................OO....OO................................................................................O.............OO...OO.....................................................OO.....................
................O..O....................................................................................OO.............O...O..........................................................OO.................
..................OO......................OO........................................................................OOO.....OOO.............................OO.........................O.................
.........OO...............................O...............................OO........................................O.........O.............................O.......................OOO..................
.........OO................................OOO............................O...........................................................................OO.O...OOO....................O....................
.............................................O.............................OOO........................................................................OO.OOOO..O.........................................
.............................................................................O..............................................................................O............................................
OO........................................................................................................................................OO......OO..OO.OO..............................................
.O.......................................................................................................................................O.O......O....O.O...............................................
O........................................................................................................................................O.........OOOO..O..............................................O
OO......................................................................................................................................OO.......O.O..O.O.............................................O.O
.................................................O....OO.........................................................................................OO....O...............................................OO
................................................O.O..O.O.......OO........................................................................................................................................
...............................................O..OOOO.........O.........................................................................................................................................
...............................................O.O....O......O.O.........................................................................................................................................
..............................................OO.OO..OO......OO..........................................................................................................................................
............................................O..............................................................................O.............................................................................
.........................................O..OOOO.OO........................................................................OOO.............................O.............................................
....................O....................OOO...O.OO...........................................................................O............................OOO................................OO.........
..................OOO.......................O.............................O.........O........................................OO...............................O...............................OO.........
.................O.........................OO.............................OOO.....OOO........................................................................OO......................OO..................
.................OO..........................................................O...O.............OO....................................................................................O..O................
.....................OO.....................................................OO...OO.............O................................................................................OO....OO................
......................O........................................................................O..................................................................................O....................OO
....................O..........................................................................OO.................................................................................O.O..................O.
....................OO.............................................................................................................................................................OO................O.O.
.....................................................................................................................................................................................................OO..
....................O.............................................................................OO.....................................................................................................
..................OO.O.O..........................................................................OO.....................................................................................................
....OO............OO...O.................................................................................................................................................................................
....OO...................................................................................................................................................................................................
...................O.....................................................................................................................................................................................
...................O.O...................................................................................................................................................................................
...OO........OO........................................OO................................................................................................................................................
....O............................................OO....O.O.........OO..........................................................................................................................OO........
.OOO............OO................................O......O........O.O...........OO......O...................OO.................................................................................OO..OO....
.O..............O................OO............OOO.......OO.......O.............OO......OOO..................O..............................OO.....................................................O.O...
.................OOO..............O............O.................OO........................O..............OOO.........................OO.....O..............................OO.......................O...
...................O...........OOO........................................................OO..............O...........................O.O.OOO.........................OO.....O.......................OO..
...............................O...............................................................................................OO.......O.O...........................O.O.OOO............................
...............................................................................................................................OO.......OO.....................OO.......O.O..............................
...............................................................................................................................................................OO.......OO...............................
