!Name: p00764
!Cp00764 gun found using Hersrch
!CKarel Suhajda, 19 Aug 2003
!Source: guns1j-20121211
!
..............................................O.......O.OO....................OO......OO...............................
............................................OOO.......OO.O....................OO....O..O...............................
............................O..............O........................................OO.O.OO..........OO................
............................OOO............OO..........................................O.O.O.........OO.....OO.........
...............................O....................................................OO.O...O................OO.........
..............................OO....................................................OO..O..OO..........................
.......................................................................................OO..............................
..........................................................................................................OO...........
...............................OO.........................................................................OO...........
...............................OO.................OO............................................................OO.....
..................................................OO............................................................OO.....
...............................................OO................................OO....................................
...............................................O....................OO...........OO....................................
................................................OOO..................O.................................................
.............................OO...................O...............OOO............................................O.....
.............................OO.............OO....................O............................................OOO.....
............................................O.................................................OO.OO...........O........
.............................................OOO.....................................OO......O.O.O.O..........OO.......
...............................................O......................................O......O.O..O....................
...................................................................................OOO......OO.O.......................
............................................OO.....................................O.......O...OO......................
...........................................O..O.OO..........................................O.O..O.O...................
.......OO.................................O.O.O.OO.........................................OO.OO..OO...................
.......OO...................................O.O........................................................................
.........................................O..O.O.OO.....................................................................
.........................................OO...O.O..............................O.......................................
.OO..........................................O...O.............................OOO.....................................
.OO.......................................O..O.OO.................................O....................................
.....OO..................................O.O.O.O.................................OO..................................OO
.....OO..................................OO..O.O.....................................................................OO
.............................................OO........................................................................
........................................................................OO.............................................
OO.....................................................................O.O..OO..................................OO.....
OO..................................OO.................................O.O.O.O..................................OO.....
....................................O.................................OO.O.O........................................OO.
.....................................OOO.............................O...O.O........................................OO.
.......................................O..............................O.OO....O........................................
.....................................................................OO.O..O.O.........................................
........................................................................O.O.O.................................OO.......
...................OO..OO.OO.........................................OO.O.OO..................................OO.......
...................O.O..O.O..........................................OO.O..O...........................................
......................OO...O.......O.....................................OO............................................
.......................O.OO......OOO...................................................................................
....................O..O.O......O......................................O...............................................
.......OO..........O.O.O.O......OO.....................................OOO.............................................
........O...........OO.OO.................................................O............................................
.....OOO............................................O....................OO.............OO.............................
.....O............................................OOO...............O...................OO.............................
..................................O..............O..................OOO................................................
.................................OO..............OO....................O...............................................
................................OO....................................OO...............................................
.................................O.....................................................................................
..................................O....................................................................................
....................................O.O................................................................................
......................................O.O..............................................................................
.....................................OOOOO.............................................................................
.....OO.................................OO.........................OO..................................................
.....OO................................OOO.........................OO.................OO...............................
...........OO.............................O...........................................OO...............................
...........OO.............................OOO..........................................................................
..............................OO........O.O............................................................................
..........................OO..O..OO.....O..............................................OO..............................
.........OO................O...O.OO....................................................O...............................
.........OO.....OO.........O.O.O..........................................OO............OOO............................
................OO..........OO.O.OO........................O...............O..............O............................
...............................O..O....OO...................O...........OOO............................................
...............................OO......OO.................OOO...........O..............................................
