!Name: p00872
!Cp00872 gun found using Hersrch
!CKarel Suhajda, 17 Sep 2003
!Source: guns1j-20121211
!
..................................O.OO....................OO......OO................O.OO....................OO......OO...............................
..................................OO.O....................OO....O..O................OO.O....................OO....O..O...............................
................................................................OO.O.OO...........................................OO.O.OO..........OO................
...................................................................O.O.O.............................................O.O.O.........OO.....OO.........
.....................O..........................................OO.O...O..........................................OO.O...O................OO.........
.....................OOO........................................OO..O..OOO........................................OO..O..OO..........................
........................O..........................................OO.....O..........................................OO..............................
.......OO..............OO...........OO...................................OO...........OO................................................OO...........
.......OO...........................OO................................................OO................................................OO...........
..............................................................................................................................................OO.....
..............................................................................................................................................OO.....
.OO..................................................................................................................................................
.OO..................................................................................................................................................
.....OO..............................................................................................................................................
.....OO..............................................................................................................................................
.............................................................OO................................................OO....................................
................................................OO...........OO...................................OO...........OO....................................
OO...............................................O.................................................O.................................................
OO............................................OOO...............................................OOO............................................O.....
..............................................O.................................................O............................................OOO.....
............................................................................................................................OO.OO...........O........
.................................................................OO................................................OO......O.O.O.O..........OO.......
.....................................OO...........................O....................OO...........................O......O.O..O....................
.....................................O.O.......................OOO.....................O.O.......................OOO......OO.O.......................
...................OO..OO.OO...........O.......................O.........................O.......................O.......O...OO......................
...................O.O..O.O............OO.................OO.............................OO.................OO............O.O..O.O...................
......................OO...O.......O.......................O.........................O.......................O...........OO.OO..OO...................
.......................O.OO......OOO.......................O.O.....................OOO.......................O.O.....................................
....................O..O.O......O...........................OO....................O...........................OO.....................................
.......OO..........O.O.O.O......OO................................................OO.................................................................
........O...........OO.OO............................................................................................................................
.....OOO............................................O.................................................O..............................................
.....O............................................OOO...............................................OOO............................................OO
.................................................O..................................O..............O...............................................OO
....................................OO...........OO................................OO..............OO................................................
....................................OO............................................OO.................................................................
...................................................................................O.................................................................
....................................................................................O.........................................................OO.....
......................................................................................O.O.....................................................OO.....
........................................................................................O.O.......................................................OO.
.......................................................................................OOOOO......................................................OO.
.....OO...................................................................................OO.........................................................
.....OO..................................................................................OOO.........................................................
...........OO................................................OO.............................O..................OO...........................OO.......
...........OO................................................OO...........OO................OOO................OO...........OO..............OO.......
..............................OO..........................................O.....OO........O.O...............................O........................
..........................OO..O..OO........................................OOO..O..OO.....O..................................OOO.....................
.........OO................O...O.OO..........................................O...O.OO..........................................O.....................
.........OO.....OO.........O.O.O.............................................O.O.O...................................................................
................OO..........OO.O.OO...........................................OO.O.OO........................O.......................................
...............................O..O....OO....................O.OO................O..O....OO...................O......................................
...............................OO......OO....................OO.O................OO......OO.................OOO......................................
