!Name: p00810
!Source: guns1j-20121211
!
.......................O.O......................................................
.....................O...O......................................................
.............O.......O..........................................................
............OOOO....O....O........OO............................................
...........OO.O.O....O............OO............................................
OO........OOO.O..O...O...O......................................................
OO.........OO.O.O......O.O......................................................
............OOOO..........................O.....................................
.............O............................O.....................................
..........................................O.....................................
.....OO..................................O.O....................................
.....OO.........................................................................
.........................................OOO....................................
.........................................OOO....................................
......O..................................O.O....................................
.....OOO.......OO.........................O.....................................
.....OOO........OO..OO..........................................OO.........OO...
...............O....OO.....OO.............O....................O.O.........OO...
...OO...OO.................O.O............O...................OOO...............
...OO...OO...................O................................OO................
...................OO........OO........O......................OO................
...................OO................O.O.......................O.O..............
........OO............................OO........................O...............
........O.O..................OO.................................................
..........OO................O.O.................................................
.........OO.......OO.......O......OO.........................OO...OO............
.........OO.......OO.......O..O..O..O........................OO...OO............
.....OOO...................O......OO..OOO.......................................
............................O.O.......OOO......................OOO........OOOOO.
.............................OO......O...O.....................OOO.......O.OOO.O
....................................O.....O.....................O.........O...O.
.....................................O...O.................................OOO..
.....OO...OO..........................OOO...................................O...
......O...O.............................................................O.......
.......OOO.............................................................OO.......
.......OOO............................................................OO....OO..
.....................................................................OOO....OO..
..............................................OOOOOO..................OO....OO..
.............................................O......O..................OO.......
....................................OO......O........O..................O.......
.......OO............................O.......O......O...........................
.......OO.........................OOO.........OOOOOO.........O..................
..................................O...........................O.................
............................................................OOO.................
