!Name: p00835
!C p835 gun found with 5/5/2007 Hersrch: Dave Greene, 7 May 2007
!Source: guns1j-20121211
!
.....................................O.OO..........................................................................
.....................................OO.O..........................................................................
...................................OOOOO...........................................................................
...................................O....O..........................................................................
......................................O..O.OO......................................................................
..........O...........................OO.O.O.......................................................................
..........OOO..........OO..........O.....O.O.......................................................................
.............O.........OO.........O.O....O.OO......................................................................
..OO........OO....................O..O..OO.O.......................................................................
...O...............................OO......O.........................O.............................................
...O.O.....................................OOO.....................OOO.............................................
....OO........................................O...................O.........O......................................
.............................................OO...................OO......OOOOO....................................
.........................................................................O.....O...................................
OO.......................................................................O.OO..O...................................
O.O.OO..................................................................OO.O.O.OOO.O...............................
..O.OO.......................................................................O....OO...............................
.O..........................................................................OO.OO..................................
.OO.OO....................................................................OO.O.O.OOOOO.............................
..O.O..............................OO....................................O.O.O........O............................
..O.O..............................OO...................................OO.OO.OOOO...OO............................
...O....................................................................O...O.....O................................
........................................................................O.......OO.................................
........................................................................O.......OO.................................
........................................................................O...O.....O................................
........................................................................OO.OO.OOOO...OO............................
................................OO.......................................O.O.O........O............................
................................O.........................................OO.O.O.OOOOO.............................
.................................O..........................................OO.OO..................................
................................OO...........................................O....OO...............................
........................................................................OO.O.O.OOO.O...............................
.........................................................................O.OO..O...................................
.........................................................................O.....O...................................
..........................................................................OOOOO....................................
............................................................................O......................................
.................................................................................................O.................
...................OO..........................................................................OOO.................
...................OO.........................................................................O.........O..........
.................................................................................OO...........OO......OOOOO........
..........OO.O...................................................................OO..................O.....O.......
..........O.OO.......................................................................................O.OO..O.......
....................................................................................................OO.O.O.OOO.O...
......................................................................................................O..O....OO...
..............................OO......................................................................OO.O.OO......
..............................O......................................................................OOO.O.O.OOOOO.
............................O.O..............................OO.....................................O..O.O.....O..O
............................OO..............................O.O........................................O..OOOOO..OO
............................................................O..........................................OOOO...O....
...........................................................OO.....................................O...O.O.....OO...
..............OO.......................................................O..O.......................O...O.O.....OO...
.............O.O.......................................................O..O............................OOOO...O....
.............O.......................................................OO.OO.OO..........................O..OOOOO..OO
............OO.........................................................O..O.........................O..O.O.....O..O
.......................................................................O..O..........................OOO.O.O.OOOOO.
.....................................................................OO.OO.OO.........................OO.O.OO......
.......................................................................O..O...........................O..O....OO...
.......................................................................O..O.........................OO.O.O.OOO.O...
.....................................................................................................O.OO..O.......
................................OO...................................................................O.....O.......
.................OO.............OO..........................OO........................................OOOOO........
..................O.........................................O.O.........................................O..........
...............OOO............................................O....................................................
...............O..............................................OO..................O.O..............................
..................................................................................OO.O.............................
.....................................................................................OOO...........................
.................OOOO.........................................OO..................OO....O..........................
................O.OO.O................................OO......O...................O.OOOOO..........................
................OO..OO................................OO....O.O.....................O..............................
................OO..OO......................................OO....OO...............O...OO..........................
................O.OO.O...........................................O.O..............O...O.O..........................
.................OOOO..........................................OOO.O.O............OO...O...........................
..............................................................O.....OO..OO.........................................
.........................................................O....OO........OO................................OO.......
........................................................OO................................................OO.......
.......................................................O...........................................................
..................................................OO...OO..........................................................
..................................................OO...............................................................
.....................................................................................................OO............
.........................OO..........................................................................OO............
..........................O..............................................................................OO........
.......................OOO............OO............O....................................................OO........
.......................O..............OO...O.....O.................................................................
..........................................O.O....O....O............................................................
...........................................O.O...O.....O...........................................OO..............
.............................................O........O....O........................OO.............OO..............
.............................................OO......O...OOO........................O.O............................
........................................................O..O..........................O............................
........................................................O.............................OO...........................
..........................................................OO.OO....................................................
..........................................................O....O...................................................
.......................................................O..O....O...................................................
.......................................................O..OO..O....................................................
..........................................................O...O.........OO.........................................
........................................................O...OO..........OO.........................................
.........................................................OOO.......................................................
...................................................................OO..............................................
...................................................................O.O.............................................
.....................................................................O.............................................
.....................................................................OO............................................
...........................................................................................O.......................
........................................................OO..................................O......................
........................................................OO................................OOO......................
