!Name: p00864
!Source: guns1j-20121211
!
...................OO........................OO..............................
...................OO........................OO..............................
.......................................OO....................................
.......................................OOO...................................
.......................................OO....................................
.....................................OOO.....................................
....................................OOO......................................
....................................O........................................
..............................O.....O........................................
..............................O....O.........................................
....OO.....OO................O.....O.........................................
....OOO....OOO...............O...............................................
...O...O......O............OOO...............................................
...OO...O....OO...........OOO................................................
....O.OO.....O...........OO..................................................
...OO............OO.....OOO..................................................
....O............OO......OO..................................................
....OOO......................................OO..............................
.....OO......................................OO.................O............
..............................................................OOO............
...O.............OOOO...............................O........O...............
..O.O...........O.......OO.........................OOO.......OO..............
..O.OO..O.......O...OO..OO........................O.O.O......................
OO..O..OO........O..OO...........................OOO.OOO...O.................
.O.O..............................................O.O.O...OOO................
.O.OOOOOO..........................................OOO...O.O.O...............
..O.....O...........................................O...OOO.OOO............OO
...OOO...................................................O.O.O.............O.
.....O...............................OO..........OO.......OOO............O.O.
.....................................OO..OO.......O........O.............OO..
.........................................OO....OOO.............OO............
...............................................O...............OO............
.....O.......................................................................
...OOO.......................................................................
..O.....O...........................................OO.......................
.O.OOOOOO...........................................OO.......................
.O.O..................O.O....................................................
OO...O.OO............O..............................................OO.......
..O....OO.......OO..O....O..........................................O.O......
..O..OO.........OO.O..O.OO............................................O......
...OO...............OO................................................OO.....
.............................................OO..............................
.............................................OO..............................
...OO........................................................................
...OO........................................................................
........................OO........................OO.........................
............O.OO........OO...........O............OO..OO.....................
...........OO.O.O.........OOOO......O.O...............O.O....................
............O.OOOO........O.O.OO.......O...............O.....................
.................O.......O........O.....O..................O.................
...............OO........O..O........O..O...........OO....OOO................
...............O.........O.....O........O............O...OOO.O..............O
..........................O.......OO.O.O..........OOO.....O...O...........O.O
...........................O.O......OOOO..........O........O...O...........OO
............................O...........OO..................O.OOO............
........................................OO...................OOO.............
..............................................................O..............
...................OO........................OO..............................
...................OO........................OO..............................
