!Name: p00959
!Cp00959 gun found using Hersrch
!CKarel Suhajda, 14 Aug 2003
!Source: guns1j-20121211
!
.............................................................O.........................O.OO.OO........................................................
.................................................O...........OOO.......................OO.O.O...O.....................................................
...............................................OOO..............O.........................O..OOOOOO...................................................
...............................O..............O................OO......................OOO.O.O.....O..................................................
...............................OOO............OO.....................................OOO...O..OO.O.O..................................................
..................................O.................................................O......OO.O.O.O...................................................
.................................OO.................................................OO..........O.....................................................
...........................................................................................OO.O.OO....................................................
............................................................................................O.OO..O...................................................
..................................OO......................................................O..O..OO..O.................................................
..................................OO.................OO...................................OO.O...O.OO.................................................
.....................................................OO.....................................O.OO.O.O..................................................
............................................................................................O....O..O.................................................
...........................................................................................OO.O...O.O.................................................
...........................................................................................O..OOOO.O..................................................
............................................................................................OO...O....................................................
...........................................................................................O..OO.O....................................................
..................................................OO.......................................OO.O.O.....................................................
..................................................O.........................................O.O.......................................................
...................................................OOO......................................O.O.......................................................
.....................................................O.......................................O........................................................
...............................................OO.....................................................................................................
...............................................O......................................................................................................
................................................OOO...................................................................................................
..................................................O...................................................................................................
.............................................................................OO.......................................................................
.............................................................................OO.......................................................................
...................................................................................................................OO.................................
...................................................................................................................O..................................
.................................................................................................................O.O..................................
.................................................................................................................OO...................................
................................................O..................................................OO...............................OO................
..........OO...................................O.O.................................................OO...............................OO.....OO.........
..........OO...................................O.O.........................................................................................OO.........
..............................................OO.O.O..................................................................................................
.................................................OO.O.................................................................................................
....OO.....................................OO..OO...O.................................................................OO.................OO...........
....OO...........................................OOOO.O................................................................O.................OO...........
........OO....................................OO.O...O.O.......................OO......................................O.O.....................OO.....
........OO.....................................O.O.OO..O......................O.O.......................................OO.....................OO.....
............................................O..O....O.O.......................O.......................................................................
............................................OOO.O.O.O.OO..................OO.OO.......................................................................
................................................O.O.O......................O.O...........O............................................................
...OO.......................................OO.O.....OOO..................O..O...........O............................................................
...OO......................................O..OO.O.OO...O.................OOO......OO.................................................................
............................................O....O.O..O.O....................OOO.O..O..O...O....................OO....................................
...........................................OO.OO.O.O.OOO..................OO...O.OO..OOO.O.OOO.....OO...........OO....................................
.......................................OO..O..O..OOOO.....................O.OO.....OO....O....O.....O.................................................
.......................................O....O.O.O.....OO....................O.OOOO....OOO.OOOO...OOO............................................O.....
........................................OOOO.O..OOOOOOO.O...................O.O....OO...O.O......O............................................OOO.....
..........................................O..O.O...O....O..................OO.OOOO....O.O..O.................................................O........
......................OO....................OO.OO....O.O....................O.O..O.OOOO.OOO.........................OO.......................OO.......
......................OO............................OOO.....................O..O..O....O.............................O................................
...................................................O.........................OO....O.O..O.........................OOO.................................
...................................................OO...............................OOOO..........................O...................................
..........OO.................................................................................................OO.......................................
...........O......................................................................OOOO........................O.......................................
........OOO......................................................................O...O........................O.O.....................................
.....O..O.........................................................................O...........O................OO.....................................
....O.O.O........................................................................OO.........OOO.......................................................
...O..O.OO.................................................................................O..........................................................
..O.OOO..O.................................................................................OO..........OO.............................................
..O....O...............................................................................................O............................................OO
...OOOO..O...........................................................................................O.O............................................OO
OOO...O.OO...............................................................................O...........OO...............................................
O..OOO..O.....................................................................OO........OOO...........................................................
.O.O.OO.O.....................................................................OO.......OO.OO...O......................................................
OO.O...O.OO...........................................................................OO......O.O..............................................OO.....
O..O...O..O..........................................................................OOO.......................................................OO.....
..O..OO.O.............................................................................OOO..........................................................OO.
...OO...OO..............................................................................O..........................................................OO.
....O.O........OO.....................................................................................................................................
..O...O.OO......O.....................................................................................................................................
.O.OO.O..O...OOO....................................................OO..........................................OO...........................OO.......
.O.....O.O.OOO......................OO..............................O..................OO.......................OO...........OO..............OO.......
..OOOOOO..O.........................O.....OO.........................OOO................O....................................O........................
....O...O.O.OO.......................OOO.O.O...........................O.............OOO...................O..................OOO.....................
.......OO.OO.O.........................O.O.......OO..................................O......................O...................O.....................
........................................OO.......OO.......................................................OOO.........................................
