!Name: p00996
!C p00996 found using Karel Suhajda's Hersrch program
!C Scot Ellison - May 2003
!C Bounding box reduced by Karel Suhajda, 1 Jun 2003
!Source: guns1j-20121211
!
................................................................................................O.OO...........................................
................................................................................................OO.O...........................................
...............OO.............................................................................................................O................
................O...........................................................................................................OOO................
...............O...................................................................O.......................................O...................
...............OO...............................................OO.................OOO.....................................OO..................
.......O.........................................................O....................O........................................................
.......OOO......................................................O....................OO...........OO...........................................
..........O.....................................................OO................................OO...........................................
.........OO....................................................................................................................................
..................OO...............................................................................................................OO..........
..................OO..............................................................................................................O..O.........
.......................................OO.......................................................................................O..O.O.........
.......................................OO..........................OO...........................................................O...O..........
...................................................................OO...........................................................O..............
...................................................................................................................................O...........
.................................................................................................................................OO............
............................OO.................................................................................................................
.............................O.................................................................................................................
..........................OOO........OO........................................................................................................
..........................O.........O.O......................................OO................................................................
........................O.O.........O.........................................O....................OO..........................................
........................OO.........OO.........................OO...........OOO.....................O.O..............OO...................OO....
..............................................................OO...........O.........................O..............OO...................O.....
.................................................................................O...................OO................................O.O.....
OO...............................................................................OOO...................................................OO.OO...
O.O.OO..................OO......................OO..................................O.....................................................O.O..
..O.OO..................O.O......................O.................................OO.....................................................O.O..
.O........................O...................OOO...............................................O..................OO....................OO.OO.
.OO.OO....................OO..................O...............................................OOO...................O........................O.
..O.O.....................................................OO.................................O......................O.O..................OO.O..
..O.O.....................................................O..................................OO......................OO..................OO.O.O
...OO.OO...................................................OOO...............................................................................OO
.....O.O................................OO...................O.................................................................................
.....O...................OO..............O.........................O...........OO..............................................................
....OO...................OO..............O.O.....................OOO...........OO.........................OO.........OO........................
..........................................OO....................O.........................................O.........O.O........................
................................................................OO......................................O.O.........O..........................
....................O...................................................................................OO........OOO..........................
...................OOO...........................................................................................O.............................
..................O..OO..........................................................................................OO............................
..................OO.OO........................................................................................................................
............OO...OOO...........................................................................................................................
...........O......OO.O........OO...............................................................................................................
..............O....O..O.......OO..........................................OO...................................................................
..........O...O....O......................................................OO..........................OO.......................................
.........O.O..O.....O.O...............................................................................OO.......................................
.........O..O........O.....................................................................................................OO..................
..........OO...............................................................................................................OO..................
....................................................................................................................................OO.........
......................OO...................OO................................OO.....................................................O..........
......................OO...................OO...........OO....................O......................................................OOO.......
........................................................O....................O.........................................................O.......
..................OO.....................................OOO.................OO...............................................OO...............
...................O.......................................O...................................................................O...............
................OOO.....................O.....................................................................................O................
................O........................O....................................................................................OO...............
.......................................OOO................................................O....................................................
