!Name: p00915
!C p00915 Tripled the p305 Gun.  Scot Ellison, 5 Dec 2003
!Source: guns1j-20121211
!
...................................................OO............................................
...................................................OO............................................
......................................OO.........................................................
.......................................O.........................................................
.......................................O.O.......................................................
........................................OO.......................................................
.................................................OOO.............................................
...................................OO..........OO...O............................................
...........................O.......OO.........O...O..............................................
...........................OOO................O..OO..O...........................................
..............................O..............O....O..O...........................................
.............................OO..............O....O..............................................
..............................................OO.OO..............................................
.....................OO.............................O............................................
......................O..........................O..O............................................
......................O.O........................OOO...O......OO.................................
........OO.............OO........................O....O........O.................................
........OO...........................................O.....O...O.O...............................
......................................................O....O....O.O..............................
...........................................................O.....O...OO..............O...........
..OO....................................................O............OO............OOO...........
..OO..............................................................................O..........O...
......OO..........................................................................OO.........OOO.
......OO........................................................................................O
.........................................................OO..................................OO.O
....................................................OO...OO..............................OO..O.O.
.....................................................O...................................O.O.O...
.OO................................................OO......................................O..O..
.OO................................OO........OO....O.......................................O..O..
...................................OO..OO.....O..........................................OO......
.......................................O.O.OOO..........................................O.....O..
.........................................O.O............................................OO.O.O.O.
.........................................OO....OO.......................................O.....O..
..............................................O.O....OO..................................OO......
..............................................O......OO....................................O..O..
....................OO.......................OO............................................O..O..
...O................OO...................................................................O.O.O...
.OOO.....................................................................................OO..O.O.
O............................................................................................OO.O
O.OO............................................................................................O
.O.O..OO.....................................................................................OOO.
...O.O.O...................................................................OO................O...
..O..O............................................OO.......................OO....................
..O..O....................................OO......O..............................................
......OO..................................OO....O.O..............................................
..O.....O.......................................OO....OO.........................................
.O.O.O.OO............................................O.O.........................................
..O.....O..........................................OOO.O.O.......................................
......OO..........................................O.....OO..OO...................................
..O..O.......................................O....OO........OO................................OO.
..O..O......................................OO................................................OO.
...O.O.O...................................O.....................................................
.O.O..OO..............................OO...OO....................................................
O.OO..................................OO.........................................................
O........................................................................................OO......
.OOO.........OO..........................................................................OO......
...O..........O..............................................................................OO..
...........OOO............OO............O....................................................OO..
...........O..............OO...O.....O...........................................................
..............................O.O....O....O......................................................
...............................O.O...O.....O...........................................OO........
.................................O........O....O........................OO.............OO........
.................................OO......O...OOO........................O.O......................
............................................O..O..........................O......................
............................................O.............................OO.....................
..............................................OO.OO..............................................
..............................................O....O.............................................
...........................................O..O....O............................OO...O..O...OO...
...........................................O..OO..O.............................OOOOO....OOOOO...
..............................................O...O.........OO..................OO...O..O...OO...
............................................O...OO..........OO...................................
.............................................OOO.................................................
.......................................................OO..........................OO....OO......
.......................................................O.O........................O........O.....
.........................................................O.......................O..O....O..O....
.........................................................OO.......................O........O.....
...............................................................................O...OO....OO......
............................................OO..................................O................
............................................OO................................OOO................
