!Name: p00907
!Cp00907 gun found using Hersrch
!CKarel Suhajda, 30 Sep 2003
!Source: guns1j-20121211
!
..................................................................................................................................................................................................................OO....O...............................
.................................OO......................................................................................................................................................................OO.......O.O..O.O..............................
..................................O.........................O..............OO.............................................................................................................................O.........OOOO..O.............................
..................................O.O.....................OOO..............O........................OO....................................................................................................O.O......O....O.O.............................
...................................OO....................O..................OOO......OO.............O.................OO...................................................................................OO......OO..OO.OO............................
................OO.......................................OO...................O......OO...........O.O.................O......................................................................................................O..........................
.........OO.....OO................................................................................OO...................O...........O............................................OO.......OO............................OO.OOOO..O.......................
.........OO...........................................................................................................OO.........OOO...........................................O.O.......OO............................OO.O...OOO.......................
................................................................................................................................O............................................OOO.O.O.........................................O..........................
................................................................................................................................OO..........OO.................O............O.....OO..............................OO.........OO.........................
...........OO.................OO............................................................................................................O.......OO.......OOO............OO...................................OO.....................................
...........OO.................O...........................................................................................................O.O........O......O......................................................O....................................
.....OO.....................O.O....................................OO.....................................................................OO.........O.O....OO............................................O.............................................
.....OO.....................OO.....................................OO..............................................OO.................................OO.................................................OOOO..................................OO.......
...................................................................................................................OO...................................................................................O...O..................................OO.......
.........................................................................................................................................................................................................OOO.O...OO.....................................
..........................................................................................................................................................................................................OOO...........................................
............................................................................................................................................................................................................O........................................OO.
.....................................................................................................................................................................................................................................................OO.
....................................OO................................OO.........................................................................................................................................................................OO.....
....................................OO...........OO....................O.........................................................................................................................................................................OO.....
.................................................O..................OOO.............OO...OO..............OO.............................................................................................................................................
.....O............................................OOO.....O....OO...O................O...O...............O..................OO..........................................................................................................................
.....OOO............................................O....O.O..O.O.......OO........OOO.....OOO.............OOO................O..........................................................................................................................
........O...............................................O..OOOO.........O.........O.........O...............O.............OOO.........................................................................................................................OO
.......OO.......................OO......................O.O....O......O.O.................................................O......................................................................................OO...................................OO
................................O......................OO.OO..OO......OO........................................................................................................................................O.O....OO...............................
.................................OOO.................O..........................................................................................................................................................O......O................................
...................................O..............O..OOOO.OO...................................................................................................................................................OO.......OOO.............................
..................................................OOO...O.OO......................................................................................................OO......................................................O.............................
.....................................................O............................................................................................................O........................OO...........................................................
....................................................OO......................................................................................................OO.O...OOO.....................O............................................................
.............................O..............................................................................................................................OO.OOOO..O......................OOO.........................................................
.............................OOO.......OO.........................................................................................................................O.........O.................O.....................O...................................
................................O......O........................................................................................................OO......OO..OO.OO...........OOO.....................................OOO.................................
...............................OO....O.O.....................................................O.................................................O.O......O....O.O...............O.......................................O................................
OO...................................OO....................................................OOO.............O...............O.........O.........O.........OOOO..O..............OO......................................OO................................
OO........................................................................................O................OOO.............OOO.....OOO........OO.......O.O..O.O.........................................................................................
..........................................................................................OO..................O...............O...O................O...OO....O.....................................O....................................................
.............................................................................................................OO..............OO...OO.............OOO...............................................OOO..................................................
................................................................................................................................................O.....................................................O.................................................
.....OO.........................................................................................................................................OO...................................................OO...........OO....................................
.....OO...........................................................................................................................................................................................................OO...................................O
.OO..................................................................................................................................................................................................................................................O.O
.OO........................................O..........................................................................................................................................................................................................OO
...........................................OOO..........................................................................................................................................................................................................
.....................................OO...O.OOO....................................................OO...................................................................................................................................................
.......OO..................................O...O................OO.................................OO..............................................OO...................................................................................................
.......OO..................................OOOO...........OO....O.O.........OO.....................................................................OO.....................................................................OO.....................OO.....
.............................................O.............O......O........O.O...........................................................................................................................................O.O.....................OO.....
....................................O...................OOO.......OO.......O.............................................................................................................................................O.................OO...........
.....................................OO.................O.................OO..........OO................................................................................................................................OO.................OO...........
.........................OO.........OO.................................................O................................................................................................................................................................
..........................O.........................................................OOO.........OO......................................................................................................................................................
.......................OOO...O.OO...................................................O...........O...................OO.......................................................................................................................OO.........
.......................O..OOOO.OO................................................................O.................O.O...........OO......O...................OO.......................................................................OO.....OO.........
..........................O.....................................................................OO.................O.............OO......OOO..................O..............................OO.......................................OO................
............................OO.OO..OO......OO.....................................................................OO........................O..............OOO.........................OO.....O....................OO...................................
.............................O.O....O......O.O.............................................................................................OO..............O...........................O.O.OOO.....................O.O..................................
.............................O..OOOO.........O..................................................................................................................................OO.......O.O.........................O..................................
..............................O.O..O.O.......OO.................................................................................................................................OO.......OO..........................OO.................................
...............................O....OO..................................................................................................................................................................................................................
