!Name: p00902
!C p902 gun
!C Karel Suhajda, 15 Jun 2003
!Source: guns1j-20121211
!
......................................OO....O.....................................................................
.............................OO.......O.O..O.O....................................................................
..............................O.........OOOO..O...................................................................
..............................O.O......O....O.O...................................................................
...............................OO......OO..OO.OOO.................................................................
.................................................O...........................O.........OO................OO.......
...........................................OO.OOOO..O......................OOO..........O..................O......
...........................................OO.O...OOO.....................O.............O.OO............O...O.....
.................................................O........................OO.............O.............O.....O....
.................................................OO..........................................O..OO.....OO.O.......
.......OO.....................................................................................O.OO.....OO..O......
........O..................................................................................O.....O.............O..
........O.O.................................................................................O...O............OO.O.
.........OO..OO..............................................................................O..................O.
.............OO...............................................................................OO................OO
............................................................................................................OO....
...........................................................................................................O..O...
.........................................................................................................O..O.O...
................................................................................OOO.OOO..................OO.O.OO..
...............................................................................O..O.OOOO...............O.O..O.....
......................................................................................O.O..............OO..OO.....
...............................................................................O...............OO.................
....................................................................................OOO........OO.................
................................................................................OO..OO..............OO............
....................................................................................................OO............
.......OO............................OO...........................................................................
......O.O................OO.........O.O....OO......................................OO.............................
......O..................O.O........O......O.......................................OO.............................
.....OO....................O.......OO.......OOO............OO.....................................................
.....................OO....OO.................O............O.....OO...............................................
.....................O.O....................................OOO.O.O...............................................
.......................O......................................O.O.......OO..................OO....................
..............OO.......OO......................................OO.......OO..................OO....................
..............OO..................................................................................................
....OO............................................................................................................
.....O............................................................................................................
.....O.O..........................................................................................................
......OO..........................................................................................................
.................................................................................................................O
...............................................................................................................O.O
................................................................................................................OO
..................................................................................................OO..............
........................................OO.......OO......................................OO.......OO..............
........................................OO.......O.O......................................O.......................
...............................................O.O.OOO....................................O.O.....................
...............................................OO.....O............O.................OO....OO.....................
.....................................................OO............OOO.......OO.......O....................OO.....
.............................OO.......................................O......O........O.O..................O......
.............................OO......................................OO....O.O.........OO................O.O......
...........................................................................OO............................OO.......
.....OO..OO.......................................................................................................
.....O..O.O.......................................................................................................
..OO.O.OO.........................................................................................................
...O.O..O.........................................................................................................
...O..O...........................................................................................................
....OO............................................................................................................
OO.............OO..................................................................................OO.............
.O......OOO...O..O.................................................................................OO..OO.........
.O.O.....O...O.........................................................................................O.O........
..OO....O....O..O.OO.....................................................................................O........
.........O..O.O.OOO......................................................................................OO.......
........OOO.O.O..O.............................................OO.................................................
.......OO.O..O....O....OO.............OO........................O.................................................
.............O...O.....O.O.............O.....................OOO...O.OO...........................................
.........O..O...OOO......O..........OOO......................O..OOOO.OO...........................................
..........OO.............OO.........O...........................O.................................................
.................................................................OOO.OO..OO......OO...............................
...................................................................O.O....O......O.O..............................
...................................................................O..OOOO.........O..............................
....................................................................O.O..O.O.......OO.............................
.....................................................................O....OO......................................
