!Name: p00950
!C p00950 found using Karel Suhajda's Hersrch program
!C Scot Ellison - May 2003
!Source: guns1j-20121211
!
..................................O.OO............................................................................................................................
..................................OO.O............................................................................................................................
............................................................................O.....................................................................................
.....................O..........................................O...........OOO.................................................................OO................
.....................OOO......................................OOO..............O..............O.........O......................O................OO.....OO.........
........................O....................................O................OO..............OOO.....OOO......................OOO.....................OO.........
.......OO..............OO...........OO.......................OO..................................O...O.............OO.............O...............................
.......OO...........................OO..........................................................OO...OO.............O............OO...............................
...................................................................................................................O.................................OO...........
...................................................................................................................OO................................OO...........
.OO........................................................................................................................................................OO.....
.OO........................................................................................................................................................OO.....
.....OO...........................................................................................................................................................
.....OO...........................................................................................................................................................
......................................................................OO..........................................................................................
......................................................................OO..............................................OO..........................................
...............................................OO.....................................................................OO........................................OO
OO............................................O.O...............................................................................................................O.
OO............................................O...............................................................................................................O.O.
.............................................OO..........OO...................................................................................................OO..
..........................................................O.......................................................................................................
.......................................................OOO.........OO.............................................................................................
.....................................OO................O...........O...................OO.........................................................................
.....................................O.O............................O.................O.O...........OO......O...................OO................................
.......................................O...........................OO.................O.............OO......OOO..................O................................
.......................................OO............................................OO........................O..............OOO.................................
...................................O..............OO..........................................................OO..............O...................................
.................................OOO..............O........................OO............................................OO.......................................
................................O..................OOO......OO.............O.................OO...........................O.......................................
................................OO...................O......OO...........O.O.................O............................O.O.....................................
.........................................................................OO...................O...........O................OO.....................................
.............................................................................................OO.........OOO.......................................................
.......................................................................................................O..........................................................
..OO...................................................................................................OO..........OO.............................................
.O.O...............................................................................................................O............................................OO
.O...............................................................................................................O.O............................................OO
OO........................................OO.....................................................................OO...............................................
..........................................OO..............................................OO......................................................................
..........................................................................................OO.........O...OO.......................................................
....................................................................................................OOO.OOOO...............................................OO.....
...................................................................................................OO......O...............................................OO.....
.....OO...........................................................................................OOO.....O....................................................OO.
.....OO.............................................................................................O....O.....................................................OO.
...........OO................................OO......................................................O............................................................
...........OO.................................O.........................................................O.........................................................
...............................OO............O.............OO...OO.................................O...O....................OO...........................OO.......
...............................O.............OO.............O...O..................................O........................OO...........OO..............OO.......
.........OO.....................OOO......................OOO.....OOO................................O.................O..................O........................
.........OO.....OO................O......................O.........O..................O.OO.......OOO...................O..................OOO.....................
................OO....................................................................OO.O.......O...................OOO....................O.....................
