!Name: XORGATE
!Source: hppatterns
!
................................O.O.................................................................................................................................................
................................O...O...............................................................................................................................................
................O...................O...............................................................................................................................................
..............OOOO..............O....O....OO........................................................................................................................................
.............O.O.OO....O............O.....OO........................................................................................................................................
........OO..O..O.OOO.....OO.O...O...O...............................................................................................................................................
........OO...O.O.OO.....OOOO.O..O.O.................................................................................................................................................
..............OOOO......OO..OO......................................................................................................................................................
................O...................................................................................................................................................................
......................OO............................................................................................................................................................
.......................O..........O.O...............................................................................................................................................
.......................O.O.........OO...............................................................................................................................................
........................OO.........O................................................................................................................................................
..............................OO....................................................................................................................................................
...........OO.................O.....................................................................................................................................................
...........OO....O.............OOO..................................................................................................................................................
OO......OO......OOOOO.OO.........O..................................................................................................................................................
OO.....OOO.....O..OO....O...........................................................................................................................................................
........OO.....OO........O..........................................................................................................................................................
...........OO....O.......O..........................................................................................................................................................
...........OO............O..........................................................................................................................................................
........................O.......OO..................................................................................................................................................
......................OO........O.O.................................................................................................................................................
..................................O.................................................................................................................................................
..................................OO................................................................................................................................................
.........................................................................................O..........................................................................................
........................................................................................O.O.........................................................................................
.......................................................................................O.OO...............OO........................................................................
.................................................................................OO...OO.OO..............O.O........................................................................
.................................................................................OO....O.OO.............O......OO...................................................................
........................................................................................O.O.............O..O..O..O.OO...............................................................
.........................................................................................O.....O........O......OO..OO...............................................................
...............................................................................................O.O.......O.O........................................................................
...............................................................................................OO.........OO........................................................................
........................................................................................O...........................................................................................
.......................................................................................O............................................................................................
.......................................................................................OOO..........................................................................................
................................................................................O...................................................................................................
................................................................................O.O.................................................................................................
................................................................................OO..................................................................................................
.....................................................................OO.............................................................................................................
.....................................................................O.O............................................................................................................
............................................................OOO.OO....OOO............O..............................................................................................
............................................................OOOO..O....OOO........OOOO....O.........................................................................................
................................................................OO....OOO........OOOO.....O.........................................................................................
.....................................................................O.O.........O..O.........OO....................................................................................
.....................................................................OO..........OOOO.........OO....................................................................................
..................................................................................OOOO..............................................................................................
.....................................................................................O..............................................................................................
.........................................................................................................................................................OO.........................
..................................................................................................................................................OOO....OO.........................
.................................................................................................................................................OOOOO......OO..........O...........
................................................................................................................................................O.O...O.....OOO.......O.O...........
................................................................................................................................................OO...O......OO......OO..............
.........................................................................................................................................................OO.........OO............OO
.........................................................................................................................................................OO.........OO............OO
...................................................................................................................................OO.................................O.O...........
..................................................................................................................................OO........................O...........O...........
....................................................................................................................................O.......................O.O.....................
............................................................................................................................................................OO......................
...........................................................................................................................................O........................................
..........................................................................................................................................OO........................................
..........................................................................................................................................O.O.......................................
...........................................................................................................................................................OO.......................
..................................................................................................................................................OO.......O........................
.................................................................................................................................................OO.........OOO.....................
...................................................................................................................................................O..........O.....................
.................................................................................................................................................................O..................
..........................................................................................................................................................OO.O...OOOO...............
....................................................................................................................................................OO..OO.O.O....OOOO.....OO.......
...................................................................................................................................................O.O..OO.O.OO...O..O.....OO.......
.........................................................................................................................................OO.......OOO........OO...OOOO..............
.........................................................................................................................................OO......OOO........OO...OOOO...............
..................................................................................................................................................OOO............O..................
...................................................................................................................................................O.O..............................
....................................................................................................................................................OO..............................
